ncols         20
nrows         20
xllcorner     0
yllcorner     -3.5992928
cellsize      0.17996463
NODATA_value  -9999
-9999.0 -9999 -9999 -9999 -9999 -9999 -9999 -9999 -9999 -9999 -9999 -9999 -9999 -9999 -9999 -9999 -9999 -9999 -9999 -9999
-9999 -9999 -9999 -9999 -9999 -9999 -9999 -9999 -9999 -9999 -9999 13.354763984680176 13.36538028717041 -9999 -9999 13.233386993408203 13.315535545349121 -9999 -9999 -9999
-9999 -9999 -9999 -9999 13.229701042175293 13.167876243591309 13.068477630615234 13.037235260009766 13.052613258361816 13.071707725524902 13.195500373840332 13.211105346679688 13.163005828857422 13.117762565612793 13.143270492553711 13.18986701965332 13.276384353637695 13.354857444763184 -9999 -9999
-9999 -9999 -9999 13.195419311523438 13.142630577087402 13.079675674438477 13.018491744995117 13.009836196899414 13.010418891906738 13.011987686157227 13.001093864440918 12.971086502075195 12.921002388000488 12.91158390045166 12.922574996948242 12.99189567565918 13.10694694519043 13.19151782989502 -9999 -9999
-9999 -9999 -9999 13.134221076965332 13.067621231079102 12.970151901245117 12.949575424194336 13.004998207092285 13.063148498535156 13.09134292602539 13.094111442565918 13.063187599182129 12.982053756713867 12.891773223876953 12.809450149536133 12.81905460357666 12.898094177246094 12.893077850341797 -9999 -9999
-9999 -9999 13.17237663269043 13.06812858581543 12.96119213104248 12.9214448928833 13.061406135559082 13.336273193359375 13.540523529052734 13.702742576599121 13.827811241149902 13.840644836425781 13.679804801940918 13.409043312072754 13.123442649841309 12.932072639465332 12.864776611328125 12.843953132629395 12.961673736572266 -9999
-9999 -9999 13.081352233886719 12.971440315246582 12.841585159301758 12.93847370147705 13.4198579788208 14.20022201538086 14.612260818481445 14.901307106018066 15.109808921813965 15.107802391052246 14.757392883300781 14.306305885314941 13.820555686950684 13.400776863098145 13.122957229614258 13.003016471862793 12.98927116394043 -9999
-9999 -9999 12.844197273254395 12.708677291870117 12.648408889770508 13.013242721557617 14.03754711151123 15.919710159301758 16.426237106323242 16.626245498657227 16.745920181274414 16.651071548461914 15.824600219726562 15.227293968200684 14.676523208618164 14.142986297607422 13.708365440368652 13.435625076293945 13.315680503845215 -9999
-9999 12.701263427734375 12.534207344055176 12.383485794067383 12.461851119995117 13.086350440979004 14.389066696166992 16.39544105529785 16.963342666625977 17.15338706970215 17.236875534057617 17.13946533203125 16.442562103271484 15.938199996948242 15.483115196228027 14.997586250305176 14.52239990234375 14.164811134338379 13.989710807800293 -9999
-9999 12.425986289978027 12.265121459960938 12.164135932922363 12.479389190673828 13.380782127380371 14.814517974853516 16.673799514770508 17.22024154663086 17.389686584472656 17.448657989501953 17.37248420715332 16.831531524658203 16.457937240600586 16.13478660583496 15.78347396850586 15.393614768981934 15.0624361038208 14.890288352966309 -9999
-9999 12.138446807861328 12.09060287475586 12.227571487426758 12.825162887573242 13.888425827026367 15.322206497192383 16.969303131103516 17.44720458984375 17.584243774414062 17.631057739257812 17.574403762817383 17.121315002441406 16.835712432861328 16.620399475097656 16.395713806152344 16.146730422973633 15.915884971618652 15.79398250579834 -9999
-9999 12.126029014587402 12.24980354309082 12.673904418945312 13.468090057373047 14.529251098632812 15.798377990722656 17.167274475097656 17.567882537841797 17.68577003479004 17.729049682617188 17.693603515625 17.30535316467285 17.095605850219727 16.959720611572266 16.82318115234375 16.67266273498535 16.54436683654785 16.489028930664062 -9999
-9999 12.596409797668457 12.878402709960938 13.515998840332031 14.33665657043457 15.23603343963623 16.137380599975586 16.918914794921875 17.287839889526367 17.43646812438965 17.49127960205078 17.473772048950195 17.35354232788086 17.268661499023438 17.198135375976562 17.117769241333008 17.00725746154785 16.922714233398438 16.918411254882812 -9999
-9999 13.468830108642578 13.830938339233398 14.538795471191406 15.284050941467285 15.94773006439209 16.514795303344727 16.956851959228516 17.219636917114258 17.34332275390625 17.396343231201172 17.409292221069336 17.397871017456055 17.391979217529297 17.388874053955078 17.354223251342773 17.272043228149414 17.159088134765625 17.196535110473633 -9999
-9999 14.350027084350586 14.724984169006348 15.409074783325195 16.040681838989258 16.50482940673828 16.843826293945312 17.09292984008789 17.245288848876953 17.331209182739258 17.375537872314453 17.407085418701172 17.436405181884766 17.470436096191406 17.512781143188477 17.526811599731445 17.49614143371582 17.365442276000977 -9999 -9999
-9999 14.977437973022461 15.351899147033691 15.970634460449219 16.497116088867188 16.855812072753906 17.07613182067871 17.215747833251953 17.295063018798828 17.34507179260254 17.3756103515625 17.41043472290039 17.454662322998047 17.506122589111328 17.561275482177734 17.61002540588379 17.64333724975586 17.718257904052734 -9999 -9999
-9999 15.361897468566895 15.792134284973145 16.310672760009766 16.752859115600586 17.06870460510254 17.231462478637695 17.322364807128906 17.364423751831055 17.390010833740234 17.40822982788086 17.436447143554688 17.477170944213867 17.523578643798828 17.576580047607422 17.628097534179688 17.670001983642578 17.699317932128906 17.638023376464844 17.64690399169922
-9999 -9999 16.231088638305664 16.55645751953125 16.910099029541016 17.18466567993164 17.33919906616211 17.41415786743164 17.44099235534668 17.450979232788086 17.453372955322266 17.470924377441406 17.500747680664062 17.548080444335938 17.59046745300293 17.623920440673828 17.65842628479004 17.676349639892578 17.667604446411133 17.639156341552734
-9999 -9999 16.540285110473633 16.757591247558594 17.026901245117188 17.275508880615234 17.432100296020508 17.506725311279297 17.526700973510742 17.518596649169922 17.500032424926758 17.508909225463867 17.53411865234375 17.57268714904785 17.598981857299805 17.616817474365234 17.637310028076172 17.644920349121094 17.616477966308594 17.599470138549805
-9999 -9999 -9999 16.884740829467773 17.088407516479492 17.31226348876953 17.471529006958008 17.54524040222168 17.555683135986328 17.53848648071289 17.518619537353516 17.514772415161133 17.53810691833496 17.573293685913086 17.599502563476562 17.604923248291016 17.6273193359375 17.607648849487305 17.587017059326172 17.5770263671875
