ncols         20
nrows         20
xllcorner     0
yllcorner     -3.5992928
cellsize      0.17996463
NODATA_value  -9999
-9999.0 -9999 -9999 -9999 -9999 -9999 -9999 -9999 -9999 -9999 -9999 -9999 -9999 -9999 -9999 -9999 -9999 -9999 -9999 -9999
-9999 -9999 -9999 -9999 -9999 -9999 -9999 -9999 -9999 -9999 -9999 0 0 -9999 -9999 0 0 -9999 -9999 -9999
-9999 -9999 -9999 -9999 0 0 0 0 0 0 0 0 0 0 0 0 0 0 -9999 -9999
-9999 -9999 -9999 0 0 0 0 0 0 0 0 0 0 0 0 0 0 0 -9999 -9999
-9999 -9999 -9999 0 0 0 0 0 0 0 0 0 0 0 0 0 0 0 -9999 -9999
-9999 -9999 0 0 0 0 8.628997802734375 7.728180408477783 7.005833148956299 6.2395405769348145 5.517696380615234 5.209982872009277 5.437896728515625 6.283575534820557 7.550573348999023 9.145769119262695 0 0 0 -9999
-9999 -9999 0 0 0 8.654101371765137 7.24574613571167 6.15603494644165 5.082053184509277 3.989731550216675 3.1077733039855957 2.6997251510620117 2.8228399753570557 3.541822671890259 4.851743221282959 6.795736312866211 0 0 0 -9999
-9999 -9999 0 0 9.325535774230957 7.665266513824463 6.227056980133057 4.863043785095215 3.5827229022979736 2.50148606300354 1.7981985807418823 1.4680331945419312 1.505653977394104 1.9421024322509766 2.8793375492095947 4.427099227905273 6.587375640869141 0 0 -9999
-9999 0 0 10.739644050598145 8.681323051452637 6.83242654800415 5.065098762512207 3.482283592224121 2.2637593746185303 1.4643579721450806 1.030713438987732 0.8373060822486877 0.8323608040809631 1.0509783029556274 1.5663931369781494 2.5378832817077637 4.045445919036865 5.901614665985107 0 -9999
-9999 0 0 10.695649147033691 8.041481971740723 5.649869441986084 3.6122794151306152 2.1098949909210205 1.2082141637802124 0.749241054058075 0.5435284972190857 0.454803466796875 0.45324793457984924 0.5444451570510864 0.7916320562362671 1.2930079698562622 2.1997179985046387 3.4166386127471924 0 -9999
-9999 0 0 10.332489013671875 7.002234935760498 4.32138729095459 2.333059310913086 1.1286150217056274 0.5669045448303223 0.3359611928462982 0.24456147849559784 0.2110641449689865 0.21122139692306519 0.24833844602108002 0.3485473692417145 0.5737184882164001 1.0044094324111938 0 0 -9999
-9999 0 0 9.113383293151855 5.545834064483643 3.0460739135742188 1.4264870882034302 0.5947762727737427 0.26554375886917114 0.14401093125343323 0.10038623958826065 0.08385048806667328 0.08275974541902542 0.09307844191789627 0.124026820063591 0.20122498273849487 0.3673115372657776 0 0 -9999
-9999 0 0 6.857877254486084 3.77325701713562 1.8838140964508057 0.8143087029457092 0.31325656175613403 0.12807464599609375 0.06582055985927582 0.03971020504832268 0.030468875542283058 0.027496928349137306 0.028945518657565117 0.03704550489783287 0.0570538267493248 0.10934240370988846 0 0 -9999
-9999 0 0 4.292722225189209 2.0855486392974854 0.9581860303878784 0.40265172719955444 0.15775486826896667 0.06297002732753754 0.03184394910931587 0.019220858812332153 0.013729327358305454 0.011210234835743904 0.010637759231030941 0.011766173876821995 0.01613464392721653 0.027327243238687515 0 0 -9999
-9999 0 0 2.4292445182800293 1.0164326429367065 0.42990097403526306 0.18117667734622955 0.07373328506946564 0.03383606672286987 0.018009750172495842 0.011116746813058853 0.007623950485140085 0.005831457674503326 0.0050453501753509045 0.004819520749151707 0.0054788184352219105 0.00733767356723547 0 -9999 -9999
-9999 0 0 1.4672622680664062 0.5440471768379211 0.2065693587064743 0.08468642830848694 0.03824013099074364 0.019800374284386635 0.011376874521374702 0.007325978484004736 0.0050650350749492645 0.004050763789564371 0.0044979676604270935 0.005104572977870703 0.005836972501128912 0.006662776228040457 0.0073969061486423016 -9999 -9999
-9999 0 0 0.997114360332489 0.34133976697921753 0.11130966991186142 0.045917853713035583 0.021626485511660576 0.011864245869219303 0.007224103435873985 0.004874531179666519 0.0042875986546278 0.004615325015038252 0.005137154366821051 0.005807565525174141 0.006595185492187738 0.007494007702916861 0.008498911745846272 0.009669853374361992 0.01022946834564209
-9999 -9999 0 0.7048813104629517 0.23681692779064178 0.07409917563199997 0.028708307072520256 0.01341773010790348 0.007451769430190325 0.0047806790098547935 0.00464501790702343 0.004786601755768061 0.00516677787527442 0.0057447380386292934 0.006460951175540686 0.007266129367053509 0.008127296343445778 0.008999730460345745 0.009766384959220886 0.010151210241019726
-9999 -9999 0 0 0.17284218966960907 0.052590373903512955 0.01945103518664837 0.008765550330281258 0.005505046807229519 0.005113157909363508 0.005019464995712042 0.005197163205593824 0.005615302361547947 0.006227993872016668 0.006964468397200108 0.007759592030197382 0.008556202054023743 0.009267185814678669 0.009791581891477108 0.01006199512630701
-9999 -9999 -9999 0 0.13952147960662842 0.04448560252785683 0.016093149781227112 0.007116306573152542 0.005667245015501976 0.005304208490997553 0.0052312808111310005 0.005424883216619492 0.005861413665115833 0.006490628235042095 0.007236133329570293 0.008017193526029587 0.008774076588451862 0.009389298036694527 0.009819386526942253 0.01003937516361475
