ncols         20
nrows         20
xllcorner     0
yllcorner     -3.5992928
cellsize      0.17996463
NODATA_value  -9999
-9999.0 -9999 -9999 -9999 -9999 -9999 -9999 -9999 -9999 -9999 -9999 -9999 -9999 -9999 -9999 -9999 -9999 -9999 -9999 -9999
-9999 -9999 -9999 -9999 -9999 -9999 -9999 -9999 -9999 -9999 -9999 0.13840006291866302 0.13853082060813904 -9999 -9999 0.14086857438087463 0.14103975892066956 -9999 -9999 -9999
-9999 -9999 -9999 -9999 0.13776540756225586 0.1377030909061432 0.13766786456108093 0.13769850134849548 0.13782574236392975 0.13805334270000458 0.1383344680070877 0.12816743552684784 0.1285678744316101 0.13985393941402435 0.14049659669399261 0.1304367184638977 0.13095210492610931 0.14227288961410522 -9999 -9999
-9999 -9999 -9999 0.13815540075302124 0.12757161259651184 0.10849730670452118 0.10847721993923187 0.10853948444128036 0.10870068520307541 0.10895305126905441 0.10926946997642517 0.1013197973370552 0.10172349214553833 0.11062370985746384 0.11117668449878693 0.10333991050720215 0.11248624324798584 0.14345860481262207 -9999 -9999
-9999 -9999 -9999 0.13844791054725647 0.1088741272687912 0.07917746901512146 0.07299238443374634 0.07309648394584656 0.07329398393630981 0.07357087731361389 0.07389523088932037 0.06869002431631088 0.06904429942369461 0.07507411390542984 0.07556462287902832 0.07621059566736221 0.11434921622276306 0.14584513008594513 -9999 -9999
-9999 -9999 0.13921338319778442 0.1284893900156021 0.10102515667676926 0.06784375011920929 0.04197220504283905 0.042081478983163834 0.04227655380964279 0.04253257438540459 0.04281993955373764 0.039771221578121185 0.0400717668235302 0.043831340968608856 0.044289570301771164 0.0723278820514679 0.10836024582386017 0.1386885643005371 0.1521517038345337 -9999
-9999 -9999 0.13970579206943512 0.10991398245096207 0.08002466708421707 0.05384356528520584 0.030716735869646072 0.020748035982251167 0.02089417725801468 0.021081838756799698 0.02129282057285309 0.019863834604620934 0.020109185948967934 0.022121913731098175 0.033403463661670685 0.05920622870326042 0.08851100504398346 0.12206575274467468 0.15578486025333405 -9999
-9999 -9999 0.1405879408121109 0.11069753021001816 0.0744064450263977 0.04271543398499489 0.02095511555671692 0.010283812880516052 0.008867873810231686 0.008981430903077126 0.009113050065934658 0.008558500558137894 0.008745817467570305 0.011411539278924465 0.023800402879714966 0.04891574755311012 0.08541462570428848 0.12716719508171082 0.1616111397743225 -9999
-9999 0.14247925579547882 0.13132460415363312 0.10338091105222702 0.06969095766544342 0.039986658841371536 0.019689269363880157 0.008295850828289986 0.0032533046323806047 0.0033193056005984545 0.0033943066373467445 0.0032069848384708166 0.003614247078076005 0.010437554679811 0.025236262008547783 0.051621101796627045 0.08981891721487045 0.13333924114704132 0.16913080215454102 -9999
-9999 0.14404314756393433 0.11346103250980377 0.08282557129859924 0.05598531663417816 0.03231899440288544 0.015916917473077774 0.006722437217831612 0.0024782114196568727 0.0016496684402227402 0.0017058401135727763 0.0017585697351023555 0.0038842482026666403 0.011098900809884071 0.02669525519013405 0.05447089672088623 0.09462562203407288 0.14029811322689056 0.1778019666671753 -9999
-9999 0.14683561027050018 0.1158987283706665 0.07823701202869415 0.04519046097993851 0.02232472598552704 0.011025708168745041 0.0046957372687757015 0.0017448491416871548 0.0017491630278527737 0.0018163151107728481 0.0018760495586320758 0.004133131355047226 0.011743295937776566 0.028156811371445656 0.05737420544028282 0.09958990663290024 0.14754416048526764 0.1868482530117035 -9999
-9999 0.15079203248023987 0.11918811500072479 0.08064702153205872 0.04671771824359894 0.023144973441958427 0.009806839749217033 0.00357961468398571 0.0017584323650225997 0.0018408684991300106 0.0019162871176376939 0.0020948348101228476 0.0060868472792208195 0.014615915715694427 0.02961019054055214 0.06026830896735191 0.1045074611902237 0.15461361408233643 0.19549775123596191 -9999
-9999 0.15579557418823242 0.12325874716043472 0.08353586494922638 0.04847241938114166 0.024212710559368134 0.010292716324329376 0.0037703393027186394 0.0018351305043324828 0.0019213322084397078 0.0020034597255289555 0.0032751765102148056 0.009471341967582703 0.022703813388943672 0.04647839814424515 0.080511674284935 0.11858431249856949 0.16123898327350616 0.20296281576156616 -9999
-9999 0.1614876389503479 0.12786619365215302 0.08711174130439758 0.05066389590501785 0.025189116597175598 0.0107128219678998 0.003919821698218584 0.0019020440522581339 0.0019880176987499 0.0020712115801870823 0.004293259233236313 0.012379730120301247 0.029853183776140213 0.0610118992626667 0.10592172294855118 0.15660330653190613 0.1968214362859726 0.208145409822464 -9999
-9999 0.16729967296123505 0.13265396654605865 0.09050427377223969 0.05268779769539833 0.02621537074446678 0.013056819327175617 0.005594765767455101 0.002064353320747614 0.002040620893239975 0.002122018951922655 0.004772696644067764 0.013692562468349934 0.03306650370359421 0.06776043027639389 0.11812365055084229 0.17490269243717194 0.22163836658000946 -9999 -9999
-9999 0.17254048585891724 0.1376904547214508 0.10151360929012299 0.06947503238916397 0.040532395243644714 0.02023703046143055 0.008587955497205257 0.0034151910804212093 0.002078175777569413 0.0021586643997579813 0.004846973344683647 0.013912309892475605 0.03364274278283119 0.06907552480697632 0.12072546035051346 0.1798364669084549 0.22816115617752075 -9999 -9999
-9999 0.17627695202827454 0.16655969619750977 0.1332055926322937 0.09087888896465302 0.05293230339884758 0.028490815311670303 0.01413061935454607 0.006026493385434151 0.002214680192992091 0.00218268227763474 0.004503654781728983 0.01300319004803896 0.031486693769693375 0.06473091244697571 0.11327090114355087 0.16930726170539856 0.21673034131526947 0.2383878082036972 0.23997339606285095
-9999 -9999 0.18600556254386902 0.14824804663658142 0.10900475084781647 0.07426978647708893 0.04309752583503723 0.021421704441308975 0.009059721603989601 0.003336728550493717 0.00219528516754508 0.0035681002773344517 0.010336910374462605 0.025133531540632248 0.0515802800655365 0.09050643444061279 0.135303795337677 0.17287522554397583 0.1885504275560379 0.18936267495155334
-9999 -9999 0.18930429220199585 0.17687255144119263 0.1406114101409912 0.09544011950492859 0.05532354116439819 0.027354706078767776 0.011569029651582241 0.004240835551172495 0.002200488466769457 0.0024028716143220663 0.006983273196965456 0.01694745384156704 0.03502543270587921 0.061169520020484924 0.09182281047105789 0.11708546429872513 0.12714946269989014 0.1274896264076233
-9999 -9999 -9999 0.19401976466178894 0.15378068387508392 0.10418920964002609 0.0602588951587677 0.029752805829048157 0.0125677939504385 0.004616681020706892 0.0022028060629963875 0.002281035063788295 0.004013938829302788 0.009711549617350101 0.02012663707137108 0.03515257686376572 0.05282921344041824 0.0670454353094101 0.07294514030218124 0.07308001071214676
