ncols         20
nrows         20
xllcorner     0
yllcorner     -3.5992928
cellsize      0.17996463
NODATA_value  -9999
-9999.0 -9999 -9999 -9999 -9999 -9999 -9999 -9999 -9999 -9999 -9999 -9999 -9999 -9999 -9999 -9999 -9999 -9999 -9999 -9999
-9999 -9999 -9999 -9999 -9999 -9999 -9999 -9999 -9999 -9999 -9999 13.340190887451172 13.351249694824219 -9999 -9999 13.223542213439941 13.3060302734375 -9999 -9999 -9999
-9999 -9999 -9999 -9999 13.209758758544922 13.147644996643066 13.0477876663208 13.016393661499023 13.032089233398438 13.051957130432129 13.177401542663574 13.194907188415527 13.147981643676758 13.103950500488281 13.130955696105957 13.179025650024414 13.266270637512207 13.344956398010254 -9999 -9999
-9999 -9999 -9999 13.175224304199219 13.12222957611084 13.058815956115723 12.997008323669434 12.98788833618164 12.988428115844727 12.990447044372559 12.980542182922363 12.952155113220215 12.90371036529541 12.895979881286621 12.908591270446777 12.979401588439941 13.09542179107666 13.180416107177734 -9999 -9999
-9999 -9999 -9999 13.11383056640625 13.046661376953125 12.948114395141602 12.926426887512207 12.98114013671875 13.039040565490723 13.06749153137207 13.071101188659668 13.041489601135254 12.96208381652832 12.87342643737793 12.7926607131958 12.803836822509766 12.884011268615723 12.879251480102539 -9999 -9999
-9999 -9999 13.152850151062012 13.04774284362793 12.939414978027344 12.897900581359863 13.03660774230957 13.311230659484863 13.515792846679688 13.679143905639648 13.806055068969727 13.820181846618652 13.659784317016602 13.389208793640137 13.104084968566895 12.913652420043945 12.847179412841797 12.826478958129883 12.943474769592285 -9999
-9999 -9999 13.062348365783691 12.951162338256836 12.818816184997559 12.913372039794922 13.394318580627441 14.177193641662598 14.591411590576172 14.882896423339844 15.093939781188965 15.093066215515137 14.740453720092773 14.287271499633789 13.80028247833252 13.380037307739258 13.10200023651123 12.981934547424316 12.967972755432129 -9999
-9999 -9999 12.826221466064453 12.688492774963379 12.624551773071289 12.9868803024292 14.013387680053711 15.904595375061035 16.415090560913086 16.617847442626953 16.740291595458984 16.647001266479492 15.812579154968262 15.210644721984863 14.657147407531738 14.121768951416016 13.685754776000977 13.411748886108398 13.29123306274414 -9999
-9999 12.688116073608398 12.518119812011719 12.36355209350586 12.437007904052734 13.059087753295898 14.366052627563477 16.383432388305664 16.955345153808594 17.14737892150879 17.23270034790039 17.13643455505371 16.432655334472656 15.924121856689453 15.466270446777344 14.978358268737793 14.500776290893555 14.141155242919922 13.965024948120117 -9999
-9999 12.41299057006836 12.249553680419922 12.143989562988281 12.454160690307617 13.354069709777832 14.79370403289795 16.664459228515625 17.214353561401367 17.38504409790039 17.44512176513672 17.369976043701172 16.823509216308594 16.44687271118164 16.12179183959961 15.768467903137207 15.375958442687988 15.042291641235352 14.868815422058105 -9999
-9999 12.124373435974121 12.073988914489746 12.206565856933594 12.800424575805664 13.86423397064209 15.30466079711914 16.963476181030273 17.444183349609375 17.58200454711914 17.62980079650879 17.574363708496094 17.11644744873047 16.828567504882812 16.61227798461914 16.38642120361328 16.13555335998535 15.902433395385742 15.779352188110352 -9999
-9999 12.10914134979248 12.230865478515625 12.652113914489746 13.44506549835205 14.508123397827148 15.784220695495605 17.16495704650879 17.567913055419922 17.686452865600586 17.730764389038086 17.6967830657959 17.303768157958984 17.092500686645508 16.956581115722656 16.8199405670166 16.66854476928711 16.538925170898438 16.483007431030273 -9999
-9999 12.576729774475098 12.85803508758545 13.495697021484375 14.317319869995117 15.219464302062988 16.126001358032227 16.9139347076416 17.285707473754883 17.435401916503906 17.49095344543457 17.474035263061523 17.35301971435547 17.26833152770996 17.198566436767578 17.118972778320312 17.00855255126953 16.923664093017578 16.919479370117188 -9999
-9999 13.44825553894043 13.811192512512207 14.521331787109375 15.269878387451172 15.9374361038208 16.508153915405273 16.95342254638672 17.21794319152832 17.342323303222656 17.395809173583984 17.40925407409668 17.398319244384766 17.393314361572266 17.391286849975586 17.357635498046875 17.276071548461914 17.163238525390625 17.20180892944336 -9999
-9999 14.32638931274414 14.70289134979248 15.390861511230469 16.028099060058594 16.49945831298828 16.841930389404297 17.092666625976562 17.245540618896484 17.331607818603516 17.376108169555664 17.408119201660156 17.438011169433594 17.472766876220703 17.515945434570312 17.53066062927246 17.500415802001953 17.369394302368164 -9999 -9999
-9999 14.952678680419922 15.328962326049805 15.95228385925293 16.484947204589844 16.852323532104492 17.076990127563477 17.21812629699707 17.29747200012207 17.34728240966797 17.377708435058594 17.412738800048828 17.457149505615234 17.50865936279297 17.563915252685547 17.612720489501953 17.645938873291016 17.720548629760742 -9999 -9999
-9999 15.337149620056152 15.769207954406738 16.292125701904297 16.739891052246094 17.062389373779297 17.23218536376953 17.325998306274414 17.368486404418945 17.393856048583984 17.41179084777832 17.43966293334961 17.479896545410156 17.525854110717773 17.57840347290039 17.629350662231445 17.67035484313965 17.698139190673828 17.63477897644043 17.643028259277344
-9999 -9999 16.2089786529541 16.538009643554688 16.89676284790039 17.176929473876953 17.337717056274414 17.41751480102539 17.44575309753418 17.455766677856445 17.457536697387695 17.474363327026367 17.503355026245117 17.549772262573242 17.591148376464844 17.623523712158203 17.65652847290039 17.673423767089844 17.663902282714844 17.63514518737793
-9999 -9999 16.520124435424805 16.740108489990234 17.013805389404297 17.267330169677734 17.428773880004883 17.508726119995117 17.531251907348633 17.5233154296875 17.50420570373535 17.512243270874023 17.536283493041992 17.573440551757812 17.598068237304688 17.614521026611328 17.63422393798828 17.641332626342773 17.612552642822266 17.59537124633789
-9999 -9999 -9999 16.86815071105957 17.07559585571289 17.303974151611328 17.4675350189209 17.54574966430664 17.55946922302246 17.542861938476562 17.522619247436523 17.517864227294922 17.53957176208496 17.572805404663086 17.597301483154297 17.60187339782715 17.623809814453125 17.60387420654297 17.583023071289062 17.57291030883789
