ncols         20
nrows         20
xllcorner     0
yllcorner     -3.5992928
cellsize      0.17996463
NODATA_value  -9999
-9999.0 -9999 -9999 -9999 -9999 -9999 -9999 -9999 -9999 -9999 -9999 -9999 -9999 -9999 -9999 -9999 -9999 -9999 -9999 -9999
-9999 -9999 -9999 -9999 -9999 -9999 -9999 -9999 -9999 -9999 -9999 11.779549598693848 11.753403663635254 -9999 -9999 11.774908065795898 11.62152099609375 -9999 -9999 -9999
-9999 -9999 -9999 -9999 11.688032150268555 11.835296630859375 12.071189880371094 12.192919731140137 12.226015090942383 12.244708061218262 12.064600944519043 12.033212661743164 12.109130859375 12.179972648620605 12.107268333435059 11.947031021118164 11.781384468078613 11.681573867797852 -9999 -9999
-9999 -9999 -9999 11.740131378173828 11.850821495056152 11.983214378356934 12.14517593383789 12.214015007019043 12.247026443481445 12.24438762664795 12.260424613952637 12.297286987304688 12.384453773498535 12.436990737915039 12.451805114746094 12.339333534240723 12.161705017089844 12.04790210723877 -9999 -9999
-9999 -9999 -9999 11.897165298461914 12.007899284362793 12.206040382385254 12.273103713989258 12.18062973022461 12.018284797668457 11.82612133026123 11.64157772064209 11.591001510620117 11.764650344848633 12.105513572692871 12.447393417358398 12.604819297790527 12.580591201782227 12.663928031921387 -9999 -9999
-9999 -9999 11.938283920288086 12.099405288696289 12.274126052856445 12.353958129882812 12.098191261291504 11.52466106414795 10.927008628845215 10.266510963439941 9.60180377960205 9.331107139587402 9.624715805053711 10.462567329406738 11.447303771972656 12.185419082641602 12.57702350616455 12.779385566711426 12.713746070861816 -9999
-9999 -9999 12.176076889038086 12.34438419342041 12.571393966674805 12.382463455200195 11.443704605102539 9.811309814453125 8.599532127380371 7.540261268615723 6.659661293029785 6.333950042724609 6.819345474243164 7.93373441696167 9.406490325927734 10.835806846618652 11.811877250671387 12.330511093139648 12.523513793945312 -9999
-9999 -9999 12.700252532958984 12.909919738769531 12.97646427154541 12.241759300231934 10.20451545715332 6.175995349884033 4.78753137588501 3.9920902252197266 3.504741668701172 3.4512088298797607 4.481281280517578 5.58349609375 7.050019264221191 8.712583541870117 10.136301040649414 11.113301277160645 11.54919147491455 -9999
-9999 13.138809204101562 13.364995956420898 13.537458419799805 13.274751663208008 11.929637908935547 9.163418769836426 4.872862815856934 3.336442470550537 2.6160128116607666 2.289278984069824 2.3166894912719727 3.0207948684692383 3.788689613342285 4.854612350463867 6.280299186706543 7.815299987792969 9.028726577758789 9.625819206237793 -9999
-9999 13.677104949951172 13.869818687438965 13.895041465759277 13.058313369750977 11.007562637329102 7.822030067443848 3.8897857666015625 2.436699628829956 1.8140552043914795 1.5846977233886719 1.6089863777160645 2.0290560722351074 2.4519498348236084 3.1039116382598877 4.068140506744385 5.326939105987549 6.458734035491943 7.047843933105469 -9999
-9999 14.201712608337402 14.158952713012695 13.636375427246094 12.118751525878906 9.569230079650879 6.309256553649902 2.9630930423736572 1.7183723449707031 1.2055801153182983 1.0161877870559692 1.0113579034805298 1.212074637413025 1.4197131395339966 1.7531746625900269 2.322114944458008 3.108236789703369 3.9489333629608154 4.405331134796143 -9999
-9999 14.113286972045898 13.706886291503906 12.507452964782715 10.45065689086914 7.773334503173828 4.832638263702393 2.2158408164978027 1.1979186534881592 0.7636786103248596 0.594534695148468 0.5474390387535095 0.611537754535675 0.6772750616073608 0.8044379949569702 1.071533203125 1.5074156522750854 2.003669500350952 2.279834032058716 -9999
-9999 12.907453536987305 12.105937957763672 10.301443099975586 8.079507827758789 5.697553634643555 3.4587502479553223 1.7495100498199463 0.8864772915840149 0.5192868709564209 0.34615182876586914 0.27740758657455444 0.2542935311794281 0.25367316603660583 0.28818681836128235 0.3748283088207245 0.5796481370925903 0.8343974947929382 1.0040028095245361 -9999
-9999 10.623519897460938 9.559219360351562 7.468979835510254 5.376055717468262 3.5734314918518066 2.122122049331665 1.108410358428955 0.5478214025497437 0.3095299005508423 0.19770382344722748 0.14271463453769684 0.11341551691293716 0.09990397095680237 0.09876474738121033 0.11731214821338654 0.1675633043050766 0.27707791328430176 0.3807747960090637 -9999
-9999 8.18603515625 7.072950839996338 4.99850606918335 3.2044143676757812 1.9690603017807007 1.1364872455596924 0.59201979637146 0.3185649812221527 0.18536947667598724 0.11880046129226685 0.08096630871295929 0.05914968252182007 0.04724658653140068 0.04090869799256325 0.04170473292469978 0.04938279837369919 0.07548408210277557 -9999 -9999
-9999 6.4623260498046875 5.349428176879883 3.440819025039673 1.9734163284301758 1.0797486305236816 0.5798607468605042 0.3172798752784729 0.18607696890830994 0.1151801198720932 0.07632827013731003 0.05194647237658501 0.039399489760398865 0.04079174995422363 0.04298022389411926 0.04552198573946953 0.04807708039879799 0.05031830072402954 -9999 -9999
-9999 5.347370624542236 4.158473491668701 2.551361083984375 1.3362981081008911 0.6154789924621582 0.31884172558784485 0.17606399953365326 0.10744971036911011 0.06979828327894211 0.04806835576891899 0.04158483445644379 0.04303193464875221 0.04558759182691574 0.04894678667187691 0.05282619968056679 0.05721103772521019 0.06276388466358185 0.07220029830932617 0.07661433517932892
-9999 -9999 3.020226001739502 1.9475419521331787 0.9706562757492065 0.4131616950035095 0.19588184356689453 0.10516658425331116 0.06427300721406937 0.043695271015167236 0.04330560192465782 0.04441253840923309 0.04687211662530899 0.05045773833990097 0.0547901913523674 0.05955227464437485 0.06462567299604416 0.06995976716279984 0.07539736479520798 0.07822486013174057
-9999 -9999 2.0752530097961426 1.4385684728622437 0.7270069718360901 0.29319170117378235 0.12989604473114014 0.06641192734241486 0.04560104385018349 0.04466995224356651 0.0450948104262352 0.046938151121139526 0.05012447386980057 0.0544203519821167 0.05936591699719429 0.06455519795417786 0.06969121843576431 0.07430090010166168 0.07785336673259735 0.07972811162471771
-9999 -9999 -9999 1.1375020742416382 0.5935199856758118 0.24590866267681122 0.10573290288448334 0.05292327702045441 0.04579363018274307 0.04534754157066345 0.04618041217327118 0.04837328940629959 0.051927536725997925 0.05658302083611488 0.06183797866106033 0.06716468185186386 0.07224169373512268 0.07629045844078064 0.07913940399885178 0.0806095153093338
