ncols         20
nrows         20
xllcorner     0
yllcorner     -3.5992928
cellsize      0.17996463
NODATA_value  -9999
-9999.0 -9999 -9999 -9999 -9999 -9999 -9999 -9999 -9999 -9999 -9999 -9999 -9999 -9999 -9999 -9999 -9999 -9999 -9999 -9999
-9999 -9999 -9999 -9999 -9999 -9999 -9999 -9999 -9999 -9999 -9999 11.820281028747559 11.79316520690918 -9999 -9999 11.800363540649414 11.645919799804688 -9999 -9999 -9999
-9999 -9999 -9999 -9999 11.734919548034668 11.883506774902344 12.121711730957031 12.24532413482666 12.279417991638184 12.297974586486816 12.115195274353027 12.079408645629883 12.152875900268555 12.221368789672852 12.143933296203613 11.977516174316406 11.809221267700195 11.709386825561523 -9999 -9999
-9999 -9999 -9999 11.78787612915039 11.898963928222656 12.032648086547852 12.197293281555176 12.268800735473633 12.303997993469238 12.30237102508545 12.317903518676758 12.3524169921875 12.43680191040039 12.485628128051758 12.495447158813477 12.377474784851074 12.196512222290039 12.081926345825195 -9999 -9999
-9999 -9999 -9999 11.946357727050781 12.057937622070312 12.258968353271484 12.330239295959473 12.241996765136719 12.083333015441895 11.893688201904297 11.709756851196289 11.65815258026123 11.829785346984863 12.167503356933594 12.504800796508789 12.656891822814941 12.628888130187988 12.711647987365723 -9999 -9999
-9999 -9999 11.987533569335938 12.150102615356445 12.327638626098633 12.412649154663086 12.16281795501709 11.594409942626953 11.00096607208252 10.342673301696777 9.677942276000977 9.406986236572266 9.700888633728027 10.538932800292969 11.522066116333008 12.256871223449707 12.645316123962402 12.84785270690918 12.78813648223877 -9999
-9999 -9999 12.225808143615723 12.396498680114746 12.62949275970459 12.448638916015625 11.516432762145996 9.886237144470215 8.675716400146484 7.616157531738281 6.7340826988220215 6.4088945388793945 6.899447917938232 8.019742012023926 9.496826171875 10.92773723602295 11.903042793273926 12.42147445678711 12.616195678710938 -9999
-9999 -9999 12.750938415527344 12.965555191040039 13.041579246520996 12.317028045654297 10.283658027648926 6.2426066398620605 4.848485469818115 4.049875736236572 3.5613033771514893 3.510746717453003 4.557533264160156 5.67128849029541 7.148317813873291 8.819599151611328 10.248485565185547 11.228565216064453 11.666391372680664 -9999
-9999 13.183544158935547 13.416223526000977 13.598377227783203 13.34942626953125 12.015646934509277 9.249271392822266 4.936383247375488 3.390505790710449 2.665949583053589 2.3387956619262695 2.3705389499664307 3.091031551361084 3.870875597000122 4.94899845123291 6.38918924331665 7.937798976898193 9.161099433898926 9.762887001037598 -9999
-9999 13.726550102233887 13.926214218139648 13.965187072753906 13.144576072692871 11.104008674621582 7.912467002868652 3.9503610134124756 2.4851877689361572 1.8578273057937622 1.6285254955291748 1.656937837600708 2.0902066230773926 2.5219151973724365 3.1846349239349365 4.1638617515563965 5.441492557525635 6.58974027633667 7.186832427978516 -9999
-9999 14.263016700744629 14.228113174438477 13.720282554626465 12.2183256149292 9.675158500671387 6.401584625244141 3.0197296142578125 1.7608305215835571 1.242281198501587 1.051896572113037 1.0495786666870117 1.2583330869674683 1.4713753461837769 1.8121119737625122 2.3938193321228027 3.197361469268799 4.05648136138916 4.522367477416992 -9999
-9999 14.193933486938477 13.794679641723633 12.607779502868652 10.5621919631958 7.884337902069092 4.923372745513916 2.2695682048797607 1.2356785535812378 0.7936831712722778 0.621736466884613 0.5743205547332764 0.6414600610733032 0.7088130116462708 0.8392107486724854 1.1142756938934326 1.5636003017425537 2.0751495361328125 2.359494686126709 -9999
-9999 13.010622024536133 12.213183403015137 10.413719177246094 8.19405746459961 5.803297996520996 3.541991949081421 1.804288625717163 0.922513484954834 0.5457919836044312 0.3675357401371002 0.2961215376853943 0.2714923620223999 0.27004674077033997 0.3054075837135315 0.39523574709892273 0.6079684495925903 0.8730819821357727 1.0492119789123535 -9999
-9999 10.743659019470215 9.677517890930176 7.5798420906066895 5.477126121520996 3.6589183807373047 2.1864733695983887 1.1517715454101562 0.5764535069465637 0.32999470829963684 0.21343646943569183 0.15543480217456818 0.12397424131631851 0.10910066217184067 0.10739244520664215 0.12668710947036743 0.1795548051595688 0.29518231749534607 0.40303677320480347 -9999
-9999 8.31085205078125 7.189173698425293 5.0943779945373535 3.280641555786133 2.028273105621338 1.179612636566162 0.6217156052589417 0.3393508791923523 0.200673907995224 0.13073107600212097 0.09036706387996674 0.06674351543188095 0.053715795278549194 0.04663475975394249 0.04740768298506737 0.05574607849121094 0.08455999940633774 -9999 -9999
-9999 6.587191104888916 5.460758686065674 3.522627592086792 2.029736042022705 1.1189978122711182 0.6075739860534668 0.3369503617286682 0.2009444683790207 0.12686443328857422 0.0858762115240097 0.05968582630157471 0.04608313739299774 0.04815049469470978 0.05089806765317917 0.05388200283050537 0.05680861324071884 0.05942200869321823 -9999 -9999
-9999 5.467065811157227 4.2634053230285645 2.6239748001098633 1.3808276653289795 0.6418256163597107 0.3368803560733795 0.18908634781837463 0.11779150366783142 0.07843512296676636 0.05552614480257034 0.04917774721980095 0.051688335835933685 0.05519646778702736 0.059411242604255676 0.06409547477960587 0.06937874853610992 0.07628096640110016 0.08854302763938904 0.09419763833284378
-9999 -9999 3.1141223907470703 2.012866973876953 1.0077095031738281 0.4329465627670288 0.208294078707695 0.11413409560918808 0.07159999758005142 0.050225719809532166 0.05115824192762375 0.053576353937387466 0.05729507654905319 0.062063299119472504 0.06748335808515549 0.07326185703277588 0.07937425374984741 0.08589865267276764 0.09273044019937515 0.09629146009683609
-9999 -9999 2.148268699645996 1.4937254190444946 0.758206307888031 0.3085888624191284 0.13887065649032593 0.07278236001729965 0.05157030001282692 0.052097298204898834 0.05399252101778984 0.05728575587272644 0.06187969446182251 0.06751029938459396 0.07367409020662308 0.07996061444282532 0.08611123263835907 0.09164954721927643 0.09597482532262802 0.09827232360839844
-9999 -9999 -9999 1.1864556074142456 0.6215110421180725 0.2596485912799835 0.1134345754981041 0.05837952718138695 0.05216189846396446 0.05325838923454285 0.05563779175281525 0.059350475668907166 0.06438811868429184 0.07045456767082214 0.07699081301689148 0.0834338590502739 0.08948835730552673 0.09429323673248291 0.09768600016832352 0.09944508969783783
