ncols         20
nrows         20
xllcorner     0
yllcorner     -3.5992928
cellsize      0.17996463
NODATA_value  -9999
-9999.0 -9999 -9999 -9999 -9999 -9999 -9999 -9999 -9999 -9999 -9999 -9999 -9999 -9999 -9999 -9999 -9999 -9999 -9999 -9999
-9999 -9999 -9999 -9999 -9999 -9999 -9999 -9999 -9999 -9999 -9999 0.39312827587127686 0.38528239727020264 -9999 -9999 0.34579047560691833 0.32407113909721375 -9999 -9999 -9999
-9999 -9999 -9999 -9999 0.415070503950119 0.4442194700241089 0.49631214141845703 0.5377724766731262 0.5627807974815369 0.5760608315467834 0.519351065158844 0.47673729062080383 0.4728076159954071 0.47243639826774597 0.42871299386024475 0.37625887989997864 0.34017413854599 0.3181071877479553 -9999 -9999
-9999 -9999 -9999 0.3970497250556946 0.4275267422199249 0.46757128834724426 0.5245468616485596 0.5795971751213074 0.6373127698898315 0.683339536190033 0.709721028804779 0.700033962726593 0.6829767227172852 0.6272192597389221 0.5499573349952698 0.4635254144668579 0.3973161578178406 0.36220571398735046 -9999 -9999
-9999 -9999 -9999 0.3987709581851959 0.4353911876678467 0.5075198411941528 0.594176173210144 0.6928017139434814 0.81139075756073 0.9635599255561829 1.1066725254058838 1.1692055463790894 1.1284061670303345 0.9755918979644775 0.806114673614502 0.6359069347381592 0.5145683884620667 0.4827640652656555 -9999 -9999
-9999 -9999 0.3377770185470581 0.38744717836380005 0.45305097103118896 0.5508929491043091 0.6695367097854614 0.8184409737586975 1.0396637916564941 1.3193409442901611 1.6113078594207764 1.7504388093948364 1.7165181636810303 1.479266881942749 1.1704108715057373 0.8955152034759521 0.7029758095741272 0.6248559951782227 0.573488712310791 -9999
-9999 -9999 0.33977532386779785 0.3857848346233368 0.483778178691864 0.6188746690750122 0.7772189974784851 0.9914278388023376 1.2966169118881226 1.6767131090164185 2.055001974105835 2.2700412273406982 2.2544515132904053 2.009171485900879 0 1.2674012184143066 0.9840499758720398 0.8104129433631897 0.7403726577758789 -9999
-9999 -9999 0.36264315247535706 0.42877861857414246 0.5638954043388367 0.7416081428527832 0.9674115777015686 1.252938151359558 1.597969889640808 1.992094874382019 2.3284034729003906 2.5486416816711426 2.5722153186798096 2.397650957107544 2.084428071975708 1.7014000415802002 1.3626832962036133 1.1189744472503662 1.0195930004119873 -9999
-9999 0.335405558347702 0.40582120418548584 0.5167356729507446 0.7171069383621216 0.9815365076065063 1.286008358001709 1.6427512168884277 2.003351926803589 2.325962543487549 2.5600008964538574 2.7170519828796387 2.7789697647094727 2.69899320602417 2.5078365802764893 0 1.8162976503372192 1.5209485292434692 1.3928871154785156 -9999
-9999 0.39521524310112 0.47861674427986145 0.6685260534286499 0.9601195454597473 1.324958324432373 1.729093313217163 2.1386959552764893 2.4752695560455322 2.698605537414551 2.821450710296631 2.918146848678589 2.98051381111145 2.9821839332580566 2.886376142501831 0 2.3178019523620605 2.006706953048706 1.8672711849212646 -9999
-9999 0.5201330780982971 0.6290166974067688 0.8782980442047119 1.2334660291671753 1.6686551570892334 2.148023843765259 2.5875208377838135 2.8729934692382812 3.0171687602996826 3.095066547393799 3.173628330230713 3.2674641609191895 3.3043792247772217 3.2511727809906006 3.111541748046875 2.8320939540863037 2.5484166145324707 2.4115209579467773 -9999
-9999 0.7339652180671692 0.864726722240448 1.1682888269424438 1.5620814561843872 2.009648323059082 2.485614061355591 2.8753089904785156 3.0803020000457764 3.163562774658203 3.2234628200531006 3.3347012996673584 0 0 3.5504226684570312 0 3.266336679458618 3.0453696250915527 2.9276695251464844 -9999
-9999 1.0602376461029053 1.2281336784362793 1.5879576206207275 1.9741719961166382 2.375361919403076 2.7577080726623535 3.0318920612335205 3.127124786376953 3.1303670406341553 3.1517343521118164 3.245333433151245 0 0 0 3.4409496784210205 3.382033348083496 3.302900552749634 3.2124500274658203 -9999
-9999 1.4764726161956787 1.6742242574691772 2.072197914123535 2.4421303272247314 2.746276378631592 2.976095676422119 3.088207483291626 3.075369119644165 3.0217857360839844 2.995500087738037 3.0178563594818115 0 0 0 3.010737895965576 3.0688724517822266 3.213334560394287 3.176426410675049 -9999
-9999 1.8550420999526978 2.0596306324005127 2.4692671298980713 2.7947700023651123 2.976510524749756 3.0521321296691895 3.040872812271118 2.9767582416534424 2.9119443893432617 2.8722736835479736 2.807293176651001 2.7224860191345215 2.611326217651367 0 0 2.4498181343078613 2.706852674484253 -9999 -9999
-9999 2.0844132900238037 2.2884883880615234 2.6759192943573 2.9258980751037598 3.0015060901641846 2.9786102771759033 2.914686918258667 2.866584062576294 2.843668222427368 0 0 0 2.2659120559692383 0 0 1.8061823844909668 0 -9999 -9999
-9999 2.2472918033599854 2.430774688720703 2.751894235610962 2.9322962760925293 2.9183478355407715 2.828284502029419 2.7427163124084473 2.723161220550537 0 0 0 0 1.9987653493881226 1.7517220973968506 1.5416851043701172 1.3774170875549316 1.239012360572815 0 0
-9999 -9999 2.55230712890625 2.778994560241699 2.8962738513946533 2.811398506164551 2.6570730209350586 2.551522970199585 0 0 0 0 0 0 0 0 0 0 0 0
-9999 -9999 2.7099053859710693 2.8097572326660156 2.8467233180999756 2.6907646656036377 2.4717795848846436 2.3222708702087402 0 0 0 0 0 0 0 0 0 0 0 0
-9999 -9999 -9999 2.8118743896484375 2.8147244453430176 2.630232334136963 2.3758385181427 2.2055134773254395 0 0 0 0 0 0 0 0 0 0 0 0
