ncols         20
nrows         20
xllcorner     0
yllcorner     -3.5992928
cellsize      0.17996463
NODATA_value  -9999
-9999.0 -9999 -9999 -9999 -9999 -9999 -9999 -9999 -9999 -9999 -9999 -9999 -9999 -9999 -9999 -9999 -9999 -9999 -9999 -9999
-9999 -9999 -9999 -9999 -9999 -9999 -9999 -9999 -9999 -9999 -9999 13.005331039428711 13.013781547546387 -9999 -9999 12.926815032958984 13.012579917907715 -9999 -9999 -9999
-9999 -9999 -9999 -9999 12.924432754516602 12.85805606842041 12.746222496032715 12.696632385253906 12.691976547241211 12.694296836853027 12.809025764465332 12.828164100646973 12.773212432861328 12.71251106262207 12.74782943725586 12.828246116638184 12.922846794128418 12.9869384765625 -9999 -9999
-9999 -9999 -9999 12.853413581848145 12.81606674194336 12.759227752685547 12.693585395812988 12.668359756469727 12.647001266479492 12.627845764160156 12.601118087768555 12.558211326599121 12.49460506439209 12.472695350646973 12.484066009521484 12.560029983520508 12.670666694641113 12.74527645111084 -9999 -9999
-9999 -9999 -9999 12.755882263183594 12.71313190460205 12.638640403747559 12.628788948059082 12.669363021850586 12.704530715942383 12.714557647705078 12.710057258605957 12.667515754699707 12.564183235168457 12.441686630249023 12.335143089294434 12.314289093017578 12.347036361694336 12.306295394897461 -9999 -9999
-9999 -9999 12.66469955444336 12.623408317565918 12.575335502624512 12.587448120117188 12.754767417907715 13.011857032775879 13.19830322265625 13.356756210327148 13.498126983642578 13.512033462524414 13.325393676757812 12.997367858886719 12.650062561035156 12.378301620483398 12.193375587463379 12.068492889404297 12.057096481323242 -9999
-9999 -9999 12.521002769470215 12.479475975036621 12.43773078918457 12.598905563354492 13.078898429870605 13.850674629211426 14.291744232177734 14.614273071289062 14.852056503295898 14.855390548706055 14.478312492370605 13.951091766357422 13.353029251098633 12.793930053710938 12.35916519165039 12.09871768951416 11.989310264587402 -9999
-9999 -9999 12.190237998962402 12.169681549072266 12.233795166015625 12.641924858093262 13.657657623291016 15.611863136291504 16.19951057434082 16.446243286132812 16.576967239379883 16.458393096923828 15.606708526611328 14.937300682067871 14.25716781616211 13.551126480102539 12.932074546813965 12.477631568908691 12.246170043945312 -9999
-9999 11.836905479431152 11.743525505065918 11.796226501464844 12.0139741897583 12.690502166748047 14.022939682006836 16.13323211669922 16.796863555908203 17.030534744262695 17.114789962768555 16.985210418701172 16.277847290039062 15.720643043518066 15.155081748962402 14.495527267456055 13.808036804199219 13.250497817993164 12.946653366088867 -9999
-9999 11.526013374328613 11.408886909484863 11.500040054321289 11.982381820678711 12.969704627990723 14.49170970916748 16.44976806640625 17.08423614501953 17.287384033203125 17.341089248657227 17.235658645629883 16.712223052978516 16.3176212310791 15.919032096862793 15.426332473754883 14.829628944396973 14.289400100708008 13.989861488342285 -9999
-9999 11.167094230651855 11.142454147338867 11.466115951538086 12.274314880371094 13.491951942443848 15.05582332611084 16.76569366455078 17.31639289855957 17.48070526123047 17.521564483642578 17.444499969482422 17.052539825439453 16.780210494995117 16.53076934814453 16.213115692138672 15.810274124145508 15.395210266113281 15.164671897888184 -9999
-9999 11.018914222717285 11.1553316116333 11.82385540008545 12.87929630279541 14.169031143188477 15.592127799987793 16.974742889404297 17.43410301208496 17.577783584594727 17.618562698364258 17.574230194091797 17.285175323486328 17.114381790161133 16.979881286621094 16.805694580078125 16.56722640991211 16.314882278442383 16.180036544799805 -9999
-9999 11.303339004516602 11.659185409545898 12.663522720336914 13.800716400146484 14.957300186157227 16.030487060546875 16.879444122314453 17.276506423950195 17.42873764038086 17.483539581298828 17.47260093688965 17.38863754272461 17.325780868530273 17.265899658203125 17.18535041809082 17.051509857177734 16.907451629638672 16.83976936340332 -9999
-9999 12.121747970581055 12.713412284851074 13.831769943237305 14.904396057128906 15.79560375213623 16.500179290771484 16.999181747436523 17.271602630615234 17.389070510864258 17.43834686279297 17.453340530395508 17.449480056762695 17.447734832763672 17.445632934570312 17.417949676513672 17.349885940551758 17.23949432373047 17.213125228881836 -9999
-9999 13.187492370605469 13.800366401672363 14.903775215148926 15.837532043457031 16.469905853271484 16.890274047851562 17.167783737182617 17.31960105895996 17.397991180419922 17.43755340576172 17.465007781982422 17.48927116394043 17.515575408935547 17.546669006347656 17.55742835998535 17.53841209411621 17.451297760009766 -9999 -9999
-9999 13.965782165527344 14.578462600708008 15.60692310333252 16.400819778442383 16.879528045654297 17.142393112182617 17.292266845703125 17.372407913208008 17.419422149658203 17.447141647338867 17.475011825561523 17.507341384887695 17.542844772338867 17.5811710357666 17.615110397338867 17.63945960998535 17.690149307250977 -9999 -9999
-9999 14.484418869018555 15.143381118774414 16.026325225830078 16.708290100097656 17.11406135559082 17.293270111083984 17.385459899902344 17.43071746826172 17.4576416015625 17.475400924682617 17.495859146118164 17.523012161254883 17.554840087890625 17.592315673828125 17.629356384277344 17.660694122314453 17.6855525970459 17.653709411621094 17.666593551635742
-9999 -9999 15.740509033203125 16.33461570739746 16.897705078125 17.237585067749023 17.38851547241211 17.45742416381836 17.487207412719727 17.501617431640625 17.505943298339844 17.518394470214844 17.53862762451172 17.57139015197754 17.602344512939453 17.62826156616211 17.65589141845703 17.67413330078125 17.67539405822754 17.657817840576172
-9999 -9999 16.245677947998047 16.617855072021484 17.039703369140625 17.32718276977539 17.462100982666016 17.52200698852539 17.54234504699707 17.542394638061523 17.534860610961914 17.542619705200195 17.560522079467773 17.588041305541992 17.608413696289062 17.62397003173828 17.642440795898438 17.6520938873291 17.63449478149414 17.623592376708984
-9999 -9999 -9999 16.79290771484375 17.1130428314209 17.36322021484375 17.492904663085938 17.54851722717285 17.559476852416992 17.554330825805664 17.546344757080078 17.54631996154785 17.563098907470703 17.588436126708984 17.60886001586914 17.61572265625 17.635475158691406 17.62378692626953 17.61051368713379 17.604097366333008
