ncols         20
nrows         20
xllcorner     0
yllcorner     -3.5992928
cellsize      0.17996463
NODATA_value  -9999
-9999.0 -9999 -9999 -9999 -9999 -9999 -9999 -9999 -9999 -9999 -9999 -9999 -9999 -9999 -9999 -9999 -9999 -9999 -9999 -9999
-9999 -9999 -9999 -9999 -9999 -9999 -9999 -9999 -9999 -9999 -9999 0.13840773701667786 0.1385401040315628 -9999 -9999 0.14092493057250977 0.14109988510608673 -9999 -9999 -9999
-9999 -9999 -9999 -9999 0.13783977925777435 0.13776764273643494 0.13771851360797882 0.13773447275161743 0.1378488689661026 0.13806761801242828 0.13834421336650848 0.12817707657814026 0.12858295440673828 0.13988345861434937 0.14053982496261597 0.13049057126045227 0.1310175657272339 0.14235597848892212 -9999 -9999
-9999 -9999 -9999 0.13825424015522003 0.12765173614025116 0.10855373740196228 0.10852047801017761 0.10856987535953522 0.10872036218643188 0.1089656725525856 0.1092790812253952 0.10133056342601776 0.1017402783036232 0.1106526255607605 0.1112183928489685 0.10339325666427612 0.11255998909473419 0.1435646116733551 -9999 -9999
-9999 -9999 -9999 0.13856084644794464 0.1089554876089096 0.07922696322202682 0.07302653789520264 0.0731203705072403 0.07331019639968872 0.07358228415250778 0.07390516996383667 0.06870163232088089 0.06906173378229141 0.07510282844305038 0.07560595870018005 0.07626808434724808 0.11445625871419907 0.14599986374378204 -9999 -9999
-9999 -9999 0.13936850428581238 0.12861843407154083 0.1011173278093338 0.06789746880531311 0.04199782758951187 0.04209981858730316 0.04228981211781502 0.042543381452560425 0.0428306944668293 0.03978375717997551 0.04008939862251282 0.04385899007320404 0.04432879015803337 0.07241059094667435 0.10850799083709717 0.13891948759555817 0.1524600386619568 -9999
-9999 -9999 0.13988228142261505 0.11004769802093506 0.08011612296104431 0.05389920249581337 0.030743693932890892 0.020762141793966293 0.020905563607811928 0.02109239436686039 0.021304123103618622 0.01987670734524727 0.020126264542341232 0.02214731089770794 0.033452823758125305 0.05930761992931366 0.0886804535984993 0.12233114242553711 0.1561506986618042 -9999
-9999 -9999 0.14080074429512024 0.11086159944534302 0.07451372593641281 0.04277511313557625 0.020982826128602028 0.010295996442437172 0.008876862935721874 0.008990330621600151 0.009122852236032486 0.008569493889808655 0.008760068565607071 0.011435852386057377 0.02385776862502098 0.04903807118535042 0.08563288301229477 0.12750357389450073 0.1620609611272812 -9999
-9999 0.1427752524614334 0.1315750628709793 0.10357150435447693 0.06981857120990753 0.04006015881896019 0.019725698977708817 0.008311289362609386 0.003259474178776145 0.003325757337734103 0.0034015022683888674 0.0032148452010005713 0.0036249596159905195 0.010471723042428493 0.025320781394839287 0.051792971789836884 0.09011442214250565 0.13377521932125092 0.1696857213973999 -9999
-9999 0.14439484477043152 0.11373213678598404 0.08302251994609833 0.05612002685666084 0.0323982797563076 0.015957336872816086 0.00674035120755434 0.0024854985531419516 0.0016552107408642769 0.0017120542470365763 0.0017654421972110868 0.003900467650964856 0.011146269738674164 0.026808302849531174 0.05469726771116257 0.09501108527183533 0.14086085557937622 0.17850975692272186 -9999
-9999 0.1472894698381424 0.11624754965305328 0.0784774124622345 0.04533559828996658 0.0224003866314888 0.01106473058462143 0.004713255912065506 0.0017522021662443876 0.001757192425429821 0.0018251026049256325 0.0018854646477848291 0.004154369235038757 0.01180327869951725 0.02829793095588684 0.05765558406710625 0.10006870329380035 0.1482430249452591 0.1877257525920868 -9999
-9999 0.1513596922159195 0.11963246017694473 0.08095867931842804 0.0469089150428772 0.023245858028531075 0.009852228686213493 0.0035973102785646915 0.0017678402364253998 0.0018512161914259195 0.0019273555371910334 0.0021071324590593576 0.006122749764472246 0.014700296334922314 0.029776733368635178 0.06059969589114189 0.10507158935070038 0.15543758869171143 0.19653265178203583 -9999
-9999 0.15648412704467773 0.1238163635134697 0.08393185585737228 0.048716261982917786 0.02434222400188446 0.010351093485951424 0.0037929899990558624 0.0018467040499672294 0.0019337136764079332 0.002016408136114478 0.003296259557828307 0.009531112387776375 0.022843843325972557 0.04675857350230217 0.08098621666431427 0.11927039176225662 0.1621609330177307 0.2041195183992386 -9999
-9999 0.16233573853969574 0.12855790555477142 0.0876055359840393 0.050967294722795486 0.025348521769046783 0.010784270241856575 0.003947169985622168 0.0019155932823196054 0.0020021002274006605 0.002085532993078232 0.004321897868067026 0.012459452264010906 0.030040277168154716 0.06138546019792557 0.1065574437379837 0.157528817653656 0.19797474145889282 0.2093702256679535 -9999
-9999 0.16832184791564941 0.1334894895553589 0.09110026061534882 0.05305258557200432 0.026406191289424896 0.013156486675143242 0.005638977512717247 0.0020805676467716694 0.002056108321994543 0.0021373112685978413 0.0048048668541014194 0.013780396431684494 0.03327164053916931 0.06816966086626053 0.11882121860980988 0.1759173423051834 0.22290901839733124 -9999 -9999
-9999 0.17372195422649384 0.1386699676513672 0.10226988047361374 0.07001786679029465 0.040863167494535446 0.020407797768712044 0.008661897853016853 0.0034443021286278963 0.002094798721373081 0.0021746365819126368 0.004879583138972521 0.01400001347064972 0.033846355974674225 0.06948037445545197 0.12141367793083191 0.18083670735359192 0.2294059544801712 -9999 -9999
-9999 0.1775708645582199 0.16786357760429382 0.13429401814937592 0.0916486382484436 0.0533948577940464 0.028745975345373154 0.014258875511586666 0.0060805962421 0.0022331224754452705 0.0021991317626088858 0.004533801693469286 0.013083252124488354 0.03167122229933739 0.06509606540203094 0.11388801038265228 0.17019708454608917 0.2178194373846054 0.2394958883523941 0.24104610085487366
-9999 -9999 0.18758898973464966 0.14953911304473877 0.10997878015041351 0.07494878023862839 0.04349798336625099 0.0216219462454319 0.009143253788352013 0.003365540411323309 0.002212094608694315 0.0035919875372201204 0.010399031452834606 0.025275874882936478 0.05185984447598457 0.09097796678543091 0.13598093390464783 0.17370283603668213 0.18940982222557068 0.19020047783851624
-9999 -9999 0.19097831845283508 0.17847582697868347 0.14191001653671265 0.09633470326662064 0.05584731325507164 0.027614176273345947 0.011677115224301815 0.004278159700334072 0.0022175379563122988 0.0024191306438297033 0.007024475373327732 0.017040561884641647 0.03520860895514488 0.06147623807191849 0.09226494282484055 0.11762716621160507 0.12771672010421753 0.1280456781387329
-9999 -9999 -9999 0.19582273066043854 0.15522238612174988 0.10517571121454239 0.06083342432975769 0.030036475509405136 0.012685728259384632 0.004657585173845291 0.0022199517115950584 0.0022965320385992527 0.004037570673972368 0.009763830341398716 0.0202292799949646 0.03532421588897705 0.0530770942568779 0.06734871864318848 0.07326526939868927 0.07339491695165634
