ncols         20
nrows         20
xllcorner     0
yllcorner     -3.5992928
cellsize      0.17996463
NODATA_value  -9999
-9999.0 -9999 -9999 -9999 -9999 -9999 -9999 -9999 -9999 -9999 -9999 -9999 -9999 -9999 -9999 -9999 -9999 -9999 -9999 -9999
-9999 -9999 -9999 -9999 -9999 -9999 -9999 -9999 -9999 -9999 -9999 0.018569957464933395 0.018569674342870712 -9999 -9999 0.01867436058819294 0.01868174783885479 -9999 -9999 -9999
-9999 -9999 -9999 -9999 0.01869594119489193 0.018655024468898773 0.018595393747091293 0.01852407120168209 0.018454955890774727 0.018402714282274246 0.018379954621195793 0.03899532929062843 0.0389949232339859 0.018381109461188316 0.018410734832286835 0.039182234555482864 0.03923119604587555 0.018512077629566193 -9999 -9999
-9999 -9999 -9999 0.018589630722999573 0.03934028744697571 0.0817917138338089 0.08150482177734375 0.08113976567983627 0.08078058809041977 0.08049629628658295 0.08033323287963867 0.09672563523054123 0.09671289473772049 0.08029163628816605 0.08041424304246902 0.09712911397218704 0.08083546906709671 0.018338333815336227 -9999 -9999
-9999 -9999 -9999 0.018443314358592033 0.08127166330814362 0.11734351515769958 0.11683011054992676 0.11618946492671967 0.11557170748710632 0.11508188396692276 0.1147819459438324 0.11470786482095718 0.11468100547790527 0.1146845892071724 0.11487151682376862 0.11517563462257385 0.0797341838479042 0.018046647310256958 -9999 -9999
-9999 -9999 0.018173420801758766 0.038536474108695984 0.09671488404273987 0.11588480323553085 0.1151837632060051 0.11436417698860168 0.11360995471477509 0.11303571611642838 0.11266724765300751 0.11249592900276184 0.11245524883270264 0.11252707242965698 0.11273439228534698 0.112982839345932 0.09402336925268173 0.037289202213287354 0.01750144734978676 -9999
-9999 -9999 0.01799459382891655 0.07922820746898651 0.11446069180965424 0.11387949436903 0.11292605102062225 0.11189433187246323 0.11102447658777237 0.11038275063037872 0.10995601117610931 0.10972926020622253 0.10965518653392792 0.10971635580062866 0.10993244498968124 0.1102197915315628 0.11031706631183624 0.07606016844511032 0.017247140407562256 -9999
-9999 -9999 0.017723584547638893 0.07806555926799774 0.11244853585958481 0.1115507185459137 0.11035971343517303 0.10925937443971634 0.10834483802318573 0.10765107721090317 0.10716626793146133 0.10687217116355896 0.10673665255308151 0.10674431920051575 0.10689565539360046 0.10716951638460159 0.10748686641454697 0.07440801709890366 0.01688223145902157 -9999
-9999 0.017340395599603653 0.03677333518862724 0.0921984538435936 0.11018958687782288 0.10906651616096497 0.10777507722377777 0.10662540793418884 0.10567188262939453 0.1049322634935379 0.1043909341096878 0.1040351539850235 0.10384281724691391 0.10379710793495178 0.10388809442520142 0.10409358888864517 0.10436002165079117 0.07233753055334091 0.016431810334324837 -9999
-9999 0.017158672213554382 0.07540184259414673 0.1087372750043869 0.1078934445977211 0.10655027627944946 0.10521479696035385 0.1040363535284996 0.10305468738079071 0.10227442532777786 0.10168042778968811 0.10126848518848419 0.10102392733097076 0.10093073546886444 0.10097283124923706 0.10112570226192474 0.1013370081782341 0.07019156962633133 0.015948522835969925 -9999
-9999 0.016909442842006683 0.07424899190664291 0.10669733583927155 0.10555611550807953 0.10407687723636627 0.1027102917432785 0.10151825100183487 0.10051597654819489 0.09970072656869888 0.09906184673309326 0.09860190749168396 0.09831184148788452 0.09817666560411453 0.09818215668201447 0.09830895066261292 0.09851051867008209 0.06823358684778214 0.015489972196519375 -9999
-9999 0.016604986041784286 0.07281860709190369 0.10442983359098434 0.10312709212303162 0.10163415223360062 0.1002751812338829 0.09908591210842133 0.09807033836841583 0.09722722321748734 0.0965510904788971 0.096049964427948 0.09571884572505951 0.09554333984851837 0.09551887214183807 0.09564840793609619 0.09590774774551392 0.06650867313146591 0.015099134296178818 -9999
-9999 0.016266943886876106 0.07124403119087219 0.1020236387848854 0.10065257549285889 0.0992438793182373 0.09793252497911453 0.09676237404346466 0.0957430973649025 0.09488062560558319 0.09417154639959335 0.09362901747226715 0.09324883669614792 0.09302148967981339 0.09295667707920074 0.09309138357639313 0.09352672100067139 0.06511294841766357 0.014784189872443676 -9999
-9999 0.0159195177257061 0.0696403756737709 0.09961360692977905 0.0983034148812294 0.09697569161653519 0.09572252631187439 0.09458242356777191 0.09357050806283951 0.09270166605710983 0.09196992963552475 0.0913829654455185 0.09093904495239258 0.0906338319182396 0.09048044681549072 0.09051305800676346 0.07527567446231842 0.030417392030358315 0.014551333151757717 -9999
-9999 0.015593240037560463 0.06814733892679214 0.0973537489771843 0.09612272679805756 0.09487325698137283 0.0936829149723053 0.09258462488651276 0.09160156548023224 0.09073890745639801 0.08999015390872955 0.0893579050898552 0.08883938938379288 0.08843391388654709 0.08815062791109085 0.08800128847360611 0.06077979505062103 0.013776423409581184 -9999 -9999
-9999 0.015322908759117126 0.06656797230243683 0.09540480375289917 0.09414772689342499 0.09296809136867523 0.091850146651268 0.09081495553255081 0.08987317979335785 0.08902893960475922 0.08827264606952667 0.08760103583335876 0.08700894564390182 0.0864950641989708 0.08606575429439545 0.08572469651699066 0.05865802988409996 0.013273950666189194 -9999 -9999
-9999 0.015132810920476913 0.031503695994615555 0.0774165540933609 0.09231159090995789 0.0912800058722496 0.09026964753866196 0.08931048214435577 0.08841961622238159 0.08760149031877518 0.0868428498506546 0.08613988757133484 0.08548478782176971 0.08487225323915482 0.08429690450429916 0.08373534679412842 0.06877792626619339 0.027044516056776047 0.012467432767152786 0.012342787347733974
-9999 -9999 0.014509514905512333 0.06307944655418396 0.09080693870782852 0.08988898992538452 0.08899074047803879 0.08811292797327042 0.08727572113275528 0.08648460358381271 0.08572912961244583 0.08500559628009796 0.08430507779121399 0.08361869305372238 0.08293232321739197 0.08220047503709793 0.08130109310150146 0.06661561876535416 0.05461779236793518 0.05428150296211243
-9999 -9999 0.014138982631266117 0.03000190109014511 0.07419727742671967 0.08881282806396484 0.08806177228689194 0.08726578950881958 0.08647619187831879 0.08570961654186249 0.08496102690696716 0.08422710001468658 0.08349956572055817 0.08277102559804916 0.08203191310167313 0.08125771582126617 0.08041228353977203 0.07950222492218018 0.07878275215625763 0.07840882241725922
-9999 -9999 -9999 0.01382069569081068 0.06099989637732506 0.0882125273346901 0.08756281435489655 0.08681993931531906 0.08605926483869553 0.0853070616722107 0.08456416428089142 0.08382731676101685 0.083088219165802 0.0823419988155365 0.08158442378044128 0.0808076411485672 0.0800098180770874 0.07924453914165497 0.07864557206630707 0.07832209020853043
