ncols         20
nrows         20
xllcorner     0
yllcorner     -3.5992928
cellsize      0.17996463
NODATA_value  -9999
-9999.0 -9999 -9999 -9999 -9999 -9999 -9999 -9999 -9999 -9999 -9999 -9999 -9999 -9999 -9999 -9999 -9999 -9999 -9999 -9999
-9999 -9999 -9999 -9999 -9999 -9999 -9999 -9999 -9999 -9999 -9999 1.0235930681228638 1.0003280639648438 -9999 -9999 0.8852057456970215 0.8293741941452026 -9999 -9999 -9999
-9999 -9999 -9999 -9999 1.1687474250793457 1.2418060302734375 1.3691846132278442 1.458573341369629 1.4980616569519043 1.5061261653900146 1.3379145860671997 1.218737006187439 1.1974728107452393 1.1787396669387817 1.0646088123321533 0.9406733512878418 0.849848210811615 0.7870496511459351 -9999 -9999
-9999 -9999 -9999 1.1027110815048218 1.1878509521484375 1.2879828214645386 1.4231994152069092 1.5420876741409302 1.658625602722168 1.739864706993103 1.7712968587875366 1.7208056449890137 1.6594207286834717 1.5098029375076294 1.3176077604293823 1.1108473539352417 0.9515889883041382 0.8647959232330322 -9999 -9999
-9999 -9999 -9999 1.0837039947509766 1.1780608892440796 1.3557246923446655 1.556183934211731 1.7696363925933838 2.0150411128997803 2.326122522354126 2.6032555103302 2.6959633827209473 2.5664548873901367 2.198126792907715 1.8059701919555664 1.422960877418518 1.1501411199569702 1.0752153396606445 -9999 -9999
-9999 -9999 0.8667283654212952 1.0089592933654785 1.172978401184082 1.4014948606491089 1.6599621772766113 1.9654269218444824 2.4093596935272217 2.9487314224243164 3.486515522003174 3.6962075233459473 3.565295934677124 3.038748264312744 2.3891844749450684 1.825190544128418 1.4282692670822144 1.2560502290725708 1.1099512577056885 -9999
-9999 -9999 0.8382455706596375 0.9511010050773621 1.1760082244873047 1.4669291973114014 1.7821600437164307 2.1859536170959473 2.736844539642334 3.3885204792022705 3.9959161281585693 4.283619403839111 4.170557975769043 3.667149782180786 3.0079567432403564 2.2939183712005615 1.7842081785202026 1.4674431085586548 1.3281779289245605 -9999
-9999 -9999 0.8323076367378235 0.9759575128555298 1.2549529075622559 1.5960350036621094 1.9973453283309937 2.4655165672302246 2.9895284175872803 3.5474908351898193 3.9704172611236572 4.195672512054443 4.132874488830566 3.7932183742523193 3.270920515060425 2.6648011207580566 2.147507667541504 1.7741295099258423 1.6189543008804321 -9999
-9999 0.6673049330711365 0.837688684463501 1.058359980583191 1.4259388446807861 1.869458794593811 2.3257384300231934 2.803309917449951 3.2230300903320312 3.5411763191223145 3.713656425476074 3.787325859069824 3.760831832885742 3.5848217010498047 3.299095869064331 2.912360191345215 2.417248010635376 2.0524096488952637 1.8940072059631348 -9999
-9999 0.7321772575378418 0.8884757161140442 1.2148174047470093 1.6771490573883057 2.1944377422332764 2.6858770847320557 3.096377372741699 3.342775821685791 3.4208760261535645 3.385985851287842 3.344766616821289 3.2989959716796875 3.2311971187591553 3.1026675701141357 2.915093183517456 2.5437450408935547 2.2459118366241455 2.1146388053894043 -9999
-9999 0.8636898994445801 1.0333137512207031 1.4003217220306396 1.8764190673828125 2.3830692768096924 2.8398520946502686 3.145811080932617 3.2223711013793945 3.147928476333618 3.031916856765747 2.945913314819336 2.904970169067383 2.8713698387145996 2.8164849281311035 2.7168259620666504 2.526852607727051 2.3271143436431885 2.235203504562378 -9999
-9999 1.0714478492736816 1.2419878244400024 1.6171796321868896 2.0470895767211914 2.4504470825195312 2.778212547302246 2.9299895763397217 2.8773021697998047 2.734919786453247 2.6053943634033203 2.5382561683654785 2.5564098358154297 2.549499034881592 2.505061149597168 2.4972879886627197 2.3855950832366943 2.281127452850342 2.2315990924835205 -9999
-9999 1.3533703088760376 1.532991647720337 1.89276921749115 2.2074174880981445 2.4513099193573 2.595661163330078 2.597287178039551 2.457977771759033 2.281252384185791 2.14994478225708 2.086545705795288 2.1064083576202393 2.108626365661621 2.1118602752685547 2.102764844894409 2.1096744537353516 2.106657028198242 2.0935189723968506 -9999
-9999 1.6542729139328003 1.8204916715621948 2.1251754760742188 2.321406126022339 2.3931639194488525 2.3654282093048096 2.245577335357666 2.0636794567108154 1.8798201084136963 1.7478766441345215 1.6733710765838623 1.6557739973068237 1.6317795515060425 1.6162794828414917 1.6198326349258423 1.6963698863983154 1.8304367065429688 1.8916311264038086 -9999
-9999 1.8419477939605713 1.9650996923446655 2.190730333328247 2.2731428146362305 2.2119522094726562 2.077425241470337 1.9063364267349243 1.7207247018814087 1.5655410289764404 1.4580286741256714 1.37364661693573 1.3071894645690918 1.2500689029693604 1.2135679721832275 1.2034640312194824 1.2357494831085205 1.3968027830123901 -9999 -9999
-9999 1.8626530170440674 1.9324626922607422 2.0724732875823975 2.063511610031128 1.9365893602371216 1.7694153785705566 1.5938094854354858 1.4503055810928345 1.3452438116073608 1.282012939453125 1.2036032676696777 1.1140410900115967 1.013590693473816 0.9489198923110962 0.8945362567901611 0.8672036528587341 0.7938103675842285 -9999 -9999
-9999 1.862697958946228 1.8237308263778687 1.8749563694000244 1.8184136152267456 1.6662485599517822 1.4873930215835571 1.333289384841919 1.2318204641342163 1.1725068092346191 1.1177564859390259 1.0460602045059204 0.9557132720947266 0.8578561544418335 0.7757459282875061 0.7063925862312317 0.6548852324485779 0.6100907921791077 0.5971634387969971 0.5432772040367126
-9999 -9999 1.6448509693145752 1.670635461807251 1.6034075021743774 1.4429301023483276 1.2646703720092773 1.1308225393295288 1.0623185634613037 1.012162685394287 0.9683879613876343 0.9100148677825928 0.8366410136222839 0.742580771446228 0.6636666655540466 0.6055313944816589 0.5501230955123901 0.5146180987358093 0.49045538902282715 0.5183442234992981
-9999 -9999 1.5922638177871704 1.5313559770584106 1.4446378946304321 1.2756978273391724 1.0963740348815918 0.9680198431015015 0.9055095911026001 0.8673970103263855 0.8476351499557495 0.8005310893058777 0.7337448000907898 0.6500684022903442 0.5862968564033508 0.5409402251243591 0.5014560222625732 0.48069658875465393 0.5160425305366516 0.5363160371780396
-9999 -9999 -9999 1.418033480644226 1.3592383861541748 1.195042371749878 1.0163590908050537 0.8921377062797546 0.8356979489326477 0.8077536821365356 0.7901540994644165 0.7592288255691528 0.6955770254135132 0.6160664558410645 0.5495205521583557 0.5192649364471436 0.474662184715271 0.5008857846260071 0.5313236713409424 0.5484570860862732
