ncols         20
nrows         20
xllcorner     0
yllcorner     -3.5992928
cellsize      0.17996463
NODATA_value  -9999
-9999.0 -9999 -9999 -9999 -9999 -9999 -9999 -9999 -9999 -9999 -9999 -9999 -9999 -9999 -9999 -9999 -9999 -9999 -9999 -9999
-9999 -9999 -9999 -9999 -9999 -9999 -9999 -9999 -9999 -9999 -9999 0.01849042810499668 0.018490027636289597 -9999 -9999 0.018592527136206627 0.018599849194288254 -9999 -9999 -9999
-9999 -9999 -9999 -9999 0.018619505688548088 0.018578732386231422 0.018519209697842598 0.018447840586304665 0.018378444015979767 0.018325667828321457 0.018302185460925102 0.03882850706577301 0.03882729634642601 0.01830151677131653 0.01833054982125759 0.03901073709130287 0.03905920311808586 0.01843079924583435 -9999 -9999
-9999 -9999 -9999 0.018513774499297142 0.0391799621284008 0.08145870268344879 0.08117253333330154 0.08080738037824631 0.08044664561748505 0.08015960454940796 0.0799931064248085 0.0963115394115448 0.09629584848880768 0.07994323968887329 0.08006368577480316 0.0967041403055191 0.08048092573881149 0.018257711082696915 -9999 -9999
-9999 -9999 -9999 0.0183681882917881 0.08094190806150436 0.11686831712722778 0.11635687947273254 0.11571617424488068 0.11509526520967484 0.11460024863481522 0.11429428309202194 0.11421456187963486 0.11418390274047852 0.1141851618885994 0.11436976492404938 0.11467118561267853 0.07938380539417267 0.017967019230127335 -9999 -9999
-9999 -9999 0.01809900999069214 0.03837968036532402 0.09632398188114166 0.11541860550642014 0.11472132802009583 0.11390151083469391 0.11314139515161514 0.11255882680416107 0.11218197643756866 0.11200425028800964 0.11196041852235794 0.11203185468912125 0.11223915219306946 0.11248601973056793 0.09360778331756592 0.037123292684555054 0.017423201352357864 -9999
-9999 -9999 0.017920643091201782 0.07890565693378448 0.11399897187948227 0.11342398077249527 0.11247501522302628 0.11143968999385834 0.11055398732423782 0.1099000871181488 0.10946378856897354 0.10923083126544952 0.10915471613407135 0.1092182993888855 0.10943853855133057 0.10972783714532852 0.10982342064380646 0.07571806013584137 0.017169399186968803 -9999
-9999 -9999 0.01764991693198681 0.07774565368890762 0.1119934618473053 0.11110270768404007 0.1099124550819397 0.10879601538181305 0.10786624252796173 0.10715963691473007 0.10666509717702866 0.10636480897665024 0.10622710734605789 0.10623660683631897 0.10639302432537079 0.10667507350444794 0.10699504613876343 0.07406749576330185 0.016804900020360947 -9999
-9999 0.017265114933252335 0.03661660850048065 0.09181371331214905 0.10973602533340454 0.10861764848232269 0.10731435567140579 0.10614986717700958 0.10518217831850052 0.10443064570426941 0.10388046503067017 0.1035190224647522 0.10332433879375458 0.10327965766191483 0.10337474197149277 0.10358691215515137 0.1038614809513092 0.0719950869679451 0.016354329884052277 -9999
-9999 0.017082883045077324 0.07507260888814926 0.10827023535966873 0.10743457078933716 0.1060924232006073 0.10474062711000443 0.10354745388031006 0.10255306959152222 0.10176265239715576 0.10116128623485565 0.10074456036090851 0.10049773752689362 0.1004047766327858 0.10044950991868973 0.10060688853263855 0.10082347691059113 0.06983983516693115 0.015869684517383575 -9999
-9999 0.01683294028043747 0.0739162340760231 0.10622323304414749 0.10508685559034348 0.10360007733106613 0.10222066938877106 0.101016104221344 0.10000345855951309 0.09918025135993958 0.09853571653366089 0.09807200729846954 0.09777996689081192 0.09764456003904343 0.09765154123306274 0.09778107702732086 0.09798583388328552 0.06787330657243729 0.015408897772431374 -9999
-9999 0.016527604311704636 0.07248087972402573 0.10394639521837234 0.10264526307582855 0.10114184021949768 0.099771648645401 0.09857244044542313 0.09754915535449982 0.09670045971870422 0.09602049738168716 0.0955168679356575 0.0951843410730362 0.09500860422849655 0.09498502314090729 0.09511606395244598 0.09537699073553085 0.06614295393228531 0.015016571618616581 -9999
-9999 0.016188722103834152 0.07090061157941818 0.10152891278266907 0.10015475004911423 0.09873706102371216 0.09741716831922531 0.09624011069536209 0.09521596878767014 0.09435034543275833 0.09363937377929688 0.09309586882591248 0.09271538257598877 0.09248849004507065 0.09242469072341919 0.09256042540073395 0.09299594908952713 0.06474568694829941 0.014700975269079208 -9999
-9999 0.015840424224734306 0.06929095089435577 0.09910591691732407 0.09779039770364761 0.09645649790763855 0.09519799053668976 0.09405409544706345 0.09304004162549973 0.09217041730880737 0.09143882989883423 0.09085271507501602 0.09041014313697815 0.09010681509971619 0.08995547145605087 0.08998962491750717 0.07484200596809387 0.030243009328842163 0.01446816697716713 -9999
-9999 0.015513334423303604 0.06779207289218903 0.09683278203010559 0.09559811651706696 0.09434507042169571 0.09315229952335358 0.09205293655395508 0.09107010066509247 0.09020870178937912 0.08946196734905243 0.08883251249790192 0.08831743150949478 0.08791584521532059 0.08763634413480759 0.08749008178710938 0.0604281947016716 0.01369713805615902 -9999 -9999
-9999 0.015242308378219604 0.0662105605006218 0.09487718343734741 0.09361624717712402 0.09243470430374146 0.09131649136543274 0.09028232097625732 0.08934254199266434 0.08850111067295074 0.08774840831756592 0.08708139508962631 0.08649489283561707 0.08598717302083969 0.08556391298770905 0.08522815257310867 0.05832044780254364 0.013198243454098701 -9999 -9999
-9999 0.015051650814712048 0.03132937103509903 0.07697489112615585 0.0917760580778122 0.09074420481920242 0.08973529189825058 0.08877865225076675 0.08789102733135223 0.08707685023546219 0.08632316440343857 0.08562639355659485 0.08497874438762665 0.08437443524599075 0.08380749076604843 0.08325408399105072 0.06838689744472504 0.026893451809883118 0.012399515137076378 0.012276467867195606
-9999 -9999 0.01442618016153574 0.0627109557390213 0.090269535779953 0.08935269713401794 0.08845711499452591 0.08758287876844406 0.08674976229667664 0.08596350252628326 0.08521398901939392 0.08449790626764297 0.08380619436502457 0.0831296294927597 0.08245358616113663 0.08173253387212753 0.08084538578987122 0.06624956429004669 0.054323434829711914 0.05399167537689209
-9999 -9999 0.014056200161576271 0.02982369065284729 0.07375171035528183 0.08827710151672363 0.08752939850091934 0.08673767000436783 0.0859527438879013 0.08519164472818375 0.08444962650537491 0.08372388780117035 0.08300606906414032 0.08228837698698044 0.08156075328588486 0.08079857379198074 0.07996594905853271 0.07906933128833771 0.07836009562015533 0.07799132913351059
-9999 -9999 -9999 0.013737544417381287 0.06063055619597435 0.08767737448215485 0.0870313048362732 0.08629295229911804 0.08553723990917206 0.08479075133800507 0.08405475318431854 0.08332642167806625 0.08259746432304382 0.08186260610818863 0.08111714571714401 0.08035295456647873 0.07956817746162415 0.07881464809179306 0.07822448760271072 0.07790559530258179
