ncols         20
nrows         20
xllcorner     0
yllcorner     -3.5992928
cellsize      0.17996463
NODATA_value  -9999
-9999.0 -9999 -9999 -9999 -9999 -9999 -9999 -9999 -9999 -9999 -9999 -9999 -9999 -9999 -9999 -9999 -9999 -9999 -9999 -9999
-9999 -9999 -9999 -9999 -9999 -9999 -9999 -9999 -9999 -9999 -9999 0 0 -9999 -9999 0 0 -9999 -9999 -9999
-9999 -9999 -9999 -9999 0 0 0 0 0 0 0 0 0 0 0 0 0 0 -9999 -9999
-9999 -9999 -9999 0 0 0 0 0 0 0 0 0 0 0 0 0 0 0 -9999 -9999
-9999 -9999 -9999 0 0 0 0 0 0 0 0 0 0 0 0 0 0 0 -9999 -9999
-9999 -9999 0 0 0 0 8.335638046264648 7.302504062652588 6.473883628845215 5.650341033935547 4.920501232147217 4.620831489562988 4.849915981292725 5.68852424621582 6.967936038970947 8.592412948608398 0 0 0 -9999
-9999 -9999 0 0 0 8.387171745300293 6.848270416259766 5.6643877029418945 4.548087120056152 3.475006103515625 2.6484692096710205 2.279719591140747 2.3969879150390625 3.0631496906280518 4.301022529602051 6.167112827301025 0 0 0 -9999
-9999 -9999 0 0 9.086670875549316 7.286261558532715 5.756566524505615 4.360870838165283 3.1087160110473633 2.102266311645508 1.4737523794174194 1.1897549629211426 1.2260825634002686 1.6111139059066772 2.4530324935913086 3.873267889022827 5.884993553161621 0 0 -9999
-9999 0 0 10.536946296691895 8.320183753967285 6.375870227813721 4.5859575271606445 3.0476489067077637 1.9128470420837402 1.198298454284668 0.8233346939086914 0.6615807414054871 0.6601530313491821 0.8467328548431396 1.2919182777404785 2.146136522293091 3.490712881088257 5.1605353355407715 0 -9999
-9999 0 0 10.368043899536133 7.598413467407227 5.185063362121582 3.20900297164917 1.8107060194015503 1.0035946369171143 0.6054672598838806 0.43040740489959717 0.35680559277534485 0.3564387857913971 0.4331982433795929 0.6405880451202393 1.0654410123825073 1.8394302129745483 2.886141300201416 0 -9999
-9999 0 0 9.900126457214355 6.530252933502197 3.910395622253418 2.043572187423706 0.9586848020553589 0.46952709555625916 0.2727392911911011 0.19553926587104797 0.16748329997062683 0.16782087087631226 0.1987239420413971 0.28147092461586 0.4671056270599365 0.8223551511764526 0 0 -9999
-9999 0 0 8.617734909057617 5.104905605316162 2.723609447479248 1.2394331693649292 0.5051270127296448 0.22196607291698456 0.11889161169528961 0.08194248378276825 0.06807515770196915 0.067275770008564 0.07599814981222153 0.10160057991743088 0.16487102210521698 0.2998007535934448 0 0 -9999
-9999 0 0 6.383644104003906 3.4269230365753174 1.6683287620544434 0.7057591080665588 0.2677702307701111 0.1085207536816597 0.05527622997760773 0.03293300420045853 0.025143124163150787 0.022745369002223015 0.0240219347178936 0.030750354751944542 0.04721076786518097 0.0901956632733345 0 0 -9999
-9999 0 0 3.9272849559783936 1.8703851699829102 0.8437979221343994 0.3499746322631836 0.13604409992694855 0.05378453806042671 0.026996595785021782 0.016165057197213173 0.011500341817736626 0.009403379634022713 0.008939039893448353 0.009882714599370956 0.013499683700501919 0.02273692935705185 0 0 -9999
-9999 0 0 2.188091516494751 0.9037965536117554 0.37857213616371155 0.1584835946559906 0.06398169696331024 0.029188450425863266 0.015448753722012043 0.009485394693911076 0.0064844172447919846 0.004960179328918457 0.0042977952398359776 0.004108773078769445 0.0046601383946835995 0.006213258020579815 0 -9999 -9999
-9999 0 0 1.307084321975708 0.4820583462715149 0.18244603276252747 0.07437298446893692 0.03346711024641991 0.017265506088733673 0.009887215681374073 0.0063497526571154594 0.004385592415928841 0.003508339636027813 0.0038916701450943947 0.004415061790496111 0.0050448342226445675 0.005756355356425047 0.006399618927389383 -9999 -9999
-9999 0 0 0.8827674388885498 0.3023068308830261 0.09844952076673508 0.04060458764433861 0.01911090314388275 0.01046930905431509 0.006367402616888285 0.004294001031666994 0.0037732133641839027 0.00405502924695611 0.0045058634132146835 0.005091212224215269 0.005784413777291775 0.006586662493646145 0.007510014809668064 0.008636780083179474 0.009172732010483742
-9999 -9999 0 0.6222288012504578 0.21008293330669403 0.06587089598178864 0.025583108887076378 0.01197049394249916 0.006650417577475309 0.004266821313649416 0.004140591248869896 0.004261543974280357 0.004592632409185171 0.0050981007516384125 0.005729986354708672 0.006447566207498312 0.007225713226944208 0.008029472082853317 0.008752510882914066 0.009117769077420235
-9999 -9999 0 0 0.15365934371948242 0.046984024345874786 0.017445271834731102 0.007876754738390446 0.004950016736984253 0.004594967234879732 0.00450697960332036 0.00466135423630476 0.005027989391237497 0.005568170920014381 0.00622238963842392 0.006935200188308954 0.0076573872938752174 0.00831087026745081 0.008800237439572811 0.009054112248122692
-9999 -9999 -9999 0 0.12385132163763046 0.039800990372896194 0.01447861548513174 0.0064157056622207165 0.005110683850944042 0.004781736526638269 0.0047130524180829525 0.0048820143565535545 0.005266128107905388 0.005822915118187666 0.006487105041742325 0.007188776507973671 0.007875325158238411 0.008439529687166214 0.0088383499532938 0.009043525904417038
