ncols         20
nrows         20
xllcorner     0
yllcorner     -3.5992928
cellsize      0.17996463
NODATA_value  -9999
-9999.0 -9999 -9999 -9999 -9999 -9999 -9999 -9999 -9999 -9999 -9999 -9999 -9999 -9999 -9999 -9999 -9999 -9999 -9999 -9999
-9999 -9999 -9999 -9999 -9999 -9999 -9999 -9999 -9999 -9999 -9999 26.324710845947266 26.325111389160156 -9999 -9999 26.48288917541504 26.564743041992188 -9999 -9999 -9999
-9999 -9999 -9999 -9999 26.489538192749023 26.366703033447266 26.18694496154785 26.046327590942383 25.962764739990234 25.93289566040039 26.002220153808594 26.09494972229004 26.063491821289062 25.961734771728516 26.033334732055664 26.250186920166016 26.38893699645996 26.421772003173828 -9999 -9999
-9999 -9999 -9999 26.50088119506836 26.435932159423828 26.3226261138916 26.18722915649414 26.092498779296875 26.029287338256836 25.990766525268555 25.973278045654297 25.95025062561035 25.874013900756836 25.804285049438477 25.826257705688477 25.950407028198242 26.07155418395996 26.121301651000977 -9999 -9999
-9999 -9999 -9999 26.41261100769043 26.35308265686035 26.278825759887695 26.258852005004883 26.311973571777344 26.376243591308594 26.412965774536133 26.41078758239746 26.329036712646484 26.143232345581055 25.930999755859375 25.78028106689453 25.735946655273438 25.734128952026367 25.70482635498047 -9999 -9999
-9999 -9999 26.33717918395996 26.29607391357422 26.25411605834961 26.323055267333984 26.60198402404785 27.04562759399414 27.438737869262695 27.71575927734375 27.863384246826172 27.745325088500977 27.32167625427246 26.775625228881836 26.276287078857422 25.901493072509766 25.669010162353516 25.519424438476562 25.428394317626953 -9999
-9999 -9999 26.152847290039062 26.125375747680664 26.171592712402344 26.521835327148438 27.360164642333984 28.64545440673828 29.672534942626953 30.293367385864258 30.509132385253906 30.218015670776367 29.396230697631836 28.408161163330078 27.433551788330078 26.635404586791992 26.083444595336914 25.751401901245117 25.59232521057129 -9999
-9999 -9999 25.81382942199707 25.84012222290039 26.082473754882812 26.880094528198242 28.563810348510742 31.287174224853516 32.824893951416016 33.51369094848633 33.59642028808594 33.022396087646484 31.643606185913086 30.288429260253906 29.037548065185547 27.92156982421875 27.029354095458984 26.457700729370117 26.177762985229492 -9999
-9999 25.361724853515625 25.438629150390625 25.57111167907715 26.07721519470215 27.33207893371582 29.694881439208984 32.92586135864258 34.704673767089844 35.43885803222656 35.46857833862305 34.80149459838867 33.33280563354492 31.904804229736328 30.618511199951172 29.451505661010742 28.44004249572754 27.694332122802734 27.303394317626953 -9999
-9999 25.153751373291016 25.222991943359375 25.50790786743164 26.33707618713379 28.005718231201172 30.737178802490234 33.942623138427734 35.71643829345703 36.4468879699707 36.47283172607422 35.833885192871094 34.46086120605469 33.11962127685547 31.93111801147461 30.870450973510742 29.935325622558594 29.209369659423828 28.810108184814453 -9999
-9999 25.033828735351562 25.225666046142578 25.783245086669922 26.964473724365234 28.943782806396484 31.68933868408203 34.591407775878906 36.2137451171875 36.90053939819336 36.94731903076172 36.39133834838867 35.16525650024414 33.967952728271484 32.91878128051758 32.002017974853516 31.211400985717773 30.598037719726562 30.252788543701172 -9999
-9999 25.281185150146484 25.645950317382812 26.497365951538086 27.93931770324707 29.990966796875 32.42574691772461 34.84475326538086 36.241241455078125 36.87760543823242 36.97248458862305 36.55140686035156 35.547977447509766 34.5600700378418 33.67503356933594 32.88179397583008 32.191776275634766 31.663068771362305 31.359333038330078 -9999
-9999 26.062847137451172 26.586580276489258 27.660507202148438 29.183204650878906 30.979156494140625 32.87126922607422 34.59939193725586 35.74873352050781 36.3568115234375 36.534263610839844 36.306251525878906 35.726097106933594 35.057525634765625 34.379844665527344 33.70654296875 33.05084228515625 32.51931381225586 32.16548538208008 -9999
-9999 27.30309295654297 27.923946380615234 29.045738220214844 30.40849494934082 31.84012222290039 33.23719787597656 34.481998443603516 35.41335678100586 35.96642303466797 36.2029914855957 36.16751480102539 35.91730880737305 35.55485534667969 35.11982727050781 34.60296630859375 34.02531433105469 33.439903259277344 32.78046798706055 -9999
-9999 28.648910522460938 29.253679275512695 30.2608585357666 31.392593383789062 32.518829345703125 33.58932876586914 34.554264068603516 35.29145050048828 35.79202651977539 36.077781677246094 36.193458557128906 36.17737579345703 36.065528869628906 35.870880126953125 35.5711784362793 35.193634033203125 34.819618225097656 -9999 -9999
-9999 29.70465087890625 30.293006896972656 31.157520294189453 32.09998321533203 33.051753997802734 33.9611930847168 34.74217224121094 35.36112594604492 35.816280364990234 36.125511169433594 36.334049224853516 36.466033935546875 36.5287971496582 36.51627731323242 36.42420196533203 36.289764404296875 36.232479095458984 -9999 -9999
-9999 30.33343505859375 31.05717658996582 31.79966926574707 32.62104415893555 33.50819778442383 34.32167434692383 35.02606201171875 35.584571838378906 36.007225036621094 36.31882858276367 36.568294525146484 36.77382278442383 36.929752349853516 37.02524185180664 37.05763626098633 37.0631103515625 37.134037017822266 37.429115295410156 37.55415725708008
-9999 -9999 31.842636108398438 32.32484436035156 33.0219612121582 33.85771560668945 34.661529541015625 35.355072021484375 35.89240264892578 36.2889404296875 36.58412170410156 36.838523864746094 37.06951141357422 37.275291442871094 37.420570373535156 37.49997329711914 37.548866271972656 37.598323822021484 37.67992401123047 37.70243453979492
-9999 -9999 32.23199462890625 32.68635559082031 33.3133659362793 34.12999725341797 34.95671081542969 35.66645050048828 36.19794464111328 36.568763732910156 36.834381103515625 37.077762603759766 37.31583023071289 37.53754425048828 37.698028564453125 37.79201126098633 37.84608459472656 37.86261749267578 37.8480224609375 37.83534622192383
-9999 -9999 -9999 32.998779296875 33.51139831542969 34.283626556396484 35.120506286621094 35.83795928955078 36.362396240234375 36.7169189453125 36.97013473510742 37.197933197021484 37.43718719482422 37.66639709472656 37.84003829956055 37.938297271728516 38.00031280517578 37.98459243774414 37.949676513671875 37.92869567871094
