ncols         20
nrows         20
xllcorner     0
yllcorner     -3.5992928
cellsize      0.17996463
NODATA_value  -9999
-9999.0 -9999 -9999 -9999 -9999 -9999 -9999 -9999 -9999 -9999 -9999 -9999 -9999 -9999 -9999 -9999 -9999 -9999 -9999 -9999
-9999 -9999 -9999 -9999 -9999 -9999 -9999 -9999 -9999 -9999 -9999 13.340867042541504 13.352015495300293 -9999 -9999 13.226009368896484 13.308592796325684 -9999 -9999 -9999
-9999 -9999 -9999 -9999 13.213522911071777 13.150972366333008 13.050291061401367 13.017830848693848 13.03243350982666 13.051495552062988 13.176749229431152 13.194598197937012 13.147899627685547 13.104047775268555 13.131645202636719 13.180553436279297 13.268095016479492 13.346684455871582 -9999 -9999
-9999 -9999 -9999 13.178667068481445 13.125513076782227 13.061483383178711 12.998687744140625 12.988327980041504 12.987566947937012 12.988593101501465 12.978282928466797 12.94994831085205 12.901789665222168 12.894519805908203 12.90779972076416 12.97934341430664 13.095808982849121 13.180953979492188 -9999 -9999
-9999 -9999 -9999 13.116455078125 13.048833847045898 12.94938850402832 12.926437377929688 12.979783058166504 13.036300659179688 13.06365966796875 13.066630363464355 13.036795616149902 12.957618713378906 12.86933708190918 12.789114952087402 12.801037788391113 12.881762504577637 12.877126693725586 -9999 -9999
-9999 -9999 13.153875350952148 13.048835754394531 12.939764022827148 12.897017478942871 13.0344877243042 13.30805778503418 13.511520385742188 13.67429256439209 13.800736427307129 13.814446449279785 13.65367317199707 13.382828712463379 13.097490310668945 12.907353401184082 12.841120719909668 12.820183753967285 12.935829162597656 -9999
-9999 -9999 13.062051773071289 12.950223922729492 12.81657600402832 12.90977668762207 13.39013957977295 14.173203468322754 14.586908340454102 14.877995491027832 15.088760375976562 15.087362289428711 14.733565330505371 14.279279708862305 13.791472434997559 13.370776176452637 13.092172622680664 12.971693992614746 12.95732307434082 -9999
-9999 -9999 12.823623657226562 12.684720039367676 12.618889808654785 12.980122566223145 14.007604598999023 15.900681495666504 16.411514282226562 16.614337921142578 16.736814498901367 16.643030166625977 15.805980682373047 15.202146530151367 14.647144317626953 14.110515594482422 13.673372268676758 13.398222923278809 13.27724838256836 -9999
-9999 12.68265438079834 12.51241397857666 12.35603141784668 12.427220344543457 13.048747062683105 14.358074188232422 16.379058837890625 16.951847076416016 17.144081115722656 17.229421615600586 17.13263702392578 16.426301956176758 15.915987014770508 15.456564903259277 14.9669771194458 14.487632751464844 14.126523971557617 13.949715614318848 -9999
-9999 12.404895782470703 12.240144729614258 12.1322021484375 12.440467834472656 13.34076976776123 14.78398323059082 16.65969467163086 17.210895538330078 17.381872177124023 17.441932678222656 17.366334915161133 16.817806243896484 16.439897537231445 16.11369514465332 15.758874893188477 15.36436939239502 15.028864860534668 14.854504585266113 -9999
-9999 12.111912727355957 12.060050964355469 12.190738677978516 12.783896446228027 13.849571228027344 15.294177055358887 16.958688735961914 17.44099998474121 17.579240798950195 17.627126693725586 17.571434020996094 17.11215591430664 16.82358169555664 16.60679817199707 16.379985809326172 16.127561569213867 15.892683029174805 15.768723487854004 -9999
-9999 12.091896057128906 12.21276569366455 12.633588790893555 13.4276123046875 14.493159294128418 15.773726463317871 17.160131454467773 17.564966201782227 17.6842041015625 17.728788375854492 17.69485855102539 17.301166534423828 17.08978271484375 16.95395278930664 16.81709861755371 16.664831161499023 16.53399658203125 16.47749137878418 -9999
-9999 12.556320190429688 12.837831497192383 13.477060317993164 14.300920486450195 15.206075668334961 16.116601943969727 16.908489227294922 17.282451629638672 17.43315887451172 17.489259719848633 17.472637176513672 17.351762771606445 17.26739501953125 17.198036193847656 17.118770599365234 17.008155822753906 16.922704696655273 16.918254852294922 -9999
-9999 13.427472114562988 13.791407585144043 14.503985404968262 15.256502151489258 15.927680015563965 16.50162124633789 16.94944190979004 17.215560913085938 17.340747833251953 17.39472007751465 17.408536911010742 17.3979549407959 17.393369674682617 17.391822814941406 17.358612060546875 17.277320861816406 17.164411544799805 17.20309829711914 -9999
-9999 14.304891586303711 14.683276176452637 15.375333786010742 16.017290115356445 16.493425369262695 16.83861541748047 17.09079933166504 17.24443817138672 17.33092498779297 17.375730514526367 17.408079147338867 17.438282012939453 17.473352432250977 17.516857147216797 17.531843185424805 17.501846313476562 17.370811462402344 -9999 -9999
-9999 14.931471824645996 15.310125350952148 15.938417434692383 16.476118087768555 16.848318099975586 17.075824737548828 17.217945098876953 17.297561645507812 17.34746742248535 17.37800407409668 17.413232803344727 17.457782745361328 17.509265899658203 17.56451988220215 17.613304138183594 17.646503448486328 17.720962524414062 -9999 -9999
-9999 15.31686019897461 15.751544952392578 16.279373168945312 16.73201560974121 17.058658599853516 17.23174476623535 17.326763153076172 17.369476318359375 17.394811630249023 17.412689208984375 17.4404354095459 17.480449676513672 17.52617645263672 17.578521728515625 17.629213333129883 17.669849395751953 17.69695472717285 17.63273811340332 17.640634536743164
-9999 -9999 16.193239212036133 16.5262451171875 16.889507293701172 17.17320442199707 17.336477279663086 17.41817855834961 17.447044372558594 17.457080841064453 17.45856475830078 17.47505760192871 17.503686904907227 17.549671173095703 17.590635299682617 17.622514724731445 17.654951095581055 17.671405792236328 17.661518096923828 17.632619857788086
-9999 -9999 16.50704574584961 16.72979736328125 17.007211685180664 17.26382064819336 17.42721176147461 17.508420944213867 17.532102584838867 17.524269104003906 17.50493812561035 17.512569427490234 17.536123275756836 17.57259750366211 17.596710205078125 17.612789154052734 17.632152557373047 17.638980865478516 17.61005401611328 17.59279441833496
-9999 -9999 -9999 16.858877182006836 17.06937026977539 17.300569534301758 17.46588134765625 17.54502296447754 17.559350967407227 17.543174743652344 17.52278709411621 17.517498016357422 17.53868865966797 17.571449279785156 17.595579147338867 17.599889755249023 17.62154769897461 17.601463317871094 17.58051109313965 17.570335388183594
