ncols         20
nrows         20
xllcorner     0
yllcorner     -3.5992928
cellsize      0.17996463
NODATA_value  -9999
-9999.0 -9999 -9999 -9999 -9999 -9999 -9999 -9999 -9999 -9999 -9999 -9999 -9999 -9999 -9999 -9999 -9999 -9999 -9999 -9999
-9999 -9999 -9999 -9999 -9999 -9999 -9999 -9999 -9999 -9999 -9999 11.790091514587402 11.763952255249023 -9999 -9999 11.785965919494629 11.632497787475586 -9999 -9999 -9999
-9999 -9999 -9999 -9999 11.706615447998047 11.853081703186035 12.087646484375 12.207459449768066 12.238507270812988 12.255521774291992 12.074405670166016 12.042984008789062 12.118995666503906 12.189803123474121 12.117390632629395 11.957592964172363 11.79202651977539 11.692150115966797 -9999 -9999
-9999 -9999 -9999 11.758337020874023 11.868661880493164 11.999954223632812 12.16032886505127 12.227150917053223 12.258126258850098 12.253793716430664 12.268933296203613 12.30557632446289 12.392958641052246 12.44592571258545 12.461363792419434 12.349419593811035 12.172069549560547 12.05844783782959 -9999 -9999
-9999 -9999 -9999 11.913643836975098 12.023670196533203 12.2205810546875 12.285893440246582 12.191399574279785 12.02708911895752 11.833301544189453 11.647917747497559 11.597190856933594 11.771258354187012 12.113012313842773 12.45602798461914 12.614413261413574 12.590815544128418 12.674633026123047 -9999 -9999
-9999 -9999 11.950586318969727 12.112492561340332 12.28656005859375 12.365058898925781 12.107669830322266 11.532615661621094 10.93354606628418 10.271820068359375 9.606532096862793 9.33587646484375 9.630034446716309 10.469014167785645 11.455306053161621 12.19481372833252 12.587441444396973 12.79045295715332 12.725074768066406 -9999
-9999 -9999 12.185077667236328 12.353110313415527 12.579293251037598 12.389227867126465 11.449691772460938 9.81718635559082 8.60500431060791 7.545315265655518 6.664656162261963 6.339196681976318 6.8251752853393555 7.9405999183654785 9.414877891540527 10.845867156982422 11.823310852050781 12.34280776977539 12.536314010620117 -9999
-9999 -9999 12.703720092773438 12.913107872009277 12.97903060913086 12.244006156921387 10.207680702209473 6.181412696838379 4.792902946472168 3.9973225593566895 3.510091543197632 3.456967830657959 4.488254070281982 5.591582775115967 7.059722900390625 8.724235534667969 10.149686813354492 11.127964973449707 11.564593315124512 -9999
-9999 13.132278442382812 13.361270904541016 13.534460067749023 13.272139549255371 11.928229331970215 9.164529800415039 4.876894474029541 3.3409411907196045 2.6207244396209717 2.294386148452759 2.322502851486206 3.028324842453003 3.7975571155548096 4.865168571472168 6.293238639831543 7.830708980560303 9.046063423156738 9.644209861755371 -9999
-9999 13.667198181152344 13.860939979553223 13.887321472167969 13.052495956420898 11.004744529724121 7.822853088378906 3.8931243419647217 2.440585136413574 1.8182634115219116 1.5894389152526855 1.6145509481430054 2.0364038944244385 2.460543632507324 3.114166021347046 4.080833435058594 5.342706203460693 6.477240562438965 7.067800521850586 -9999
-9999 14.188777923583984 14.147122383117676 13.626890182495117 12.112957000732422 9.567893981933594 6.311618328094482 2.966557264328003 1.7220234870910645 1.209364891052246 1.0203371047973633 1.0161516666412354 1.2181947231292725 1.4267674684524536 1.7615126371383667 2.3326427936553955 3.1217126846313477 3.965486526489258 4.423559188842773 -9999
-9999 14.100481033325195 13.69582748413086 12.500134468078613 10.448311805725098 7.775644779205322 4.8375139236450195 2.2201321125030518 1.2017685174942017 0.7672112584114075 0.5980634689331055 0.5511467456817627 0.6158676743507385 0.6819791793823242 0.8097978234291077 1.0783437490463257 1.516592264175415 2.0155274868011475 2.2931981086730957 -9999
-9999 12.899273872375488 12.10004997253418 10.299910545349121 8.08265209197998 5.703909397125244 3.465937614440918 1.7554905414581299 0.8910698890686035 0.5229964852333069 0.3493751883506775 0.2803260087966919 0.25702548027038574 0.25631779432296753 0.29103147983551025 0.37828099727630615 0.5844999551773071 0.8411315679550171 1.011993408203125 -9999
-9999 10.623266220092773 9.561007499694824 7.474021911621094 5.383886337280273 3.581986427307129 2.12972354888916 1.1142218112945557 0.5521065592765808 0.31276971101760864 0.2002800703048706 0.14481960237026215 0.11515844613313675 0.1014138013124466 0.10018504410982132 0.1188722550868988 0.16959787905216217 0.28024113178253174 0.38483986258506775 -9999
-9999 8.193202018737793 7.0809478759765625 5.007257461547852 3.213360071182251 1.9769231081008911 1.1427643299102783 0.5967150926589966 0.32203036546707153 0.18798373639583588 0.12085198611021042 0.08256081491708755 0.060401175171136856 0.048273343592882156 0.04178249090909958 0.04254886135458946 0.05031098425388336 0.07682721316814423 -9999 -9999
-9999 6.475193977355957 5.361975193023682 3.451165199279785 1.9814413785934448 1.0859547853469849 0.5845300555229187 0.32073891162872314 0.18874497711658478 0.11727110296487808 0.07800453156232834 0.05325542390346527 0.04047244414687157 0.041913826018571854 0.04412686079740524 0.046674590557813644 0.04922963306307793 0.051484365016222 -9999 -9999
-9999 5.362753868103027 4.173604965209961 2.5626003742218018 1.3436702489852905 0.620216965675354 0.3221932649612427 0.1785239577293396 0.10939295589923859 0.0713765025138855 0.04937397316098213 0.04284780099987984 0.04439370334148407 0.04701428860425949 0.05041231960058212 0.05431561544537544 0.05873114615678787 0.06436461955308914 0.0740332379937172 0.07855375111103058
-9999 -9999 3.0365538597106934 1.9592067003250122 0.9774996042251587 0.416948527097702 0.1983516812324524 0.10693912208080292 0.06567922234535217 0.04488511383533478 0.04467323422431946 0.04592501372098923 0.04849397763609886 0.05215555056929588 0.05653444677591324 0.0613236166536808 0.06642328947782516 0.07180432975292206 0.07732698321342468 0.08021024614572525
-9999 -9999 2.0891411304473877 1.4493629932403564 0.7332122325897217 0.2962980270385742 0.13174988329410553 0.06769979745149612 0.046749234199523926 0.046023037284612656 0.04664016515016556 0.04863772913813591 0.05194125697016716 0.05631888657808304 0.06131203845143318 0.0665227398276329 0.07166871428489685 0.07629082351922989 0.07986295968294144 0.08176138252019882
-9999 -9999 -9999 1.1476571559906006 0.5992992520332336 0.24876824021339417 0.1073499396443367 0.054033923894166946 0.04702857509255409 0.046800751239061356 0.0478329099714756 0.05018509551882744 0.05386119335889816 0.0586015023291111 0.06390397250652313 0.06924595683813095 0.07432404160499573 0.07836414128541946 0.08120717853307724 0.08268200606107712
