ncols         20
nrows         20
xllcorner     0
yllcorner     -3.5992928
cellsize      0.17996463
NODATA_value  -9999
-9999.0 -9999 -9999 -9999 -9999 -9999 -9999 -9999 -9999 -9999 -9999 -9999 -9999 -9999 -9999 -9999 -9999 -9999 -9999 -9999
-9999 -9999 -9999 -9999 -9999 -9999 -9999 -9999 -9999 -9999 -9999 0.21539749205112457 0.21115900576114655 -9999 -9999 0.18736107647418976 0.1753890961408615 -9999 -9999 -9999
-9999 -9999 -9999 -9999 0.2199089080095291 0.236357644200325 0.26605817675590515 0.29083165526390076 0.30701932311058044 0.3165794312953949 0.286774605512619 0.26342037320137024 0.26152995228767395 0.2617841958999634 0.23676666617393494 0.20609617233276367 0.18572236597537994 0.17392073571681976 -9999 -9999
-9999 -9999 -9999 0.21075890958309174 0.22733066976070404 0.24999681115150452 0.2828453481197357 0.3156273066997528 0.35055550932884216 0.37933647632598877 0.3967765271663666 0.3928509056568146 0.3837873935699463 0.35211658477783203 0.3076019287109375 0.2578064203262329 0.22012297809123993 0.20046579837799072 -9999 -9999
-9999 -9999 -9999 0.2131115347146988 0.23349414765834808 0.2742420732975006 0.3243480622768402 0.38263580203056335 0.4539082944393158 0.545908510684967 0.6328759789466858 0.6721121072769165 0.6494132876396179 0.5600249767303467 0.4601529538631439 0.3610641062259674 0.29109007120132446 0.2728853225708008 -9999 -9999
-9999 -9999 0.18335117399692535 0.20980486273765564 0.24651329219341278 0.3025536835193634 0.3720598518848419 0.4612770974636078 0.5952877998352051 0.7658495903015137 0.9447473883628845 1.0317554473876953 1.0127050876617432 0.8698605895042419 0.6836487650871277 0.5204742550849915 0.4072357714176178 0.3623630106449127 0.335208535194397 -9999
-9999 -9999 0.1868939995765686 0.2126486599445343 0.26870542764663696 0.34765443205833435 0.44275474548339844 0.5740959644317627 0.762721836566925 0.9993812441825867 1.2362037897109985 1.3721439838409424 1.3632097244262695 1.2096723318099976 0 0.7538266181945801 0.5840588808059692 0.4807761609554291 0.43998438119888306 -9999
-9999 -9999 0.2042805552482605 0.24253295361995697 0.322089821100235 0.42917951941490173 0.5688871145248413 0.7486636638641357 0.9682979583740234 1.2205332517623901 1.436948299407959 1.5785151720046997 1.5928455591201782 1.479107141494751 1.276861310005188 1.0357509851455688 0.8281586766242981 0.6799898147583008 0.6199924349784851 -9999
-9999 0.19696691632270813 0.23611053824424744 0.30180564522743225 0.4236295223236084 0.5883178114891052 0.7828844785690308 1.0146631002426147 1.2519620656967163 1.4655848741531372 1.6204731464385986 1.7222603559494019 1.7588213682174683 1.7009965181350708 1.5690754652023315 0 1.1278027296066284 0.9464539885520935 0.867887556552887 -9999
-9999 0.23690837621688843 0.28698238730430603 0.40382128953933716 0.5869155526161194 0.8216084241867065 1.0879995822906494 1.3629010915756226 1.592098355293274 1.7450710535049438 1.827070951461792 1.8861452341079712 1.9182460308074951 1.9099321365356445 1.8373557329177856 0 1.470234990119934 1.277748465538025 1.1913764476776123 -9999
-9999 0.32089775800704956 0.38930773735046387 0.5477496385574341 0.7778986096382141 1.0662504434585571 1.390458345413208 1.6927235126495361 1.8919399976730347 1.9912183284759521 2.0376534461975098 2.075424909591675 2.116192102432251 2.127917766571045 2.091106653213501 1.9982850551605225 1.8296661376953125 1.6545320749282837 1.5700328350067139 -9999
-9999 0.46642306447029114 0.5516466498374939 0.7506819367408752 1.013443112373352 1.3181053400039673 1.6469839811325073 1.919265866279602 2.0624001026153564 2.114366292953491 2.138906717300415 2.1830267906188965 0 0 2.273327350616455 0 2.1271705627441406 2.000804901123047 1.9323760271072388 -9999
-9999 0.6929839253425598 0.8056898713111877 1.048189401626587 1.3132015466690063 1.5927917957305908 1.861061453819275 2.052375555038452 2.1136629581451416 2.1023049354553223 2.0917835235595703 2.1154842376708984 0 0 0 2.21016526222229 2.205390691757202 2.176790952682495 2.132763385772705 -9999
-9999 0.9883741736412048 1.1242374181747437 1.3987269401550293 1.658263921737671 1.873718500137329 2.034505844116211 2.106627941131592 2.083285331726074 2.0227725505828857 1.9726725816726685 1.9479442834854126 0 0 0 1.9081262350082397 1.9780642986297607 2.0991225242614746 2.106682538986206 -9999
-9999 1.264526128768921 1.408092737197876 1.6957019567489624 1.9269274473190308 2.0549092292785645 2.101060152053833 2.0765786170959473 2.004983425140381 1.9243446588516235 1.8564651012420654 1.7786438465118408 1.6957638263702393 1.610003113746643 0 0 1.5323193073272705 1.7115364074707031 -9999 -9999
-9999 1.4394817352294922 1.5858800411224365 1.8611986637115479 2.038548469543457 2.0861175060272217 2.0534613132476807 1.9794385433197021 1.9037983417510986 1.8350402116775513 0 0 0 1.3630576133728027 0 0 1.0807384252548218 0 -9999 -9999
-9999 1.5642662048339844 1.702475666999817 1.9325770139694214 2.0573339462280273 2.0343899726867676 1.944218397140503 1.842315673828125 1.7705018520355225 0 0 0 0 1.1674729585647583 1.015262246131897 0.8873414993286133 0.7869410514831543 0.695010244846344 0 0
-9999 -9999 1.806240439414978 1.9663164615631104 2.0414607524871826 1.9611027240753174 1.8170818090438843 1.690922737121582 0 0 0 0 0 0 0 0 0 0 0 0
-9999 -9999 1.9280439615249634 1.997226357460022 2.0119757652282715 1.8762532472610474 1.6824434995651245 1.523598074913025 0 0 0 0 0 0 0 0 0 0 0 0
-9999 -9999 -9999 2.002101182937622 1.991254448890686 1.8330057859420776 1.6126813888549805 1.4393184185028076 0 0 0 0 0 0 0 0 0 0 0 0
