ncols         20
nrows         20
xllcorner     0
yllcorner     -3.5992928
cellsize      0.17996463
NODATA_value  -9999
-9999.0 -9999 -9999 -9999 -9999 -9999 -9999 -9999 -9999 -9999 -9999 -9999 -9999 -9999 -9999 -9999 -9999 -9999 -9999 -9999
-9999 -9999 -9999 -9999 -9999 -9999 -9999 -9999 -9999 -9999 -9999 1.2726507186889648 1.2705748081207275 -9999 -9999 1.3463594913482666 1.317732334136963 -9999 -9999 -9999
-9999 -9999 -9999 -9999 1.2700426578521729 1.286549687385559 1.3138517141342163 1.3190826177597046 1.3142403364181519 1.3171398639678955 1.291693091392517 1.3086262941360474 1.3353915214538574 1.3568195104599 1.362953543663025 1.3621220588684082 1.3393968343734741 1.3152517080307007 -9999 -9999
-9999 -9999 -9999 1.298588514328003 1.3133130073547363 1.3284759521484375 1.3442307710647583 1.3450884819030762 1.3458106517791748 1.3403466939926147 1.34363853931427 1.3596745729446411 1.3864301443099976 1.407562255859375 1.4306442737579346 1.4328444004058838 1.4056977033615112 1.3773727416992188 -9999 -9999
-9999 -9999 -9999 1.3327134847640991 1.3527966737747192 1.388317346572876 1.3982771635055542 1.389009714126587 1.3461055755615234 1.2736057043075562 1.2012662887573242 1.174476146697998 1.2144057750701904 1.3110628128051758 1.4188525676727295 1.4746248722076416 1.476705551147461 1.4894366264343262 -9999 -9999
-9999 -9999 1.3446122407913208 1.37538480758667 1.4110019207000732 1.43575918674469 1.4185429811477661 1.3489770889282227 1.2051228284835815 1.0029494762420654 0.810730516910553 0.7243320941925049 0.7611861228942871 0.9334052801132202 1.1795555353164673 1.368287444114685 1.4741694927215576 1.5066843032836914 1.476943016052246 -9999
-9999 -9999 1.3774076700210571 1.4125722646713257 1.46687650680542 1.4726526737213135 1.4022232294082642 1.2330118417739868 0.9675316214561462 0.671390950679779 0.4475392699241638 0.35061922669410706 0.3699812591075897 0.5191050171852112 0 1.0948747396469116 1.3281922340393066 1.4459818601608276 1.476757526397705 -9999
-9999 -9999 1.4516595602035522 1.49332857131958 1.521944522857666 1.4714508056640625 1.2976956367492676 1.0100352764129639 0.6799504160881042 0.4012504518032074 0.23721277713775635 0.16855484247207642 0.1724972128868103 0.2518969476222992 0.43593478202819824 0.713198721408844 1.0016227960586548 1.2225494384765625 1.3182651996612549 -9999
-9999 1.4871567487716675 1.5429905652999878 1.5648918151855469 1.5304744243621826 1.3525813817977905 1.0391039848327637 0.6789368391036987 0.3867127597332001 0.20598092675209045 0.11840570718050003 0.08347588777542114 0.08162819594144821 0.11589403450489044 0.2056388258934021 0 0.617871105670929 0.8443540334701538 0.9691666960716248 -9999
-9999 1.5672050714492798 1.6012382507324219 1.5761688947677612 1.4098583459854126 1.0670714378356934 0.6687201857566833 0.3496781289577484 0.16722716391086578 0.08404868841171265 0.05073326826095581 0.03760053589940071 0.03692987188696861 0.04880097135901451 0.08425888419151306 0 0.2962845265865326 0.45345333218574524 0.5501199960708618 -9999
-9999 1.6328376531600952 1.6147570610046387 1.477105975151062 1.163525938987732 0.7419236302375793 0.36912286281585693 0.1483151763677597 0.058447979390621185 0.027335207909345627 0.0166404377669096 0.013003683649003506 0.01289303321391344 0.016468599438667297 0.02701123058795929 0.05310646817088127 0.10343550890684128 0.17679403722286224 0.22517578303813934 -9999
-9999 1.5843790769577026 1.5010446310043335 1.230424165725708 0.8418327569961548 0.458984911441803 0.18767771124839783 0.06060519441962242 0.019694797694683075 0.007882451638579369 0.004406202584505081 0.0032670176587998867 0 0 0.005836157593876123 0 0.02525586634874344 0.047319695353507996 0.06259409338235855 -9999
-9999 1.3540785312652588 1.1917486190795898 0.8405468463897705 0.4984995722770691 0.23775528371334076 0.0863388180732727 0.024258477613329887 0.006573216058313847 0.002296822378411889 0.0009046527557075024 0.0005668879603035748 0 0 0 0.0014501736732199788 0.004038028884679079 0.008760505355894566 0.012727901339530945 -9999
-9999 0.9593740701675415 0.7725446820259094 0.4537851810455322 0.22342227399349213 0.09373508393764496 0.03186505660414696 0.00864014308899641 0.0019639558158814907 0.000651212059892714 0.00028660206589847803 0.00017170161299873143 0 0 0 0.00020063771808054298 0.00041558456723578274 0.0010863589122891426 0.0018482307204976678 -9999
-9999 0.6091313362121582 0.4510720372200012 0.21515707671642303 0.08371651917695999 0.0301952064037323 0.009681468829512596 0.002443260047584772 0.0007227614987641573 0.0002828070137184113 0.00014791158901061863 9.388413309352472E-05 7.001878839218989E-05 6.098115409258753E-05 0 0 8.602974412497133E-05 0.00017888816364575177 -9999 -9999
-9999 0.41107481718063354 0.2814043164253235 0.11227081716060638 0.03542939946055412 0.010235666297376156 0.002788129262626171 0.0008570453501306474 0.0003387961769476533 0.00016873874119482934 0 0 0 8.775112655712292E-05 0 0 0.0001502832310507074 0 -9999 -9999
-9999 0.298801451921463 0.18653830885887146 0.06960500776767731 0.018816228955984116 0.0038354499265551567 0.0010653381468728185 0.0003740204556379467 0.00017961054982151836 0 0 0 0 0.00015781445836182684 0.00019932362192776054 0.00023868556309025735 0.0002754251181613654 0.00032017691410146654 0 0
-9999 -9999 0.11058197170495987 0.04622886702418327 0.011658578179776669 0.002123171929270029 0.0005394355393946171 0.00019992669695056975 0 0 0 0 0 0 0 0 0 0 0 0
-9999 -9999 0.05626383423805237 0.028175363317131996 0.0074888477101922035 0.001289323903620243 0.0003100984904449433 0.00011529860785230994 0 0 0 0 0 0 0 0 0 0 0 0
-9999 -9999 -9999 0.019328651949763298 0.005325803067535162 0.0010085924295708537 0.00023971863265614957 9.030130604514852E-05 0 0 0 0 0 0 0 0 0 0 0 0
