ncols         20
nrows         20
xllcorner     0
yllcorner     -3.5992928
cellsize      0.17996463
NODATA_value  -9999
-9999.0 -9999 -9999 -9999 -9999 -9999 -9999 -9999 -9999 -9999 -9999 -9999 -9999 -9999 -9999 -9999 -9999 -9999 -9999 -9999
-9999 -9999 -9999 -9999 -9999 -9999 -9999 -9999 -9999 -9999 -9999 13.320807456970215 13.323970794677734 -9999 -9999 13.108688354492188 13.177992820739746 -9999 -9999 -9999
-9999 -9999 -9999 -9999 13.161134719848633 13.140315055847168 13.093982696533203 13.103826522827148 13.142173767089844 13.166444778442383 13.273344039916992 13.248486518859863 13.181501388549805 13.127492904663086 13.11783218383789 13.107792854309082 13.150800704956055 13.200506210327148 -9999 -9999
-9999 -9999 -9999 13.098771095275879 13.099522590637207 13.1202974319458 13.147111892700195 13.18782901763916 13.20695686340332 13.209358215332031 13.188350677490234 13.141155242919922 13.077824592590332 13.051690101623535 13.021943092346191 13.013729095458984 13.03000545501709 13.05205249786377 -9999 -9999
-9999 -9999 -9999 13.070582389831543 13.114123344421387 13.185696601867676 13.334216117858887 13.428829193115234 13.477835655212402 13.490913391113281 13.48242473602295 13.45361328125 13.390385627746582 13.313720703125 13.204002380371094 13.093498229980469 12.937543869018555 12.789409637451172 -9999 -9999
-9999 -9999 13.026664733886719 13.059623718261719 13.191713333129883 13.466254234313965 13.903270721435547 14.103960037231445 14.21193790435791 14.319950103759766 14.428354263305664 14.48143196105957 14.425334930419922 14.261140823364258 14.015012741088867 13.679339408874512 13.092573165893555 12.764002799987793 12.718795776367188 -9999
-9999 -9999 12.999195098876953 13.130284309387207 13.403751373291016 13.89948844909668 14.26400375366211 14.512819290161133 14.744203567504883 15.00269889831543 15.23269271850586 15.351873397827148 15.315226554870605 15.106528282165527 14.730819702148438 14.225564002990723 13.47274112701416 12.974369049072266 12.761929512023926 -9999
-9999 -9999 12.860928535461426 13.179791450500488 13.706930160522461 14.121063232421875 14.471490859985352 14.822961807250977 15.19834041595459 15.560111045837402 15.835455894470215 15.975951194763184 15.962369918823242 15.781628608703613 15.422900199890137 14.904772758483887 14.246192932128906 13.529640197753906 13.141057014465332 -9999
-9999 12.278743743896484 12.569652557373047 13.29416275024414 13.796671867370605 14.235928535461426 14.708614349365234 15.206221580505371 15.673697471618652 16.04897689819336 16.297677993774414 16.421415328979492 16.4238224029541 16.295053482055664 16.016389846801758 15.571666717529297 15.030692100524902 14.430872917175293 13.91314697265625 -9999
-9999 11.9859619140625 12.293025016784668 13.18649673461914 13.834152221679688 14.460399627685547 15.105746269226074 15.7072114944458 16.178560256958008 16.493398666381836 16.675159454345703 16.761640548706055 16.765100479125977 16.685678482055664 16.49789047241211 16.17218589782715 15.752593994140625 15.25905990600586 14.833270072937012 -9999
-9999 11.647055625915527 12.024883270263672 13.133424758911133 14.013101577758789 14.822349548339844 15.58338451385498 16.209728240966797 16.626367568969727 16.86450958251953 16.984066009521484 17.030597686767578 17.022502899169922 16.976360321044922 16.874557495117188 16.67483901977539 16.385751724243164 16.002817153930664 15.749632835388184 -9999
-9999 11.48475170135498 12.00833511352539 13.324429512023926 14.376523971557617 15.267671585083008 16.03441619873047 16.60688591003418 16.954059600830078 17.137897491455078 17.21623420715332 17.231931686401367 17.18922233581543 17.1630802154541 17.138269424438477 17.028535842895508 16.87962532043457 16.660417556762695 16.532901763916016 -9999
-9999 11.750190734863281 12.458924293518066 13.874571800231934 14.951004028320312 15.784884452819824 16.438522338867188 16.90213966369629 17.178890228271484 17.318103790283203 17.381834030151367 17.388940811157227 17.34905242919922 17.333999633789062 17.323768615722656 17.306196212768555 17.22024154663086 17.100418090820312 17.051715850830078 -9999
-9999 12.615242958068848 13.349759101867676 14.693135261535645 15.668673515319824 16.338134765625 16.809179306030273 17.128921508789062 17.326101303100586 17.424198150634766 17.468826293945312 17.481264114379883 17.46717643737793 17.473718643188477 17.487707138061523 17.497346878051758 17.450984954833984 17.351980209350586 17.360877990722656 -9999
-9999 13.598377227783203 14.27879524230957 15.474571228027344 16.307334899902344 16.804113388061523 17.10776710510254 17.303253173828125 17.41407012939453 17.471942901611328 17.4964656829834 17.518205642700195 17.540327072143555 17.568641662597656 17.591520309448242 17.609413146972656 17.605112075805664 17.50989532470703 -9999 -9999
-9999 14.313950538635254 14.949845314025879 16.00366973876953 16.712387084960938 17.104949951171875 17.305503845214844 17.41265869140625 17.461753845214844 17.480327606201172 17.476741790771484 17.498472213745117 17.53877067565918 17.592252731323242 17.62624168395996 17.663162231445312 17.695293426513672 17.750160217285156 -9999 -9999
-9999 14.783141136169434 15.44326114654541 16.326448440551758 16.938613891601562 17.283483505249023 17.424318313598633 17.485815048217773 17.498289108276367 17.4887638092041 17.488283157348633 17.508525848388672 17.546844482421875 17.596845626831055 17.638391494750977 17.677122116088867 17.709285736083984 17.73090362548828 17.679916381835938 17.689796447753906
-9999 -9999 15.984929084777832 16.567752838134766 17.077457427978516 17.374618530273438 17.497724533081055 17.538684844970703 17.52945327758789 17.522106170654297 17.517967224121094 17.532133102416992 17.559513092041016 17.603614807128906 17.639436721801758 17.666175842285156 17.694595336914062 17.710805892944336 17.70587921142578 17.681320190429688
-9999 -9999 16.426074981689453 16.784053802490234 17.183008193969727 17.444110870361328 17.55957794189453 17.596641540527344 17.584392547607422 17.56948471069336 17.553638458251953 17.56262969970703 17.586097717285156 17.62126350402832 17.644254684448242 17.659385681152344 17.677684783935547 17.684919357299805 17.659738540649414 17.644445419311523
-9999 -9999 -9999 16.932811737060547 17.23929214477539 17.47003173828125 17.584070205688477 17.619813919067383 17.601661682128906 17.582738876342773 17.56788444519043 17.566600799560547 17.58866310119629 17.620973587036133 17.644807815551758 17.649826049804688 17.670480728149414 17.652442932128906 17.63341522216797 17.624086380004883
