ncols         20
nrows         20
xllcorner     0
yllcorner     -3.5992928
cellsize      0.17996463
NODATA_value  -9999
-9999.0 -9999 -9999 -9999 -9999 -9999 -9999 -9999 -9999 -9999 -9999 -9999 -9999 -9999 -9999 -9999 -9999 -9999 -9999 -9999
-9999 -9999 -9999 -9999 -9999 -9999 -9999 -9999 -9999 -9999 -9999 0.16940979659557343 0.16963784396648407 -9999 -9999 0.18750539422035217 0.1773281842470169 -9999 -9999 -9999
-9999 -9999 -9999 -9999 0.14164131879806519 0.15095019340515137 0.1690412014722824 0.1860855370759964 0.2013816088438034 0.21684131026268005 0.20860958099365234 0.20602543652057648 0.21855489909648895 0.23723141849040985 0.22931015491485596 0.20928427577018738 0.1946849226951599 0.18792442977428436 -9999 -9999
-9999 -9999 -9999 0.14248718321323395 0.1499529778957367 0.16145320236682892 0.17987129092216492 0.20053398609161377 0.22766032814979553 0.25816237926483154 0.28930923342704773 0.31084561347961426 0.33046022057533264 0.3299918472766876 0.3105565905570984 0.27604418992996216 0.24568089842796326 0.22938477993011475 -9999 -9999
-9999 -9999 -9999 0.15011440217494965 0.15964443981647491 0.18038122355937958 0.20560894906520844 0.23732297122478485 0.28423482179641724 0.3585246205329895 0.4524303674697876 0.533680260181427 0.5757946968078613 0.5533334016799927 0.4992295503616333 0.42134490609169006 0.3581378161907196 0.3466140329837799 -9999 -9999
-9999 -9999 0.15068091452121735 0.1614237129688263 0.17888261377811432 0.20470929145812988 0.23250843584537506 0.26785025000572205 0.3372040092945099 0.4542854428291321 0.625140905380249 0.79319167137146 0.9158241748809814 0.9127582311630249 0.8071750998497009 0.6734884977340698 0.5635628700256348 0.5270909070968628 0.5170504450798035 -9999
-9999 -9999 0.16710418462753296 0.1812388300895691 0.2121494859457016 0.2457958608865738 0.26756441593170166 0.2850743234157562 0.3439720571041107 0.4655393958091736 0.6648936867713928 0.9278124570846558 1.22451913356781 1.3481863737106323 1.278704285621643 1.0876952409744263 0.9070007801055908 0.7816900014877319 0.7359263896942139 -9999
-9999 -9999 0.21213938295841217 0.23904497921466827 0.2883759140968323 0.3284091651439667 0.332226425409317 0.26464053988456726 0.2663806676864624 0.323574423789978 0.44263896346092224 0.6933171153068542 1.3904750347137451 1.767869472503662 1.832924723625183 1.6698434352874756 1.4430278539657593 1.240159273147583 1.1550403833389282 -9999
-9999 0.2744886577129364 0.2999504506587982 0.35618075728416443 0.4479503631591797 0.5184448957443237 0.49705541133880615 0.33901578187942505 0.2942311465740204 0.3204120099544525 0.42728182673454285 0.7199208736419678 1.6283237934112549 2.2385075092315674 2.5094265937805176 2.4490444660186768 2.1867566108703613 1.9216690063476562 1.7968676090240479 -9999
-9999 0.3693062663078308 0.43074679374694824 0.5721795558929443 0.7515518069267273 0.8785663843154907 0.831687331199646 0.5117676854133606 0.41162359714508057 0.4140462279319763 0.5169810056686401 0.8526239991188049 1.9702239036560059 2.8001487255096436 3.2688839435577393 3.370729446411133 3.1516568660736084 2.861154556274414 2.7154793739318848 -9999
-9999 0.5806942582130432 0.6905919909477234 0.931009829044342 1.2154653072357178 1.4220465421676636 1.3623334169387817 0.8017513155937195 0.6489320993423462 0.631521463394165 0.7255684733390808 1.08793044090271 2.4655282497406006 3.459371566772461 4.090063571929932 4.347293853759766 4.280827522277832 4.027862071990967 3.8856775760650635 -9999
-9999 0.9746593236923218 1.140857219696045 1.5116370916366577 1.9224392175674438 2.2195918560028076 2.183241844177246 1.363640308380127 1.1854079961776733 1.1443746089935303 1.2042617797851562 1.5350269079208374 3.056489944458008 4.05800724029541 4.748565196990967 5.1666154861450195 5.28744649887085 5.180878162384033 5.08924674987793 -9999
-9999 1.6322776079177856 1.8932408094406128 2.4367964267730713 2.953028917312622 3.3448376655578613 3.466862201690674 3.2044970989227295 2.9360218048095703 2.7437338829040527 2.7392499446868896 3.0142734050750732 3.6858887672424316 4.315160751342773 4.869589328765869 5.343362808227539 5.705939292907715 5.851004123687744 5.834348678588867 -9999
-9999 2.544969081878662 2.9029784202575684 3.618597984313965 4.240875244140625 4.631127834320068 4.725869178771973 4.501588821411133 4.1348114013671875 3.82342791557312 3.669523239135742 3.6997287273406982 3.8876891136169434 4.121084690093994 4.372645854949951 4.725854873657227 5.191776275634766 5.708403587341309 5.850499629974365 -9999
-9999 3.482545852661133 3.9102113246917725 4.754717826843262 5.3951215744018555 5.650646686553955 5.568087100982666 5.225951194763184 4.785375118255615 4.388278961181641 4.107490539550781 3.9115593433380127 3.7831578254699707 3.699272632598877 3.6379623413085938 3.7197797298431396 3.964060068130493 4.550594806671143 -9999 -9999
-9999 4.167070388793945 4.654430389404297 5.535747528076172 6.074868679046631 6.135805130004883 5.875457286834717 5.438784122467041 4.982410430908203 4.561376571655273 4.213990211486816 3.881315231323242 3.5520834922790527 3.2350378036499023 2.9715709686279297 2.7852230072021484 2.7055788040161133 2.4249935150146484 -9999 -9999
-9999 4.6712799072265625 5.21948766708374 6.007442474365234 6.404043197631836 6.249911785125732 5.809706687927246 5.279946327209473 4.8036065101623535 4.377810955047607 4.001824378967285 3.6044788360595703 3.1860196590423584 2.7980294227600098 2.4419357776641846 2.143599033355713 1.9068796634674072 1.66660475730896 1.4656089544296265 1.270011067390442
-9999 -9999 5.781193256378174 6.326573371887207 6.550820827484131 6.191707134246826 5.555885314941406 4.921557903289795 4.407351016998291 3.9841389656066895 3.6138498783111572 3.2204723358154297 2.8113324642181396 2.372177839279175 2.008586883544922 1.7347712516784668 1.487536072731018 1.3054536581039429 1.1650203466415405 1.190799355506897
-9999 -9999 6.313353061676025 6.571363925933838 6.582221984863281 6.018703937530518 5.204587936401367 4.463068008422852 3.9026618003845215 3.503786563873291 3.2151079177856445 2.8502681255340576 2.450054883956909 2.0324535369873047 1.7155269384384155 1.4833511114120483 1.2897311449050903 1.163840651512146 1.1922225952148438 1.2086833715438843
-9999 -9999 -9999 6.6703972816467285 6.57826042175293 5.924795150756836 5.014466285705566 4.227481842041016 3.6655113697052 3.2971317768096924 3.011362314224243 2.7033348083496094 2.309645414352417 1.9030710458755493 1.5784685611724854 1.3921844959259033 1.1895095109939575 1.186693787574768 1.2085050344467163 1.221019983291626
