ncols         20
nrows         20
xllcorner     0
yllcorner     -3.5992928
cellsize      0.17996463
NODATA_value  -9999
-9999.0 -9999 -9999 -9999 -9999 -9999 -9999 -9999 -9999 -9999 -9999 -9999 -9999 -9999 -9999 -9999 -9999 -9999 -9999 -9999
-9999 -9999 -9999 -9999 -9999 -9999 -9999 -9999 -9999 -9999 -9999 1.1526141166687012 1.1514943838119507 -9999 -9999 1.1824301481246948 1.169414758682251 -9999 -9999 -9999
-9999 -9999 -9999 -9999 1.149681568145752 1.1579954624176025 1.1714433431625366 1.1747838258743286 1.1731573343276978 1.1752982139587402 1.1644537448883057 1.1712260246276855 1.1825456619262695 1.1915642023086548 1.193342685699463 1.1910184621810913 1.179969310760498 1.1688977479934692 -9999 -9999
-9999 -9999 -9999 1.1619924306869507 1.1693859100341797 1.1774625778198242 1.1859161853790283 1.1872981786727905 1.1871764659881592 1.1872140169143677 1.1908074617385864 1.198215126991272 1.208685040473938 1.215725064277649 1.225557804107666 1.2241184711456299 1.2108439207077026 1.1977033615112305 -9999 -9999
-9999 -9999 -9999 1.1775299310684204 1.1876381635665894 1.2050881385803223 1.2114700078964233 1.2089614868164062 1.1951837539672852 1.169003963470459 1.1402379274368286 1.1291192770004272 1.1461149454116821 1.1856621503829956 1.2270113229751587 1.245171308517456 1.2442227602005005 1.248351812362671 -9999 -9999
-9999 -9999 1.1820144653320312 1.1966570615768433 1.2140989303588867 1.2271580696105957 1.2223892211914062 1.1994588375091553 1.1438324451446533 1.053513526916504 0.9548798203468323 0.9056540727615356 0.9260420799255371 1.0176657438278198 1.1330230236053467 1.209343671798706 1.2474693059921265 1.2592085599899292 1.2463252544403076 -9999
-9999 -9999 1.1971676349639893 1.213991641998291 1.2398241758346558 1.2443751096725464 1.2225688695907593 1.1585328578948975 1.0396298170089722 0.8784527778625488 0.726331889629364 0.6468446850776672 0.6623873710632324 0.7759349346160889 0 1.0963644981384277 1.1952646970748901 1.2392257452011108 1.2484387159347534 -9999
-9999 -9999 1.230608582496643 1.250593662261963 1.2666441202163696 1.2509044408798218 1.1867974996566772 1.0615521669387817 0.8855571150779724 0.6927486062049866 0.5413811206817627 0.4602947235107422 0.46419060230255127 0.5535181164741516 0.7154359221458435 0.9001305103302002 1.0525681972503662 1.1524773836135864 1.1913758516311646 -9999
-9999 1.2458515167236328 1.2707680463790894 1.2834601402282715 1.2738250494003296 1.2086308002471924 1.073754906654358 0.8827298283576965 0.6793089509010315 0.5060603618621826 0.39062824845314026 0.33117273449897766 0.3265847861766815 0.3838287591934204 0.5017701983451843 0 0.8413525819778442 0.973308801651001 1.0374325513839722 -9999
-9999 1.281184434890747 1.2979342937469482 1.2927095890045166 1.230657935142517 1.0841315984725952 0.8725165128707886 0.6433383226394653 0.4544561207294464 0.32908159494400024 0.2602044641971588 0.2260686457157135 0.2234610766172409 0.25360307097435 0.3272993862628937 0 0.5940133333206177 0.7272322177886963 0.7968795299530029 -9999
-9999 1.3121485710144043 1.3082823753356934 1.2566814422607422 1.1272934675216675 0.9140753746032715 0.6569609642028809 0.4252748489379883 0.27282679080963135 0.1904451847076416 0.15100814402103424 0.13452346622943878 0.13356754183769226 0.1492348164319992 0.18812565505504608 0.2596811354160309 0.35777145624160767 0.46355217695236206 0.5208002924919128 -9999
-9999 1.2985384464263916 1.2667009830474854 1.1559380292892456 0.9687978625297546 0.7275916337966919 0.4744802713394165 0.27532583475112915 0.16026081144809723 0.1033567264676094 0.07842626422643661 0.06794549524784088 0 0 0.08839782327413559 0 0.179739311337471 0.2444370836019516 0.280280739068985 -9999
-9999 1.2084556818008423 1.1389455795288086 0.9660356044769287 0.754753053188324 0.530325710773468 0.32565543055534363 0.17600956559181213 0.09344764053821564 0.05623805150389671 0.03590075299143791 0.02854967676103115 0 0 0 0.044097334146499634 0.07278387248516083 0.10679851472377777 0.12864500284194946 -9999
-9999 1.0290130376815796 0.9285585284233093 0.7194859385490417 0.5123031735420227 0.33729657530784607 0.20002973079681396 0.10604609549045563 0.05167165771126747 0.030189767479896545 0.020168812945485115 0.015561947599053383 0 0 0 0.01628517545759678 0.023428069427609444 0.03801565617322922 0.0499744787812233 -9999
-9999 0.8312027454376221 0.719508171081543 0.5024590492248535 0.31781360507011414 0.19369955360889435 0.11139379441738129 0.05704120546579361 0.031462427228689194 0.019774703308939934 0.014223751612007618 0.011183378286659718 0.009493660181760788 0.008715885691344738 0 0 0.010194738395512104 0.014783124439418316 -9999 -9999
-9999 0.6912546753883362 0.5754818320274353 0.36733999848365784 0.20895062386989594 0.11386600136756897 0.0604315921664238 0.03390594199299812 0.021394208073616028 0.014993077144026756 0 0 0 0.010122098959982395 0 0 0.013003080151975155 0 -9999 -9999
-9999 0.5940315127372742 0.47326406836509705 0.29183945059776306 0.15338481962680817 0.07032337784767151 0.03746968135237694 0.02227000892162323 0.0153221869841218 0 0 0 0 0.013299847021698952 0.014839536510407925 0.01614159345626831 0.01724148355424404 0.01845862716436386 0 0
-9999 -9999 0.36847320199012756 0.2395666241645813 0.12128405272960663 0.05241401866078377 0.02656390145421028 0.016085725277662277 0 0 0 0 0 0 0 0 0 0 0 0
-9999 -9999 0.2643794119358063 0.1879875212907791 0.09753664582967758 0.04082734137773514 0.02002532407641411 0.01206589862704277 0 0 0 0 0 0 0 0 0 0 0 0
-9999 -9999 -9999 0.15646423399448395 0.08266080170869827 0.036123666912317276 0.017537662759423256 0.010598910972476006 0 0 0 0 0 0 0 0 0 0 0 0
