ncols         20
nrows         20
xllcorner     0
yllcorner     -3.5992928
cellsize      0.17996463
NODATA_value  -9999
-9999.0 -9999 -9999 -9999 -9999 -9999 -9999 -9999 -9999 -9999 -9999 -9999 -9999 -9999 -9999 -9999 -9999 -9999 -9999 -9999
-9999 -9999 -9999 -9999 -9999 -9999 -9999 -9999 -9999 -9999 -9999 0.1790958046913147 0.1762978732585907 -9999 -9999 0.16206181049346924 0.1519748717546463 -9999 -9999 -9999
-9999 -9999 -9999 -9999 0.16549408435821533 0.17948435246944427 0.2053302675485611 0.22905336320400238 0.247158482670784 0.2601880133152008 0.23989266157150269 0.22284017503261566 0.22404694557189941 0.22861385345458984 0.20893634855747223 0.18195144832134247 0.16474585235118866 0.1560460329055786 -9999 -9999
-9999 -9999 -9999 0.16203218698501587 0.17441913485527039 0.19369634985923767 0.2230011373758316 0.2543884515762329 0.28941184282302856 0.32044899463653564 0.3422519564628601 0.34459272027015686 0.3414382040500641 0.3174195885658264 0.2801468074321747 0.23623570799827576 0.20276887714862823 0.1856030523777008 -9999 -9999
-9999 -9999 -9999 0.16867798566818237 0.18554140627384186 0.22084659337997437 0.26663076877593994 0.3225516974925995 0.3926979601383209 0.48372554779052734 0.573397696018219 0.6200946569442749 0.6079504489898682 0.5313732624053955 0.4420989155769348 0.3494996428489685 0.28337472677230835 0.26696059107780457 -9999 -9999
-9999 -9999 0.15568388998508453 0.1749044507741928 0.2063261866569519 0.2572886645793915 0.32386842370033264 0.4122469425201416 0.5460464358329773 0.7207652926445007 0.9097305536270142 1.0120327472686768 1.0082972049713135 0.87848299741745 0.6997758746147156 0.5368945598602295 0.42311668395996094 0.37980103492736816 0.35956916213035583 -9999
-9999 -9999 0.1650884449481964 0.18762730062007904 0.2395448535680771 0.3159625828266144 0.41205984354019165 0.5477108359336853 0.7470808029174805 1.0040364265441895 1.2703558206558228 1.4369357824325562 1.449588418006897 1.3062487840652466 1.0921244621276855 0.8317827582359314 0.6460539698600769 0.5331219434738159 0.49045827984809875 -9999
-9999 -9999 0.19197672605514526 0.2290082573890686 0.3083235025405884 0.4191136658191681 0.5678220391273499 0.7656164765357971 1.014952301979065 1.3100390434265137 1.5757088661193848 1.763764500617981 1.8077812194824219 1.702773928642273 1.4899132251739502 1.219889521598816 0.9752172231674194 0.7989940643310547 0.7278334498405457 -9999
-9999 0.2036697119474411 0.23860560357570648 0.3057047724723816 0.4347269833087921 0.6152598261833191 0.8365009427070618 1.1096961498260498 1.4015671014785767 1.6775398254394531 1.8934508562088013 2.050501823425293 2.1286628246307373 2.088012218475342 1.9518320560455322 1.739333152770996 1.4109994173049927 1.1754130125045776 1.07327139377594 -9999
-9999 0.25379443168640137 0.3066108226776123 0.4343288540840149 0.6400070786476135 0.9122710824012756 1.233791708946228 1.5812729597091675 1.8899263143539429 2.1173758506774902 2.264033794403076 2.3849143981933594 2.4698808193206787 2.4930193424224854 2.422917366027832 2.2853293418884277 1.9364248514175415 1.6660910844802856 1.5443310737609863 -9999
-9999 0.35965847969055176 0.43699607253074646 0.6196267008781433 0.8914202451705933 1.2432401180267334 1.65565824508667 2.0621886253356934 2.3580968379974365 2.5383965969085693 2.6581294536590576 2.772892713546753 2.8944272994995117 2.948824167251587 2.9057395458221436 2.77746319770813 2.5138137340545654 2.248087167739868 2.11857271194458 -9999
-9999 0.5447054505348206 0.6455525159835815 0.885174572467804 1.2104029655456543 1.601210117340088 2.04227352142334 2.433720588684082 2.6754002571105957 2.807997703552246 2.9138777256011963 3.0636112689971924 3.312904119491577 3.408086061477661 3.3296315670013428 3.295274496078491 3.038114070892334 2.8152756690979004 2.694838285446167 -9999
-9999 0.8341833353042603 0.9728288054466248 1.2779333591461182 1.62326180934906 2.003058671951294 2.388173818588257 2.692253351211548 2.837221622467041 2.892436981201172 2.9582276344299316 3.089463949203491 3.337815999984741 3.438220500946045 3.4358670711517334 3.3182828426361084 3.2449326515197754 3.152656078338623 3.050666332244873 -9999
-9999 1.2151848077774048 1.3905802965164185 1.7514493465423584 2.1087653636932373 2.4260051250457764 2.6885826587677 2.8474011421203613 2.8865301609039307 2.8832168579101562 2.898080348968506 2.953223705291748 3.081967353820801 3.100064754486084 3.0628366470336914 2.9735119342803955 3.01300311088562 3.134312629699707 3.0666420459747314 -9999
-9999 1.582625389099121 1.7765089273452759 2.170315742492676 2.5083060264587402 2.726227283477783 2.8485538959503174 2.887190341949463 2.873760938644409 2.8534934520721436 2.8493099212646484 2.8084828853607178 2.73834490776062 2.6327781677246094 2.5611650943756104 2.4845614433288574 2.453488349914551 2.6989431381225586 -9999 -9999
-9999 1.827816367149353 2.0346977710723877 2.4262285232543945 2.7056219577789307 2.825474739074707 2.850114583969116 2.834874153137207 2.8318498134613037 2.8492190837860107 2.8971259593963623 2.80021333694458 2.59928297996521 2.316340923309326 2.143298387527466 1.9678928852081299 1.8375746011734009 1.6498022079467773 -9999 -9999
-9999 2.0057525634765625 2.2173728942871094 2.55912184715271 2.7755374908447266 2.8050875663757324 2.7610080242156982 2.719088315963745 2.740562677383423 2.810520887374878 2.7919082641601562 2.6438324451446533 2.3848941326141357 2.065049171447754 1.807513952255249 1.588231086730957 1.4164878129959106 1.2746474742889404 1.2170474529266357 1.0882494449615479
-9999 -9999 2.395498037338257 2.6406443119049072 2.791590929031372 2.7466678619384766 2.633132219314575 2.56595778465271 2.6182448863983154 2.6288905143737793 2.575406789779663 2.416212320327759 2.172302722930908 1.8554974794387817 1.5876355171203613 1.3844916820526123 1.201594352722168 1.0779496431350708 0.9944837689399719 1.0334304571151733
-9999 -9999 2.582003355026245 2.7103066444396973 2.778449058532715 2.658121109008789 2.473883628845215 2.3565633296966553 2.368605136871338 2.3592307567596436 2.333709478378296 2.1807141304016113 1.940894365310669 1.6459462642669678 1.4114387035369873 1.2365212440490723 1.0893257856369019 0.9985479712486267 1.0387187004089355 1.0620101690292358
-9999 -9999 -9999 2.742713689804077 2.7657318115234375 2.6129045486450195 2.389397144317627 2.247683525085449 2.2463860511779785 2.2425262928009033 2.2079315185546875 2.0900774002075195 1.852565884590149 1.5655171871185303 1.3224245309829712 1.1830047369003296 1.0239964723587036 1.0338741540908813 1.0632847547531128 1.0801851749420166
