ncols         20
nrows         20
xllcorner     0
yllcorner     -3.5992928
cellsize      0.17996463
NODATA_value  -9999
-9999.0 -9999 -9999 -9999 -9999 -9999 -9999 -9999 -9999 -9999 -9999 -9999 -9999 -9999 -9999 -9999 -9999 -9999 -9999 -9999
-9999 -9999 -9999 -9999 -9999 -9999 -9999 -9999 -9999 -9999 -9999 1.725974678993225 1.7245646715164185 -9999 -9999 1.775185465812683 1.7562028169631958 -9999 -9999 -9999
-9999 -9999 -9999 -9999 1.7241463661193848 1.7353317737579346 1.753672480583191 1.7571817636489868 1.75395667552948 1.7558631896972656 1.738885521888733 1.750251054763794 1.7680548429489136 1.7821784019470215 1.7861803770065308 1.7855889797210693 1.7706058025360107 1.7545639276504517 -9999 -9999
-9999 -9999 -9999 1.7434128522872925 1.7532838582992554 1.7634029388427734 1.7738591432571411 1.7744543552398682 1.7749347686767578 1.7713711261749268 1.7736008167266846 1.784170150756836 1.8016202449798584 1.81525719165802 1.8300693035125732 1.8314197063446045 1.8139479160308838 1.7955539226531982 -9999 -9999
-9999 -9999 -9999 1.7661879062652588 1.7794723510742188 1.8027238845825195 1.8092238903045654 1.803267002105713 1.7753028869628906 1.726955771446228 1.6772898435592651 1.658517837524414 1.6864430904388428 1.7521779537200928 1.8226583003997803 1.8580067157745361 1.8592703342437744 1.8672237396240234 -9999 -9999
-9999 -9999 1.7740559577941895 1.7942633628845215 1.8173930644989014 1.8333258628845215 1.822366714477539 1.777268648147583 1.6800258159637451 1.5328220129013062 1.3782696723937988 1.3028192520141602 1.335515022277832 1.4787652492523193 1.6621543169021606 1.789980411529541 1.8577744960784912 1.8780471086502075 1.859453558921814 -9999
-9999 -9999 1.7955846786499023 1.818398118019104 1.8530869483947754 1.8567965030670166 1.8120200634002686 1.699404239654541 1.5056240558624268 1.2544374465942383 1.0243414640426636 0.906736433506012 0.9314051270484924 1.1031126976013184 1.387628197669983 1.6014913320541382 1.763648271560669 1.8400163650512695 1.8594200611114502 -9999
-9999 -9999 1.8433892726898193 1.8697144985198975 1.8876432180404663 1.856196641921997 1.743398666381836 1.5383514165878296 1.262459635734558 0.9700334072113037 0.7459977865219116 0.628909170627594 0.636200487613678 0.7686789631843567 1.0109974145889282 1.2928645610809326 1.5318703651428223 1.6921898126602173 1.7570743560791016 -9999
-9999 1.8658065795898438 1.900543451309204 1.914063811302185 1.8930230140686035 1.779841661453247 1.5602957010269165 1.2614997625350952 0.9523046612739563 0.6952024102210999 0.5272136330604553 0.44272953271865845 0.43779000639915466 0.5215576887130737 0.6945801973342896 0.9568413496017456 1.203454613685608 1.4066314697265625 1.5069060325622559 -9999
-9999 1.9154086112976074 1.9361573457717896 1.9210206270217896 1.8170688152313232 1.581093192100525 1.2519258260726929 0.9055265188217163 0.6263853907585144 0.4441988468170166 0.34519410133361816 0.2972157597541809 0.2945457398891449 0.3385375738143921 0.44473379850387573 0.622000515460968 0.8336004018783569 1.0311145782470703 1.1356323957443237 -9999
-9999 1.9551892280578613 1.9444329738616943 1.8598451614379883 1.6509268283843994 1.3185967206954956 0.9303092360496521 0.5898689031600952 0.37040284276008606 0.2533813714981079 0.1977408528327942 0.17482346296310425 0.17407353222370148 0.19670599699020386 0.25186529755592346 0.35308387875556946 0.4926753044128418 0.644028902053833 0.7267828583717346 -9999
-9999 1.9260417222976685 1.874848484992981 1.6976683139801025 1.4044995307922363 1.037315845489502 0.6634902358055115 0.3771432936191559 0.21505679190158844 0.13609082996845245 0.10177138447761536 0.08764268457889557 0.08662615716457367 0.0947212278842926 0.11709732562303543 0.16541028022766113 0.2435103803873062 0.3332851529121399 0.3833027184009552 -9999
-9999 1.7808204889297485 1.6708073616027832 1.403399109840393 1.0809953212738037 0.7467291355133057 0.45010682940483093 0.23865105211734772 0.1242637038230896 0.07347433269023895 0.046123284846544266 0.036514803767204285 0.033449314534664154 0.03465520963072777 0.04184960573911667 0.058372724801301956 0.09738913923501968 0.14343757927417755 0.17289012670516968 -9999
-9999 1.499260425567627 1.3454980850219727 1.0313769578933716 0.7238500118255615 0.4689636826515198 0.2734970152378082 0.14245249330997467 0.06793801486492157 0.039130017161369324 0.025962352752685547 0.020094899460673332 0.01735660992562771 0.016663169488310814 0.017606955021619797 0.0217111948877573 0.031245512887835503 0.050519268959760666 0.06590079516172409 -9999
-9999 1.1949095726013184 1.0283520221710205 0.7103432416915894 0.44318538904190063 0.2662222981452942 0.150781512260437 0.07576815038919449 0.04121922701597214 0.025786569342017174 0.018647825345396996 0.014854032546281815 0.012824700213968754 0.011965442448854446 0.01152017991989851 0.012218428775668144 0.01420760340988636 0.02048860490322113 -9999 -9999
-9999 0.9818100929260254 0.8124086856842041 0.5132297873497009 0.2883651852607727 0.1550285965204239 0.08093249797821045 0.044880423694849014 0.028220433741807938 0.019914641976356506 0.015778472647070885 0.013247636146843433 0.012229052372276783 0.014346526935696602 0.01625712960958481 0.01775737665593624 0.01876845955848694 0.019496574997901917 -9999 -9999
-9999 0.8371737599372864 0.6615573167800903 0.4041743278503418 0.21017907559871674 0.09491554647684097 0.05003301799297333 0.02964814193546772 0.020544011145830154 0.015936538577079773 0.013562810607254505 0.014093410223722458 0.016658013686537743 0.01923348568379879 0.021612653508782387 0.023648016154766083 0.02540031261742115 0.027383005246520042 0.0312676727771759 0.03280039131641388
-9999 -9999 0.5094608664512634 0.3294317424297333 0.16545921564102173 0.07062415033578873 0.03560270369052887 0.02167363464832306 0.01581554114818573 0.01320255734026432 0.015386350452899933 0.017900466918945312 0.020657097920775414 0.0234870333224535 0.026071978732943535 0.028228918090462685 0.03002653457224369 0.03157118335366249 0.03308515250682831 0.033647485077381134
-9999 -9999 0.3634374737739563 0.2572101652622223 0.1326206475496292 0.055037036538124084 0.02699248306453228 0.016456622630357742 0.013815545476973057 0.015976039692759514 0.018292222172021866 0.020890608429908752 0.023729978129267693 0.02662115916609764 0.0291763748973608 0.03119303286075592 0.032714858651161194 0.033670395612716675 0.034082889556884766 0.03419659286737442
-9999 -9999 -9999 0.21305696666240692 0.11185000091791153 0.04867912828922272 0.023731611669063568 0.014562335796654224 0.015247099101543427 0.017517756670713425 0.01988862454891205 0.022481977939605713 0.025326188653707504 0.028206979855895042 0.030719637870788574 0.03258027881383896 0.03392323851585388 0.03442239761352539 0.03449149802327156 0.034452445805072784
