ncols         20
nrows         20
xllcorner     0
yllcorner     -3.5992928
cellsize      0.17996463
NODATA_value  -9999
-9999.0 -9999 -9999 -9999 -9999 -9999 -9999 -9999 -9999 -9999 -9999 -9999 -9999 -9999 -9999 -9999 -9999 -9999 -9999 -9999
-9999 -9999 -9999 -9999 -9999 -9999 -9999 -9999 -9999 -9999 -9999 0.1677004098892212 0.1679447591304779 -9999 -9999 0.18612486124038696 0.17605894804000854 -9999 -9999 -9999
-9999 -9999 -9999 -9999 0.14018256962299347 0.14939932525157928 0.16732004284858704 0.18421690165996552 0.19939041137695312 0.21471628546714783 0.20657643675804138 0.2040282040834427 0.21650122106075287 0.23514902591705322 0.2274402529001236 0.20771664381027222 0.19332028925418854 0.18667539954185486 -9999 -9999
-9999 -9999 -9999 0.14109157025814056 0.14846324920654297 0.15985259413719177 0.1781105250120163 0.19860807061195374 0.2255314588546753 0.25577595829963684 0.2866414189338684 0.3080209195613861 0.3275532126426697 0.32724159955978394 0.30814069509506226 0.27406057715415955 0.24404218792915344 0.22793059051036835 -9999 -9999
-9999 -9999 -9999 0.14872108399868011 0.15815803408622742 0.1787199229001999 0.2037641406059265 0.23522545397281647 0.28175827860832214 0.3554374575614929 0.4485962986946106 0.529260516166687 0.5711697340011597 0.5491277575492859 0.4956992268562317 0.418597549200058 0.3559885025024414 0.3446541130542755 -9999 -9999
-9999 -9999 0.14947468042373657 0.16007506847381592 0.17738446593284607 0.20303383469581604 0.23062169551849365 0.2656678557395935 0.33445173501968384 0.45058539509773254 0.6201401352882385 0.7871395945549011 0.9092442989349365 0.9066492319107056 0.8021868467330933 0.6696849465370178 0.5606880187988281 0.5246489644050598 0.5149165391921997 -9999
-9999 -9999 0.16588348150253296 0.17990383505821228 0.21061426401138306 0.24405010044574738 0.2656406760215759 0.2829398214817047 0.34132829308509827 0.4619520604610443 0.6599912643432617 0.9214891791343689 1.2168995141983032 1.3405189514160156 1.2720822095870972 1.0826008319854736 0.9031903743743896 0.7787142992019653 0.7333211898803711 -9999
-9999 -9999 0.21081005036830902 0.23755237460136414 0.28663668036460876 0.32645151019096375 0.3301868140697479 0.2628999650478363 0.2645457684993744 0.3213624954223633 0.43983426690101624 0.689432680606842 1.38335382938385 1.75961172580719 1.8252211809158325 1.6636275053024292 1.4383082389831543 1.2365599870681763 1.151930332183838 -9999
-9999 0.27316221594810486 0.29840266704559326 0.35433438420295715 0.44571343064308167 0.5159008502960205 0.49454861879348755 0.33721494674682617 0.292607843875885 0.3186744153499603 0.42516279220581055 0.7167612314224243 1.6216516494750977 2.230114459991455 2.501065254211426 2.4420228004455566 2.1815013885498047 1.91777765750885 1.7935997247695923 -9999
-9999 0.36772453784942627 0.4288722574710846 0.5697036981582642 0.7483887076377869 0.8749845623970032 0.8282789587974548 0.5096235275268555 0.4098946750164032 0.4123587906360626 0.5150190591812134 0.8496668934822083 1.963753581047058 2.7917234897613525 3.2602829933166504 3.363379955291748 3.1462883949279785 2.857455253601074 2.712606906890869 -9999
-9999 0.5786118507385254 0.6880990266799927 0.9276671409606934 1.2111843824386597 1.4171597957611084 1.3577311038970947 0.7990673184394836 0.6468266248703003 0.6295410394668579 0.7233877182006836 1.084835410118103 2.4588637351989746 3.4508373737335205 4.081417083740234 4.3400044441223145 4.27565860748291 4.024648666381836 3.883512258529663 -9999
-9999 0.9718046188354492 1.137487530708313 1.507156491279602 1.9168050289154053 2.213212251663208 2.177105188369751 1.3599209785461426 1.1822822093963623 1.1414142847061157 1.201208233833313 1.5312559604644775 3.049368381500244 4.049448490142822 4.740161895751953 5.159679889678955 5.28270959854126 5.1782145500183105 5.087776184082031 -9999
-9999 1.6284229755401611 1.8886914253234863 2.4307987689971924 2.945875883102417 3.336813449859619 3.458634853363037 3.1970200538635254 2.929224967956543 2.7374038696289062 2.733015298843384 3.0076136589050293 3.678173065185547 4.307076930999756 4.862056732177734 5.33726692199707 5.7017927169799805 5.848747253417969 5.833355903625488 -9999
-9999 2.539949893951416 2.897080421447754 3.610833168029785 4.232307434082031 4.6218390464782715 4.716309070587158 4.492351531982422 4.126211643218994 3.8154242038726807 3.6619150638580322 3.692286491394043 3.8803458213806152 4.114171981811523 4.36661958694458 4.721042156219482 5.188348293304443 5.706259727478027 5.849732875823975 -9999
-9999 3.474942445755005 3.901789665222168 4.744781017303467 5.384654521942139 5.640815258026123 5.558507442474365 5.2167205810546875 4.776714324951172 4.380222320556641 4.099987983703613 3.90462327003479 3.776859760284424 3.693786382675171 3.633483409881592 3.7162585258483887 3.9613208770751953 4.548145294189453 -9999 -9999
-9999 4.157606601715088 4.6441779136657715 5.524267196655273 6.063412666320801 6.125786781311035 5.86677360534668 5.430744171142578 4.974874973297119 4.554355621337891 4.207510948181152 3.8754992485046387 3.547053813934326 3.2308967113494873 2.9683103561401367 2.782703399658203 2.703504800796509 2.4232194423675537 -9999 -9999
-9999 4.660526275634766 5.20790433883667 5.994995594024658 6.392047882080078 6.2397284507751465 5.802001953125 5.2734246253967285 4.797726631164551 4.372422218322754 3.9969120025634766 3.600135326385498 3.1823339462280273 2.7950026988983154 2.439531087875366 2.1416449546813965 1.9051134586334229 1.6645597219467163 1.4631381034851074 1.26760733127594
-9999 -9999 5.768508434295654 6.31348991394043 6.538514614105225 6.181484699249268 5.548186302185059 4.91603946685791 4.40289306640625 3.980282783508301 3.6104211807250977 3.2174482345581055 2.808708667755127 2.3699464797973633 2.0066752433776855 1.7328970432281494 1.4856717586517334 1.303483486175537 1.1629323959350586 1.1884918212890625
-9999 -9999 6.299593925476074 6.557807922363281 6.569788455963135 6.008645057678223 5.197142601013184 4.45769739151001 3.8989975452423096 3.5009043216705322 3.2125961780548096 2.8480279445648193 2.448021173477173 2.030446767807007 1.7136338949203491 1.481487512588501 1.2878589630126953 1.1618834733963013 1.1899769306182861 1.2062764167785645
-9999 -9999 -9999 6.656893253326416 6.565852165222168 5.914857864379883 5.007194519042969 4.222214221954346 3.6617512702941895 3.294295310974121 3.0089333057403564 2.701056480407715 2.307541847229004 1.9011038541793823 1.5766178369522095 1.3903210163116455 1.1876733303070068 1.1846116781234741 1.206174612045288 1.218550682067871
