ncols         20
nrows         20
xllcorner     0
yllcorner     -3.5992928
cellsize      0.17996463
NODATA_value  -9999
-9999.0 -9999 -9999 -9999 -9999 -9999 -9999 -9999 -9999 -9999 -9999 -9999 -9999 -9999 -9999 -9999 -9999 -9999 -9999 -9999
-9999 -9999 -9999 -9999 -9999 -9999 -9999 -9999 -9999 -9999 -9999 0.2794303297996521 0.27389436960220337 -9999 -9999 0.24411171674728394 0.22860945761203766 -9999 -9999 -9999
-9999 -9999 -9999 -9999 0.28948381543159485 0.31061112880706787 0.34854936599731445 0.3795517683029175 0.3991555869579315 0.4102807939052582 0.3708673417568207 0.34053343534469604 0.3379219174385071 0.3379920721054077 0.30610391497612 0.2673482894897461 0.24124518036842346 0.22579306364059448 -9999 -9999
-9999 -9999 -9999 0.27731430530548096 0.29888054728507996 0.32791000604629517 0.36963722109794617 0.41070207953453064 0.4541652798652649 0.48952218890190125 0.5104799270629883 0.5046067237854004 0.4926795959472656 0.4521957337856293 0.3956144452095032 0.33233585953712463 0.28421750664711 0.2589486539363861 -9999 -9999
-9999 -9999 -9999 0.27968767285346985 0.30595603585243225 0.35814687609672546 0.42169731855392456 0.4949393570423126 0.5839319825172424 0.6985809803009033 0.8067300319671631 0.8549200892448425 0.8256537318229675 0.7127450704574585 0.586957573890686 0.46156132221221924 0.3726571202278137 0.3494564890861511 -9999 -9999
-9999 -9999 0.23918947577476501 0.27390480041503906 0.3210977017879486 0.3924534320831299 0.4801279604434967 0.5916670560836792 0.7585179209709167 0.9703415036201477 1.1921110153198242 1.2991554737091064 1.2747489213943481 1.0964430570602417 0.8640552163124084 0.6591509580612183 0.5164003372192383 0.4592972695827484 0.42349621653556824 -9999
-9999 -9999 0.24246570467948914 0.27558499574661255 0.34702447056770325 0.4467475712299347 0.5655272603034973 0.7282399535179138 0.9611968398094177 1.2526885271072388 1.5437793731689453 1.7103312015533447 1.699114441871643 1.5104821920394897 0 0.9460015296936035 0.7335577607154846 0.6039091944694519 0.5522399544715881 -9999
-9999 -9999 0.2623899281024933 0.3109509348869324 0.4111821949481964 0.5448082089424133 0.7172803282737732 0.9376646876335144 1.2057443857192993 1.5130666494369507 1.7762677669525146 1.9487189054489136 1.9668514728546143 1.8294590711593628 1.5839190483093262 1.288126826286316 1.030632734298706 0.8461882472038269 0.7712423801422119 -9999
-9999 0.248655304312706 0.2992207407951355 0.38185757398605347 0.5334128737449646 0.7362864017486572 0.973471999168396 1.2541199922561646 1.5400269031524658 1.7969399690628052 1.9834039211273193 2.107221841812134 2.153704881668091 2.086780548095703 1.9307492971420288 0 1.3920190334320068 1.1670833826065063 1.0695098638534546 -9999
-9999 0.29649898409843445 0.3591773808002472 0.5039646625518799 0.7289106249809265 1.0144295692443848 1.3353171348571777 1.664055347442627 1.9366438388824463 2.118396282196045 2.217010498046875 2.2909133434295654 2.3344006538391113 2.329237937927246 2.246372938156128 0 1.79999840259552 1.5618062019348145 1.4548516273498535 -9999
-9999 0.39683011174201965 0.48095113039016724 0.6748259663581848 0.9542175531387329 1.3010897636413574 1.6878305673599243 2.0460166931152344 2.2808678150177 2.3988051414489746 2.4575130939483643 2.5103211402893066 2.5700950622558594 2.590618133544922 2.5471994876861572 2.4355101585388184 2.2245302200317383 2.007397174835205 1.9024714231491089 -9999
-9999 0.5698291063308716 0.6732937097549438 0.9140123128890991 1.2294776439666748 1.5922393798828125 1.9814128875732422 2.302229642868042 2.471052408218384 2.5354676246643066 2.5726022720336914 2.640326976776123 0 0 2.774812936782837 0 2.5784597396850586 2.4164907932281494 2.329265832901001 -9999
-9999 0.8376201391220093 0.9728460907936096 1.2630845308303833 1.5779037475585938 1.9078574180603027 2.2234933376312256 2.449079990386963 2.5237996578216553 2.516888380050659 2.5162620544433594 2.5633950233459473 0 0 0 2.693906784057617 2.671607255935669 2.6255671977996826 2.5649008750915527 -9999
-9999 1.1841298341751099 1.3456542491912842 1.6712766885757446 1.97701895236969 2.2296793460845947 2.419037342071533 2.5068154335021973 2.4858269691467285 2.425121307373047 2.380462169647217 2.3695597648620605 0 0 0 2.3370587825775146 2.4060752391815186 2.5395076274871826 2.5341408252716064 -9999
-9999 1.5048404932022095 1.67414128780365 2.0129811763763428 2.2840847969055176 2.434478282928467 2.4917986392974854 2.4703428745269775 2.397991895675659 2.3188376426696777 2.256596565246582 2.179072856903076 2.091517686843872 1.9934501647949219 0 0 1.8841047286987305 2.094841718673706 -9999 -9999
-9999 1.7047502994537354 1.8759247064590454 2.1988165378570557 2.406843423843384 2.4652600288391113 2.434162139892578 2.360020875930786 2.2895591259002686 2.231755256652832 0 0 0 1.7027597427368164 0 0 1.3498286008834839 0 -9999 -9999
-9999 1.8469469547271729 2.005608558654785 2.2746944427490234 2.4225425720214844 2.4014358520507812 2.307342767715454 2.2059779167175293 2.1469357013702393 0 0 0 0 1.4739490747451782 1.284548044204712 1.1244298219680786 0.9985899329185486 0.8863844871520996 0 0
-9999 -9999 2.119328498840332 2.307680130004883 2.3995907306671143 2.3144032955169678 2.1608471870422363 2.035351037979126 0 0 0 0 0 0 0 0 0 0 0 0
-9999 -9999 2.257514238357544 2.3397111892700195 2.3624768257141113 2.2146685123443604 2.004452705383301 1.8411370515823364 0 0 0 0 0 0 0 0 0 0 0 0
-9999 -9999 -9999 2.3437259197235107 2.3370704650878906 2.163954019546509 1.9232920408248901 1.742769718170166 0 0 0 0 0 0 0 0 0 0 0 0
