ncols         20
nrows         20
xllcorner     0
yllcorner     -3.5992928
cellsize      0.17996463
NODATA_value  -9999
-9999.0 -9999 -9999 -9999 -9999 -9999 -9999 -9999 -9999 -9999 -9999 -9999 -9999 -9999 -9999 -9999 -9999 -9999 -9999 -9999
-9999 -9999 -9999 -9999 -9999 -9999 -9999 -9999 -9999 -9999 -9999 0.13464337587356567 0.1337938904762268 -9999 -9999 0.13608863949775696 0.12829089164733887 -9999 -9999 -9999
-9999 -9999 -9999 -9999 0.11892012506723404 0.1275797039270401 0.14394235610961914 0.15895351767539978 0.17122496664524078 0.1819629967212677 0.17135590314865112 0.16471432149410248 0.17071527242660522 0.1803182065486908 0.17016440629959106 0.15232186019420624 0.14021894335746765 0.13439761102199554 -9999 -9999
-9999 -9999 -9999 0.11677767336368561 0.12445370852947235 0.13564659655094147 0.15274302661418915 0.1711089164018631 0.19340792298316956 0.21625065803527832 0.23702481389045715 0.24801622331142426 0.25670161843299866 0.2495657354593277 0.22931624948978424 0.19988957047462463 0.17562197148799896 0.1628522127866745 -9999 -9999
-9999 -9999 -9999 0.12098200619220734 0.13041843473911285 0.14986932277679443 0.1733163446187973 0.20151808857917786 0.2404535412788391 0.2985440790653229 0.3673801124095917 0.42102858424186707 0.4414215683937073 0.41283082962036133 0.36408179998397827 0.30163395404815674 0.2530425786972046 0.24315908551216125 -9999 -9999
-9999 -9999 0.1145697832107544 0.12579169869422913 0.14244471490383148 0.16659721732139587 0.19292837381362915 0.22525539994239807 0.28333503007888794 0.37542417645454407 0.501130998134613 0.6139155030250549 0.6866475343704224 0.6661569476127625 0.5769200325012207 0.47406986355781555 0.3927113711833954 0.3646623492240906 0.3553907871246338 -9999
-9999 -9999 0.1236516535282135 0.13627000153064728 0.16305097937583923 0.1933167278766632 0.21586748957633972 0.23624207079410553 0.2868666350841522 0.38138630986213684 0.5269669890403748 0.7067974209785461 0.8958089351654053 0.9598489999771118 0.8948374390602112 0.7531766295433044 0.6242914199829102 0.5360674262046814 0.5035166144371033 -9999
-9999 -9999 0.15014487504959106 0.17160040140151978 0.21108923852443695 0.24552109837532043 0.25569939613342285 0.2153768241405487 0.2233084738254547 0.27096906304359436 0.3614127039909363 0.5400646924972534 0.9975260496139526 1.2343627214431763 1.2640783786773682 1.1454330682754517 0.988427996635437 0.8489852547645569 0.7906496524810791 -9999
-9999 0.17986097931861877 0.20114104449748993 0.2428240329027176 0.3099958896636963 0.3641597032546997 0.3575668931007385 0.2615073025226593 0.23798982799053192 0.2631125748157501 0.34450629353523254 0.5519368052482605 1.144700288772583 1.5386687517166138 1.7142174243927002 1.6749134063720703 1.5018795728683472 1.3247888088226318 1.2411514520645142 -9999
-9999 0.23614004254341125 0.2776554226875305 0.3719715178012848 0.49231770634651184 0.5802872776985168 0.5593731999397278 0.37547412514686584 0.3188192546367645 0.3286057412624359 0.40821200609207153 0.6452351808547974 1.3632229566574097 1.9023659229278564 2.2194664478302 2.3047335147857666 2.176401138305664 1.9929896593093872 1.9002646207809448 -9999
-9999 0.3606431186199188 0.4297771751880646 0.5806303024291992 0.758725643157959 0.8904318809509277 0.871017575263977 0.5689921379089355 0.483250230550766 0.4814152717590332 0.5583144426345825 0.8156341910362244 1.6829160451889038 2.3285179138183594 2.7653207778930664 2.974135160446167 2.9702625274658203 2.8285586833953857 2.7466251850128174 -9999
-9999 0.5914830565452576 0.6919918060302734 0.9149945974349976 1.1606535911560059 1.3427261114120483 1.3463736772537231 0.9292008876800537 0.8296933770179749 0.814332902431488 0.8736834526062012 1.1159930229187012 2.0504441261291504 2.7067906856536865 3.199312448501587 3.5364248752593994 3.6805574893951416 3.656169891357422 3.6183838844299316 -9999
-9999 0.9798325300216675 1.1354451179504395 1.4580271244049072 1.7626359462738037 1.9934982061386108 2.0748419761657715 1.9457777738571167 1.8047657012939453 1.7133338451385498 1.7443588972091675 1.9536136388778687 2.404331922531128 2.848895311355591 3.270425319671631 3.659186840057373 3.9805023670196533 4.139399528503418 4.159404754638672 -9999
-9999 1.53363037109375 1.7515208721160889 2.1819405555725098 2.5455238819122314 2.7621634006500244 2.807828426361084 2.678032398223877 2.4745538234710693 2.315981864929199 2.2628517150878906 2.3291707038879395 2.4971530437469482 2.7034449577331543 2.9331040382385254 3.2410833835601807 3.6295342445373535 4.043858051300049 4.175716400146484 -9999
-9999 2.116248369216919 2.3787713050842285 2.891331672668457 3.267181634902954 3.3963255882263184 3.3220713138580322 3.107194423675537 2.8527185916900635 2.6415390968322754 2.5132341384887695 2.444054365158081 2.419969320297241 2.4261415004730225 2.4476993083953857 2.562967538833618 2.7838006019592285 3.2295119762420654 -9999 -9999
-9999 2.5466620922088623 2.8482158184051514 3.388056516647339 3.706362009048462 3.7207164764404297 3.5353617668151855 3.257673978805542 2.988118886947632 2.7588913440704346 2.588111400604248 2.4335179328918457 2.2820820808410645 2.1349198818206787 2.016282796859741 1.9403741359710693 1.925680160522461 1.7507965564727783 -9999 -9999
-9999 2.8634300231933594 3.2054691314697266 3.692542314529419 3.9286766052246094 3.816011667251587 3.5283079147338867 3.1949095726013184 2.910787582397461 2.6748456954956055 2.4820244312286377 2.2818655967712402 2.0676863193511963 1.8673843145370483 1.6791810989379883 1.5189357995986938 1.3896827697753906 1.2481279373168945 1.1383811235427856 1.0033795833587646
-9999 -9999 3.5599474906921387 3.898714065551758 4.0338053703308105 3.8010802268981934 3.3996922969818115 3.0070419311523438 2.700005531311035 2.462679386138916 2.268174409866333 2.063453197479248 1.8470648527145386 1.6043835878372192 1.4020527601242065 1.2504093647003174 1.1057480573654175 0.9982556104660034 0.9137910008430481 0.9461356997489929
-9999 -9999 3.892937660217285 4.054417133331299 4.061649799346924 3.708406448364258 3.201477289199829 2.7462029457092285 2.412073850631714 2.1874752044677734 2.039182662963867 1.8460088968276978 1.6275746822357178 1.3905525207519531 1.211901307106018 1.082537055015564 0.9713735580444336 0.9013423323631287 0.9424073696136475 0.9655430912971497
-9999 -9999 -9999 4.11732816696167 4.061596393585205 3.656775951385498 3.092637062072754 2.6103382110595703 2.2757456302642822 2.0695998668670654 1.9212768077850342 1.7612476348876953 1.5433067083358765 1.3096375465393066 1.1219850778579712 1.0222382545471191 0.9018940329551697 0.9239324331283569 0.9586856365203857 0.9779375791549683
