ncols         20
nrows         20
xllcorner     0
yllcorner     -3.5992928
cellsize      0.17996463
NODATA_value  -9999
-9999.0 -9999 -9999 -9999 -9999 -9999 -9999 -9999 -9999 -9999 -9999 -9999 -9999 -9999 -9999 -9999 -9999 -9999 -9999 -9999
-9999 -9999 -9999 -9999 -9999 -9999 -9999 -9999 -9999 -9999 -9999 19.00724220275879 19.0181827545166 -9999 -9999 19.000141143798828 19.006000518798828 -9999 -9999 -9999
-9999 -9999 -9999 -9999 18.984037399291992 18.991430282592773 18.98830223083496 18.993247985839844 18.998430252075195 18.984466552734375 19.026010513305664 19.015939712524414 19.014955520629883 19.047395706176758 19.063344955444336 19.042818069458008 19.03667449951172 19.052255630493164 -9999 -9999
-9999 -9999 -9999 19.002914428710938 18.981924057006836 18.977519989013672 18.966283798217773 18.955101013183594 18.927509307861328 18.904781341552734 18.878957748413086 18.88327980041504 18.902734756469727 18.958276748657227 19.003368377685547 19.03896141052246 19.072555541992188 19.105772018432617 -9999 -9999
-9999 -9999 -9999 19.022769927978516 18.9998722076416 18.946582794189453 18.890594482421875 18.822219848632812 18.747455596923828 18.651968002319336 18.56538200378418 18.53566551208496 18.57468605041504 18.68866729736328 18.81351661682129 18.950469970703125 19.07293128967285 19.117847442626953 -9999 -9999
-9999 -9999 19.10759925842285 19.05373764038086 18.990962982177734 18.898773193359375 18.847854614257812 18.713891983032227 18.54909324645996 18.371490478515625 18.209415435791016 18.145145416259766 18.182552337646484 18.34065818786621 18.564931869506836 18.803800582885742 18.952655792236328 19.094802856445312 19.219667434692383 -9999
-9999 -9999 19.153701782226562 19.09056854248047 18.971435546875 18.880992889404297 18.704206466674805 18.50507354736328 18.280912399291992 18.052614212036133 17.85555648803711 17.757783889770508 17.78750991821289 17.94596290588379 18.174522399902344 18.479328155517578 18.705612182617188 18.93771743774414 19.065086364746094 -9999
-9999 -9999 19.229145050048828 19.106901168823242 18.98951530456543 18.771833419799805 18.527969360351562 18.276870727539062 18.031917572021484 17.801950454711914 17.629499435424805 17.533538818359375 17.54509162902832 17.665449142456055 17.871549606323242 18.142974853515625 18.43010902404785 18.63488006591797 18.7810115814209 -9999
-9999 19.539424896240234 19.334569931030273 19.185758590698242 18.902111053466797 18.600507736206055 18.30552864074707 18.02251434326172 17.780433654785156 17.591806411743164 17.470190048217773 17.406139373779297 17.402603149414062 17.475467681884766 17.615528106689453 17.811845779418945 18.079681396484375 18.316818237304688 18.412965774536133 -9999
-9999 19.615995407104492 19.418306350708008 19.147653579711914 18.762014389038086 18.39090919494629 18.049354553222656 17.759218215942383 17.544429779052734 17.408641815185547 17.33963394165039 17.306171417236328 17.30452537536621 17.339862823486328 17.42445945739746 17.549959182739258 17.760040283203125 17.94855308532715 18.031631469726562 -9999
-9999 19.641923904418945 19.418243408203125 19.04539680480957 18.589799880981445 18.175048828125 17.81741714477539 17.54090690612793 17.364519119262695 17.271961212158203 17.23045539855957 17.21240234375 17.207056045532227 17.22452163696289 17.274446487426758 17.360851287841797 17.492881774902344 17.613908767700195 17.69373893737793 -9999
-9999 19.561893463134766 19.269062042236328 18.833173751831055 18.35492515563965 17.951404571533203 17.625438690185547 17.3923282623291 17.26150894165039 17.202983856201172 17.174503326416016 17.154264450073242 17.115392684936523 17.117265701293945 17.161775588989258 17.189281463623047 17.286548614501953 17.370895385742188 17.43058967590332 -9999
-9999 19.254058837890625 18.926586151123047 18.500131607055664 18.06593894958496 17.72321319580078 17.46443748474121 17.294443130493164 17.214885711669922 17.18671226501465 17.174707412719727 17.159427642822266 17.121816635131836 17.116207122802734 17.120542526245117 17.15410614013672 17.17755889892578 17.216156005859375 17.26763343811035 -9999
-9999 18.783964157104492 18.49732780456543 18.131656646728516 17.773780822753906 17.512096405029297 17.333974838256836 17.23243522644043 17.196741104125977 17.19135093688965 17.19258689880371 17.19085693359375 17.1751766204834 17.180437088012695 17.191762924194336 17.206745147705078 17.192459106445312 17.155845642089844 17.24112892150879 -9999
-9999 18.365467071533203 18.129547119140625 17.831947326660156 17.552263259887695 17.366044998168945 17.257505416870117 17.207937240600586 17.19623565673828 17.200481414794922 17.203794479370117 17.216106414794922 17.232397079467773 17.251508712768555 17.266883850097656 17.276153564453125 17.282079696655273 17.183826446533203 -9999 -9999
-9999 18.079051971435547 17.877038955688477 17.63817024230957 17.422746658325195 17.29585075378418 17.231290817260742 17.20962905883789 17.202001571655273 17.201059341430664 17.189971923828125 17.20743179321289 17.239606857299805 17.28541374206543 17.309572219848633 17.337099075317383 17.35626220703125 17.430877685546875 -9999 -9999
-9999 17.92418098449707 17.710403442382812 17.51768684387207 17.352581024169922 17.272722244262695 17.235376358032227 17.227842330932617 17.21985626220703 17.207550048828125 17.21163558959961 17.233274459838867 17.2681827545166 17.308013916015625 17.3410701751709 17.37145233154297 17.3955020904541 17.420534133911133 17.38657569885254 17.414215087890625
-9999 -9999 17.533031463623047 17.42487335205078 17.3122615814209 17.26172637939453 17.25054359436035 17.250598907470703 17.236812591552734 17.239042282104492 17.246315002441406 17.266019821166992 17.291616439819336 17.331809997558594 17.362579345703125 17.38280487060547 17.406871795654297 17.422765731811523 17.436214447021484 17.413145065307617
-9999 -9999 17.467050552368164 17.363866806030273 17.291189193725586 17.270427703857422 17.279233932495117 17.2904052734375 17.286157608032227 17.287939071655273 17.282848358154297 17.301044464111328 17.326175689697266 17.360353469848633 17.38064956665039 17.3947811126709 17.410058975219727 17.423065185546875 17.402050018310547 17.39531898498535
-9999 -9999 -9999 17.309167861938477 17.27482795715332 17.26849937438965 17.289859771728516 17.305273056030273 17.300458908081055 17.298961639404297 17.298686981201172 17.3055362701416 17.33160972595215 17.364025115966797 17.389400482177734 17.393354415893555 17.4180908203125 17.40201187133789 17.39307403564453 17.389963150024414
