ncols         20
nrows         20
xllcorner     0
yllcorner     -3.5992928
cellsize      0.17996463
NODATA_value  -9999
-9999.0 -9999 -9999 -9999 -9999 -9999 -9999 -9999 -9999 -9999 -9999 -9999 -9999 -9999 -9999 -9999 -9999 -9999 -9999 -9999
-9999 -9999 -9999 -9999 -9999 -9999 -9999 -9999 -9999 -9999 -9999 0.8457266092300415 0.8265640735626221 -9999 -9999 0.7332707643508911 0.6871955990791321 -9999 -9999 -9999
-9999 -9999 -9999 -9999 0.9685505628585815 1.0285868644714355 1.1332451105117798 1.2064534425735474 1.238572359085083 1.2449846267700195 1.1060070991516113 1.0075596570968628 0.9902776479721069 0.9755858778953552 0.8819469809532166 0.7798058986663818 0.7049574851989746 0.6533442139625549 -9999 -9999
-9999 -9999 -9999 0.9158869385719299 0.9857727885246277 1.0681990385055542 1.1795834302902222 1.2774606943130493 1.3734558820724487 1.4403407573699951 1.4663571119308472 1.4248831272125244 1.3746368885040283 1.2517187595367432 1.0936130285263062 0.9228514432907104 0.7910575270652771 0.7191584706306458 -9999 -9999
-9999 -9999 -9999 0.901814341545105 0.9799189567565918 1.1272523403167725 1.2935996055603027 1.470916986465454 1.674635648727417 1.9320886135101318 2.1624386310577393 2.2404048442840576 2.1342647075653076 1.8302297592163086 1.5063765048980713 1.1876968145370483 0.9602514505386353 0.8977414965629578 -9999 -9999
-9999 -9999 0.7252975702285767 0.8427616357803345 0.9792995452880859 1.1701723337173462 1.3867526054382324 1.643182635307312 2.015063524246216 2.4686951637268066 2.9227912425994873 3.1022582054138184 2.9951529502868652 2.5558438301086426 2.012880325317383 1.536663293838501 1.2016665935516357 1.056483268737793 0.9357041120529175 -9999
-9999 -9999 0.7034053802490234 0.7978307604789734 0.986825704574585 1.2323023080825806 1.4997303485870361 1.8428294658660889 2.31353497505188 2.8741111755371094 3.4005191326141357 3.6541428565979004 3.562199115753174 3.1364307403564453 2.5843372344970703 1.9592596292495728 1.5182603597640991 1.245704174041748 1.1268278360366821 -9999
-9999 -9999 0.7017205953598022 0.8233146071434021 1.0602861642837524 1.351974368095398 1.6972664594650269 2.104264736175537 2.5656189918518066 3.062656879425049 3.4452455043792725 3.653095006942749 3.6035385131835938 3.3079347610473633 2.8519508838653564 2.3176662921905518 1.8573697805404663 1.5273391008377075 1.3904451131820679 -9999
-9999 0.567481279373169 0.710993230342865 0.8993739485740662 1.2151774168014526 1.6005367040634155 2.003251791000366 2.433277130126953 2.821816921234131 3.1254165172576904 3.2983412742614746 3.3773090839385986 3.3596317768096924 3.202552556991577 2.9464900493621826 2.6074635982513428 2.1381447315216064 1.8012690544128418 1.6556556224822998 -9999
-9999 0.6253663897514343 0.7593864798545837 1.041375756263733 1.4452310800552368 1.9049606323242188 2.353651285171509 2.7442307472229004 2.9962189197540283 3.0955581665039062 3.0858101844787598 3.0625600814819336 3.027994394302368 2.966235637664795 2.8459341526031494 2.679978132247925 2.305748462677002 2.017219066619873 1.8902775049209595 -9999
-9999 0.7431275844573975 0.8910484313964844 1.2137733697891235 1.6391475200653076 2.103074312210083 2.5386810302734375 2.8524832725524902 2.9599082469940186 2.921535015106201 2.836094379425049 2.772372007369995 2.747072458267212 2.715871572494507 2.6537649631500244 2.549661636352539 2.3470239639282227 2.1431961059570312 2.0492663383483887 -9999
-9999 0.9316555261611938 1.0839451551437378 1.4220763444900513 1.8186622858047485 2.2048511505126953 2.538325786590576 2.7187812328338623 2.7051029205322266 2.597470760345459 2.4947896003723145 2.451242685317993 2.502596378326416 2.4985580444335938 2.428339958190918 2.4121253490448 2.2692153453826904 2.151291608810425 2.0963034629821777 -9999
-9999 1.194277286529541 1.3597681522369385 1.695438265800476 2.001711130142212 2.2553956508636475 2.4266223907470703 2.4643404483795166 2.3594651222229004 2.208890676498413 2.0971946716308594 2.0532779693603516 2.104783773422241 2.111207962036133 2.097310781478882 2.0528616905212402 2.0349948406219482 2.018709897994995 2.001089334487915 -9999
-9999 1.4878230094909668 1.6475496292114258 1.94539475440979 2.1549057960510254 2.2556862831115723 2.262683629989624 2.174567937850952 2.0164754390716553 1.8496010303497314 1.729548692703247 1.6663380861282349 1.6687487363815308 1.6458494663238525 1.6190942525863647 1.592624306678772 1.6469138860702515 1.7662074565887451 1.8227753639221191 -9999
-9999 1.6914982795715332 1.8175177574157715 2.0528082847595215 2.1622400283813477 2.134676218032837 2.029261827468872 1.879003643989563 1.7080552577972412 1.562154769897461 1.4609495401382446 1.3785223960876465 1.312217116355896 1.2505030632019043 1.2137506008148193 1.1899763345718384 1.201093316078186 1.3488260507583618 -9999 -9999
-9999 1.7436728477478027 1.8262444734573364 1.9872937202453613 2.0086772441864014 1.90873122215271 1.7597148418426514 1.5962131023406982 1.4606188535690308 1.3625253438949585 1.3090449571609497 1.2274525165557861 1.1280717849731445 1.0112364292144775 0.9437408447265625 0.8806595802307129 0.8410740494728088 0.768842875957489 -9999 -9999
-9999 1.7684180736541748 1.760557770729065 1.8386534452438354 1.8079298734664917 1.6722806692123413 1.5031280517578125 1.3543617725372314 1.2587403059005737 1.2091174125671387 1.1547256708145142 1.0752586126327515 0.9715868234634399 0.8552868366241455 0.7647086381912231 0.6891577243804932 0.6328408718109131 0.5872400999069214 0.5759539604187012 0.5241223573684692
-9999 -9999 1.6331520080566406 1.6757324934005737 1.624918818473816 1.4716345071792603 1.2952346801757812 1.1628419160842896 1.103011965751648 1.054529070854187 1.0066746473312378 0.9391592741012573 0.8537346720695496 0.7468730807304382 0.6591590642929077 0.5949649214744568 0.5357889533042908 0.49851492047309875 0.4741314649581909 0.5007139444351196
-9999 -9999 1.6095249652862549 1.5638267993927002 1.4860236644744873 1.3170263767242432 1.1336350440979004 1.003280758857727 0.9470113515853882 0.9080563187599182 0.8835906982421875 0.8275899887084961 0.7500686645507812 0.6559352874755859 0.5842896699905396 0.5333268642425537 0.4901052415370941 0.4670385420322418 0.4998059868812561 0.5187785625457764
-9999 -9999 -9999 1.4674125909805298 1.410006046295166 1.242078423500061 1.0562481880187988 0.9282414317131042 0.8766598701477051 0.8473213911056519 0.8245805501937866 0.7854495048522949 0.7115907073020935 0.622380793094635 0.548365592956543 0.5127056241035461 0.464544415473938 0.48729652166366577 0.5151402950286865 0.5309611558914185
