ncols         20
nrows         20
xllcorner     0
yllcorner     -3.5992928
cellsize      0.17996463
NODATA_value  -9999
-9999.0 -9999 -9999 -9999 -9999 -9999 -9999 -9999 -9999 -9999 -9999 -9999 -9999 -9999 -9999 -9999 -9999 -9999 -9999 -9999
-9999 -9999 -9999 -9999 -9999 -9999 -9999 -9999 -9999 -9999 -9999 0.01780284382402897 0.017801491543650627 -9999 -9999 0.017848573625087738 0.01785368286073208 -9999 -9999 -9999
-9999 -9999 -9999 -9999 0.01798839680850506 0.017950311303138733 0.017892638221383095 0.017820557579398155 0.017746763303875923 0.01768605224788189 0.017652731388807297 0.03742212429642677 0.03741305693984032 0.01762903667986393 0.01764434017241001 0.03750694543123245 0.037538472563028336 0.017708586528897285 -9999 -9999
-9999 -9999 -9999 0.017898114398121834 0.037882160395383835 0.0787767842411995 0.0785001665353775 0.07812836021184921 0.07774203270673752 0.07741820067167282 0.0772181898355484 0.09293244779109955 0.09290590137243271 0.07711844146251678 0.07719545066356659 0.09315947443246841 0.07747730612754822 0.017560916021466255 -9999 -9999
-9999 -9999 -9999 0.017770586535334587 0.07834574580192566 0.11313922703266144 0.11264701187610626 0.11198240518569946 0.11130186170339584 0.11073944717645645 0.11039159446954727 0.11030426621437073 0.1103038638830185 0.11033239960670471 0.110478475689888 0.11068132519721985 0.0765473023056984 0.01730814389884472 -9999 -9999
-9999 -9999 0.01752115786075592 0.037173278629779816 0.0933428630232811 0.11188282072544098 0.11121053993701935 0.11032018065452576 0.10944165289402008 0.10874304920434952 0.108321912586689 0.10819648206233978 0.10827942192554474 0.1084662601351738 0.10868749022483826 0.10883810371160507 0.09045840799808502 0.035835910588502884 0.01680765673518181 -9999
-9999 -9999 0.017354663461446762 0.07650560885667801 0.11061297357082367 0.11010275036096573 0.10910295695066452 0.10781127214431763 0.10662797838449478 0.10574470460414886 0.10525916516780853 0.1051814928650856 0.10542304068803787 0.10580070316791534 0.10616987943649292 0.10640264302492142 0.10633764415979385 0.07321836054325104 0.016577348113059998 -9999
-9999 -9999 0.01709149032831192 0.07542064785957336 0.10877365618944168 0.10791996121406555 0.1064826026558876 0.10463188588619232 0.10319843143224716 0.10220871865749359 0.10167242586612701 0.1015959233045578 0.10196974873542786 0.10255420207977295 0.10311078280210495 0.10353265702724457 0.10374636948108673 0.07170127332210541 0.016239475458860397 -9999
-9999 0.01666148565709591 0.035419318825006485 0.08905206620693207 0.1065937802195549 0.1054670438170433 0.10367819666862488 0.10156569629907608 0.09996235370635986 0.09887056052684784 0.09826628863811493 0.09814007580280304 0.09846936166286469 0.09905928373336792 0.09971491992473602 0.10027957707643509 0.10067235678434372 0.06972014158964157 0.01580868847668171 -9999
-9999 0.016471434384584427 0.07254043966531754 0.10488764196634293 0.10425660014152527 0.10286934673786163 0.10081685334444046 0.09862924367189407 0.09694936871528625 0.09578773379325867 0.09511339664459229 0.09490611404180527 0.09513034671545029 0.09560971707105637 0.096227265894413 0.09683214873075485 0.09731385856866837 0.06748341768980026 0.015318955294787884 -9999
-9999 0.016208112239837646 0.07132722437381744 0.10275064408779144 0.10181313753128052 0.1002020388841629 0.09800178557634354 0.09584807604551315 0.09416399896144867 0.09296754747629166 0.09223052859306335 0.09192974865436554 0.09202706068754196 0.09237007796764374 0.09286055713891983 0.09341779351234436 0.09392479807138443 0.06519550085067749 0.01481378823518753 -9999
-9999 0.015885967761278152 0.06981729716062546 0.1003635972738266 0.0992436334490776 0.09750514477491379 0.0953122228384018 0.09326069056987762 0.09162234514951706 0.09041815251111984 0.08962690830230713 0.08922697603702545 0.08918336033821106 0.08937495946884155 0.08973006159067154 0.09020143002271652 0.09073631465435028 0.06307965517044067 0.014343580231070518 -9999
-9999 0.01552983932197094 0.06815927475690842 0.09782403707504272 0.09659622609615326 0.09482847154140472 0.09277508407831192 0.09088984876871109 0.08933030813932419 0.08813619613647461 0.08729754388332367 0.08679584413766861 0.08659233152866364 0.08661670982837677 0.08682703226804733 0.08722285181283951 0.08789118379354477 0.061374224722385406 0.013955631293356419 -9999
-9999 0.015166116878390312 0.06646937876939774 0.09525448828935623 0.0939578041434288 0.09223878383636475 0.09037449210882187 0.08866386115550995 0.08720490336418152 0.08604370057582855 0.08517530560493469 0.08458152413368225 0.08423169702291489 0.08408503234386444 0.08411640673875809 0.08432898670434952 0.0702943280339241 0.02849704585969448 0.013675631955265999 -9999
-9999 0.014825105667114258 0.06488902121782303 0.09280223399400711 0.09144449234008789 0.08980914205312729 0.08813486248254776 0.0865899994969368 0.08524668216705322 0.08413223922252655 0.0832483246922493 0.08258003741502762 0.08210433274507523 0.0817939043045044 0.08162742853164673 0.08159193396568298 0.05642654746770859 0.01280958577990532 -9999 -9999
-9999 0.014541540294885635 0.06324111670255661 0.0906042531132698 0.08912032097578049 0.08758871257305145 0.08609909564256668 0.08471865206956863 0.08348657190799713 0.08242609351873398 0.0815408006310463 0.08081848919391632 0.0802411139011383 0.07978702336549759 0.07943524420261383 0.07917022705078125 0.054204098880290985 0.012270779348909855 -9999 -9999
-9999 0.014340132474899292 0.029838593676686287 0.07318262755870819 0.08694277703762054 0.08562730252742767 0.08433286100625992 0.08310255408287048 0.08197394013404846 0.08096886426210403 0.08009257912635803 0.07933533191680908 0.07868185639381409 0.07811105996370316 0.07759445905685425 0.07709121704101562 0.06331127882003784 0.024867789819836617 0.011439172551035881 0.011316115036606789
-9999 -9999 0.013688167557120323 0.05937045440077782 0.08515650779008865 0.0840180516242981 0.08289924263954163 0.08180296421051025 0.08076576143503189 0.07981213927268982 0.0789509266614914 0.07817462086677551 0.0774700939655304 0.07681615650653839 0.07618063688278198 0.0755028948187828 0.07464798539876938 0.06110827997326851 0.05006253719329834 0.04973902553319931
-9999 -9999 0.013299962505698204 0.02813047170639038 0.06933114677667618 0.08277685940265656 0.08185772597789764 0.08088115602731705 0.07991792261600494 0.07900625467300415 0.07816067337989807 0.07737628370523453 0.07664266228675842 0.07594259083271027 0.07525138556957245 0.0745314508676529 0.07373727113008499 0.07287000119686127 0.07218325138092041 0.07182992994785309
-9999 -9999 -9999 0.012917919084429741 0.05688173323869705 0.08209534734487534 0.08130772411823273 0.08040392398834229 0.07948313653469086 0.07859481126070023 0.07775778323411942 0.07697082310914993 0.07622458040714264 0.07550523430109024 0.07479479163885117 0.0740729346871376 0.07333004474639893 0.07261120527982712 0.07204703241586685 0.07174400240182877
