ncols         20
nrows         20
xllcorner     0
yllcorner     -3.5992928
cellsize      0.17996463
NODATA_value  -9999
-9999.0 -9999 -9999 -9999 -9999 -9999 -9999 -9999 -9999 -9999 -9999 -9999 -9999 -9999 -9999 -9999 -9999 -9999 -9999 -9999
-9999 -9999 -9999 -9999 -9999 -9999 -9999 -9999 -9999 -9999 -9999 18.98185157775879 18.990154266357422 -9999 -9999 18.91835594177246 18.922060012817383 -9999 -9999 -9999
-9999 -9999 -9999 -9999 18.928361892700195 18.950563430786133 18.96849250793457 18.994688034057617 19.01678466796875 19.0119686126709 19.04984474182129 19.021324157714844 19.009521484375 19.033283233642578 19.02880859375 18.98050308227539 18.958271026611328 18.96579360961914 -9999 -9999
-9999 -9999 -9999 18.928056716918945 18.926908493041992 18.952455520629883 18.974468231201172 18.99138069152832 18.98855972290039 18.981386184692383 18.958057403564453 18.953432083129883 18.959976196289062 18.995437622070312 19.009475708007812 19.009979248046875 19.009784698486328 19.022382736206055 -9999 -9999
-9999 -9999 -9999 18.9487247467041 18.962459564208984 18.962186813354492 18.955829620361328 18.9266414642334 18.88106918334961 18.80794334411621 18.7313175201416 18.69889259338379 18.727981567382812 18.82124900817871 18.909818649291992 18.989652633666992 19.046283721923828 19.040668487548828 -9999 -9999
-9999 -9999 18.985286712646484 18.97979736328125 18.989877700805664 18.971832275390625 18.90916633605957 18.79879379272461 18.662878036499023 18.5150089263916 18.370338439941406 18.305103302001953 18.340526580810547 18.488067626953125 18.6823787689209 18.855491638183594 18.980924606323242 19.032732009887695 19.110122680664062 -9999
-9999 -9999 19.035612106323242 19.046058654785156 19.024097442626953 18.944320678710938 18.778934478759766 18.555856704711914 18.329517364501953 18.15648651123047 18.02306365966797 17.95124053955078 17.953144073486328 18.087297439575195 18.312068939208984 18.57334327697754 18.77521324157715 18.91661834716797 18.980541229248047 -9999
-9999 -9999 19.11102294921875 19.103178024291992 19.037534713745117 18.874210357666016 18.59116554260254 18.6122989654541 18.280235290527344 18.102989196777344 18.024539947509766 18.018320083618164 17.7291259765625 17.777732849121094 17.954368591308594 18.201326370239258 18.444774627685547 18.640769958496094 18.732702255249023 -9999
-9999 19.221956253051758 19.170673370361328 19.141342163085938 19.008392333984375 18.743804931640625 18.372873306274414 18.291744232177734 17.978649139404297 17.836318969726562 17.789445877075195 17.79608726501465 17.564836502075195 17.559673309326172 17.65654182434082 17.83816146850586 18.058937072753906 18.255237579345703 18.362110137939453 -9999
-9999 19.25621795654297 19.222084045410156 19.111207962036133 18.891935348510742 18.56060791015625 18.174196243286133 18.087026596069336 17.81742286682129 17.69997215270996 17.664587020874023 17.66866111755371 17.453439712524414 17.404388427734375 17.432893753051758 17.536346435546875 17.69864273071289 17.85974884033203 17.951339721679688 -9999
-9999 19.252328872680664 19.175748825073242 18.985801696777344 18.690982818603516 18.313215255737305 17.97610092163086 17.946998596191406 17.727745056152344 17.629207611083984 17.600265502929688 17.598716735839844 17.36277961730957 17.28073501586914 17.261423110961914 17.30158233642578 17.395328521728516 17.509870529174805 17.578502655029297 -9999
-9999 19.115739822387695 18.988847732543945 18.728567123413086 18.393190383911133 18.032318115234375 17.769521713256836 17.832569122314453 17.66185188293457 17.580469131469727 17.555715560913086 17.55179214477539 17.285736083984375 17.191768646240234 17.14720344543457 17.136756896972656 17.170419692993164 17.237333297729492 17.286014556884766 -9999
-9999 18.805299758911133 18.640527725219727 18.34519386291504 18.022958755493164 17.731914520263672 17.5201416015625 17.42268180847168 17.361713409423828 17.336069107055664 17.31836700439453 17.288606643676758 17.217493057250977 17.16681671142578 17.12141990661621 17.084880828857422 17.058979034423828 17.073108673095703 17.114734649658203 -9999
-9999 18.386905670166016 18.210132598876953 17.92604637145996 17.656261444091797 17.44599723815918 17.309284210205078 17.246356964111328 17.23293685913086 17.234962463378906 17.234907150268555 17.225854873657227 17.210933685302734 17.19749641418457 17.186573028564453 17.15548324584961 17.10227394104004 17.029766082763672 17.10413360595703 -9999
-9999 18.002843856811523 17.840402603149414 17.58583641052246 17.373088836669922 17.23844337463379 17.17279052734375 17.1597900390625 17.17264747619629 17.19184112548828 17.20366096496582 17.214906692504883 17.226154327392578 17.237764358520508 17.257686614990234 17.256881713867188 17.236167907714844 17.106781005859375 -9999 -9999
-9999 17.743221282958984 17.593772888183594 17.374147415161133 17.213592529296875 17.13836669921875 17.118576049804688 17.13282585144043 17.15265464782715 17.174360275268555 17.18973159790039 17.210777282714844 17.237953186035156 17.269906997680664 17.300296783447266 17.326997756958008 17.33905792236328 17.424636840820312 -9999 -9999
-9999 17.593334197998047 17.441286087036133 17.257553100585938 17.137516021728516 17.11012077331543 17.11821746826172 17.146678924560547 17.168209075927734 17.188718795776367 17.20613670349121 17.23137092590332 17.263856887817383 17.29387664794922 17.3276424407959 17.360139846801758 17.38656997680664 17.41484260559082 17.381486892700195 17.4122257232666
-9999 -9999 17.306880950927734 17.185428619384766 17.10213279724121 17.10411834716797 17.140674591064453 17.177791595458984 17.201759338378906 17.221385955810547 17.23749542236328 17.26072120666504 17.286558151245117 17.325092315673828 17.35589599609375 17.376985549926758 17.402786254882812 17.42020034790039 17.43543243408203 17.41243553161621
-9999 -9999 17.22043800354004 17.142168045043945 17.090618133544922 17.1231632232666 17.182228088378906 17.229782104492188 17.258419036865234 17.272342681884766 17.272672653198242 17.2939453125 17.320005416870117 17.35406494140625 17.374526977539062 17.38922119140625 17.405683517456055 17.42047119140625 17.399934768676758 17.393705368041992
-9999 -9999 -9999 17.112791061401367 17.085437774658203 17.12786293029785 17.199939727783203 17.2504825592041 17.27570915222168 17.283893585205078 17.288333892822266 17.29793357849121 17.32509994506836 17.357585906982422 17.383136749267578 17.387609481811523 17.413888931274414 17.39849853515625 17.390260696411133 17.38762855529785
