ncols         20
nrows         20
xllcorner     0
yllcorner     -3.5992928
cellsize      0.17996463
NODATA_value  -9999
-9999.0 -9999 -9999 -9999 -9999 -9999 -9999 -9999 -9999 -9999 -9999 -9999 -9999 -9999 -9999 -9999 -9999 -9999 -9999 -9999
-9999 -9999 -9999 -9999 -9999 -9999 -9999 -9999 -9999 -9999 -9999 1.1242977380752563 1.1069648265838623 -9999 -9999 1.062466025352478 0.9987168908119202 -9999 -9999 -9999
-9999 -9999 -9999 -9999 1.1450456380844116 1.2190711498260498 1.3502403497695923 1.4501484632492065 1.5092493295669556 1.5463123321533203 1.4081114530563354 1.3228459358215332 1.3314266204833984 1.3460016250610352 1.2455894947052002 1.1234169006347656 1.0258524417877197 0.9564880132675171 -9999 -9999
-9999 -9999 -9999 1.069929599761963 1.1553261280059814 1.2537373304367065 1.3881088495254517 1.5125104188919067 1.646667718887329 1.7622458934783936 1.8434996604919434 1.8479994535446167 1.8382878303527832 1.723775029182434 1.5448764562606812 1.3304929733276367 1.1556476354599 1.057984471321106 -9999 -9999
-9999 -9999 -9999 1.0433354377746582 1.1315879821777344 1.2955113649368286 1.478222370147705 1.676416277885437 1.9229340553283691 2.2663638591766357 2.623244047164917 2.828737735748291 2.8071987628936768 2.5020737648010254 2.1252081394195557 1.71831214427948 1.4136013984680176 1.3345026969909668 -9999 -9999
-9999 -9999 0.8242315649986267 0.9592011570930481 1.1047782897949219 1.297188639640808 1.499961495399475 1.7329604625701904 2.109941005706787 2.6350159645080566 3.2563464641571045 3.6639046669006348 3.7755627632141113 3.417384624481201 2.812865734100342 2.226574420928955 1.7846131324768066 1.5951979160308838 1.4323945045471191 -9999
-9999 -9999 0.7939351797103882 0.8928780555725098 1.0792065858840942 1.2922940254211426 1.472077488899231 1.6584974527359009 1.995094895362854 2.496969223022461 3.112968921661377 3.673516035079956 4.095378398895264 3.9960124492645264 3.495175361633301 2.817976474761963 2.265871047973633 1.9009100198745728 1.7400648593902588 -9999
-9999 -9999 0.7884758114814758 0.9078521132469177 1.1203281879425049 1.319694995880127 1.4333655834197998 1.3303509950637817 1.4232466220855713 1.63890540599823 1.9189660549163818 2.360740900039673 3.5417091846466064 3.9449827671051025 3.7848100662231445 3.2918758392333984 2.769904136657715 2.3451430797576904 2.164341449737549 -9999
-9999 0.6566150188446045 0.806474506855011 0.9878646731376648 1.2537155151367188 1.4743858575820923 1.5012037754058838 1.2104765176773071 1.1493300199508667 1.2051140069961548 1.3527252674102783 1.7344766855239868 2.9364049434661865 3.5864992141723633 3.771538496017456 3.565885305404663 3.1487438678741455 2.7608962059020996 2.5814690589904785 -9999
-9999 0.7371503710746765 0.8784454464912415 1.1586015224456787 1.4929472208023071 1.7212986946105957 1.6606656312942505 1.1711745262145996 0.9929143786430359 0.9554446339607239 1.0336902141571045 1.357621669769287 2.4323785305023193 3.149341344833374 3.515084743499756 3.564962863922119 3.340301036834717 3.0610623359680176 2.925311326980591 -9999
-9999 0.9071712493896484 1.067836046218872 1.395782232284546 1.7444114685058594 1.9449788331985474 1.8017548322677612 1.1389169692993164 0.889201283454895 0.8061538338661194 0.8515272736549377 1.12294602394104 2.0856122970581055 2.756141185760498 3.1772499084472656 3.3619723320007324 3.3415145874023438 3.1956820487976074 3.1187615394592285 -9999
-9999 1.1904006004333496 1.3607845306396484 1.7162151336669922 2.03993558883667 2.1681833267211914 1.951334834098816 1.1820389032363892 0.9107935428619385 0.8071075081825256 0.8238735198974609 1.0337187051773071 1.8528239727020264 2.409531831741333 2.800110340118408 3.0512685775756836 3.1548402309417725 3.141765832901001 3.126032829284668 -9999
-9999 1.596567153930664 1.7899532318115234 2.1560983657836914 2.390404462814331 2.4210710525512695 2.199232339859009 1.7571418285369873 1.427204966545105 1.24137282371521 1.2143622636795044 1.3605973720550537 1.713433027267456 2.046802520751953 2.3426544666290283 2.600034236907959 2.7990832328796387 2.906017303466797 2.938600540161133 -9999
-9999 2.056452989578247 2.246901750564575 2.5773658752441406 2.7108802795410156 2.6138386726379395 2.337721824645996 1.9649940729141235 1.6407667398452759 1.4285449981689453 1.3494083881378174 1.3891332149505615 1.5172016620635986 1.6670187711715698 1.8192472457885742 2.0080156326293945 2.243807792663574 2.513697624206543 2.6533403396606445 -9999
-9999 2.376970052719116 2.523982286453247 2.7808609008789062 2.807140350341797 2.604572057723999 2.288210391998291 1.9479869604110718 1.6519447565078735 1.4517666101455688 1.3518469333648682 1.3206455707550049 1.3329553604125977 1.363680124282837 1.3957916498184204 1.4726495742797852 1.6070842742919922 1.8718838691711426 -9999 -9999
-9999 2.4604005813598633 2.546448230743408 2.71152400970459 2.6491777896881104 2.4053385257720947 2.100062131881714 1.797195553779602 1.5605792999267578 1.3972744941711426 1.3020955324172974 1.2406275272369385 1.192976713180542 1.1476556062698364 1.1107933521270752 1.0898874998092651 1.0998483896255493 1.0158894062042236 -9999 -9999
-9999 2.4907453060150146 2.441715955734253 2.5031793117523193 2.4001810550689697 2.150345802307129 1.8570091724395752 1.5986613035202026 1.4126282930374146 1.2847920656204224 1.2018210887908936 1.1309945583343506 1.0592870712280273 0.992003858089447 0.9234561920166016 0.8620278835296631 0.8136544227600098 0.7584183216094971 0.7271550893783569 0.6565476655960083
-9999 -9999 2.2278482913970947 2.2622833251953125 2.158737897872925 1.9120206832885742 1.6318247318267822 1.4046825170516968 1.250042200088501 1.1482621431350708 1.07965886592865 1.0144227743148804 0.9451923966407776 0.8579003810882568 0.7826284170150757 0.726170003414154 0.6669983863830566 0.6252279877662659 0.5925058722496033 0.6240999698638916
-9999 -9999 2.1721084117889404 2.093295097351074 1.9702672958374023 1.719336986541748 1.4437670707702637 1.2286489009857178 1.0876888036727905 1.0063750743865967 0.9661731719970703 0.9089732766151428 0.8386324048042297 0.7528361082077026 0.6886705756187439 0.6430660486221313 0.6009635925292969 0.577723503112793 0.6196638941764832 0.6432944536209106
-9999 -9999 -9999 1.9497143030166626 1.8648618459701538 1.6239330768585205 1.3514858484268188 1.1439813375473022 1.0143320560455322 0.9473009705543518 0.9099219441413879 0.869358479976654 0.7992876768112183 0.7145997285842896 0.6446231603622437 0.6151309013366699 0.5662558078765869 0.5993914604187012 0.6361110210418701 0.6564403772354126
