ncols         20
nrows         20
xllcorner     0
yllcorner     -3.5992928
cellsize      0.17996463
NODATA_value  -9999
-9999.0 -9999 -9999 -9999 -9999 -9999 -9999 -9999 -9999 -9999 -9999 -9999 -9999 -9999 -9999 -9999 -9999 -9999 -9999 -9999
-9999 -9999 -9999 -9999 -9999 -9999 -9999 -9999 -9999 -9999 -9999 13.139452934265137 13.147024154663086 -9999 -9999 13.027947425842285 13.104111671447754 -9999 -9999 -9999
-9999 -9999 -9999 -9999 13.061307907104492 13.018095970153809 12.937475204467773 12.909769058227539 12.915715217590332 12.919838905334473 13.023666381835938 13.021483421325684 12.967391014099121 12.922481536865234 12.944432258605957 12.98231315612793 13.047531127929688 13.100228309631348 -9999 -9999
-9999 -9999 -9999 13.008888244628906 12.99246883392334 12.981940269470215 12.969287872314453 12.97050666809082 12.957083702087402 12.937679290771484 12.908068656921387 12.865508079528809 12.813102722167969 12.803055763244629 12.8035249710083 12.831940650939941 12.875277519226074 12.909981727600098 -9999 -9999
-9999 -9999 -9999 12.966495513916016 12.98445987701416 13.016529083251953 13.123838424682617 13.18350601196289 13.20022964477539 13.190078735351562 13.175447463989258 13.150848388671875 13.09586238861084 13.029413223266602 12.940688133239746 12.848393440246582 12.709844589233398 12.57313346862793 -9999 -9999
-9999 -9999 12.920341491699219 12.935029029846191 13.029230117797852 13.26073169708252 13.66760540008545 13.839203834533691 13.923622131347656 14.029097557067871 14.157964706420898 14.227544784545898 14.174560546875 13.995363235473633 13.737053871154785 13.396705627441406 12.795528411865234 12.457136154174805 12.376441955566406 -9999
-9999 -9999 12.87000560760498 12.9723539352417 13.201050758361816 13.659634590148926 13.994878768920898 14.215940475463867 14.440232276916504 14.723855018615723 15.001381874084473 15.155064582824707 15.119386672973633 14.877708435058594 14.45952320098877 13.919546127319336 13.129998207092285 12.610267639160156 12.379617691040039 -9999
-9999 -9999 12.697431564331055 12.97982406616211 13.464188575744629 13.847806930541992 14.169361114501953 14.508390426635742 14.897675514221191 15.303617477416992 15.630927085876465 15.811511993408203 15.80361557006836 15.59294319152832 15.184212684631348 14.611466407775879 13.903907775878906 13.135441780090332 12.720130920410156 -9999
-9999 12.174357414245605 12.37946891784668 13.054635047912598 13.5217924118042 13.938281059265137 14.401632308959961 14.915822982788086 15.420952796936035 15.84322452545166 16.13087272644043 16.283206939697266 16.29631233215332 16.150005340576172 15.831932067871094 15.327079772949219 14.721357345581055 14.058929443359375 13.490509986877441 -9999
-9999 11.882909774780273 12.065836906433105 12.912692070007324 13.543020248413086 14.169218063354492 14.841150283813477 15.492842674255371 16.01722526550293 16.369670867919922 16.56944465637207 16.66874885559082 16.678117752075195 16.593364715576172 16.37954330444336 16.003618240356445 15.512885093688965 14.944615364074707 14.46390151977539 -9999
-9999 11.526433944702148 11.761565208435059 12.845388412475586 13.72184944152832 14.559098243713379 15.382201194763184 16.085886001586914 16.55924415588379 16.824569702148438 16.952390670776367 17.002206802368164 16.996477127075195 16.94860076904297 16.833337783813477 16.59779167175293 16.24917984008789 15.789176940917969 15.491523742675781 -9999
-9999 11.346991539001465 11.725428581237793 13.034707069396973 14.107047080993652 15.048869132995605 15.89581298828125 16.54983139038086 16.945878982543945 17.1494083404541 17.233034133911133 17.252328872680664 17.212482452392578 17.189212799072266 17.163793563842773 17.038970947265625 16.85279083251953 16.578022003173828 16.41666030883789 -9999
-9999 11.562993049621582 12.174081802368164 13.61823844909668 14.737049102783203 15.631357192993164 16.359710693359375 16.889202117919922 17.19854164123535 17.346080780029297 17.412750244140625 17.423105239868164 17.386768341064453 17.376079559326172 17.37211036682129 17.35917091369629 17.26583480834961 17.119346618652344 17.04170799255371 -9999
-9999 12.341608047485352 13.089653015136719 14.50362491607666 15.541186332702637 16.266368865966797 16.789052963256836 17.144996643066406 17.355548858642578 17.454023361206055 17.497865676879883 17.510608673095703 17.49632453918457 17.503890991210938 17.52144432067871 17.542158126831055 17.509546279907227 17.415706634521484 17.395450592041016 -9999
-9999 13.346282005310059 14.065838813781738 15.35463809967041 16.257095336914062 16.795969009399414 17.12533950805664 17.333358764648438 17.445634841918945 17.501140594482422 17.52421760559082 17.543550491333008 17.56229591369629 17.58763885498047 17.606420516967773 17.629310607910156 17.63921546936035 17.570758819580078 -9999 -9999
-9999 14.088083267211914 14.77238655090332 15.92628288269043 16.7009220123291 17.123605728149414 17.33462905883789 17.44394302368164 17.49270248413086 17.50992202758789 17.504621505737305 17.52208709716797 17.55651092529297 17.604326248168945 17.631053924560547 17.66503143310547 17.698556900024414 17.742116928100586 -9999 -9999
-9999 14.587669372558594 15.295709609985352 16.27046012878418 16.9429931640625 17.309476852416992 17.452577590942383 17.512252807617188 17.524267196655273 17.5133056640625 17.510700225830078 17.525924682617188 17.55813980102539 17.60462188720703 17.640743255615234 17.675281524658203 17.705121994018555 17.724729537963867 17.685646057128906 17.698015213012695
-9999 -9999 15.873613357543945 16.527273178100586 17.090621948242188 17.40202522277832 17.521373748779297 17.55775260925293 17.546581268310547 17.537391662597656 17.53113555908203 17.54146385192871 17.56465721130371 17.603378295898438 17.635705947875977 17.661352157592773 17.68872833251953 17.706228256225586 17.70685386657715 17.68844985961914
-9999 -9999 16.366361618041992 16.764057159423828 17.20199203491211 17.469593048095703 17.575237274169922 17.604202270507812 17.58758544921875 17.57155418395996 17.557666778564453 17.564697265625 17.584651947021484 17.615453720092773 17.637269973754883 17.65328025817871 17.672399520874023 17.682361602783203 17.663957595825195 17.652667999267578
-9999 -9999 -9999 16.924360275268555 17.26065444946289 17.49491310119629 17.59646987915039 17.62271499633789 17.59995460510254 17.58146858215332 17.56877326965332 17.56789779663086 17.586570739746094 17.61474609375 17.637001037597656 17.644168853759766 17.66521644592285 17.65282440185547 17.639041900634766 17.63245391845703
