ncols         20
nrows         20
xllcorner     0
yllcorner     -3.5992928
cellsize      0.17996463
NODATA_value  -9999
-9999.0 -9999 -9999 -9999 -9999 -9999 -9999 -9999 -9999 -9999 -9999 -9999 -9999 -9999 -9999 -9999 -9999 -9999 -9999 -9999
-9999 -9999 -9999 -9999 -9999 -9999 -9999 -9999 -9999 -9999 -9999 0.13820312917232513 0.13834388554096222 -9999 -9999 0.1409110426902771 0.14109931886196136 -9999 -9999 -9999
-9999 -9999 -9999 -9999 0.13777093589305878 0.13767172396183014 0.13758602738380432 0.13756558299064636 0.13765133917331696 0.13785478472709656 0.13813087344169617 0.12799300253391266 0.1284240186214447 0.13976407051086426 0.14047260582447052 0.13047926127910614 0.13104596734046936 0.1424269676208496 -9999 -9999
-9999 -9999 -9999 0.1382577121257782 0.12762106955051422 0.1084941029548645 0.1084250882267952 0.10844175517559052 0.10856731981039047 0.10880009829998016 0.10911442339420319 0.10119293630123138 0.1016288697719574 0.11057399213314056 0.11118663102388382 0.1034146249294281 0.11263491958379745 0.1436990648508072 -9999 -9999
-9999 -9999 -9999 0.13860630989074707 0.1089678704738617 0.0792073905467987 0.07297635823488235 0.07304274290800095 0.07321355491876602 0.0734761580824852 0.07380065321922302 0.0686182826757431 0.06900200992822647 0.07507476955652237 0.07562069594860077 0.07633554935455322 0.11462289094924927 0.14626525342464447 -9999 -9999
-9999 -9999 0.13954591751098633 0.12873575091362 0.10117942094802856 0.06791392713785172 0.04198581725358963 0.042067382484674454 0.04224364459514618 0.042491719126701355 0.042781680822372437 0.03974980115890503 0.040074508637189865 0.04387260228395462 0.04438014701008797 0.0725545808672905 0.1087932139635086 0.13939537107944489 0.1531279981136322 -9999
-9999 -9999 0.1401253491640091 0.11021974682807922 0.08022072166204453 0.05395025014877319 0.030758071690797806 0.020759744569659233 0.020895222201943398 0.02107992209494114 0.02129485458135605 0.01987692154943943 0.020140819251537323 0.022185586392879486 0.0335468053817749 0.05951913446187973 0.08904863893985748 0.12292163074016571 0.15697349607944489 -9999
-9999 -9999 0.141153946518898 0.11112402379512787 0.07467669993638992 0.04285983368754387 0.021018635481595993 0.010308906435966492 0.00888352282345295 0.008996622636914253 0.009132015518844128 0.008584164083003998 0.008784930221736431 0.011486410163342953 0.023985834792256355 0.04931870475411415 0.08614004403352737 0.1282944679260254 0.16311271488666534 -9999
-9999 0.14339257776737213 0.13206413388252258 0.1039273589849472 0.07004915177822113 0.04018957540392876 0.019788233563303947 0.008337123319506645 0.0032697059214115143 0.0033366282004863024 0.003414509119465947 0.003230519127100706 0.003648435464128852 0.010550729930400848 0.02552082948386669 0.052204493433237076 0.0908256247639656 0.13482637703418732 0.1710210144519806 -9999
-9999 0.14517708122730255 0.11431293934583664 0.08343306183815002 0.05639577656984329 0.03255831077694893 0.01603829674422741 0.006776177324354649 0.002500378293916583 0.001666998490691185 0.0017256943974643946 0.0017810394056141376 0.003938599023967981 0.011260049417614937 0.02708292379975319 0.055250756442546844 0.0959567204117775 0.14224299788475037 0.18024787306785583 -9999
-9999 0.14832614362239838 0.11703498661518097 0.07901386171579361 0.045658815652132034 0.022568730637431145 0.011151283048093319 0.004752087872475386 0.0017687940271571279 0.001775609445758164 0.0018455820390954614 0.0019077945034950972 0.004205702338367701 0.011949826963245869 0.028644807636737823 0.058350056409835815 0.10125333815813065 0.14997461438179016 0.1899016797542572 -9999
-9999 0.1526893675327301 0.12066970020532608 0.08168517053127289 0.047355540096759796 0.023482101038098335 0.009958676062524319 0.003638888243585825 0.0017900763778015971 0.001875834888778627 0.0019539061468094587 0.0021369403693825006 0.006210732739418745 0.014908039011061192 0.030187930911779404 0.06141987070441246 0.10647042095661163 0.1574840396642685 0.19910652935504913 -9999
-9999 0.1581273227930069 0.1251489669084549 0.08488141745328903 0.04930327832698822 0.02465498074889183 0.010492347180843353 0.0038478639908134937 0.001874776091426611 0.0019637965597212315 0.0020479762461036444 0.003347956109791994 0.009678283706307411 0.023189200088381767 0.04745019972324371 0.08215869963169098 0.12096741050481796 0.16444621980190277 0.20699387788772583 -9999
-9999 0.16439339518547058 0.13024145364761353 0.08881328999996185 0.05171246454119682 0.025741223245859146 0.010960627347230911 0.0040147267282009125 0.0019490165868774056 0.0020367854740470648 0.0021207835525274277 0.00439242459833622 0.012655794620513916 0.030500762164592743 0.06230410933494568 0.10811986774206161 0.1598040908575058 0.20081636309623718 0.21240650117397308 -9999
-9999 0.1708393394947052 0.13555403053760529 0.09257951378822327 0.053961291909217834 0.02688279189169407 0.01340596191585064 0.005749748088419437 0.00212107109837234 0.002094631316140294 0.002175192814320326 0.00488421693444252 0.013996328227221966 0.033774543553590775 0.06917022913694382 0.12052284926176071 0.17838837206363678 0.22600214183330536 -9999 -9999
-9999 0.17666445672512054 0.14111781120300293 0.10416731983423233 0.07138410955667496 0.04169755429029465 0.020839162170886993 0.008848793804645538 0.0035177450627088547 0.0021364674903452396 0.00221439590677619 0.004960079677402973 0.0142150754109025 0.034343037754297256 0.07046317309141159 0.12307678908109665 0.18324415385723114 0.2323925644159317 -9999 -9999
-9999 0.18081434071063995 0.17114821076393127 0.13704442977905273 0.09359784424304962 0.05456792190670967 0.02939377725124359 0.01458470057696104 0.006217907182872295 0.0022796224802732468 0.002240241039544344 0.004608257208019495 0.01327897422015667 0.032118797302246094 0.06597532331943512 0.11536356061697006 0.17230862379074097 0.2203783392906189 0.24204915761947632 0.24349486827850342
-9999 -9999 0.19160225987434387 0.1528160721063614 0.112454354763031 0.0766763985157013 0.04451768845319748 0.02213205397129059 0.009355918504297733 0.003438536776229739 0.0022542353253811598 0.0036510408390313387 0.010550414212048054 0.025619085878133774 0.052527494728565216 0.09209365397691727 0.13756778836250305 0.1756214052438736 0.19137729704380035 0.1921042948961258
-9999 -9999 0.19523291289806366 0.1825558841228485 0.14521771669387817 0.09861479699611664 0.057183004915714264 0.0282761063426733 0.011952708475291729 0.00437295064330101 0.002260370645672083 0.002459398005157709 0.007124626077711582 0.01726383902132511 0.035642821341753006 0.06219536066055298 0.09329041838645935 0.11887002736330032 0.12900501489639282 0.1293008178472519
-9999 -9999 -9999 0.20041750371456146 0.15889810025691986 0.10769195854663849 0.062299441546201706 0.03076053038239479 0.01298662181943655 0.0047615692019462585 0.002263073343783617 0.0023349530529230833 0.0040950230322778225 0.00988879706710577 0.02047138288617134 0.0357242152094841 0.053648196160793304 0.0680399015545845 0.07398799061775208 0.07410183548927307
