ncols         20
nrows         20
xllcorner     0
yllcorner     -3.5992928
cellsize      0.17996463
NODATA_value  -9999
-9999.0 -9999 -9999 -9999 -9999 -9999 -9999 -9999 -9999 -9999 -9999 -9999 -9999 -9999 -9999 -9999 -9999 -9999 -9999 -9999
-9999 -9999 -9999 -9999 -9999 -9999 -9999 -9999 -9999 -9999 -9999 0.008462500758469105 0.008165073581039906 -9999 -9999 0.006526576355099678 0.005718150641769171 -9999 -9999 -9999
-9999 -9999 -9999 -9999 0.007703104522079229 0.009037812240421772 0.011758384294807911 0.014492285437881947 0.01666642166674137 0.01822332665324211 0.015274628065526485 0.01301621738821268 0.012989141047000885 0.013271356001496315 0.010912205092608929 0.008180931210517883 0.0066443984396755695 0.005902689415961504 -9999 -9999
-9999 -9999 -9999 0.007275370415300131 0.008460918441414833 0.010408742353320122 0.01370176114141941 0.017637165263295174 0.02251633070409298 0.02720937319099903 0.030568622052669525 0.030536789447069168 0.029548460617661476 0.025137638673186302 0.01927655003964901 0.013526051305234432 0.009863009676337242 0.008208570070564747 -9999 -9999
-9999 -9999 -9999 0.00775480130687356 0.009383871220052242 0.013235868886113167 0.019112203270196915 0.0275951586663723 0.04033529758453369 0.060416627675294876 0.08359271287918091 0.0962686762213707 0.09111308306455612 0.06837617605924606 0.04641207680106163 0.028605053201317787 0.018609263002872467 0.016409851610660553 -9999 -9999
-9999 -9999 0.006311715114861727 0.008078626357018948 0.011249109171330929 0.01737893559038639 0.027200769633054733 0.043469469994306564 0.07528840750455856 0.12914922833442688 0.20231452584266663 0.2462921142578125 0.24049364030361176 0.17906536161899567 0.11122684180736542 0.06456665694713593 0.03962963446974754 0.03163573890924454 0.027822887524962425 -9999
-9999 -9999 0.006928406655788422 0.008974337950348854 0.014577546156942844 0.025122353807091713 0.042202919721603394 0.07365967333316803 0.13493196666240692 0.2394988089799881 0.3764413893222809 0.4730416536331177 0.47300952672958374 0.3760000467300415 0 0.1471063792705536 0.08820966631174088 0.059802114963531494 0.05034567788243294 -9999
-9999 -9999 0.009008345194160938 0.012802263721823692 0.02306601218879223 0.04218185320496559 0.07660745829343796 0.13730141520500183 0.2372192144393921 0.3878744840621948 0.5502937436103821 0.6762264370918274 0.6973048448562622 0.6066043972969055 0.4547506272792816 0.2999647855758667 0.19119051098823547 0.1284414380788803 0.10662723332643509 -9999
-9999 0.009477583691477776 0.013247909024357796 0.021770291030406952 0.04380084574222565 0.086883544921875 0.15859153866767883 0.2746325135231018 0.42996689677238464 0.6036449670791626 0.7528544068336487 0.8642632365226746 0.9124746918678284 0.8608878254890442 0.7370339632034302 0 0.3798632323741913 0.26574090123176575 0.22256842255592346 -9999
-9999 0.01435796357691288 0.021047532558441162 0.042198121547698975 0.09104374051094055 0.18308371305465698 0.33012133836746216 0.5324321985244751 0.7447934746742249 0.9139687418937683 1.0198707580566406 1.1035202741622925 1.1553912162780762 1.1547690629959106 1.0736807584762573 0 0.6839538812637329 0.5125397443771362 0.44342735409736633 -9999
-9999 0.027896344661712646 0.041287072002887726 0.08287085592746735 0.17042426764965057 0.32778170704841614 0.5718697905540466 0.869020938873291 1.1100196838378906 1.2535264492034912 1.3352420330047607 1.4071924686431885 1.4837827682495117 1.5116066932678223 1.4613341093063354 1.3328380584716797 1.1086876392364502 0.899492621421814 0.8058246970176697 -9999
-9999 0.06210920214653015 0.0874791145324707 0.16421177983283997 0.30467578768730164 0.5262929201126099 0.8405287265777588 1.1667755842208862 1.3740073442459106 1.4698705673217773 1.5293954610824585 1.6212729215621948 0 0 1.800165057182312 0 1.5531158447265625 1.36173677444458 1.2630096673965454 -9999
-9999 0.14313453435897827 0.1948973834514618 0.334399938583374 0.5336906313896179 0.7999509572982788 1.1136698722839355 1.3801406621932983 1.4891778230667114 1.4973337650299072 1.506567358970642 1.5684666633605957 0 0 0 1.7357882261276245 1.709645390510559 1.6510416269302368 1.5740493535995483 -9999
-9999 0.3009830713272095 0.3925175070762634 0.6162077784538269 0.8802641034126282 1.1429712772369385 1.370497703552246 1.49357008934021 1.4839391708374023 1.4224473237991333 1.375278353691101 1.363197922706604 0 0 0 1.3230143785476685 1.4042422771453857 1.5643177032470703 1.5555741786956787 -9999
-9999 0.5052633881568909 0.6320390105247498 0.9300641417503357 1.2200133800506592 1.408987045288086 1.4955148696899414 1.4836620092391968 1.4071375131607056 1.319912314414978 1.2500075101852417 1.1634368896484375 1.0686595439910889 0.9681524038314819 0 0 0.8629794716835022 1.0672246217727661 -9999 -9999
-9999 0.6671016216278076 0.8182465434074402 1.1439287662506104 1.3929619789123535 1.4797595739364624 1.4551653861999512 1.3756873607635498 1.2977720499038696 1.2317419052124023 0 0 0 0.7064842581748962 0 0 0.4398439824581146 0 -9999 -9999
-9999 0.797028124332428 0.9589317440986633 1.2538299560546875 1.4409129619598389 1.4281948804855347 1.32570481300354 1.2139819860458374 1.1476669311523438 0 0 0 0 0.527237057685852 0.39825546741485596 0.30344638228416443 0.2378442883491516 0.1856718361377716 0 0
-9999 -9999 1.0996659994125366 1.3161009550094604 1.4359807968139648 1.3431885242462158 1.1734025478363037 1.0391206741333008 0 0 0 0 0 0 0 0 0 0 0 0
-9999 -9999 1.2650514841079712 1.3708431720733643 1.406453251838684 1.2398396730422974 1.0152326822280884 0.8526900410652161 0 0 0 0 0 0 0 0 0 0 0 0
-9999 -9999 -9999 1.3878674507141113 1.383634328842163 1.1882586479187012 0.9369703531265259 0.764848530292511 0 0 0 0 0 0 0 0 0 0 0 0
