ncols         20
nrows         20
xllcorner     0
yllcorner     -3.5992928
cellsize      0.17996463
NODATA_value  -9999
-9999.0 -9999 -9999 -9999 -9999 -9999 -9999 -9999 -9999 -9999 -9999 -9999 -9999 -9999 -9999 -9999 -9999 -9999 -9999 -9999
-9999 -9999 -9999 -9999 -9999 -9999 -9999 -9999 -9999 -9999 -9999 13.294400215148926 13.29825210571289 -9999 -9999 13.098844528198242 13.169225692749023 -9999 -9999 -9999
-9999 -9999 -9999 -9999 13.148649215698242 13.124251365661621 13.072463989257812 13.076422691345215 13.109786987304688 13.130348205566406 13.236119270324707 13.214607238769531 13.149687767028809 13.097146987915039 13.09217643737793 13.090005874633789 13.136488914489746 13.1863374710083 -9999 -9999
-9999 -9999 -9999 13.08663558959961 13.08499526977539 13.100924491882324 13.121578216552734 13.156416893005371 13.17130184173584 13.169356346130371 13.145954132080078 13.099132537841797 13.037823677062988 13.014632225036621 12.98835563659668 12.985947608947754 13.006141662597656 13.029906272888184 -9999 -9999
-9999 -9999 -9999 13.054824829101562 13.094551086425781 13.160076141357422 13.302290916442871 13.39168930053711 13.435110092163086 13.44410514831543 13.434329986572266 13.405932426452637 13.343731880187988 13.268264770507812 13.16142749786377 13.054783821105957 12.900172233581543 12.753015518188477 -9999 -9999
-9999 -9999 13.006900787353516 13.038105010986328 13.164814949035645 13.433170318603516 13.865699768066406 14.060976028442383 14.165121078491211 14.273148536682129 14.385416030883789 14.441289901733398 14.38522720336914 14.217450141906738 13.96811580657959 13.631239891052246 13.041679382324219 12.70980167388916 12.657299995422363 -9999
-9999 -9999 12.973664283752441 13.100828170776367 13.368022918701172 13.859304428100586 14.218255996704102 14.462518692016602 14.693564414978027 14.95734977722168 15.19632339477539 15.321708679199219 15.284762382507324 15.069085121154785 14.684256553649902 14.171875 13.411659240722656 12.908470153808594 12.692907333374023 -9999
-9999 -9999 12.826186180114746 13.140180587768555 13.661629676818848 14.071630477905273 14.417856216430664 14.768282890319824 15.147369384765625 15.51809024810791 15.803356170654297 15.95120906829834 15.938328742980957 15.751326560974121 15.382255554199219 14.852917671203613 14.184345245361328 13.45725154876709 13.063302993774414 -9999
-9999 12.241122245788574 12.525164604187012 13.244576454162598 13.743511199951172 14.180011749267578 14.65273380279541 15.154977798461914 15.630682945251465 16.015453338623047 16.271669387817383 16.400684356689453 16.404855728149414 16.272363662719727 15.985496520996094 15.52820110321045 14.974613189697266 14.362293243408203 13.834442138671875 -9999
-9999 11.959383010864258 12.239123344421387 13.127406120300293 13.775005340576172 14.40388298034668 15.056528091430664 15.669275283813477 16.15178680419922 16.474266052246094 16.659530639648438 16.74835777282715 16.75277328491211 16.672163009643555 16.479022979736328 16.142772674560547 15.70960807800293 15.201366424560547 14.76463794708252 -9999
-9999 11.615525245666504 11.960380554199219 13.068500518798828 13.951789855957031 14.76974868774414 15.545232772827148 16.188228607177734 16.61667251586914 16.860321044921875 16.98143196105957 17.028438568115234 17.02048683166504 16.97405242919922 16.869937896728516 16.663225173950195 16.362852096557617 15.964804649353027 15.70278549194336 -9999
-9999 11.445074081420898 11.936417579650879 13.25729751586914 14.31815242767334 15.222599983215332 16.007568359375 16.597591400146484 16.954931259155273 17.142667770385742 17.221864700317383 17.23784065246582 17.194507598876953 17.168991088867188 17.145366668701172 17.03312110900879 16.878257751464844 16.648530960083008 16.514402389526367 -9999
-9999 11.673164367675781 12.383275985717773 13.813569068908691 14.903319358825684 15.752320289611816 16.422988891601562 16.90093231201172 17.184467315673828 17.325210571289062 17.389263153076172 17.396528244018555 17.35601234436035 17.341777801513672 17.33383560180664 17.319196701049805 17.23330307006836 17.108936309814453 17.054649353027344 -9999
-9999 12.538907051086426 13.282190322875977 14.646882057189941 15.63914680480957 16.32236099243164 16.805343627929688 17.133073806762695 17.333005905151367 17.43097496032715 17.47516632080078 17.48727798461914 17.47219467163086 17.47893714904785 17.49436378479004 17.508136749267578 17.466081619262695 17.369155883789062 17.37261390686035 -9999
-9999 13.530984878540039 14.223191261291504 15.444070816040039 16.294721603393555 16.801918029785156 17.111635208129883 17.309898376464844 17.420883178710938 17.477985382080078 17.50183868408203 17.522903442382812 17.544307708740234 17.57229995727539 17.594486236572266 17.61434555053711 17.614290237426758 17.525304794311523 -9999 -9999
-9999 14.253693580627441 14.902799606323242 15.982844352722168 16.708457946777344 17.108604431152344 17.311662673950195 17.419200897216797 17.467939376831055 17.485689163208008 17.480928421020508 17.50176239013672 17.541322708129883 17.594532012939453 17.627368927001953 17.66442108154297 17.697731018066406 17.75074005126953 -9999 -9999
-9999 14.730385780334473 15.403270721435547 16.310468673706055 16.938274383544922 17.288795471191406 17.43018341064453 17.491018295288086 17.502826690673828 17.492124557495117 17.490888595581055 17.510303497314453 17.547985076904297 17.598220825195312 17.6392765045166 17.677812576293945 17.71017837524414 17.73197364807129 17.684045791625977 17.69523048400879
-9999 -9999 15.953872680664062 16.555355072021484 17.079179763793945 17.38030433654785 17.502544403076172 17.54206085205078 17.531475067138672 17.52332878112793 17.518733978271484 17.53241729736328 17.559486389160156 17.603219985961914 17.638948440551758 17.66607666015625 17.69496726989746 17.712125778198242 17.7091121673584 17.686317443847656
-9999 -9999 16.408084869384766 16.776630401611328 17.186185836791992 17.449478149414062 17.562681198120117 17.597503662109375 17.583513259887695 17.568172454833984 17.552812576293945 17.56175994873047 17.58498191833496 17.619836807250977 17.643091201782227 17.658916473388672 17.67803382873535 17.68658447265625 17.663423538208008 17.64914321899414
-9999 -9999 -9999 16.928287506103516 17.24304962158203 17.475297927856445 17.586484909057617 17.61969757080078 17.599817276000977 17.580862045288086 17.56658363342285 17.56568145751953 17.58749008178711 17.619478225708008 17.64348030090332 17.649391174316406 17.670848846435547 17.6546688079834 17.637107849121094 17.628393173217773
