ncols         20
nrows         20
xllcorner     0
yllcorner     -3.5992928
cellsize      0.17996463
NODATA_value  -9999
-9999.0 -9999 -9999 -9999 -9999 -9999 -9999 -9999 -9999 -9999 -9999 -9999 -9999 -9999 -9999 -9999 -9999 -9999 -9999 -9999
-9999 -9999 -9999 -9999 -9999 -9999 -9999 -9999 -9999 -9999 -9999 0.028599802404642105 0.027401946485042572 -9999 -9999 0.021562054753303528 0.018913479521870613 -9999 -9999 -9999
-9999 -9999 -9999 -9999 0.03335519880056381 0.038085222244262695 0.04724846035242081 0.05498606339097023 0.059583526104688644 0.06174617260694504 0.049683380872011185 0.04158948361873627 0.04057827591896057 0.039984192699193954 0.0326811745762825 0.025165818631649017 0.020498087629675865 0.01777455024421215 -9999 -9999
-9999 -9999 -9999 0.030142221599817276 0.035023804754018784 0.04174872115254402 0.052159857004880905 0.06301910430192947 0.07522925734519958 0.08534829318523407 0.09086130559444427 0.08740019053220749 0.08235375583171844 0.06876856088638306 0.05245596542954445 0.03709329664707184 0.027145477011799812 0.022470897063612938 -9999 -9999
-9999 -9999 -9999 0.029921185225248337 0.03562707081437111 0.04812102019786835 0.06526845693588257 0.08747242391109467 0.11804696917533875 0.16376851499080658 0.21239298582077026 0.23357528448104858 0.2148882895708084 0.15878283977508545 0.10725416243076324 0.06635157763957977 0.04325702041387558 0.037915803492069244 -9999 -9999
-9999 -9999 0.020530836656689644 0.02736317552626133 0.03735903277993202 0.05473015457391739 0.07962288707494736 0.11673615127801895 0.18445441126823425 0.2901589870452881 0.42299866676330566 0.4896882176399231 0.463741660118103 0.33968421816825867 0.21004058420658112 0.12225769460201263 0.07489543408155441 0.05860838294029236 0.04786575213074684 -9999
-9999 -9999 0.02019541524350643 0.02606598474085331 0.040687765926122665 0.06557824462652206 0.10131333023309708 0.1608775556087494 0.26722630858421326 0.433025985956192 0.6312369704246521 0.7509804964065552 0.7266588807106018 0.5673767924308777 0 0.221629798412323 0.13368730247020721 0.09055183827877045 0.07500547170639038 -9999
-9999 -9999 0.021835211664438248 0.030381837859749794 0.05181693658232689 0.08766897767782211 0.14515534043312073 0.23536841571331024 0.36850935220718384 0.5504984855651855 0.7248886823654175 0.8414397239685059 0.8368303179740906 0.7139416337013245 0.5321251749992371 0.3521789610385895 0.22722318768501282 0.15425308048725128 0.12838301062583923 -9999
-9999 0.016779571771621704 0.02528047189116478 0.04080706834793091 0.07705621421337128 0.14002595841884613 0.23131446540355682 0.360552579164505 0.5105013847351074 0.6557409167289734 0.75995934009552 0.8239110708236694 0.8362261652946472 0.7718707919120789 0.6561973690986633 0 0.34666597843170166 0.2473013550043106 0.20937345921993256 -9999
-9999 0.022084662690758705 0.032456766813993454 0.06238362193107605 0.12496282160282135 0.22837579250335693 0.3691854178905487 0.531744122505188 0.6691843867301941 0.7497143149375916 0.7767865061759949 0.792686939239502 0.7961726188659668 0.7776049971580505 0.7193265557289124 0 0.47334155440330505 0.36366137862205505 0.31942757964134216 -9999
-9999 0.03515620529651642 0.05099879205226898 0.09712756425142288 0.18448756635189056 0.3203313648700714 0.4962846040725708 0.6673282980918884 0.7624622583389282 0.7832587361335754 0.7722316980361938 0.7652071714401245 0.7707234621047974 0.7673702239990234 0.7407920360565186 0.6835866570472717 0.5829154253005981 0.4858729839324951 0.443006306886673 -9999
-9999 0.06316155195236206 0.08653345704078674 0.1531168669462204 0.26109591126441956 0.4053317904472351 0.572365939617157 0.7015106081962585 0.7391116619110107 0.7200908064842224 0.6946561336517334 0.6919392943382263 0 0 0.7149703502655029 0 0.6382825374603271 0.5743021368980408 0.5426025986671448 -9999
-9999 0.11812813580036163 0.15544043481349945 0.2492639124393463 0.36328205466270447 0.48781657218933105 0.601751983165741 0.6626441478729248 0.6453890204429626 0.596204400062561 0.5600945949554443 0.5509860515594482 0 0 0 0.5841139554977417 0.5851660370826721 0.5766320824623108 0.5610476136207581 -9999
-9999 0.20526766777038574 0.2566727101802826 0.37200307846069336 0.4803868532180786 0.5579458475112915 0.5974553823471069 0.5867224335670471 0.5335174798965454 0.47276070713996887 0.42987120151519775 0.4075452387332916 0 0 0 0.38942116498947144 0.4229564964771271 0.4839397668838501 0.5008105635643005 -9999
-9999 0.291446715593338 0.3457600176334381 0.46304428577423096 0.5444024205207825 0.5636054277420044 0.5406109690666199 0.4905332922935486 0.4283512234687805 0.37523773312568665 0.33836621046066284 0.3064945340156555 0.2788795232772827 0.2538333237171173 0 0 0.2397773265838623 0.30263233184814453 -9999 -9999
-9999 0.3344191908836365 0.38152822852134705 0.47892051935195923 0.5209681391716003 0.4996336102485657 0.44947123527526855 0.3910304605960846 0.34340131282806396 0.3082943856716156 0 0 0 0.17508970201015472 0 0 0.11938095837831497 0 -9999 -9999
-9999 0.3625260293483734 0.38506242632865906 0.44820457696914673 0.461918443441391 0.41846808791160583 0.35757043957710266 0.3047737181186676 0.27183011174201965 0 0 0 0 0.12747955322265625 0.10050749033689499 0.08015558123588562 0.06601741909980774 0.05440748482942581 0 0
-9999 -9999 0.36659568548202515 0.40481874346733093 0.4031120240688324 0.34885287284851074 0.2841528356075287 0.23754437267780304 0 0 0 0 0 0 0 0 0 0 0 0
-9999 -9999 0.3776344060897827 0.37583574652671814 0.3572547435760498 0.29480406641960144 0.2281237542629242 0.18342038989067078 0 0 0 0 0 0 0 0 0 0 0 0
-9999 -9999 -9999 0.3482227027416229 0.33231639862060547 0.2696595788002014 0.20272372663021088 0.1597793847322464 0 0 0 0 0 0 0 0 0 0 0 0
