ncols         20
nrows         20
xllcorner     0
yllcorner     -3.5992928
cellsize      0.17996463
NODATA_value  -9999
-9999.0 -9999 -9999 -9999 -9999 -9999 -9999 -9999 -9999 -9999 -9999 -9999 -9999 -9999 -9999 -9999 -9999 -9999 -9999 -9999
-9999 -9999 -9999 -9999 -9999 -9999 -9999 -9999 -9999 -9999 -9999 12.38425064086914 12.357518196105957 -9999 -9999 12.265188217163086 12.093220710754395 -9999 -9999 -9999
-9999 -9999 -9999 -9999 12.180973052978516 12.355135917663574 12.639963150024414 12.81627082824707 12.902289390563965 12.96573257446289 12.795373916625977 12.744651794433594 12.829907417297363 12.925420761108398 12.809956550598145 12.555326461791992 12.347372055053711 12.252471923828125 -9999 -9999
-9999 -9999 -9999 12.295045852661133 12.402454376220703 12.5598726272583 12.767946243286133 12.892189979553223 12.987336158752441 13.045647621154785 13.113601684570312 13.183831214904785 13.296331405639648 13.350207328796387 13.324750900268555 13.140658378601074 12.907761573791504 12.772239685058594 -9999 -9999
-9999 -9999 -9999 12.545696258544922 12.66250991821289 12.890209197998047 12.997929573059082 12.954792976379395 12.853792190551758 12.734140396118164 12.623072624206543 12.642511367797852 12.878599166870117 13.254522323608398 13.585577011108398 13.693197250366211 13.619268417358398 13.696000099182129 -9999 -9999
-9999 -9999 12.811412811279297 12.919126510620117 13.08905029296875 13.183341979980469 12.938748359680176 12.373061180114746 11.802312850952148 11.183412551879883 10.571720123291016 10.38318157196045 10.791314125061035 11.751812934875488 12.819839477539062 13.584501266479492 13.977937698364258 14.218412399291992 14.289411544799805 -9999
-9999 -9999 13.21203899383545 13.361166000366211 13.585725784301758 13.380718231201172 12.381924629211426 10.637904167175293 9.370227813720703 8.28979778289795 7.418970108032227 7.168978691101074 7.832871437072754 9.174971580505371 10.867262840270996 12.455711364746094 13.525350570678711 14.105466842651367 14.357471466064453 -9999
-9999 -9999 14.035676956176758 14.20763111114502 14.234243392944336 13.411970138549805 11.175556182861328 6.7503767013549805 5.237194061279297 4.392369747161865 3.9029269218444824 3.920475721359253 5.239286422729492 6.624667167663574 8.400370597839355 10.357390403747559 12.001276969909668 13.123310089111328 13.632837295532227 -9999
-9999 15.085349082946777 15.132516860961914 15.168183326721191 14.781834602355957 13.23994255065918 10.145286560058594 5.370396614074707 3.6649913787841797 2.881138801574707 2.5522680282592773 2.646243095397949 3.5692620277404785 4.575737953186035 5.932438850402832 7.702968120574951 9.576213836669922 11.043671607971191 11.764798164367676 -9999
-9999 15.84414005279541 15.945926666259766 15.809880256652832 14.732691764831543 12.347758293151855 8.727779388427734 4.307794570922852 2.6787195205688477 1.9931414127349854 1.7623337507247925 1.8375805616378784 2.4007151126861572 2.982786178588867 3.851205825805664 5.105800151824951 6.719886302947998 8.162008285522461 8.911519050598145 -9999
-9999 16.611019134521484 16.465917587280273 15.700345993041992 13.821052551269531 10.81965446472168 7.066589832305908 3.2814133167266846 1.8800257444381714 1.313334345817566 1.1193212270736694 1.1452648639678955 1.4223930835723877 1.7213356494903564 2.1832921504974365 2.9478416442871094 3.993013858795166 5.106287956237793 5.7121100425720215 -9999
-9999 16.652135848999023 16.092761993408203 14.54300594329834 12.024261474609375 8.834296226501465 5.411280632019043 2.4401299953460693 1.295251488685608 0.817609429359436 0.641410231590271 0.6076344847679138 0.7048326134681702 0.8107437491416931 0.9955399632453918 1.3609137535095215 1.9488345384597778 2.61793851852417 2.99277400970459 -9999
-9999 15.377066612243652 14.356289863586426 12.098662376403809 9.364325523376465 6.491106033325195 3.8572580814361572 1.9016679525375366 0.9378755688667297 0.5395532846450806 0.3581501841545105 0.2948904037475586 0.2829934060573578 0.2961859703063965 0.35124194622039795 0.47264477610588074 0.7487525939941406 1.091439962387085 1.320307970046997 -9999
-9999 12.821340560913086 11.479677200317383 8.863070487976074 6.264204025268555 4.068545341491699 2.3515000343322754 1.1900115013122559 0.5656833052635193 0.3122064173221588 0.19909612834453583 0.14769846200942993 0.12333084642887115 0.11490580439567566 0.11943378299474716 0.1474205106496811 0.2158774882555008 0.3616568446159363 0.4988122880458832 -9999
-9999 10.036359786987305 8.616292953491211 5.992259502410889 3.7502033710479736 2.2390530109405518 1.2507483959197998 0.6251213550567627 0.324640691280365 0.18527643382549286 0.11927468329668045 0.08399426937103271 0.0649239793419838 0.05534641817212105 0.05079222097992897 0.053930941969156265 0.06541892141103745 0.10081823170185089 -9999 -9999
-9999 8.041313171386719 6.607589244842529 4.172021865844727 2.327481269836426 1.2305949926376343 0.6333206295967102 0.3335723280906677 0.19032014906406403 0.11672848463058472 0.07864797115325928 0.056082434952259064 0.04551326110959053 0.05008983984589577 0.05553437024354935 0.0610845685005188 0.06616736948490143 0.07024499773979187 -9999 -9999
-9999 6.716090202331543 5.19178581237793 3.1285743713378906 1.5933058261871338 0.7035248279571533 0.3503446877002716 0.18764007091522217 0.1126594990491867 0.07355818152427673 0.05240752920508385 0.04777528718113899 0.05231266841292381 0.05836847051978111 0.06542135775089264 0.07296086102724075 0.08092566579580307 0.09040354937314987 0.10592271387577057 0.11311961710453033
-9999 -9999 3.788482189178467 2.4081344604492188 1.1706398725509644 0.47827792167663574 0.2193366140127182 0.11536753922700882 0.07031208276748657 0.04880412295460701 0.0500432513654232 0.053631436079740524 0.059301845729351044 0.06664161384105682 0.07498452812433243 0.08375421166419983 0.09271411597728729 0.10180395841598511 0.11084328591823578 0.11552241444587708
-9999 -9999 2.6041018962860107 1.7854772806167603 0.8835469484329224 0.3439176082611084 0.1487085521221161 0.07531069964170456 0.05209067463874817 0.05209050700068474 0.05422283336520195 0.05860385298728943 0.06510721147060394 0.0733061134815216 0.08240792155265808 0.09169646352529526 0.10065531730651855 0.10855208337306976 0.11458169668912888 0.11774897575378418
-9999 -9999 -9999 1.408270239830017 0.7190383076667786 0.29009658098220825 0.12263581901788712 0.061218105256557465 0.05349438264966011 0.054051585495471954 0.05663163214921951 0.06138697266578674 0.06830701231956482 0.07692879438400269 0.08639681339263916 0.09581165015697479 0.1046190857887268 0.11161664128303528 0.11652696132659912 0.11905467510223389
