ncols         20
nrows         20
xllcorner     0
yllcorner     -3.5992928
cellsize      0.17996463
NODATA_value  -9999
-9999.0 -9999 -9999 -9999 -9999 -9999 -9999 -9999 -9999 -9999 -9999 -9999 -9999 -9999 -9999 -9999 -9999 -9999 -9999 -9999
-9999 -9999 -9999 -9999 -9999 -9999 -9999 -9999 -9999 -9999 -9999 0.13773716986179352 0.137870192527771 -9999 -9999 0.14016897976398468 0.14033634960651398 -9999 -9999 -9999
-9999 -9999 -9999 -9999 0.13685157895088196 0.136816143989563 0.1368217170238495 0.1368981897830963 0.13706852495670319 0.1373308151960373 0.13764002919197083 0.12754203379154205 0.12794539332389832 0.13917164504528046 0.1398017406463623 0.12977954745292664 0.13027939200401306 0.1415269672870636 -9999 -9999
-9999 -9999 -9999 0.13717962801456451 0.12669658660888672 0.10778350383043289 0.1078006848692894 0.1079011857509613 0.10809642821550369 0.10837435722351074 0.10870962589979172 0.10081139951944351 0.10121584683656693 0.1100672259926796 0.11060624569654465 0.10279227793216705 0.11186892539262772 0.14265726506710052 -9999 -9999
-9999 -9999 -9999 0.13743673264980316 0.10809500515460968 0.07863445580005646 0.07252221554517746 0.07265399396419525 0.07287376374006271 0.07316625118255615 0.0735008642077446 0.06832801550626755 0.06867893040180206 0.07466857880353928 0.07514138519763947 0.07576065510511398 0.11364571005105972 0.14492036402225494 -9999 -9999
-9999 -9999 0.13810639083385468 0.12749513983726501 0.10026150941848755 0.06734878569841385 0.041684411466121674 0.041811686009168625 0.042019039392471313 0.042281508445739746 0.042571619153022766 0.03954024240374565 0.039834484457969666 0.04356126859784126 0.043999046087265015 0.07182713598012924 0.10757426917552948 0.1376047432422638 0.15076760947704315 -9999
-9999 -9999 0.1385469287633896 0.1090082973241806 0.07937373220920563 0.053416136652231216 0.030482469126582146 0.020598849281668663 0.020750433206558228 0.020939311012625694 0.021148884668946266 0.019726529717445374 0.019963961094617844 0.021950818598270416 0.03312663733959198 0.05869770050048828 0.08772531151771545 0.12092308700084686 0.1542167067527771 -9999
-9999 -9999 0.13933956623077393 0.10971418768167496 0.07374434173107147 0.0423339307308197 0.02076832577586174 0.010194081813097 0.008793707937002182 0.008906547911465168 0.009035532362759113 0.008482180535793304 0.00866162870079279 0.011289378628134727 0.02353605441749096 0.04837651178240776 0.08448199182748795 0.12576797604560852 0.1597728729248047 -9999
-9999 0.14104348421096802 0.13003692030906677 0.10236798226833344 0.0689973533153534 0.03957964479923248 0.019483521580696106 0.008206832222640514 0.0032173169311136007 0.003281861077994108 0.0033544786274433136 0.0031668979208916426 0.003564783139154315 0.010289761237800121 0.024882353842258453 0.05091553553938866 0.08862273395061493 0.1315920501947403 0.1669202446937561 -9999
-9999 0.1424628645181656 0.1122061163187027 0.08189210295677185 0.05533657222986221 0.03193208575248718 0.01571822352707386 0.006634232588112354 0.0024429988116025925 0.0016239542746916413 0.0016779097495600581 0.001728772302158177 0.0038167976308614016 0.010907316580414772 0.02624518983066082 0.053579170256853104 0.09311900287866592 0.1381099969148636 0.17505773901939392 -9999
-9999 0.14499278366565704 0.11441805213689804 0.07719793915748596 0.04455937072634697 0.021995311602950096 0.010855232365429401 0.004619162995368242 0.001713349251076579 0.001715380698442459 0.0017799731576815248 0.0018378709210082889 0.004048935137689114 0.01150881964713335 0.027609853073954582 0.05629051849246025 0.09775547683238983 0.14487695693969727 0.1835072785615921 -9999
-9999 0.14859092235565186 0.11740051209926605 0.0793808251619339 0.045940570533275604 0.02273593284189701 0.009623183868825436 0.0035081817768514156 0.0017206700285896659 0.0017995790112763643 0.001872462802566588 0.002046666108071804 0.005947971250861883 0.014291285537183285 0.028971929103136063 0.059003036469221115 0.10236211121082306 0.15149253606796265 0.1915903091430664 -9999
-9999 0.15312442183494568 0.1210838183760643 0.08199307322502136 0.04752581939101219 0.02371177077293396 0.010067512281239033 0.0036830250173807144 0.0017904393607750535 0.001873451634310186 0.001953410916030407 0.0031939703039824963 0.009241749532520771 0.02216661162674427 0.04540456086397171 0.07869592308998108 0.11596686393022537 0.15773801505565643 0.19859786331653595 -9999
-9999 0.15826226770877838 0.12524324655532837 0.0852484405040741 0.04952431097626686 0.024592416360974312 0.010445973835885525 0.003817608579993248 0.0018510608933866024 0.0019346270710229874 0.0020165517926216125 0.004183327779173851 0.012072567827999592 0.029130524024367332 0.059566304087638855 0.10346017777919769 0.15302395820617676 0.19238464534282684 0.20350469648838043 -9999
-9999 0.16350281238555908 0.12956184148788452 0.08830958604812622 0.0513501800596714 0.025517765432596207 0.012693190015852451 0.005433319136500359 0.0020045239944010973 0.0019827040378004313 0.002064046449959278 0.004648940172046423 0.013351419009268284 0.032264593988657 0.06615213304758072 0.11537078768014908 0.17088782787322998 0.216605544090271 -9999 -9999
-9999 0.16822810471057892 0.1341307908296585 0.09877829253673553 0.06751919537782669 0.039343517273664474 0.019623607397079468 0.008321788161993027 0.003309499705210328 0.0020166479516774416 0.002098335651680827 0.004720892757177353 0.013567738234996796 0.03283420205116272 0.06745316833257675 0.11794500052928925 0.17576421797275543 0.22306089103221893 -9999 -9999
-9999 0.17160138487815857 0.161881685256958 0.12931610643863678 0.08813434839248657 0.05128467082977295 0.027581755071878433 0.013672713190317154 0.005831998772919178 0.002146957442164421 0.0021206845995038748 0.004386452492326498 0.012684548273682594 0.030740886926651 0.06323569267988205 0.11071140319108963 0.16556327044963837 0.212054044008255 0.23343388736248016 0.23508404195308685
-9999 -9999 0.1803792417049408 0.1436677873134613 0.1055532693862915 0.0718642994761467 0.041677601635456085 0.02070985548198223 0.008760819211602211 0.00323170842602849 0.0021320523228496313 0.0034748809412121773 0.010086449794471264 0.024547751992940903 0.050410278141498566 0.08850088715553284 0.13237300515174866 0.16921856999397278 0.1846594214439392 0.1855141669511795
-9999 -9999 0.1833810955286026 0.17120853066444397 0.13602596521377563 0.09227986633777618 0.053470633924007416 0.026434212923049927 0.011183162219822407 0.004105324856936932 0.0021364474669098854 0.0023394098971039057 0.0068154227919876575 0.01655818521976471 0.034243978559970856 0.0598367303609848 0.08986568450927734 0.11464148759841919 0.12454318255186081 0.12490643560886383
-9999 -9999 -9999 0.18766380846500397 0.14869751036167145 0.10070831328630447 0.05822838470339775 0.02874736115336418 0.012147183530032635 0.004468436352908611 0.0021384626161307096 0.0022205535788089037 0.0039173755794763565 0.009490749798715115 0.019683148711919785 0.03439617156982422 0.05171602964401245 0.06565865874290466 0.07145831733942032 0.0716036707162857
