ncols         20
nrows         20
xllcorner     0
yllcorner     -3.5992928
cellsize      0.17996463
NODATA_value  -9999
-9999.0 -9999 -9999 -9999 -9999 -9999 -9999 -9999 -9999 -9999 -9999 -9999 -9999 -9999 -9999 -9999 -9999 -9999 -9999 -9999
-9999 -9999 -9999 -9999 -9999 -9999 -9999 -9999 -9999 -9999 -9999 13.091243743896484 13.100679397583008 -9999 -9999 13.0123291015625 13.090630531311035 -9999 -9999 -9999
-9999 -9999 -9999 -9999 13.034598350524902 12.98398208618164 12.892132759094238 12.852021217346191 12.847267150878906 12.84493350982666 12.948716163635254 12.956222534179688 12.908024787902832 12.867349624633789 12.900168418884277 12.95352554321289 13.026135444641113 13.080525398254395 -9999 -9999
-9999 -9999 -9999 12.986679077148438 12.964125633239746 12.942862510681152 12.916769027709961 12.90420913696289 12.879424095153809 12.85180377960205 12.81969928741455 12.780754089355469 12.734991073608398 12.733560562133789 12.745490074157715 12.787023544311523 12.839923858642578 12.879456520080566 -9999 -9999
-9999 -9999 -9999 12.940878868103027 12.94973373413086 12.968034744262695 13.060687065124512 13.107280731201172 13.115777969360352 13.099305152893066 13.083651542663574 13.062071800231934 13.012112617492676 12.951311111450195 12.868875503540039 12.785750389099121 12.654865264892578 12.523713111877441 -9999 -9999
-9999 -9999 12.898310661315918 12.905318260192871 12.985743522644043 13.201812744140625 13.597787857055664 13.761651039123535 13.838982582092285 13.943191528320312 14.078091621398926 14.153470993041992 14.103495597839355 13.923042297363281 13.664412498474121 13.326637268066406 12.722296714782715 12.384879112243652 12.297483444213867 -9999
-9999 -9999 12.84317684173584 12.934890747070312 13.147415161132812 13.592117309570312 13.918694496154785 14.130315780639648 14.350885391235352 14.640329360961914 14.931010246276855 15.095057487487793 15.061495780944824 14.813937187194824 14.388578414916992 13.843202590942383 13.047128677368164 12.522947311401367 12.289508819580078 -9999
-9999 -9999 12.664900779724121 12.934000968933105 13.402178764343262 13.772502899169922 14.084970474243164 14.418033599853516 14.80941390991211 15.226361274719238 15.5678071975708 15.759994506835938 15.755149841308594 15.539050102233887 15.120683670043945 14.53787612915039 13.821737289428711 13.043931007385254 12.625001907348633 -9999
-9999 12.164986610412598 12.346189498901367 13.003236770629883 13.454854965209961 13.861795425415039 14.31837272644043 14.834013938903809 15.347310066223145 15.781251907348633 16.07942008972168 16.240066528320312 16.257192611694336 16.10823631286621 15.782995223999023 15.267107963562012 14.64777946472168 13.972972869873047 13.394464492797852 -9999
-9999 11.871969223022461 12.02713680267334 12.857863426208496 13.479394912719727 14.098651885986328 14.772547721862793 15.434013366699219 15.970308303833008 16.331811904907227 16.536468505859375 16.639728546142578 16.65156364440918 16.56669807434082 16.348434448242188 15.963671684265137 15.457364082336426 14.873476028442383 14.381528854370117 -9999
-9999 11.513975143432617 11.718216896057129 12.790873527526855 13.662286758422852 14.499444007873535 15.33336067199707 16.053176879882812 16.53900909423828 16.81056785583496 16.940649032592773 16.99188995361328 16.987842559814453 16.94019889831543 16.822219848632812 16.579872131347656 16.218660354614258 15.742886543273926 15.436341285705566 -9999
-9999 11.335833549499512 11.683727264404297 12.988110542297363 14.056697845458984 15.004179954528809 15.865717887878418 16.536096572875977 16.942256927490234 17.1500301361084 17.235145568847656 17.256290435791016 17.219951629638672 17.19784164428711 17.17058563232422 17.04290199279785 16.847454071044922 16.561277389526367 16.393218994140625 -9999
-9999 11.557958602905273 12.14396858215332 13.584123611450195 14.7029390335083 15.604985237121582 16.346084594726562 16.887664794921875 17.202993392944336 17.35202407836914 17.41956329345703 17.43168830871582 17.399234771728516 17.390155792236328 17.38633918762207 17.371654510498047 17.275556564331055 17.123619079589844 17.0400447845459 -9999
-9999 12.326765060424805 13.07120132446289 14.485705375671387 15.527544021606445 16.25929069519043 16.789501190185547 17.150936126708984 17.363203048706055 17.461374282836914 17.505165100097656 17.51871681213379 17.50655174255371 17.514633178710938 17.532127380371094 17.55254554748535 17.521530151367188 17.42878532409668 17.401912689208984 -9999
-9999 13.336938858032227 14.05593204498291 15.350703239440918 16.259090423583984 16.80179214477539 17.133630752563477 17.34256935119629 17.454370498657227 17.509267807006836 17.532447814941406 17.551607131958008 17.569719314575195 17.594013214111328 17.612239837646484 17.635086059570312 17.646282196044922 17.583681106567383 -9999 -9999
-9999 14.081981658935547 14.76952075958252 15.930858612060547 16.710044860839844 17.133953094482422 17.344783782958984 17.45343017578125 17.501996994018555 17.519685745239258 17.515731811523438 17.53245735168457 17.564573287963867 17.609193801879883 17.634212493896484 17.6666202545166 17.699134826660156 17.73942756652832 -9999 -9999
-9999 14.586782455444336 15.299468994140625 16.279905319213867 16.955001831054688 17.320514678955078 17.4620361328125 17.520788192749023 17.533437728881836 17.524028778076172 17.521839141845703 17.535667419433594 17.565231323242188 17.608705520629883 17.642593383789062 17.675304412841797 17.703794479370117 17.722408294677734 17.686161041259766 17.698171615600586
-9999 -9999 15.883926391601562 16.54037094116211 17.104215621948242 17.412921905517578 17.52952003479004 17.56487464904785 17.555089950561523 17.546485900878906 17.54014778137207 17.54913902282715 17.57023811340332 17.606067657470703 17.636404037475586 17.66091537475586 17.687101364135742 17.7041072845459 17.705345153808594 17.688215255737305
-9999 -9999 16.381488800048828 16.78004264831543 17.216257095336914 17.479522705078125 17.581249237060547 17.608585357666016 17.59272575378418 17.577177047729492 17.56390380859375 17.569849014282227 17.587909698486328 17.616315841674805 17.636898040771484 17.652406692504883 17.670867919921875 17.680713653564453 17.663650512695312 17.653066635131836
-9999 -9999 -9999 16.941585540771484 17.275283813476562 17.50459861755371 17.601594924926758 17.625917434692383 17.603910446166992 17.58609962463379 17.573896408081055 17.572614669799805 17.589435577392578 17.615333557128906 17.63619613647461 17.643369674682617 17.663522720336914 17.652210235595703 17.639312744140625 17.633092880249023
