ncols         20
nrows         20
xllcorner     0
yllcorner     -3.5992928
cellsize      0.17996463
NODATA_value  -9999
-9999.0 -9999 -9999 -9999 -9999 -9999 -9999 -9999 -9999 -9999 -9999 -9999 -9999 -9999 -9999 -9999 -9999 -9999 -9999 -9999
-9999 -9999 -9999 -9999 -9999 -9999 -9999 -9999 -9999 -9999 -9999 11.81345272064209 11.786426544189453 -9999 -9999 11.795369148254395 11.641131401062012 -9999 -9999 -9999
-9999 -9999 -9999 -9999 11.72790241241455 11.876334190368652 12.114168167114258 12.237393379211426 12.271145820617676 12.289470672607422 12.106853485107422 12.07160758972168 12.14527702331543 12.213903427124023 12.137214660644531 11.971877098083496 11.804085731506348 11.70429515838623 -9999 -9999
-9999 -9999 -9999 11.781440734863281 11.892412185668945 12.026000022888184 12.190189361572266 12.261096954345703 12.295608520507812 12.293364524841309 12.3084716796875 12.342981338500977 12.427539825439453 12.476845741271973 12.487595558166504 12.370757102966309 12.190455436706543 12.075927734375 -9999 -9999
-9999 -9999 -9999 11.940550804138184 12.052180290222168 12.252904891967773 12.323410034179688 12.234149932861328 12.074313163757324 11.883480072021484 11.698610305786133 11.64651107788086 11.818052291870117 12.156210899353027 12.494513511657715 12.647852897644043 12.62067985534668 12.70350170135498 -9999 -9999
-9999 -9999 11.983402252197266 12.145480155944824 12.32275390625 12.40705394744873 12.156085968017578 11.586312294006348 10.99137020111084 10.331698417663574 9.665949821472168 9.394221305847168 9.687490463256836 10.525257110595703 11.508842468261719 12.244587898254395 12.63391399383545 12.836543083190918 12.776021957397461 -9999
-9999 -9999 12.222461700439453 12.393044471740723 12.625448226928711 12.443406105041504 11.50981330871582 9.878337860107422 8.666669845581055 7.6062092781066895 6.723487377166748 6.397460460662842 6.886458396911621 8.005256652832031 9.481466293334961 10.912314414978027 11.888089179992676 12.40672492980957 12.601177215576172 -9999
-9999 -9999 12.74864387512207 12.962940216064453 13.037922859191895 12.311807632446289 10.277132034301758 6.236129283905029 4.842030048370361 4.043301582336426 3.554410457611084 3.5029003620147705 4.54634428024292 5.657615661621094 7.132552146911621 8.802336692810059 10.23051929473877 11.210196495056152 11.647655487060547 -9999
-9999 13.183259963989258 13.415024757385254 13.596139907836914 13.345392227172852 12.00970458984375 9.242348670959473 4.9305901527404785 3.38523006439209 2.660745859146118 2.3332462310791016 2.3639414310455322 3.0814762115478516 3.8589396476745605 4.934754371643066 6.372429847717285 7.918859004974365 9.1405668258667 9.741521835327148 -9999
-9999 13.725689888000488 13.92474365234375 13.96207046508789 13.139057159423828 11.096487045288086 7.9046311378479 3.944793701171875 2.480520248413086 1.8533555269241333 1.6237210035324097 1.6512285470962524 2.0822670459747314 2.512258291244507 3.1730642318725586 4.14982795715332 5.424510955810547 6.570149898529053 7.16593599319458 -9999
-9999 14.259944915771484 14.224342346191406 13.714595794677734 12.21010684967041 9.665349006652832 6.392496585845947 3.0141401290893555 1.7565346956253052 1.2383978366851807 1.0479040145874023 1.0450249910354614 1.2524579763412476 1.4644739627838135 1.8039724826812744 2.38370418548584 3.184645414352417 4.04102087020874 4.5054707527160645 -9999
-9999 14.186674118041992 13.786796569824219 12.598212242126465 10.550710678100586 7.872377872467041 4.913393497467041 2.2637155055999756 1.231520414352417 0.7902851104736328 0.6185476183891296 0.5710321068763733 0.6376392841339111 0.7046305537223816 0.834475576877594 1.1083660125732422 1.5557713508605957 2.0651583671569824 2.3483595848083496 -9999
-9999 12.997906684875488 12.200282096862793 10.400287628173828 8.18023681640625 5.790505409240723 3.5319535732269287 1.7977551221847534 0.9182191491127014 0.5425831079483032 0.364895224571228 0.2937307059764862 0.26921120285987854 0.26780351996421814 0.30299994349479675 0.3923567831516266 0.6039611101150513 0.8676518797874451 1.0429537296295166 -9999
-9999 10.725988388061523 9.660666465759277 7.564574241638184 5.463581562042236 3.6477227210998535 2.1782000064849854 1.146252155303955 0.5728238821029663 0.32734909653663635 0.21133092045783997 0.15365152060985565 0.122415691614151 0.10767617076635361 0.10601571947336197 0.12517805397510529 0.17765451967716217 0.29242104291915894 0.399902880191803 -9999
-9999 8.290401458740234 7.170571327209473 5.0796661376953125 3.2695424556732178 2.0199954509735107 1.1737412214279175 0.6177261471748352 0.33653637766838074 0.1985328495502472 0.1289743185043335 0.08888751268386841 0.06545518338680267 0.05253312736749649 0.0455223023891449 0.046257179230451584 0.05444364622235298 0.08272682130336761 -9999 -9999
-9999 6.565550804138184 5.4418044090271 3.5091171264648438 2.020864486694336 1.1132092475891113 0.6035919785499573 0.33414778113365173 0.19878540933132172 0.12508787214756012 0.08432669937610626 0.05832463502883911 0.044808629900217056 0.04665849357843399 0.04920993745326996 0.05202726274728775 0.05481188744306564 0.057298555970191956 -9999 -9999
-9999 5.44589376449585 4.244903087615967 2.611398220062256 1.3733787536621094 0.6376460790634155 0.33412665128707886 0.1871083378791809 0.11617383360862732 0.07700523734092712 0.0541972815990448 0.047726672142744064 0.04993172734975815 0.05314258858561516 0.05707084387540817 0.06147758290171623 0.06645803898572922 0.07294206321239471 0.0843885987997055 0.08968743681907654
-9999 -9999 3.097238540649414 2.001232862472534 1.0012602806091309 0.42962533235549927 0.2062922716140747 0.11268521845340729 0.07036846876144409 0.04905777797102928 0.04967454448342323 0.05174874886870384 0.05510801449418068 0.05951196327805519 0.06457418948411942 0.07000460475683212 0.07576126605272293 0.08189819753170013 0.08830434083938599 0.0916488766670227
-9999 -9999 2.1350224018096924 1.483765721321106 0.7526500225067139 0.3059130012989044 0.13735336065292358 0.07169878482818604 0.050509870052337646 0.05071611702442169 0.05226120352745056 0.05517491698265076 0.05936799570918083 0.06458903849124908 0.07035215198993683 0.0762590542435646 0.08205266296863556 0.08726958930492401 0.09133774787187576 0.09350322932004929
-9999 -9999 -9999 1.1775915622711182 0.6164789795875549 0.25722697377204895 0.11210320889949799 0.05742516368627548 0.05100953206419945 0.05176851153373718 0.053779445588588715 0.05709441751241684 0.06170998513698578 0.06734384596347809 0.07345927506685257 0.07951397448778152 0.0852188840508461 0.08974769711494446 0.09294460713863373 0.09460532665252686
