ncols         20
nrows         20
xllcorner     0
yllcorner     -3.5992928
cellsize      0.17996463
NODATA_value  -9999
-9999.0 -9999 -9999 -9999 -9999 -9999 -9999 -9999 -9999 -9999 -9999 -9999 -9999 -9999 -9999 -9999 -9999 -9999 -9999 -9999
-9999 -9999 -9999 -9999 -9999 -9999 -9999 -9999 -9999 -9999 -9999 0.018179045990109444 0.01818368211388588 -9999 -9999 0.018337879329919815 0.018345890566706657 -9999 -9999 -9999
-9999 -9999 -9999 -9999 0.018283411860466003 0.01824415661394596 0.01818666234612465 0.018118005245923996 0.01805288717150688 0.018007580190896988 0.017996899783611298 0.03821312636137009 0.038241516798734665 0.018055513501167297 0.018101884052157402 0.03853335604071617 0.038583796471357346 0.01821022666990757 -9999 -9999
-9999 -9999 -9999 0.018203480169177055 0.03851849213242531 0.08009059727191925 0.0798097625374794 0.07944760471582413 0.07909493893384933 0.0788361132144928 0.07873457670211792 0.09490944445133209 0.09502600133419037 0.07902459800243378 0.07923094183206558 0.09573233872652054 0.0796709656715393 0.018068337813019753 -9999 -9999
-9999 -9999 -9999 0.018084585666656494 0.07970617711544037 0.11507626622915268 0.11456584930419922 0.11390455812215805 0.11326389759778976 0.11279039829969406 0.1125853881239891 0.112682044506073 0.11288333684206009 0.11312282085418701 0.11345939338207245 0.1138068288564682 0.07877881824970245 0.0178291667252779 -9999 -9999
-9999 -9999 0.017867660149931908 0.037878360599279404 0.09504593908786774 0.11387966573238373 0.11317259073257446 0.11227083951234818 0.11141844093799591 0.11080233752727509 0.11052829027175903 0.1105990931391716 0.11090141534805298 0.11130927503108978 0.11173180490732193 0.11204682290554047 0.09323983639478683 0.03699285537004471 0.017373625189065933 -9999
-9999 -9999 0.017718521878123283 0.07806341350078583 0.11278247088193893 0.11220292001962662 0.11115017533302307 0.10982933640480042 0.10865162312984467 0.10783857107162476 0.10750730335712433 0.1076446995139122 0.10812544822692871 0.10874175280332565 0.10932592302560806 0.10974151641130447 0.1098257303237915 0.07571878284215927 0.017157038673758507 -9999
-9999 -9999 0.017488528043031693 0.07709409296512604 0.11110599339008331 0.11017456650733948 0.1086718812584877 0.1067885309457779 0.105355404317379 0.10442518442869186 0.10402696579694748 0.10415641963481903 0.10477687418460846 0.10563357174396515 0.10642435401678085 0.1070372611284256 0.1073927953839302 0.07429694384336472 0.01684127375483513 -9999
-9999 0.017145374789834023 0.036381375044584274 0.09130120277404785 0.10917270183563232 0.10794637352228165 0.10607441514730453 0.10390579700469971 0.10227349400520325 0.10121263563632965 0.10072451829910278 0.10079717636108398 0.10139226168394089 0.10228434950113297 0.10321354866027832 0.10399481654167175 0.10453183203935623 0.07245843857526779 0.016442885622382164 -9999
-9999 0.01698729395866394 0.07475873827934265 0.10793346166610718 0.10715983062982559 0.10565242916345596 0.10349751263856888 0.10120459645986557 0.09944795072078705 0.09827478229999542 0.09768439829349518 0.09765870124101639 0.09815232455730438 0.0989544689655304 0.09990014135837555 0.10077209770679474 0.1014305055141449 0.07040772587060928 0.015996575355529785 -9999
-9999 0.01677170768380165 0.07376033812761307 0.10615989565849304 0.10510540008544922 0.10337045788764954 0.10103107988834381 0.09871647506952286 0.09689700603485107 0.09563563019037247 0.09493863582611084 0.09478791803121567 0.09514022618532181 0.09581049531698227 0.09665990620851517 0.09754909574985504 0.09828726202249527 0.06831730902194977 0.015540660358965397 -9999
-9999 0.016511671245098114 0.07254105806350708 0.10422670841217041 0.10301735997200012 0.10116194188594818 0.0987820029258728 0.09649518132209778 0.09465105086565018 0.09331803023815155 0.09251074492931366 0.09221338480710983 0.09238812327384949 0.09288259595632553 0.09358924627304077 0.09443478286266327 0.09526287764310837 0.06635861098766327 0.0151151642203331 -9999
-9999 0.016228588297963142 0.07123099267482758 0.10223549604415894 0.10095298290252686 0.09907586872577667 0.09677774459123611 0.09457067400217056 0.09272417426109314 0.09132741391658783 0.09040578454732895 0.08994393795728683 0.0898967757821083 0.09016793221235275 0.09068330377340317 0.0914163812994957 0.09242213517427444 0.0647154152393341 0.014753580093383789 -9999
-9999 0.01594526134431362 0.06993259489536285 0.10028889030218124 0.09897375106811523 0.09712966531515121 0.0949559211730957 0.09283407777547836 0.09100690484046936 0.08956624567508698 0.08854039013385773 0.0879114642739296 0.08763887733221054 0.08765753358602524 0.08791051059961319 0.08836499601602554 0.07386503368616104 0.03005792945623398 0.014477241784334183 -9999
-9999 0.015685543417930603 0.06874558329582214 0.09846939146518707 0.09712696075439453 0.09533929079771042 0.09328353404998779 0.0912485420703888 0.08946297317743301 0.0879969522356987 0.08688132464885712 0.08609824627637863 0.08561299741268158 0.08537501096725464 0.08533170819282532 0.08543262630701065 0.05917920172214508 0.013462519273161888 -9999 -9999
-9999 0.015472522005438805 0.06740272790193558 0.09684642404317856 0.09541965276002884 0.09370143711566925 0.09176003187894821 0.08982137590646744 0.08808718621730804 0.08661343157291412 0.08542901277542114 0.08451630920171738 0.0838451161980629 0.0833723396062851 0.08304959535598755 0.08283060789108276 0.05675016716122627 0.012855836190283298 -9999 -9999
-9999 0.015322653576731682 0.03201510012149811 0.07881546020507812 0.09376130253076553 0.09220477193593979 0.09040366858243942 0.08857084065675735 0.0868968516588211 0.08543114364147186 0.08420056849718094 0.08318828046321869 0.08236747980117798 0.08169864118099213 0.08112993836402893 0.08059468120336533 0.06617698818445206 0.025972194969654083 0.011925799772143364 0.011787965893745422
-9999 -9999 0.014813417568802834 0.06434299051761627 0.09233924001455307 0.09090503305196762 0.08925216645002365 0.08753571659326553 0.08592827618122101 0.08448285609483719 0.08322754502296448 0.08214722573757172 0.0812186449766159 0.08040513098239899 0.07965535670518875 0.07888524979352951 0.07793088257312775 0.06372372806072235 0.05214924365282059 0.05178681015968323
-9999 -9999 0.014464027248322964 0.030633598566055298 0.07545628398656845 0.08982128649950027 0.08836918324232101 0.08677627891302109 0.08523344248533249 0.08381330966949463 0.08254959434270859 0.08142956346273422 0.08043433725833893 0.07953411340713501 0.07868921756744385 0.07784342020750046 0.07693196088075638 0.0759473368525505 0.07516984641551971 0.07477258890867233
-9999 -9999 -9999 0.014111464843153954 0.062021177262067795 0.08919914066791534 0.08788875490427017 0.08637774735689163 0.08487686514854431 0.08347471803426743 0.08220772445201874 0.08106975257396698 0.08004321902990341 0.07910356670618057 0.07822013646364212 0.07735725492238998 0.07649044692516327 0.07566508650779724 0.07502176612615585 0.0746787041425705
