ncols         20
nrows         20
xllcorner     0
yllcorner     -3.5992928
cellsize      0.17996463
NODATA_value  -9999
-9999.0 -9999 -9999 -9999 -9999 -9999 -9999 -9999 -9999 -9999 -9999 -9999 -9999 -9999 -9999 -9999 -9999 -9999 -9999 -9999
-9999 -9999 -9999 -9999 -9999 -9999 -9999 -9999 -9999 -9999 -9999 13.339244842529297 13.350406646728516 -9999 -9999 13.225000381469727 13.307632446289062 -9999 -9999 -9999
-9999 -9999 -9999 -9999 13.21273422241211 13.150120735168457 13.04924201965332 13.016471862792969 13.030709266662598 13.049485206604004 13.174638748168945 13.192569732666016 13.145907402038574 13.102104187011719 13.129956245422363 13.17922306060791 13.266911506652832 13.345499992370605 -9999 -9999
-9999 -9999 -9999 13.178274154663086 13.12501049041748 13.060798645019531 12.997694969177246 12.986867904663086 12.985547065734863 12.98613452911377 12.9755859375 12.94714641571045 12.898995399475098 12.891880989074707 12.90546703338623 12.977363586425781 13.094057083129883 13.179293632507324 -9999 -9999
-9999 -9999 -9999 13.11645221710205 13.04867935180664 12.948928833007812 12.925434112548828 12.978105545043945 13.03390884399414 13.060689926147461 13.063224792480469 13.033203125 12.953912734985352 12.865635871887207 12.785606384277344 12.797874450683594 12.87888240814209 12.874306678771973 -9999 -9999
-9999 -9999 13.154708862304688 13.049395561218262 12.940008163452148 12.896703720092773 13.033439636230469 13.306220054626465 13.50897216796875 13.67139720916748 13.797554969787598 13.810942649841309 13.649782180786133 13.378536224365234 13.092816352844238 12.90269660949707 12.83653736114502 12.815496444702148 12.930510520935059 -9999
-9999 -9999 13.06326961517334 12.95119571685791 12.817073822021484 12.909516334533691 13.38906192779541 14.171493530273438 14.58469009399414 14.875547409057617 15.086146354675293 15.084429740905762 14.729896545410156 14.274799346923828 13.7862548828125 13.365015029907227 13.085958480834961 12.965154647827148 12.950551986694336 -9999
-9999 -9999 12.825324058532715 12.686017990112305 12.619388580322266 12.979682922363281 14.006525993347168 15.899076461791992 16.409835815429688 16.6126708984375 16.735130310058594 16.64107894897461 15.802750587463379 15.197891235351562 14.641873359680176 14.104272842407227 13.666274070739746 13.390271186828613 13.268935203552246 -9999
-9999 12.685124397277832 12.51442813873291 12.357261657714844 12.427294731140137 13.047778129577637 14.356731414794922 16.37761688232422 16.950428009033203 17.14264678955078 17.22791290283203 17.13082504272461 16.423357009887695 15.91221809387207 15.451860427856445 14.961137771606445 14.480537414550781 14.118342399597168 13.941003799438477 -9999
-9999 12.406805992126465 12.241524696350098 12.132600784301758 12.439628601074219 13.338963508605957 14.782136917114258 16.65827751159668 17.209592819213867 17.380542755126953 17.44048309326172 17.364601135253906 16.815235137939453 16.436784744262695 16.110027313232422 15.754252433776855 15.358392715454102 15.021612167358398 14.846597671508789 -9999
-9999 12.112176895141602 12.0597562789917 12.189484596252441 12.781660079956055 13.846893310546875 15.291679382324219 16.95720100402832 17.439794540405273 17.578086853027344 17.625905990600586 17.570049285888672 17.110273361206055 16.82145881652832 16.604473114013672 16.377071380615234 16.12359619140625 15.887496948242188 15.762918472290039 -9999
-9999 12.08949089050293 12.209969520568848 12.6303071975708 13.424065589904785 14.489599227905273 15.770795822143555 17.158546447753906 17.563831329345703 17.683225631713867 17.72787094116211 17.693941116333008 17.300064086914062 17.088706970214844 16.952932357788086 16.815956115722656 16.66303253173828 16.53131866455078 16.474374771118164 -9999
-9999 12.551084518432617 12.832541465759277 13.472187042236328 14.296524047851562 15.202293395996094 16.11372184753418 16.90666961669922 17.28127670288086 17.43227195739746 17.488542556762695 17.472042083740234 17.351282119750977 17.267091751098633 17.197900772094727 17.118820190429688 17.00795555114746 16.921987533569336 16.917280197143555 -9999
-9999 13.420226097106934 13.784292221069336 14.498039245605469 15.252227783203125 15.924698829650879 16.49966049194336 16.948190689086914 17.214757919311523 17.340177536010742 17.39429473876953 17.408254623413086 17.39784049987793 17.39344596862793 17.392101287841797 17.359039306640625 17.27784538269043 17.164752960205078 17.2033748626709 -9999
-9999 14.295747756958008 14.67496109008789 15.369037628173828 16.01323127746582 16.491456985473633 16.837778091430664 17.09033203125 17.244159698486328 17.330718994140625 17.3756046295166 17.4080753326416 17.43840980529785 17.473594665527344 17.517221450805664 17.532268524169922 17.502368927001953 17.37130355834961 -9999 -9999
-9999 14.921380043029785 15.301209449768066 15.932132720947266 16.47235679626465 16.846590042114258 17.07570457458496 17.21813201904297 17.297760009765625 17.34760856628418 17.378137588500977 17.413427352905273 17.4580078125 17.509410858154297 17.564590454101562 17.613327026367188 17.64649200439453 17.72091293334961 -9999 -9999
-9999 15.30667495727539 15.742606163024902 16.273160934448242 16.728490829467773 17.057239532470703 17.231979370117188 17.327354431152344 17.37005615234375 17.395265579223633 17.413053512573242 17.440675735473633 17.480520248413086 17.52606201171875 17.57823371887207 17.628747940063477 17.669206619262695 17.69602394104004 17.631267547607422 17.638898849487305
-9999 -9999 16.18485450744629 16.52022361755371 16.88616180419922 17.171836853027344 17.336341857910156 17.418737411499023 17.447751998901367 17.457677841186523 17.458913803100586 17.475170135498047 17.50356674194336 17.549259185791016 17.589962005615234 17.621492385864258 17.653654098510742 17.66986846923828 17.659738540649414 17.63074493408203
-9999 -9999 16.499990463256836 16.724435806274414 17.004154205322266 17.262569427490234 17.426921844482422 17.508514404296875 17.532567977905273 17.524595260620117 17.50503921508789 17.512435913085938 17.535715103149414 17.571754455566406 17.595584869384766 17.611434936523438 17.630571365356445 17.63720703125 17.608165740966797 17.590852737426758
-9999 -9999 -9999 16.85407257080078 17.066497802734375 17.299360275268555 17.46554183959961 17.544954299926758 17.559307098388672 17.542993545532227 17.522436141967773 17.5169620513916 17.53792381286621 17.570390701293945 17.594270706176758 17.598392486572266 17.619853973388672 17.599658966064453 17.578630447387695 17.568408966064453
