ncols         20
nrows         20
xllcorner     0
yllcorner     -3.5992928
cellsize      0.17996463
NODATA_value  -9999
-9999.0 -9999 -9999 -9999 -9999 -9999 -9999 -9999 -9999 -9999 -9999 -9999 -9999 -9999 -9999 -9999 -9999 -9999 -9999 -9999
-9999 -9999 -9999 -9999 -9999 -9999 -9999 -9999 -9999 -9999 -9999 1.1694594621658325 1.1684545278549194 -9999 -9999 1.2016937732696533 1.188706874847412 -9999 -9999 -9999
-9999 -9999 -9999 -9999 1.167418360710144 1.175305962562561 1.188179612159729 1.190948247909546 1.1889817714691162 1.1905136108398438 1.17933189868927 1.1868171691894531 1.1987190246582031 1.20816969871521 1.2105244398117065 1.2093838453292847 1.1988370418548584 1.1878304481506348 -9999 -9999
-9999 -9999 -9999 1.1803512573242188 1.187315821647644 1.1946660280227661 1.2023193836212158 1.203161597251892 1.2034927606582642 1.2019277811050415 1.2042180299758911 1.2115497589111328 1.2229983806610107 1.2315137386322021 1.241403341293335 1.2414010763168335 1.228949785232544 1.2161365747451782 -9999 -9999
-9999 -9999 -9999 1.1959770917892456 1.2054462432861328 1.221947193145752 1.2271723747253418 1.223825454711914 1.2066009044647217 1.1759140491485596 1.1437652111053467 1.1315594911575317 1.1499661207199097 1.1930571794509888 1.2388066053390503 1.2606271505355835 1.2608449459075928 1.2657054662704468 -9999 -9999
-9999 -9999 1.2011710405349731 1.215259075164795 1.2317007780075073 1.243483304977417 1.2371506690979004 1.2091064453125 1.1463514566421509 1.0492368936538696 0.9460045695304871 0.8952749967575073 0.9170075058937073 1.0128148794174194 1.134735345840454 1.2182081937789917 1.2615625858306885 1.274298071861267 1.2617251873016357 -9999
-9999 -9999 1.2160967588424683 1.2321622371673584 1.2567384243011475 1.2602441310882568 1.2327951192855835 1.1602801084518433 1.0324290990829468 0.8642882704734802 0.7087715864181519 0.6287294030189514 0.6452039480209351 0.7613450288772583 0 1.0951128005981445 1.2017478942871094 1.2509465217590332 1.2627911567687988 -9999
-9999 -9999 1.2491061687469482 1.2678636312484741 1.281638264656067 1.2624319791793823 1.189909815788269 1.0548659563064575 0.8705317974090576 0.6730013489723206 0.5204485654830933 0.44008079171180725 0.44475337862968445 0.5349814891815186 0.6994483470916748 0.8894442915916443 1.0490350723266602 1.1552056074142456 1.1976244449615479 -9999
-9999 1.2644747495651245 1.2886167764663696 1.299131155014038 1.286797046661377 1.2138715982437134 1.0691146850585938 0.8693777322769165 0.6606548428535461 0.4856826066970825 0.3706129491329193 0.31229186058044434 0.30855032801628113 0.3658886253833771 0.4841597378253937 0 0.8293355703353882 0.9658295512199402 1.0328296422958374 -9999
-9999 1.2988911867141724 1.3140044212341309 1.30531644821167 1.2380790710449219 1.0821523666381836 0.861804187297821 0.6275474429130554 0.43728208541870117 0.3123725354671478 0.24424727261066437 0.21099258959293365 0.2089315503835678 0.23908832669258118 0.31215140223503113 0 0.5785019397735596 0.7129687070846558 0.7838202714920044 -9999
-9999 1.3275165557861328 1.3215913772583008 1.2662347555160522 1.128414273262024 0.9062064290046692 0.6435898542404175 0.41107288002967834 0.2600845992565155 0.1791934221982956 0.14064404368400574 0.12469137459993362 0.12404214590787888 0.13961586356163025 0.17778709530830383 0.24787771701812744 0.34432533383369446 0.4486887454986572 0.5055425763130188 -9999
-9999 1.3099706172943115 1.2764993906021118 1.1593189239501953 0.9637207388877869 0.7161188721656799 0.4612536132335663 0.2641306519508362 0.15172427892684937 0.09666716307401657 0.07267134636640549 0.06272102147340775 0 0 0.08301163464784622 0 0.1712460070848465 0.23384462296962738 0.2686508893966675 -9999
-9999 1.2145031690597534 1.1415385007858276 0.9623928666114807 0.7452225685119629 0.51801997423172 0.314372181892395 0.16784973442554474 0.08801824599504471 0.05237964540719986 0.033087752759456635 0.026239564642310143 0 0 0 0.04142091050744057 0.06882647424936295 0.10122980177402496 0.12198644131422043 -9999
-9999 1.0270758867263794 0.9236921072006226 0.7109447121620178 0.5016697645187378 0.32697269320487976 0.1918756365776062 0.10059793293476105 0.048365913331508636 0.02800849825143814 0.01863434538245201 0.014407978393137455 0 0 0 0.015379191376268864 0.02212340198457241 0.035813283175230026 0.04684584587812424 -9999
-9999 0.8229076266288757 0.7097854018211365 0.49233779311180115 0.3087727129459381 0.18649999797344208 0.10624216496944427 0.05377670377492905 0.02941386215388775 0.01843779906630516 0.013310561887919903 0.010551439598202705 0.009051933884620667 0.008393606171011925 0 0 0.009904430247843266 0.014310809783637524 -9999 -9999
-9999 0.6793913841247559 0.5635026693344116 0.35741788148880005 0.20177710056304932 0.1090499684214592 0.057301998138427734 0.03192627802491188 0.02010725624859333 0.014156201854348183 0 0 0 0.009947096928954124 0 0 0.012915624305605888 0 -9999 -9999
-9999 0.5811223983764648 0.46071064472198486 0.282505601644516 0.14753031730651855 0.06703507900238037 0.035493966192007065 0.021064018830657005 0.014560938812792301 0 0 0 0 0.013235561549663544 0.014829406514763832 0.016186188906431198 0.017345651984214783 0.01864784024655819 0 0
-9999 -9999 0.35640132427215576 0.23096980154514313 0.11638602614402771 0.049940746277570724 0.025238871574401855 0.015339878387749195 0 0 0 0 0 0 0 0 0 0 0 0
-9999 -9999 0.25487831234931946 0.18074242770671844 0.09344428777694702 0.038930535316467285 0.019103245809674263 0.011598041281104088 0 0 0 0 0 0 0 0 0 0 0 0
-9999 -9999 -9999 0.15004116296768188 0.07899237424135208 0.03445003926753998 0.01677672751247883 0.010236218571662903 0 0 0 0 0 0 0 0 0 0 0 0
