ncols         20
nrows         20
xllcorner     0
yllcorner     -3.5992928
cellsize      0.17996463
NODATA_value  -9999
-9999.0 -9999 -9999 -9999 -9999 -9999 -9999 -9999 -9999 -9999 -9999 -9999 -9999 -9999 -9999 -9999 -9999 -9999 -9999 -9999
-9999 -9999 -9999 -9999 -9999 -9999 -9999 -9999 -9999 -9999 -9999 1.1289979219436646 1.111607551574707 -9999 -9999 1.0676448345184326 1.0036264657974243 -9999 -9999 -9999
-9999 -9999 -9999 -9999 1.1495373249053955 1.2238457202911377 1.3554730415344238 1.4556665420532227 1.5148694515228271 1.5519682168960571 1.4132553339004517 1.3278576135635376 1.3365236520767212 1.3511431217193604 1.2505879402160645 1.1283589601516724 1.0305014848709106 0.9607507586479187 -9999 -9999
-9999 -9999 -9999 1.0736308097839355 1.1594961881637573 1.2583001852035522 1.393112063407898 1.5178313255310059 1.6522668600082397 1.768026351928711 1.8493640422821045 1.8538216352462769 1.8441016674041748 1.729377269744873 1.5502047538757324 1.335450291633606 1.160164713859558 1.0621750354766846 -9999 -9999
-9999 -9999 -9999 1.046458125114441 1.1350698471069336 1.299523949623108 1.4827210903167725 1.6813138723373413 1.9282188415527344 2.272148370742798 2.62939715385437 2.834981918334961 2.8133175373077393 2.5077545642852783 2.130478620529175 1.7230589389801025 1.4178166389465332 1.3385846614837646 -9999 -9999
-9999 -9999 0.8254638910293579 0.961152195930481 1.1072195768356323 1.3000932931900024 1.503220796585083 1.736465334892273 2.11375093460083 2.638981580734253 3.2602362632751465 3.6674132347106934 3.7790310382843018 3.420957565307617 2.8165690898895264 2.2301840782165527 1.787906289100647 1.5981851816177368 1.4345273971557617 -9999
-9999 -9999 0.7944598197937012 0.8936673402786255 1.080270767211914 1.2935452461242676 1.4733314514160156 1.659557819366455 1.9958608150482178 2.4970455169677734 3.1119611263275146 3.6715173721313477 4.093498229980469 3.995060920715332 3.4954075813293457 2.8191158771514893 2.2674360275268555 1.9025083780288696 1.7414581775665283 -9999
-9999 -9999 0.787813127040863 0.9071847796440125 1.1195094585418701 1.3185566663742065 1.4316586256027222 1.3278443813323975 1.4201637506484985 1.6348438262939453 1.9133955240249634 2.353410005569458 3.5340609550476074 3.9385924339294434 3.7803215980529785 3.2892916202545166 2.7686665058135986 2.3446290493011475 2.1640429496765137 -9999
-9999 0.6540191173553467 0.8040806651115417 0.9851368069648743 1.2501312494277954 1.469677448272705 1.4954322576522827 1.204215407371521 1.1427640914916992 1.197903037071228 1.344307780265808 1.724292278289795 2.924532413482666 3.575230121612549 3.7620599269866943 3.5588226318359375 3.143899917602539 2.7574822902679443 2.5786256790161133 -9999
-9999 0.7335355281829834 0.8743609189987183 1.1531524658203125 1.4854823350906372 1.711673617362976 1.6495338678359985 1.160697340965271 0.9828266501426697 0.9453305006027222 1.0229465961456299 1.3452942371368408 2.4171252250671387 3.133801221847534 3.5010135173797607 3.5534098148345947 3.3315320014953613 3.0542914867401123 2.919389009475708 -9999
-9999 0.9018364548683167 1.0615205764770508 1.3871837854385376 1.7328001260757446 1.9303897619247437 1.7854194641113281 1.1245685815811157 0.8758069276809692 0.7931715250015259 0.838307797908783 1.1083519458770752 2.0669093132019043 2.736629009246826 3.158961772918701 3.3462939262390137 3.328850507736206 3.1854560375213623 3.1096251010894775 -9999
-9999 1.1828868389129639 1.3520214557647705 1.7045594453811646 2.0248074531555176 2.149787664413452 1.9309113025665283 1.1642494201660156 0.8939430713653564 0.7907439470291138 0.8075116276741028 1.0162967443466187 1.8309593200683594 2.386889934539795 2.7785820960998535 3.0321781635284424 3.1387476921081543 3.128265142440796 3.1138339042663574 -9999
-9999 1.587123990058899 1.7790899276733398 2.1421616077423096 2.3731913566589355 2.4005777835845947 2.1759748458862305 1.7328636646270752 1.4030909538269043 1.2178852558135986 1.191188931465149 1.337212324142456 1.6893861293792725 2.0231451988220215 2.3202641010284424 2.5796425342559814 2.780906915664673 2.8899850845336914 2.9241104125976562 -9999
-9999 2.0467002391815186 2.235931158065796 2.5637216567993164 2.6941659450531006 2.593726634979248 2.314269542694092 1.9392722845077515 1.6144688129425049 1.402527093887329 1.323907732963562 1.3642692565917969 1.4932353496551514 1.6443983316421509 1.7982953786849976 1.9886270761489868 2.2257041931152344 2.4964516162872314 2.6381304264068604 -9999
-9999 2.369565725326538 2.5158262252807617 2.770676851272583 2.7939133644104004 2.5874433517456055 2.2670915126800537 1.9238108396530151 1.626287579536438 1.4258298873901367 1.3263132572174072 1.2962346076965332 1.3102325201034546 1.3429780006408691 1.3772791624069214 1.4556962251663208 1.590939998626709 1.8549684286117554 -9999 -9999
-9999 2.4567229747772217 2.5424304008483887 2.70589017868042 2.6404364109039307 2.3922295570373535 2.0824878215789795 1.7757683992385864 1.5368505716323853 1.3726460933685303 1.2775611877441406 1.2173073291778564 1.1717300415039062 1.128948450088501 1.0945408344268799 1.075644850730896 1.0868449211120605 1.0046387910842896 -9999 -9999
-9999 2.489805221557617 2.441108465194702 2.501107931137085 2.3949763774871826 2.140737533569336 1.8425639867782593 1.5800701379776 1.3914220333099365 1.2623687982559204 1.1793121099472046 1.109635591506958 1.040017008781433 0.9751642942428589 0.9091012477874756 0.849822461605072 0.803059995174408 0.7490833401679993 0.7182560563087463 0.6485579609870911
-9999 -9999 2.2295708656311035 2.262279748916626 2.1554954051971436 1.9045045375823975 1.6195529699325562 1.3884656429290771 1.2313454151153564 1.128366231918335 1.0595853328704834 0.9952899217605591 0.9278274178504944 0.8430054187774658 0.7700288891792297 0.7154035568237305 0.6578546762466431 0.6171654462814331 0.5851255059242249 0.6164302229881287
-9999 -9999 2.174844980239868 2.0939395427703857 1.9677681922912598 1.712897777557373 1.43289315700531 1.2143778800964355 1.0714280605316162 0.9890313148498535 0.9483205676078796 0.8918670415878296 0.823162317276001 0.7396180629730225 0.677385687828064 0.6333133578300476 0.5925248861312866 0.5701192617416382 0.6118413805961609 0.6353145837783813
-9999 -9999 -9999 1.949806809425354 1.8626043796539307 1.6178853511810303 1.3412002325057983 1.1306302547454834 0.9991539716720581 0.9309918880462646 0.8931307196617126 0.8529903292655945 0.7844941020011902 0.7019681334495544 0.6339609026908875 0.6056911945343018 0.558215320110321 0.5914114117622375 0.6280028820037842 0.6482399702072144
