ncols         20
nrows         20
xllcorner     0
yllcorner     -3.5992928
cellsize      0.17996463
NODATA_value  -9999
-9999.0 -9999 -9999 -9999 -9999 -9999 -9999 -9999 -9999 -9999 -9999 -9999 -9999 -9999 -9999 -9999 -9999 -9999 -9999 -9999
-9999 -9999 -9999 -9999 -9999 -9999 -9999 -9999 -9999 -9999 -9999 0.13716323673725128 0.1373003125190735 -9999 -9999 0.13963350653648376 0.13980287313461304 -9999 -9999 -9999
-9999 -9999 -9999 -9999 0.13618502020835876 0.1361560821533203 0.13617278635501862 0.13626283407211304 0.13644705712795258 0.13672199845314026 0.13704530894756317 0.12700513005256653 0.12741783261299133 0.1386122703552246 0.13925161957740784 0.1292785108089447 0.12978173792362213 0.14099054038524628 -9999 -9999
-9999 -9999 -9999 0.13650089502334595 0.12607358396053314 0.10725994408130646 0.1072864830493927 0.10739743709564209 0.10760277509689331 0.10788928717374802 0.1082342341542244 0.10038081556558609 0.10079331696033478 0.10961917042732239 0.11016497761011124 0.10238856822252274 0.11143364012241364 0.1421063244342804 -9999 -9999
-9999 -9999 -9999 0.13675089180469513 0.10755714774131775 0.07824739813804626 0.07217199355363846 0.07230991870164871 0.07253515720367432 0.07283192127943039 0.07317140698432922 0.0680280402302742 0.06838390231132507 0.07435496896505356 0.07483121007680893 0.0754510834813118 0.11318553984165192 0.14433304965496063 -9999 -9999
-9999 -9999 0.1374068707227707 0.12685035169124603 0.09975509345531464 0.06701058149337769 0.041478097438812256 0.04160849004983902 0.04181753098964691 0.04208073019981384 0.04237205535173416 0.03935765102505684 0.03965359553694725 0.043366674333810806 0.04380419850349426 0.071513332426548 0.10710524022579193 0.13698910176753998 0.15002787113189697 -9999
-9999 -9999 0.137836754322052 0.10844695568084717 0.07896329462528229 0.0531395860016346 0.03032499924302101 0.02049335278570652 0.020644836127758026 0.020832905545830727 0.021041827276349068 0.019627150148153305 0.01986386626958847 0.02184087596833706 0.0329614020884037 0.05840998515486717 0.08729875832796097 0.12032884359359741 0.15342026948928833 -9999
-9999 -9999 0.13860879838466644 0.10913427174091339 0.073349729180336 0.042103514075279236 0.020653143525123596 0.010136828757822514 0.008744453079998493 0.008856276050209999 0.008984134532511234 0.008433419279754162 0.008610963821411133 0.011221418157219887 0.02339611016213894 0.048098765313625336 0.08401178568601608 0.12507937848567963 0.15889854729175568 -9999
-9999 0.1402723491191864 0.12932774424552917 0.10180376470088959 0.06860829889774323 0.039349816739559174 0.019366351887583733 0.008155584335327148 0.003196398261934519 0.0032600355334579945 0.0033316693734377623 0.0031447894871234894 0.0035389773547649384 0.010215689428150654 0.02470872364938259 0.05057420954108238 0.08805065602064133 0.13076551258563995 0.16588535904884338 -9999
-9999 0.1416461020708084 0.11155365407466888 0.08140525221824646 0.05499731004238129 0.031728897243738174 0.01561358105391264 0.0065877074375748634 0.0024245763197541237 0.0016107885167002678 0.0016638449160382152 0.001714064972475171 0.0037843380123376846 0.010816735215485096 0.026034647598862648 0.05316527932882309 0.09242451936006546 0.13710731267929077 0.1738055944442749 -9999
-9999 0.14409060776233673 0.1136903464794159 0.0766896903514862 0.044252242892980576 0.021835535764694214 0.010772442445158958 0.004581928718835115 0.001698209554888308 0.0016993042081594467 0.001762832049280405 0.00182005250826478 0.004010140895843506 0.011401645839214325 0.027361147105693817 0.05580002814531326 0.09692902863025665 0.14368046820163727 0.18201304972171783 -9999
-9999 0.14756157994270325 0.11656607687473297 0.07879409939050674 0.04558312147855759 0.022548798471689224 0.009539371356368065 0.003475608304142952 0.0017034728080034256 0.0017807978438213468 0.0018525698687881231 0.002024887129664421 0.005885523743927479 0.014145546592772007 0.02868577651679516 0.05843714252114296 0.10140590369701385 0.1501069813966751 0.18986186385154724 -9999
-9999 0.15192730724811554 0.12011344730854034 0.08130960911512375 0.04710918292403221 0.02349231019616127 0.009969089180231094 0.003644837997853756 0.001770791015587747 0.0018522886093705893 0.0019311915384605527 0.00315782125107944 0.00913929846137762 0.021926529705524445 0.04492434486746788 0.07788445055484772 0.11479979008436203 0.15618421137332916 0.19667282700538635 -9999
-9999 0.15687081217765808 0.1241157129406929 0.08445162326097488 0.049039244651794434 0.02433924935758114 0.010332942008972168 0.003774215467274189 0.001829194719903171 0.0019114639144390821 0.001992564182728529 0.004134517163038254 0.01193510927259922 0.028805701062083244 0.05891472473740578 0.10234924405813217 0.15140996873378754 0.19039401412010193 0.2014530897140503 -9999
-9999 0.1619105190038681 0.1282687932252884 0.08739529550075531 0.05079477280378342 0.025228768587112427 0.012542746029794216 0.005366367753595114 0.001979356398805976 0.0019578987266868353 0.0020387463737279177 0.0045938133262097836 0.013197471387684345 0.03189995512366295 0.06541682779788971 0.11410725116729736 0.1690405160188675 0.21428771317005157 -9999 -9999
-9999 0.16645315289497375 0.13267062604427338 0.09766014665365219 0.06672189384698868 0.03885963559150696 0.019373834133148193 0.00821300782263279 0.003265774343162775 0.00199054810218513 0.0020720732863992453 0.004664402920752764 0.013410469517111778 0.032461099326610565 0.06669829040765762 0.11664215475320816 0.1738438606262207 0.2206430733203888 -9999 -9999
-9999 0.16969658434391022 0.15998795628547668 0.12774598598480225 0.08702778816223145 0.05062037706375122 0.027214709669351578 0.01348709873855114 0.00575235765427351 0.002118445700034499 0.0020937295630574226 0.004333621356636286 0.012537294998764992 0.03039119951426983 0.06252676248550415 0.10948524624109268 0.16374915838241577 0.20975209772586823 0.23092038929462433 0.2325684279203415
-9999 -9999 0.17812322080135345 0.14183257520198822 0.1041705384850502 0.07089988142251968 0.04110702872276306 0.020422499626874924 0.008638993836939335 0.003187840338796377 0.002104602288454771 0.0034327059984207153 0.009969324804842472 0.024268804118037224 0.04984549805521965 0.08752067387104034 0.13092173635959625 0.16738003492355347 0.18266810476779938 0.1835242062807083
-9999 -9999 0.18101578950881958 0.16894865036010742 0.1341957002878189 0.09101654589176178 0.05272781476378441 0.02606339566409588 0.011026238091289997 0.00404896168038249 0.002108687534928322 0.002310708863660693 0.006736225448548794 0.016370369121432304 0.033861011266708374 0.05917470529675484 0.08888056874275208 0.11339465528726578 0.12319660931825638 0.12356153130531311
-9999 -9999 -9999 0.18513330817222595 0.1466720700263977 0.0993187353014946 0.05741523951292038 0.028342707082629204 0.011976304464042187 0.004406895488500595 0.0021105974446982145 0.0021932076197117567 0.0038717109709978104 0.00938334222882986 0.01946365274488926 0.03401649743318558 0.05114997550845146 0.06494473665952682 0.07068480551242828 0.0708308219909668
