ncols         20
nrows         20
xllcorner     0
yllcorner     -3.5992928
cellsize      0.17996463
NODATA_value  -9999
-9999.0 -9999 -9999 -9999 -9999 -9999 -9999 -9999 -9999 -9999 -9999 -9999 -9999 -9999 -9999 -9999 -9999 -9999 -9999 -9999
-9999 -9999 -9999 -9999 -9999 -9999 -9999 -9999 -9999 -9999 -9999 27.16625213623047 27.165220260620117 -9999 -9999 27.181957244873047 27.243619918823242 -9999 -9999 -9999
-9999 -9999 -9999 -9999 27.236509323120117 27.153223037719727 27.023679733276367 26.925994873046875 26.876224517822266 26.87314796447754 26.952068328857422 27.022563934326172 26.991260528564453 26.902904510498047 26.933094024658203 27.05309295654297 27.132930755615234 27.145050048828125 -9999 -9999
-9999 -9999 -9999 27.258512496948242 27.224647521972656 27.167217254638672 27.084978103637695 27.02249526977539 26.987049102783203 26.992366790771484 27.012550354003906 27.015562057495117 26.960622787475586 26.88912010192871 26.87251091003418 26.90827178955078 26.93360137939453 26.923185348510742 -9999 -9999
-9999 -9999 -9999 27.239381790161133 27.238985061645508 27.23624038696289 27.255149841308594 27.294971466064453 27.363279342651367 27.44021224975586 27.500486373901367 27.51079559326172 27.433263778686523 27.28557586669922 27.10672378540039 26.93897247314453 26.772552490234375 26.628381729125977 -9999 -9999
-9999 -9999 27.226526260375977 27.23316764831543 27.285436630249023 27.41497039794922 27.642736434936523 27.874858856201172 28.114582061767578 28.356971740722656 28.54793930053711 28.624238967895508 28.533355712890625 28.274044036865234 27.883625030517578 27.42215347290039 26.920400619506836 26.56116485595703 26.378009796142578 -9999
-9999 -9999 27.141027450561523 27.221817016601562 27.381261825561523 27.677345275878906 28.086322784423828 28.534523010253906 29.00054359436035 29.440824508666992 29.764787673950195 29.90226936340332 29.817995071411133 29.493022918701172 28.92979621887207 28.255054473876953 27.512752532958984 26.935449600219727 26.625694274902344 -9999
-9999 -9999 26.924907684326172 27.133832931518555 27.48040008544922 27.9643497467041 28.579246520996094 29.26314926147461 29.941984176635742 30.52144432067871 30.91449546813965 31.080135345458984 31.01450538635254 30.704111099243164 30.133220672607422 29.36846160888672 28.525699615478516 27.77476692199707 27.340442657470703 -9999
-9999 26.274288177490234 26.58157730102539 27.040002822875977 27.591947555541992 28.330535888671875 29.201704025268555 30.099740982055664 30.903263092041016 31.518638610839844 31.907968521118164 32.06957244873047 32.0169792175293 31.749698638916016 31.248180389404297 30.5324649810791 29.74932098388672 29.003032684326172 28.512699127197266 -9999
-9999 26.021316528320312 26.349641799926758 27.012428283691406 27.869293212890625 28.9045467376709 30.006309509277344 31.021595001220703 31.830142974853516 32.39422607421875 32.73106002807617 32.862796783447266 32.812374114990234 32.59618377685547 32.20500946044922 31.636001586914062 30.999732971191406 30.35850715637207 29.922161102294922 -9999
-9999 25.795412063598633 26.257930755615234 27.21253204345703 28.397247314453125 29.678537368774414 30.904415130615234 31.92146110534668 32.65956115722656 33.14156723022461 33.411354064941406 33.49727249145508 33.42946243286133 33.258724212646484 32.987648010253906 32.5923957824707 32.12657165527344 31.638233184814453 31.31389808654785 -9999
-9999 25.896732330322266 26.536001205444336 27.769515991210938 29.18197250366211 30.57254409790039 31.790603637695312 32.72966003417969 33.383392333984375 33.80070114135742 34.02125549316406 34.06254577636719 33.954383850097656 33.813621520996094 33.646507263183594 33.378238677978516 33.06612014770508 32.724029541015625 32.49323272705078 -9999
-9999 26.56110382080078 27.330608367919922 28.717329025268555 30.193666458129883 31.532028198242188 32.626800537109375 33.448238372802734 34.0298957824707 34.40723419189453 34.62127685546875 34.6611213684082 34.568443298339844 34.46391677856445 34.34549331665039 34.1811637878418 33.91424560546875 33.61985778808594 33.394493103027344 -9999
-9999 27.69548797607422 28.51333999633789 29.908349990844727 31.304527282714844 32.48194122314453 33.402313232421875 34.0982551574707 34.61609649658203 34.94709014892578 35.14235305786133 35.22287368774414 35.213111877441406 35.18915557861328 35.13446044921875 35.019737243652344 34.78689956665039 34.45946502685547 34.030250549316406 -9999
-9999 28.945919036865234 29.75404930114746 31.065471649169922 32.319522857666016 33.32910919189453 34.09982681274414 34.68915939331055 35.0977897644043 35.3714485168457 35.55379104614258 35.69384765625 35.80420684814453 35.89027786254883 35.91417694091797 35.86710739135742 35.734291076660156 35.524330139160156 -9999 -9999
-9999 29.979238510131836 30.794151306152344 31.997671127319336 33.11844253540039 34.02079772949219 34.70427703857422 35.18000030517578 35.49529266357422 35.70149230957031 35.85331726074219 36.03093719482422 36.234554290771484 36.43369674682617 36.55342483520508 36.60761642456055 36.60859680175781 36.61894226074219 -9999 -9999
-9999 30.64464569091797 31.635738372802734 32.710819244384766 33.72100067138672 34.57594299316406 35.18479919433594 35.59772491455078 35.84917449951172 36.006568908691406 36.156673431396484 36.35604476928711 36.60239791870117 36.855506896972656 37.044281005859375 37.16416931152344 37.238040924072266 37.32918930053711 37.5634651184082 37.67080307006836
-9999 -9999 32.615325927734375 33.32937240600586 34.181156158447266 34.9706916809082 35.56053924560547 35.95491027832031 36.176025390625 36.32483673095703 36.47053909301758 36.669883728027344 36.9202880859375 37.18956756591797 37.4036750793457 37.54461669921875 37.639671325683594 37.70952224731445 37.784034729003906 37.802066802978516
-9999 -9999 33.1666259765625 33.78622055053711 34.514461517333984 35.255882263183594 35.85034942626953 36.25600814819336 36.476966857910156 36.61677169799805 36.745025634765625 36.933815002441406 37.18063735961914 37.44749069213867 37.66119384765625 37.80335235595703 37.89503479003906 37.93331527709961 37.92567443847656 37.91569137573242
-9999 -9999 -9999 34.18275451660156 34.7398567199707 35.41361618041992 36.00592803955078 36.41794967651367 36.63722610473633 36.770347595214844 36.892333984375 37.065704345703125 37.309078216552734 37.57571029663086 37.7958984375 37.9359130859375 38.032161712646484 38.03690719604492 38.01277160644531 37.99705123901367
