ncols         20
nrows         20
xllcorner     0
yllcorner     -3.5992928
cellsize      0.17996463
NODATA_value  -9999
-9999.0 -9999 -9999 -9999 -9999 -9999 -9999 -9999 -9999 -9999 -9999 -9999 -9999 -9999 -9999 -9999 -9999 -9999 -9999 -9999
-9999 -9999 -9999 -9999 -9999 -9999 -9999 -9999 -9999 -9999 -9999 0.13451431691646576 0.13461920619010925 -9999 -9999 0.13693729043006897 0.13711602985858917 -9999 -9999 -9999
-9999 -9999 -9999 -9999 0.1339924931526184 0.13396498560905457 0.1339682638645172 0.13402312994003296 0.13414616882801056 0.1343349665403366 0.1345454454421997 0.12458182126283646 0.12490853667259216 0.13580703735351562 0.1364290714263916 0.1267213374376297 0.1272532343864441 0.1382545530796051 -9999 -9999
-9999 -9999 -9999 0.13426770269870758 0.12404056638479233 0.10555177181959152 0.10558684915304184 0.10568632185459137 0.10585246980190277 0.1060710996389389 0.10631934553384781 0.09850618988275528 0.09882082045078278 0.10739974677562714 0.10791778564453125 0.10033231228590012 0.10924209654331207 0.1393534392118454 -9999 -9999
-9999 -9999 -9999 0.13449278473854065 0.10582742840051651 0.07704178988933563 0.07110167294740677 0.07126106321811676 0.07147729396820068 0.07172984629869461 0.07199249416589737 0.06684482097625732 0.06710721552371979 0.07289184629917145 0.07332972437143326 0.07395300269126892 0.11098918318748474 0.1416243463754654 -9999 -9999
-9999 -9999 0.13499873876571655 0.12471271306276321 0.09816750138998032 0.06604231894016266 0.04095616564154625 0.04112888127565384 0.04135040193796158 0.04158990457653999 0.04182709380984306 0.03878609836101532 0.03900944069027901 0.042600780725479126 0.0430033877491951 0.0701887458562851 0.10515367239713669 0.13472066819667816 0.14788728952407837 -9999
-9999 -9999 0.13541078567504883 0.10662195086479187 0.07775697857141495 0.05245674401521683 0.030027836561203003 0.02034194953739643 0.020514510571956635 0.020695963874459267 0.020875046029686928 0.019432498142123222 0.01962699554860592 0.021542953327298164 0.032467711716890335 0.05748423561453819 0.08591430634260178 0.11861707270145416 0.15146104991436005 -9999
-9999 -9999 0.13619840145111084 0.10734543204307556 0.0723046213388443 0.04164073243737221 0.020514706149697304 0.010110549628734589 0.008739257231354713 0.00885196216404438 0.008967573754489422 0.008400611579418182 0.008563946932554245 0.011146219447255135 0.023186814039945602 0.047570519149303436 0.08300700783729553 0.12364563345909119 0.15720704197883606 -9999
-9999 0.1379391849040985 0.12718550860881805 0.10024756193161011 0.06771876662969589 0.03898729756474495 0.01928633265197277 0.008166395127773285 0.0032153709325939417 0.0032832801807671785 0.0033532138913869858 0.0031601744703948498 0.0035520843230187893 0.01022142544388771 0.024646054953336716 0.05031730234622955 0.0874628946185112 0.12979960441589355 0.16465990245342255 -9999
-9999 0.13958118855953217 0.10991852730512619 0.08031444996595383 0.054386984556913376 0.03150111436843872 0.015587558038532734 0.006617248058319092 0.002451409585773945 0.0016352016245946288 0.0016898735193535686 0.001737920450977981 0.0038254002574831247 0.010892251506447792 0.026130374521017075 0.05322729051113129 0.09238649904727936 0.13692596554756165 0.17349892854690552 -9999
-9999 0.14250022172927856 0.11240217089653015 0.07589080184698105 0.043898630887269974 0.02175459824502468 0.010792514309287071 0.004619210492819548 0.0017258203588426113 0.0017344382358714938 0.0018007908947765827 0.0018560766475275159 0.004075569566339254 0.011542773805558681 0.027613883838057518 0.05619346722960472 0.09749007970094681 0.14441177248954773 0.18288171291351318 -9999
-9999 0.14660358428955078 0.1157744824886322 0.07833129167556763 0.04543391242623329 0.02257155254483223 0.009601841680705547 0.0035208752378821373 0.0017384439706802368 0.0018245597602799535 0.0018995252903550863 0.0020727417431771755 0.006005489267408848 0.014383777044713497 0.029087278991937637 0.05914604291319847 0.10254053771495819 0.15170849859714508 0.19182826578617096 -9999
-9999 0.15182676911354065 0.12005387246608734 0.08140658587217331 0.04730096831917763 0.023678595200181007 0.010095985606312752 0.003712383098900318 0.0018144674832001328 0.001903769327327609 0.0019854996353387833 0.003240878228098154 0.009350006468594074 0.022369667887687683 0.045735280960798264 0.07917702198028564 0.11660231649875641 0.15853151679039001 0.1994861662387848 -9999
-9999 0.15802443027496338 0.12521107494831085 0.08541364222764969 0.04973051697015762 0.02475147135555744 0.01054429542273283 0.0038675819523632526 0.0018818714888766408 0.0019697537645697594 0.0020522295963019133 0.004248782992362976 0.012231235392391682 0.029457049444317818 0.06015101447701454 0.1043953001499176 0.1543455421924591 0.1939389556646347 0.20479802787303925 -9999
-9999 0.16460268199443817 0.13062861561775208 0.08925936371088028 0.05202750116586685 0.02590296044945717 0.012909994460642338 0.005537710152566433 0.0020457045175135136 0.0020233257673680782 0.0021035459358245134 0.004726766608655453 0.013547781854867935 0.03269442543387413 0.06696679443120956 0.11672898381948471 0.17287027835845947 0.21910801529884338 -9999 -9999
-9999 0.17050810158252716 0.13621707260608673 0.10059508681297302 0.06893780082464218 0.04025029391050339 0.020096758380532265 0.008529579266905785 0.003393067978322506 0.0020641100127249956 0.0021428626496344805 0.004807356745004654 0.013791847974061966 0.03334499150514603 0.06845846772193909 0.11966484785079956 0.17832151055335999 0.22631438076496124 -9999 -9999
-9999 0.1746702343225479 0.1653195023536682 0.1324155479669571 0.09043129533529282 0.05269935354590416 0.02837243489921093 0.014073388651013374 0.00600303802639246 0.0022048470564186573 0.0021713580936193466 0.004476211033761501 0.012920460663735867 0.03128966689109802 0.06433988362550735 0.11263269186019897 0.1684723198413849 0.2159302681684494 0.23818029463291168 0.24001267552375793
-9999 -9999 0.18504376709461212 0.14762045443058014 0.10862895101308823 0.07404666393995285 0.04298274591565132 0.021371766924858093 0.00904137548059225 0.003329863306134939 0.0021889880299568176 0.0035547257866710424 0.010295435786247253 0.025037307292222977 0.051400717347860336 0.0902356207370758 0.1349869817495346 0.17263653874397278 0.188533216714859 0.18947051465511322
-9999 -9999 0.1885378211736679 0.17628134787082672 0.1402233988046646 0.09520699083805084 0.055206868797540665 0.027311477810144424 0.011557633057236671 0.004238184075802565 0.00219821953214705 0.002399136545136571 0.006969471462070942 0.016916243359446526 0.034971870481967926 0.06110219657421112 0.09177029877901077 0.11709488928318024 0.12724782526493073 0.12763530015945435
-9999 -9999 -9999 0.19344298541545868 0.15337909758090973 0.10394474118947983 0.060137614607810974 0.02971094287931919 0.012559452094137669 0.004616360180079937 0.0022024994250386953 0.002280044835060835 0.004011038690805435 0.009705192409455776 0.020118921995162964 0.03515251353383064 0.052851445972919464 0.06710650771856308 0.0730431079864502 0.07319460809230804
