ncols         20
nrows         20
xllcorner     0
yllcorner     -3.5992928
cellsize      0.17996463
NODATA_value  -9999
-9999.0 -9999 -9999 -9999 -9999 -9999 -9999 -9999 -9999 -9999 -9999 -9999 -9999 -9999 -9999 -9999 -9999 -9999 -9999 -9999
-9999 -9999 -9999 -9999 -9999 -9999 -9999 -9999 -9999 -9999 -9999 13.354302406311035 13.365015983581543 -9999 -9999 13.23478889465332 13.317012786865234 -9999 -9999 -9999
-9999 -9999 -9999 -9999 13.230979919433594 13.16876220703125 13.068760871887207 13.036847114562988 13.051626205444336 13.070334434509277 13.194080352783203 13.210065841674805 13.16223430633545 13.117240905761719 13.143305778503418 13.190651893615723 13.277499198913574 13.356022834777832 -9999 -9999
-9999 -9999 -9999 13.195778846740723 13.143083572387695 13.079834938049316 13.01817798614502 13.009014129638672 13.009137153625488 13.010438919067383 12.999552726745605 12.96969985961914 12.919829368591309 12.910759925842285 12.922286033630371 12.992206573486328 13.107660293579102 13.19243049621582 -9999 -9999
-9999 -9999 -9999 13.13315200805664 13.066560745239258 12.968989372253418 12.948264122009277 13.003583908081055 13.06165885925293 13.0899658203125 13.092966079711914 13.062296867370605 12.981267929077148 12.891168594360352 12.809158325195312 12.819172859191895 12.898590087890625 12.893884658813477 -9999 -9999
-9999 -9999 13.167725563049316 13.064474105834961 12.957919120788574 12.918548583984375 13.059142112731934 13.334815979003906 13.539569854736328 13.702439308166504 13.827737808227539 13.840776443481445 13.680217742919922 13.409622192382812 13.123927116394043 12.932716369628906 12.865652084350586 12.845099449157715 12.962916374206543 -9999
-9999 -9999 13.074487686157227 12.965009689331055 12.835790634155273 12.933847427368164 13.417228698730469 14.1997709274292 14.612381935119629 14.901447296142578 15.109850883483887 15.107925415039062 14.758322715759277 14.30781364440918 13.822331428527832 13.402731895446777 13.124980926513672 13.005178451538086 12.991551399230957 -9999
-9999 -9999 12.83369255065918 12.698787689208984 12.63986587524414 13.007160186767578 14.035030364990234 15.920243263244629 16.426836013793945 16.62620735168457 16.74496841430664 16.649303436279297 15.825284957885742 15.229303359985352 14.679182052612305 14.14606761932373 13.711804389953613 13.43934154510498 13.319584846496582 -9999
-9999 12.684417724609375 12.519360542297363 12.37020492553711 12.451094627380371 13.079225540161133 14.385930061340332 16.39505958557129 16.963411331176758 17.153236389160156 17.236120223999023 17.13796043395996 16.44349479675293 15.94052791595459 15.486261367797852 15.001319885253906 14.526714324951172 14.169645309448242 13.994872093200684 -9999
-9999 12.407933235168457 12.248167037963867 12.149215698242188 12.468162536621094 13.373969078063965 14.811306953430176 16.672414779663086 17.219640731811523 17.389286041259766 17.44795799255371 17.37115478515625 16.83259391784668 16.460289001464844 16.137855529785156 15.787116050720215 15.39789867401123 15.067359924316406 14.89561939239502 -9999
-9999 12.120583534240723 12.073952674865723 12.213582992553711 12.815298080444336 13.882949829101562 15.319669723510742 16.966991424560547 17.445764541625977 17.58319091796875 17.6297607421875 17.572463989257812 17.122028350830078 16.837636947631836 16.6227970123291 16.398456573486328 16.14992904663086 15.919636726379395 15.798033714294434 -9999
-9999 12.111262321472168 12.236452102661133 12.66348648071289 13.461503028869629 14.526222229003906 15.797033309936523 17.164274215698242 17.565584182739258 17.683860778808594 17.726869583129883 17.69072914123535 17.305513381958008 17.09676742553711 16.961013793945312 16.82449722290039 16.67411231994629 16.546052932739258 16.49077033996582 -9999
-9999 12.587322235107422 12.870623588562012 13.510579109191895 14.333915710449219 15.235544204711914 16.137956619262695 16.919078826904297 17.287992477416992 17.436614990234375 17.491275787353516 17.473581314086914 17.35393524169922 17.269079208374023 17.198287963867188 17.11763572692871 17.007017135620117 16.92242431640625 16.91783332824707 -9999
-9999 13.466663360595703 13.829557418823242 14.538594245910645 15.284521102905273 15.948704719543457 16.515926361083984 16.957767486572266 17.22039222717285 17.3439884185791 17.396883010864258 17.409610748291016 17.397958755493164 17.391633987426758 17.38803482055664 17.352975845336914 17.27062225341797 17.157623291015625 17.19428825378418 -9999
-9999 14.355777740478516 14.731051445007324 15.414860725402832 16.043930053710938 16.506261825561523 16.84438133239746 17.093053817749023 17.24542999267578 17.33135414123535 17.375629425048828 17.40692901611328 17.435909271240234 17.469507217407227 17.511377334594727 17.525066375732422 17.49427032470703 17.363937377929688 -9999 -9999
-9999 14.988166809082031 15.362630844116211 15.980222702026367 16.503875732421875 16.857961654663086 17.076019287109375 17.214801788330078 17.294187545776367 17.344329833984375 17.374919891357422 17.409629821777344 17.453678131103516 17.504980087280273 17.559974670410156 17.608600616455078 17.641883850097656 17.7167911529541 -9999 -9999
-9999 15.37497615814209 15.805319786071777 16.322132110595703 16.761207580566406 17.072277069091797 17.231231689453125 17.32060432434082 17.362564086914062 17.38829803466797 17.406673431396484 17.435060501098633 17.475927352905273 17.52244758605957 17.575544357299805 17.6272029876709 17.66938018798828 17.699264526367188 17.639389038085938 17.648639678955078
-9999 -9999 16.245410919189453 16.5687255859375 16.91918182373047 17.18979263305664 17.33948516845703 17.41211700439453 17.43850326538086 17.44855499267578 17.451400756835938 17.469324111938477 17.499467849731445 17.54706573486328 17.58975601196289 17.623619079589844 17.658645629882812 17.6773624420166 17.669170379638672 17.640945434570312
-9999 -9999 16.55401039123535 16.769624710083008 17.035999298095703 17.281139373779297 17.43369483947754 17.50489044189453 17.523984909057617 17.516006469726562 17.4979190826416 17.507230758666992 17.532825469970703 17.571813583374023 17.59861946105957 17.617162704467773 17.638410568237305 17.646421432495117 17.618228912353516 17.601329803466797
-9999 -9999 -9999 16.89630699157715 17.09740447998047 17.318201065063477 17.474285125732422 17.543819427490234 17.553096771240234 17.535945892333984 17.51650619506836 17.513092041015625 17.536861419677734 17.572555541992188 17.599502563476562 17.6059513092041 17.62879753112793 17.60934066772461 17.588834762573242 17.57889747619629
