ncols         20
nrows         20
xllcorner     0
yllcorner     -3.5992928
cellsize      0.17996463
NODATA_value  -9999
-9999.0 -9999 -9999 -9999 -9999 -9999 -9999 -9999 -9999 -9999 -9999 -9999 -9999 -9999 -9999 -9999 -9999 -9999 -9999 -9999
-9999 -9999 -9999 -9999 -9999 -9999 -9999 -9999 -9999 -9999 -9999 1.2758700847625732 1.2727543115615845 -9999 -9999 1.3264988660812378 1.295406699180603 -9999 -9999 -9999
-9999 -9999 -9999 -9999 1.2691558599472046 1.291877269744873 1.3283398151397705 1.3416506052017212 1.3418492078781128 1.3474739789962769 1.3196762800216675 1.3288275003433228 1.3527891635894775 1.3732483386993408 1.3696430921554565 1.3536708354949951 1.322774052619934 1.295602798461914 -9999 -9999
-9999 -9999 -9999 1.2915571928024292 1.312653660774231 1.3375110626220703 1.3643503189086914 1.373865008354187 1.379189133644104 1.380954623222351 1.3904956579208374 1.407883644104004 1.4321041107177734 1.4466707706451416 1.4573438167572021 1.442124605178833 1.4016538858413696 1.3665437698364258 -9999 -9999
-9999 -9999 -9999 1.3258464336395264 1.3550901412963867 1.4048963785171509 1.429150938987732 1.4279392957687378 1.4059903621673584 1.3706486225128174 1.3244457244873047 1.305776596069336 1.3364768028259277 1.406613826751709 1.478177547454834 1.5107125043869019 1.4942917823791504 1.4967905282974243 -9999 -9999
-9999 -9999 1.3266088962554932 1.3672128915786743 1.4183317422866821 1.4623926877975464 1.461391568183899 1.4229539632797241 1.3346713781356812 1.1752402782440186 0.9966933727264404 0.9082100987434387 0.9389440417289734 1.0986807346343994 1.3105930089950562 1.4468334913253784 1.5173169374465942 1.5356431007385254 1.502031683921814 -9999
-9999 -9999 1.3616374731063843 1.408657193183899 1.4840102195739746 1.5120346546173096 1.4745179414749146 1.3710237741470337 1.159834623336792 0.8757485151290894 0.628760814666748 0.5099837779998779 0.5271432399749756 0.691065788269043 0 1.2396565675735474 1.4214519262313843 1.4972169399261475 1.5141669511795044 -9999
-9999 -9999 1.4408267736434937 1.4997788667678833 1.5568169355392456 1.534245252609253 1.4263806343078613 1.2003378868103027 0.8899673223495483 0.5837871432304382 0.3787369430065155 0.28203055262565613 0.2825951874256134 0.381084680557251 0.5944442749023438 0.883790910243988 1.1506260633468628 1.336614727973938 1.4075099229812622 -9999
-9999 1.4662789106369019 1.5372815132141113 1.5872657299041748 1.5847529172897339 1.4625554084777832 1.2097688913345337 0.8699862360954285 0.5539035201072693 0.33142343163490295 0.21031825244426727 0.15594065189361572 0.14957277476787567 0.19598805904388428 0.31212317943573 0 0.7767621278762817 1.001872181892395 1.1186915636062622 -9999
-9999 1.554796814918518 1.6094552278518677 1.6206750869750977 1.4947266578674316 1.2103379964828491 0.8308253884315491 0.48430317640304565 0.26073065400123596 0.14720740914344788 0.09756908565759659 0.07569782435894012 0.07300521433353424 0.08965322375297546 0.1399182230234146 0 0.4101007282733917 0.5927884578704834 0.699420690536499 -9999
-9999 1.6382650136947632 1.6428641080856323 1.5371074676513672 1.281171202659607 0.8871200680732727 0.4884797930717468 0.21993811428546906 0.09743010997772217 0.05081440880894661 0.03362395241856575 0.027279743924736977 0.026552453637123108 0.03181402012705803 0.04782874882221222 0.08628839254379272 0.15665124356746674 0.25511056184768677 0.3172207176685333 -9999
-9999 1.6138821840286255 1.5480520725250244 1.3237216472625732 0.9719646573066711 0.5791780352592468 0.2623790204524994 0.09447633475065231 0.034203555434942245 0.01510835811495781 0.009097466245293617 0.006947366055101156 0 0 0.010719986632466316 0 0.04106469824910164 0.07436218857765198 0.09681016206741333 -9999
-9999 1.4075002670288086 1.2765090465545654 0.9522490501403809 0.6081297397613525 0.31647077202796936 0.1262814700603485 0.03907300904393196 0.011662702076137066 0.004444655030965805 0.0018912400119006634 0.001208469388075173 0 0 0 0.002589807379990816 0.00686677498742938 0.014628168195486069 0.021187637001276016 -9999
-9999 1.0588505268096924 0.8799526691436768 0.5461917519569397 0.2888452708721161 0.13111098110675812 0.048313744366168976 0.0142349349334836 0.003559396369382739 0.0012561383191496134 0.0005671846447512507 0.00033319316571578383 0 0 0 0.0003351062478031963 0.0006974261486902833 0.0018618979956954718 0.0033024277072399855 -9999
-9999 0.7199355959892273 0.5478760600090027 0.27477672696113586 0.11390112340450287 0.04390079155564308 0.015062673948705196 0.004108864348381758 0.0012822076678276062 0.0005077048554085195 0.0002564791066106409 0.000152084743604064 0.00010474461305420846 8.478042582282797E-05 0 0 0.00011357066250639036 0.00024320022203028202 -9999 -9999
-9999 0.5127626657485962 0.3600388765335083 0.15003333985805511 0.04986666515469551 0.015228536911308765 0.004415290430188179 0.0014135994715616107 0.0005609821528196335 0.0002678843738976866 0 0 0 0.00010380871390225366 0 0 0.00016744327149353921 0 -9999 -9999
-9999 0.38463863730430603 0.24765555560588837 0.09573636204004288 0.02692089043557644 0.005772361997514963 0.0016567336861044168 0.0005815269541926682 0.0002673666749615222 0 0 0 0 0.00017006970301736146 0.00021010005730204284 0.0002470343897584826 0.00027985285851173103 0.00031676687649451196 0 0
-9999 -9999 0.15229597687721252 0.06481584161520004 0.01674981229007244 0.003148909192532301 0.000804466602858156 0.00028716298402287066 0 0 0 0 0 0 0 0 0 0 0 0
-9999 -9999 0.07870501279830933 0.03989078849554062 0.010755970142781734 0.0018756779609248042 0.00044304938637651503 0.00015413893561344594 0 0 0 0 0 0 0 0 0 0 0 0
-9999 -9999 -9999 0.02759600430727005 0.0076789213344454765 0.0014520471449941397 0.000333642412442714 0.00011606004409259185 0 0 0 0 0 0 0 0 0 0 0 0
