ncols         20
nrows         20
xllcorner     0
yllcorner     -3.5992928
cellsize      0.17996463
NODATA_value  -9999
-9999.0 -9999 -9999 -9999 -9999 -9999 -9999 -9999 -9999 -9999 -9999 -9999 -9999 -9999 -9999 -9999 -9999 -9999 -9999 -9999
-9999 -9999 -9999 -9999 -9999 -9999 -9999 -9999 -9999 -9999 -9999 13.11967945098877 13.127923965454102 -9999 -9999 13.02047061920166 13.09744930267334 -9999 -9999 -9999
-9999 -9999 -9999 -9999 13.049860000610352 13.003908157348633 12.919086456298828 12.886767387390137 12.888716697692871 12.890375137329102 12.994133949279785 12.995413780212402 12.9434232711792 12.900071144104004 12.926121711730957 12.969785690307617 13.037734031677246 13.09099006652832 -9999 -9999
-9999 -9999 -9999 12.998969078063965 12.98033332824707 12.96587085723877 12.94824504852295 12.944380760192871 12.92675495147705 12.904190063476562 12.87350082397461 12.832122802734375 12.782045364379883 12.775176048278809 12.780014991760254 12.813139915466309 12.859925270080566 12.896367073059082 -9999 -9999
-9999 -9999 -9999 12.955183029174805 12.969846725463867 12.996879577636719 13.098808288574219 13.153707504272461 13.167529106140137 13.154754638671875 13.13957405090332 13.115947723388672 13.06267261505127 12.99821662902832 12.912158012390137 12.822548866271973 12.68653678894043 12.551791191101074 -9999 -9999
-9999 -9999 12.909912109375 12.921926498413086 13.011191368103027 13.2371187210083 13.639981269836426 13.808755874633789 13.89065933227539 13.995634078979492 14.126664161682129 14.1983003616333 14.146276473999023 13.96640682220459 13.707725524902344 13.367575645446777 12.764664649963379 12.426658630371094 12.343196868896484 -9999
-9999 -9999 12.857534408569336 12.956077575683594 13.1790132522583 13.632816314697266 13.964757919311523 14.182478904724121 14.405584335327148 14.691463470458984 14.973867416381836 15.13132095336914 15.096270561218262 14.852157592773438 14.430879592895508 13.888163566589355 13.095341682434082 12.574239730834961 12.341935157775879 -9999
-9999 -9999 12.682311058044434 12.95987319946289 13.4386568069458 13.818388938903809 14.136226654052734 14.47319221496582 14.86349105834961 15.273682594299316 15.606287002563477 15.791118621826172 15.78421401977539 15.571263313293457 15.158527374267578 14.581339836120605 13.869708061218262 13.096821784973145 12.67972469329834 -9999
-9999 12.168726921081543 12.363563537597656 13.031886100769043 13.493502616882324 13.907063484191895 14.368501663208008 14.883672714233398 15.392187118530273 15.819010734558105 16.11064910888672 16.26604461669922 16.2805118560791 16.13296890258789 15.81181812286377 15.302250862121582 14.690694808959961 14.022806167602539 13.449936866760254 -9999
-9999 11.876473426818848 12.047452926635742 12.88827896118164 13.515323638916016 14.13986873626709 14.81330394744873 15.469196319580078 15.998401641845703 16.354440689086914 16.556119918823242 16.65688133239746 16.667064666748047 16.582067489624023 16.36625099182129 15.986522674560547 15.489295959472656 14.914435386657715 14.428888320922852 -9999
-9999 11.519036293029785 11.740898132324219 12.82079029083252 13.695284843444824 14.533675193786621 15.361695289611816 16.072021484375 16.550434112548828 16.81829833984375 16.94704818725586 16.99738883972168 16.992204666137695 16.944272994995117 16.827768325805664 16.589290618896484 16.235408782958984 15.768782615661621 15.467339515686035 -9999
-9999 11.339597702026367 11.704612731933594 13.012410163879395 14.084165573120117 15.02912712097168 15.882390975952148 16.543180465698242 16.94342041015625 17.14875030517578 17.233016967773438 17.25299835205078 17.214359283447266 17.191444396972656 17.165239334106445 17.039100646972656 16.84908103942871 16.56951904296875 16.40532875061035 -9999
-9999 11.557175636291504 12.156726837158203 13.600067138671875 14.720352172851562 15.618647575378418 16.352628707885742 16.887285232543945 17.19927406311035 17.347585678100586 17.4146728515625 17.425683975219727 17.390727996826172 17.380590438842773 17.376644134521484 17.362987518310547 17.268409729003906 17.11955451965332 17.03948402404785 -9999
-9999 12.328845977783203 13.075897216796875 14.492036819458008 15.532672882080078 16.261316299438477 16.787551879882812 17.14608383178711 17.357633590698242 17.456172943115234 17.500083923339844 17.513141632080078 17.499614715576172 17.507366180419922 17.52490997314453 17.54554557800293 17.513446807861328 17.4197940826416 17.396953582763672 -9999
-9999 13.334443092346191 14.055679321289062 15.348946571350098 16.255081176757812 16.79627799987793 17.127159118652344 17.335914611816406 17.448244094848633 17.503646850585938 17.526824951171875 17.54611587524414 17.56464958190918 17.589641571044922 17.608232498168945 17.63113784790039 17.64153480529785 17.575138092041016 -9999 -9999
-9999 14.078673362731934 14.765474319458008 15.924261093139648 16.702041625976562 17.12602996826172 17.337446212768555 17.446773529052734 17.495603561401367 17.513065338134766 17.50828742980957 17.525463104248047 17.559083938598633 17.605791091918945 17.63190460205078 17.66533851623535 17.698537826538086 17.740949630737305 -9999 -9999
-9999 14.580848693847656 15.291651725769043 16.270496368408203 16.945453643798828 17.312440872192383 17.455345153808594 17.514867782592773 17.527185440063477 17.516807556152344 17.514341354370117 17.529052734375 17.56032943725586 17.60577392578125 17.64112663269043 17.675037384033203 17.70442008972168 17.72368049621582 17.685596466064453 17.697874069213867
-9999 -9999 15.872506141662598 16.528820037841797 17.093826293945312 17.40509796142578 17.523792266845703 17.559934616088867 17.549293518066406 17.540311813354492 17.53398323059082 17.543825149536133 17.5662841796875 17.604007720947266 17.63566780090332 17.660932540893555 17.687917709350586 17.705270767211914 17.706148147583008 17.688190460205078
-9999 -9999 16.367958068847656 16.767000198364258 17.205615997314453 17.47243309020996 17.576974868774414 17.605459213256836 17.589109420776367 17.573211669921875 17.55951690673828 17.566160202026367 17.58544921875 17.61543083190918 17.63685417175293 17.652721405029297 17.671640396118164 17.68158721923828 17.663654327392578 17.65261459350586
-9999 -9999 -9999 16.92802619934082 17.264493942260742 17.497711181640625 17.597923278808594 17.623571395874023 17.601049423217773 17.582763671875 17.570226669311523 17.569196701049805 17.587228775024414 17.6146297454834 17.636432647705078 17.643634796142578 17.664405822753906 17.65239715576172 17.638927459716797 17.632469177246094
