ncols         20
nrows         20
xllcorner     0
yllcorner     -3.5992928
cellsize      0.17996463
NODATA_value  -9999
-9999.0 -9999 -9999 -9999 -9999 -9999 -9999 -9999 -9999 -9999 -9999 -9999 -9999 -9999 -9999 -9999 -9999 -9999 -9999 -9999
-9999 -9999 -9999 -9999 -9999 -9999 -9999 -9999 -9999 -9999 -9999 0 0 -9999 -9999 0 0 -9999 -9999 -9999
-9999 -9999 -9999 -9999 0 0 0 0 0 0 0 0 0 0 0 0 0 0 -9999 -9999
-9999 -9999 -9999 0 0 0 0 0 0 0 0 0 0 0 0 0 0 0 -9999 -9999
-9999 -9999 -9999 0 0 0 0 0 0 0 0 0 0 0 0 0 0 0 -9999 -9999
-9999 -9999 0 0 0 0 3.9005985260009766 3.6650288105010986 3.4983911514282227 3.337111234664917 3.186959981918335 3.125910520553589 3.1876168251037598 3.3853280544281006 3.6716020107269287 4.0420002937316895 0 0 0 -9999
-9999 -9999 0 0 0 3.8301503658294678 3.4587008953094482 3.1879239082336426 2.9343454837799072 2.667112112045288 2.429924488067627 2.313192844390869 2.3608031272888184 2.5843758583068848 0.32754281163215637 3.4408087730407715 0 0 0 -9999
-9999 -9999 0 0 3.9138567447662354 3.4902877807617188 3.1353328227996826 2.8013756275177 2.467236280441284 2.145512580871582 1.9003247022628784 1.7721151113510132 1.7964179515838623 1.982391357421875 2.32193660736084 2.795490026473999 3.3730900287628174 0 0 -9999
-9999 0 0 4.151439189910889 3.6621241569519043 3.2305877208709717 2.8081514835357666 2.389465093612671 2.0082461833953857 1.7022536993026733 1.5021518468856812 1.402602195739746 1.4072167873382568 1.5362087488174438 1.7915492057800293 0.4847759008407593 2.675929546356201 3.199927806854248 0 -9999
-9999 0 0 4.044113636016846 3.4692914485931396 2.928821086883545 2.4029905796051025 1.9243046045303345 1.5513707399368286 1.306706428527832 1.1741690635681152 1.1124670505523682 1.1177140474319458 1.195305347442627 1.369713544845581 0.3675703704357147 2.0575108528137207 2.506283760070801 0 -9999
-9999 0 0 3.928166627883911 3.230510711669922 2.588426351547241 1.9912734031677246 1.496960997581482 1.1701008081436157 0.9885607361793518 0.9012200236320496 0.8679776787757874 0.8738574981689453 0.9230056405067444 1.032301902770996 1.227928876876831 1.5205808877944946 0 0 -9999
-9999 0 0 3.6915340423583984 2.9064559936523438 2.2251267433166504 1.6308469772338867 1.1819723844528198 0.9140742421150208 0.7753528952598572 0.713698148727417 0.6898044943809509 0.3081088960170746 0.3997358977794647 0.7798579335212708 0.1992240697145462 1.0891188383102417 0 0 -9999
-9999 0 0 3.2597029209136963 2.469261884689331 1.8310608863830566 1.32094144821167 0.9584106802940369 0.7520365715026855 0.6533905267715454 0.6031627058982849 0.5847094058990479 0.38880085945129395 0.5303366184234619 0.41996151208877563 0.6915938258171082 0.8056432008743286 0 0 -9999
-9999 0 0 2.683359146118164 1.9508296251296997 1.423545002937317 1.0451407432556152 0.7946900129318237 0.6508042216300964 0.5843161344528198 0.5520835518836975 0.538438618183136 0.23829123377799988 0.42306745052337646 0.37500929832458496 0.5971416234970093 0.6577836275100708 0 0 -9999
-9999 0 0 2.139730453491211 1.4995876550674438 1.09513258934021 0.8389537334442139 0.6782739162445068 0.592872142791748 0.5486329793930054 0.526293158531189 0.5159428715705872 0.5140773057937622 0.5194745659828186 0.3546515703201294 0.30784299969673157 0.589715838432312 0 -9999 -9999
-9999 0 0 1.762010097503662 1.2163331508636475 0.894859790802002 0.7142664790153503 0.613690197467804 0.5590125918388367 0.5281821489334106 0.34105977416038513 0.3916410803794861 0.05583631992340088 0.5090446472167969 0.23123985528945923 0.2387200891971588 0.561025857925415 0.08348453789949417 -9999 -9999
-9999 0 0 1.5216193199157715 1.0517849922180176 0.778318464756012 0.6475122570991516 0.5764533281326294 0.5371788740158081 0.34287476539611816 0.4458371698856354 0.4971325695514679 0.38771477341651917 0.503593921661377 0.5122315287590027 0.5245267152786255 0.5407533645629883 0.5562537908554077 0.3968870937824249 0.5561501383781433
-9999 -9999 0 1.3360068798065186 0.9452902674674988 0.7183767557144165 0.6106929779052734 0.5548291206359863 0.29092472791671753 0.4493919909000397 0.4981181025505066 0.4952211380004883 0.4409295320510864 0.38889551162719727 0.337735116481781 0.3436097800731659 0.35053813457489014 0.4168899357318878 0.4806487262248993 0.5424181818962097
-9999 -9999 0 0 0.8741650581359863 0.6797778010368347 0.58853679895401 0.5416063070297241 0.3445549011230469 0.5043691396713257 0.4972324073314667 0.49430182576179504 0.49476057291030884 0.4979360103607178 0.5031613707542419 0.5097988247871399 0.5170438885688782 0.5235323905944824 0.52747642993927 0.5292314291000366
-9999 -9999 -9999 0 0.830263078212738 0.662560760974884 0.5792807340621948 0.536284327507019 0.3439653217792511 0.5038804411888123 0.4969032108783722 0.4939418435096741 0.4942120313644409 0.49699467420578003 0.5015597343444824 0.5071746706962585 0.5130808353424072 0.5181369781494141 0.5215173363685608 0.5231519937515259
