ncols         20
nrows         20
xllcorner     0
yllcorner     -3.5992928
cellsize      0.17996463
NODATA_value  -9999
-9999.0 -9999 -9999 -9999 -9999 -9999 -9999 -9999 -9999 -9999 -9999 -9999 -9999 -9999 -9999 -9999 -9999 -9999 -9999 -9999
-9999 -9999 -9999 -9999 -9999 -9999 -9999 -9999 -9999 -9999 -9999 19.09605598449707 19.10442352294922 -9999 -9999 19.04743766784668 19.0483455657959 -9999 -9999 -9999
-9999 -9999 -9999 -9999 19.0428466796875 19.06077766418457 19.075666427612305 19.09942054748535 19.120637893676758 19.11782455444336 19.152498245239258 19.12963104248047 19.123748779296875 19.152650833129883 19.152088165283203 19.109477996826172 19.092161178588867 19.104938507080078 -9999 -9999
-9999 -9999 -9999 19.0587100982666 19.045930862426758 19.056182861328125 19.06490135192871 19.07587242126465 19.072898864746094 19.067337036132812 19.0477352142334 19.04660415649414 19.058237075805664 19.09836769104004 19.121580123901367 19.13562774658203 19.154132843017578 19.179763793945312 -9999 -9999
-9999 -9999 -9999 19.08559799194336 19.07448959350586 19.041507720947266 19.010841369628906 18.975170135498047 18.92788314819336 18.851932525634766 18.777637481689453 18.749462127685547 18.781082153320312 18.87710952758789 18.983089447021484 19.091201782226562 19.19461441040039 19.236099243164062 -9999 -9999
-9999 -9999 19.17217254638672 19.126718521118164 19.080974578857422 19.012380599975586 18.99651336669922 18.89228057861328 18.75156021118164 18.59480857849121 18.45330810546875 18.393457412719727 18.425630569458008 18.562271118164062 18.764488220214844 18.9894962310791 19.124223709106445 19.26795196533203 19.405105590820312 -9999
-9999 -9999 19.229694366455078 19.178314208984375 19.079914093017578 19.021217346191406 18.87412452697754 18.693893432617188 18.48738670349121 18.278121948242188 18.10317611694336 18.015552520751953 18.040264129638672 18.178625106811523 18.385051727294922 18.683704376220703 18.910518646240234 19.154277801513672 19.289033889770508 -9999
-9999 -9999 19.324838638305664 19.215595245361328 19.122304916381836 18.936904907226562 18.710065841674805 18.469846725463867 18.232574462890625 18.01578140258789 17.85384750366211 17.7673282623291 17.777584075927734 17.888099670410156 18.08207893371582 18.34770393371582 18.64632225036621 18.862003326416016 19.025699615478516 -9999
-9999 19.58523941040039 19.448652267456055 19.320453643798828 19.063432693481445 18.782102584838867 18.493656158447266 18.214981079101562 17.976118087768555 17.790691375732422 17.667991638183594 17.604934692382812 17.605398178100586 17.676851272583008 17.81605339050293 18.006139755249023 18.282291412353516 18.53537940979004 18.6434326171875 -9999
-9999 19.618581771850586 19.553007125854492 19.31006622314453 18.946399688720703 18.58289337158203 18.243240356445312 17.955595016479492 17.741382598876953 17.599903106689453 17.51906394958496 17.48111343383789 17.479997634887695 17.52120018005371 17.609516143798828 17.734786987304688 17.947872161865234 18.143409729003906 18.234596252441406 -9999
-9999 19.629972457885742 19.581541061401367 19.237001419067383 18.779321670532227 18.36255645751953 18.0081787109375 17.739538192749023 17.561187744140625 17.45798110961914 17.40488624572754 17.37995147705078 17.373769760131836 17.395421981811523 17.452392578125 17.542198181152344 17.676856994628906 17.79205894470215 17.876802444458008 -9999
-9999 19.564390182495117 19.46226692199707 19.03004264831543 18.537813186645508 18.12765884399414 17.807397842407227 17.581783294677734 17.444944381713867 17.374950408935547 17.336448669433594 17.31224250793457 17.270225524902344 17.276208877563477 17.333084106445312 17.368436813354492 17.47220802307129 17.55159568786621 17.611583709716797 -9999
-9999 19.383939743041992 19.134225845336914 18.69455337524414 18.24148941040039 17.892887115478516 17.638015747070312 17.471038818359375 17.3797664642334 17.335187911987305 17.31277084350586 17.293170928955078 17.251724243164062 17.248046875 17.26272201538086 17.315086364746094 17.35573387145996 17.398035049438477 17.443349838256836 -9999
-9999 19.004316329956055 18.700939178466797 18.324501037597656 17.955163955688477 17.68718719482422 17.505735397338867 17.3951416015625 17.341333389282227 17.318744659423828 17.308408737182617 17.29962921142578 17.275728225708008 17.27801513671875 17.291261672973633 17.322265625 17.331777572631836 17.32200813293457 17.394325256347656 -9999
-9999 18.57391357421875 18.319961547851562 18.02426528930664 17.739347457885742 17.541751861572266 17.4196720123291 17.35309600830078 17.32295799255371 17.312013626098633 17.30481719970703 17.307466506958008 17.31475257873535 17.32735824584961 17.333101272583008 17.345664978027344 17.365650177001953 17.309492111206055 -9999 -9999
-9999 18.26583480834961 18.050739288330078 17.82215118408203 17.59996223449707 17.45709228515625 17.3743953704834 17.33547019958496 17.31427764892578 17.30134391784668 17.278766632080078 17.285093307495117 17.306428909301758 17.344226837158203 17.357040405273438 17.378902435302734 17.39950942993164 17.45085906982422 -9999 -9999
-9999 18.107662200927734 17.87022590637207 17.688369750976562 17.51761245727539 17.41754150390625 17.359695434570312 17.335214614868164 17.31560516357422 17.29096031188965 17.285076141357422 17.29566192626953 17.31978988647461 17.35483741760254 17.37943458557129 17.402559280395508 17.421247482299805 17.439430236816406 17.410886764526367 17.435178756713867
-9999 -9999 17.67051887512207 17.58184814453125 17.46843147277832 17.394865036010742 17.359451293945312 17.34168243408203 17.31468963623047 17.306102752685547 17.304065704345703 17.31450843811035 17.33211326599121 17.362953186035156 17.38724136352539 17.404016494750977 17.423898696899414 17.437761306762695 17.451099395751953 17.432592391967773
-9999 -9999 17.62181854248047 17.514774322509766 17.438961029052734 17.39204978942871 17.372089385986328 17.362934112548828 17.343746185302734 17.336505889892578 17.327924728393555 17.338258743286133 17.35574722290039 17.381954193115234 17.398517608642578 17.410844802856445 17.424503326416016 17.436786651611328 17.420129776000977 17.414867401123047
-9999 -9999 -9999 17.448604583740234 17.416305541992188 17.385398864746094 17.376081466674805 17.370620727539062 17.351633071899414 17.34345817565918 17.338760375976562 17.3408203125 17.359031677246094 17.383926391601562 17.404664993286133 17.40880012512207 17.430713653564453 17.41824722290039 17.411317825317383 17.408924102783203
