ncols         20
nrows         20
xllcorner     0
yllcorner     -3.5992928
cellsize      0.17996463
NODATA_value  -9999
-9999.0 -9999 -9999 -9999 -9999 -9999 -9999 -9999 -9999 -9999 -9999 -9999 -9999 -9999 -9999 -9999 -9999 -9999 -9999 -9999
-9999 -9999 -9999 -9999 -9999 -9999 -9999 -9999 -9999 -9999 -9999 0.9261018633842468 0.9050126075744629 -9999 -9999 0.8022478222846985 0.7518006563186646 -9999 -9999 -9999
-9999 -9999 -9999 -9999 1.0632778406143188 1.1289626359939575 1.2433280944824219 1.3228367567062378 1.3570446968078613 1.3630584478378296 1.2100929021835327 1.1021019220352173 1.0827869176864624 1.0659433603286743 0.9633883237838745 0.8520984053611755 0.7702676653862 0.7135063409805298 -9999 -9999
-9999 -9999 -9999 1.0044456720352173 1.0812677145004272 1.171346664428711 1.2927404642105103 1.3988579511642456 1.5025240182876587 1.5742021799087524 1.6011097431182861 1.5547490119934082 1.4992003440856934 1.3645861148834229 1.1919658184051514 1.0059492588043213 0.862354576587677 0.7839125394821167 -9999 -9999
-9999 -9999 -9999 0.9877737760543823 1.0731242895126343 1.2337167263031006 1.4143686294555664 1.6061375141143799 1.8258684873580933 2.1038734912872314 2.3514931201934814 2.4337496757507324 2.3169620037078857 1.9860923290252686 1.6342177391052246 1.288944959640503 1.0425177812576294 0.974783182144165 -9999 -9999
-9999 -9999 0.7918136119842529 0.9208334684371948 1.0696220397949219 1.2767114639282227 1.5105162858963013 1.7861137390136719 2.1857194900512695 2.6714978218078613 3.1559550762176514 3.3446264266967773 3.226557493209839 2.752401113510132 2.1676127910614014 1.6564055681228638 1.2964284420013428 1.1400065422058105 1.0076900720596313 -9999
-9999 -9999 0.7663547396659851 0.8690829277038574 1.0738075971603394 1.3383995294570923 1.6247304677963257 1.9907646179199219 2.490800142288208 3.083355188369751 3.6366074085235596 3.8994359970092773 3.7974915504455566 3.3423290252685547 2.7516636848449707 2.0919013023376465 1.6244927644729614 1.3347545862197876 1.2075456380844116 -9999
-9999 -9999 0.7617643475532532 0.8929839134216309 1.1477503776550293 1.4592392444610596 1.8255888223648071 2.253960132598877 2.7356348037719727 3.2507102489471436 3.6427409648895264 3.8523924350738525 3.7955992221832275 3.4839086532592773 3.0054538249969482 2.4464852809906006 1.9661386013031006 1.6205954551696777 1.4770294427871704 -9999
-9999 0.6120169758796692 0.7678268551826477 0.9699200987815857 1.3066895008087158 1.7138516902923584 2.1344854831695557 2.5782859325408936 2.9727132320404053 3.2752573490142822 3.4419145584106445 3.5142736434936523 3.4908242225646973 3.3268837928771973 3.062382221221924 2.7105212211608887 2.2332587242126465 1.8878813982009888 1.738324761390686 -9999
-9999 0.6720583438873291 0.8155843615531921 1.1154792308807373 1.5412834882736206 2.0202059745788574 2.4799928665161133 2.871156930923462 3.1136269569396973 3.198551654815674 3.1743857860565186 3.1407337188720703 3.0998244285583496 3.035365343093872 2.9138708114624023 2.7446444034576416 2.3737411499023438 2.084549903869629 1.9572988748550415 -9999
-9999 0.793873131275177 0.9503899216651917 1.2895879745483398 1.7315526008605957 2.2064149379730225 2.642630100250244 2.9450266361236572 3.033625841140747 2.976585865020752 2.876021385192871 2.8013534545898438 2.768587112426758 2.7356960773468018 2.6767077445983887 2.5766355991363525 2.3813302516937256 2.1820547580718994 2.09027099609375 -9999
-9999 0.9872193336486816 1.145946979522705 1.4957908391952515 1.9001487493515015 2.285975694656372 2.608994960784912 2.770752429962158 2.7369370460510254 2.6129839420318604 2.4979565143585205 2.443963050842285 2.4829421043395996 2.476911783218384 2.4146952629089355 2.4027702808380127 2.2716896533966064 2.160510778427124 2.108466625213623 -9999
-9999 1.252441167831421 1.4217095375061035 1.76179838180542 2.065152883529663 2.3081676959991455 2.4621593952178955 2.4806416034698486 2.359910488128662 2.198402166366577 2.0785465240478516 2.0268146991729736 2.067141056060791 2.0716137886047363 2.0630393028259277 2.029920816421509 2.0200753211975098 2.0084328651428223 1.9925795793533325 -9999
-9999 1.54111647605896 1.7003101110458374 1.9947926998138428 2.1931402683258057 2.277473211288452 2.2669997215270996 2.1644411087036133 1.9969395399093628 1.8242733478546143 1.7003933191299438 1.6337088346481323 1.6301716566085815 1.6075979471206665 1.5851812362670898 1.5683000087738037 1.6284751892089844 1.7499061822891235 1.80642569065094 -9999
-9999 1.7292729616165161 1.8512266874313354 2.076892375946045 2.171128988265991 2.127858877182007 2.010100841522217 1.8520605564117432 1.6767644882202148 1.5289591550827026 1.4268908500671387 1.345521092414856 1.2812539339065552 1.22319757938385 1.1885064840316772 1.1701449155807495 1.187821626663208 1.3367788791656494 -9999 -9999
-9999 1.7628223896026611 1.83771812915802 1.9855570793151855 1.9922319650650024 1.8813616037368774 1.726223349571228 1.5597538948059082 1.4229792356491089 1.3242498636245728 1.2693265676498413 1.191304087638855 1.0983635187149048 0.9903557896614075 0.92662513256073 0.8686251044273376 0.8344323635101318 0.763784646987915 -9999 -9999
-9999 1.7739585638046265 1.75162672996521 1.815565824508667 1.773378849029541 1.6325256824493408 1.4619823694229126 1.3137165307998657 1.2181123495101929 1.1672136783599854 1.1148090362548828 1.0408554077148438 0.9452043175697327 0.8386620879173279 0.7540799379348755 0.6832008361816406 0.6305259466171265 0.5870529413223267 0.5769257545471191 0.5255123376846313
-9999 -9999 1.6019130945205688 1.635739803314209 1.578241229057312 1.4246220588684082 1.2510170936584473 1.1212983131408691 1.0609616041183472 1.0140467882156372 0.9697859883308411 0.9081993699073792 0.8301173448562622 0.7311427593231201 0.6493531465530396 0.5894443392753601 0.5334378480911255 0.4981418251991272 0.4748648405075073 0.5019840002059937
-9999 -9999 1.5647051334381104 1.5127794742584229 1.4323558807373047 1.266910433769226 1.0895236730575562 0.9637483358383179 0.9081882834434509 0.8716346621513367 0.8505292534828186 0.8001696467399597 0.7293564081192017 0.6419917345046997 0.5755325555801392 0.5283534526824951 0.48791638016700745 0.46665751934051514 0.500511109828949 0.5200262069702148
-9999 -9999 -9999 1.4101306200027466 1.353154182434082 1.1906111240386963 1.012445330619812 0.8899459838867188 0.8395899534225464 0.8126940131187439 0.7934858202934265 0.7593934535980225 0.6919777989387512 0.609144926071167 0.5401624441146851 0.5079211592674255 0.4624892771244049 0.4868585169315338 0.5158044695854187 0.5321810245513916
