ncols         20
nrows         20
xllcorner     0
yllcorner     -3.5992928
cellsize      0.17996463
NODATA_value  -9999
-9999.0 -9999 -9999 -9999 -9999 -9999 -9999 -9999 -9999 -9999 -9999 -9999 -9999 -9999 -9999 -9999 -9999 -9999 -9999 -9999
-9999 -9999 -9999 -9999 -9999 -9999 -9999 -9999 -9999 -9999 -9999 13.212562561035156 13.21826171875 -9999 -9999 13.060104370117188 13.133529663085938 -9999 -9999 -9999
-9999 -9999 -9999 -9999 13.104310989379883 13.070082664489746 13.003297805786133 12.990869522094727 13.010055541992188 13.022104263305664 13.125887870788574 13.113578796386719 13.053987503051758 13.004602432250977 13.013015747070312 13.031644821166992 13.087886810302734 13.139045715332031 -9999 -9999
-9999 -9999 -9999 13.047039985656738 13.037750244140625 13.03999137878418 13.043593406677246 13.06152057647705 13.062085151672363 13.052014350891113 13.023703575134277 12.978342056274414 12.921792030334473 12.903285026550293 12.889448165893555 12.90274429321289 12.934981346130371 12.964274406433105 -9999 -9999
-9999 -9999 -9999 13.00929069519043 13.037787437438965 13.086215019226074 13.211215019226074 13.286503791809082 13.314000129699707 13.31268310546875 13.299798965454102 13.272839546203613 13.21374225616455 13.141478538513184 13.042935371398926 12.943537712097168 12.797452926635742 12.655074119567871 -9999 -9999
-9999 -9999 12.961042404174805 12.984034538269043 13.094090461730957 13.343896865844727 13.764632225036621 13.94604206085205 14.039132118225098 14.146199226379395 14.267711639404297 14.330804824829102 14.27558708190918 14.10004997253418 13.844220161437988 13.504949569702148 12.910538673400879 12.572921752929688 12.504865646362305 -9999
-9999 -9999 12.917930603027344 13.032430648803711 13.279887199401855 13.754525184631348 14.101037979125977 14.333020210266113 14.561080932617188 14.836600303649902 15.097177505493164 15.23802661895752 15.201059341430664 14.969584465026855 14.564407348632812 14.035916328430176 13.259360313415527 12.746597290039062 12.524771690368652 -9999
-9999 -9999 12.755596160888672 13.053627967834473 13.556456565856934 13.952491760253906 14.286126136779785 14.631376266479492 15.016936302185059 15.407856941223145 15.716676712036133 15.882560729980469 15.87192440032959 15.670740127563477 15.27816104888916 14.723388671875 14.032333374023438 13.281790733337402 12.876364707946777 -9999
-9999 12.202239036560059 12.443150520324707 13.140830993652344 13.625859260559082 14.050894737243652 14.519403457641602 15.029207229614258 15.522026062011719 15.92811393737793 16.20185089111328 16.343666076660156 16.352466583251953 16.21162986755371 15.906242370605469 15.420727729797363 14.837700843811035 14.196869850158691 13.646273612976074 -9999
-9999 11.914056777954102 12.139455795288086 13.00757122039795 13.648439407348633 14.277402877807617 14.94212532043457 15.577634811401367 16.084157943725586 16.423599243164062 16.6168270111084 16.711280822753906 16.71820640563965 16.634981155395508 16.42961883544922 16.069717407226562 15.60431957244873 15.062019348144531 14.60042667388916 -9999
-9999 11.56213665008545 11.844064712524414 12.941397666931152 13.824317932128906 14.655397415161133 15.458985328674316 16.13704490661621 16.59113883972168 16.846965789794922 16.971590042114258 17.019859313964844 17.0126953125 16.96539878845215 16.85523223876953 16.63193130493164 16.304462432861328 15.871182441711426 15.588841438293457 -9999
-9999 11.385025024414062 11.811057090759277 13.129226684570312 14.199902534484863 15.127546310424805 15.948951721191406 16.57600975036621 16.95540428161621 17.151872634887695 17.233196258544922 17.250415802001953 17.207387924194336 17.183082580566406 17.159955978393555 17.040782928466797 16.869552612304688 16.614498138427734 16.46479034423828 -9999
-9999 11.600459098815918 12.255826950073242 13.699970245361328 14.809523582458496 15.68612003326416 16.390827178955078 16.89870834350586 17.19683074951172 17.34108543395996 17.406145095825195 17.414445877075195 17.374401092529297 17.36191177368164 17.357328414916992 17.345937728881836 17.257308959960938 17.120874404907227 17.053220748901367 -9999
-9999 12.415058135986328 13.165465354919434 14.563227653503418 15.584101676940918 16.292816162109375 16.799352645874023 17.14344024658203 17.349149703979492 17.446998596191406 17.490520477294922 17.50234031677246 17.486263275146484 17.493242263793945 17.510427474975586 17.530241012573242 17.495113372802734 17.40093994140625 17.39103126525879 -9999
-9999 13.417234420776367 14.127814292907715 15.391729354858398 16.274486541748047 16.800968170166016 17.122333526611328 17.32608413696289 17.437429428100586 17.493148803710938 17.515993118286133 17.535554885864258 17.55512809753418 17.58164405822754 17.601463317871094 17.623807907104492 17.630897521972656 17.55457305908203 -9999 -9999
-9999 14.151689529418945 14.82308292388916 15.949417114257812 16.70549774169922 17.11943817138672 17.327119827270508 17.435386657714844 17.483638763427734 17.500267028808594 17.493846893310547 17.512418746948242 17.549360275268555 17.600383758544922 17.629547119140625 17.665237426757812 17.699398040771484 17.747055053710938 -9999 -9999
-9999 14.641942977905273 15.336579322814941 16.286279678344727 16.9421329498291 17.302541732788086 17.44477081298828 17.504467010498047 17.515562057495117 17.503305435180664 17.50059700012207 17.517620086669922 17.55270767211914 17.601856231689453 17.640451431274414 17.677021026611328 17.70827293395996 17.728973388671875 17.68622589111328 17.69847297668457
-9999 -9999 15.90308952331543 16.53775405883789 17.086698532104492 17.39435577392578 17.514617919921875 17.551637649536133 17.539270401000977 17.529775619506836 17.523969650268555 17.535911560058594 17.561235427856445 17.602781295776367 17.637039184570312 17.663700103759766 17.692115783691406 17.709819793701172 17.709278106689453 17.689266204833984
-9999 -9999 16.381023406982422 16.768173217773438 17.19611930847168 17.462377548217773 17.570772171020508 17.601417541503906 17.584627151489258 17.568464279174805 17.553884506225586 17.56200408935547 17.583782196044922 17.61684799194336 17.639677047729492 17.655927658081055 17.6754150390625 17.68516731262207 17.66509437561035 17.652875900268555
-9999 -9999 -9999 16.92491340637207 17.253856658935547 17.487754821777344 17.592945098876953 17.62131118774414 17.59859275817871 17.579607009887695 17.566259384155273 17.565597534179688 17.586017608642578 17.616315841674805 17.63971710205078 17.646577835083008 17.668212890625 17.654499053955078 17.639568328857422 17.632423400878906
