ncols         20
nrows         20
xllcorner     0
yllcorner     -3.5992928
cellsize      0.17996463
NODATA_value  -9999
-9999.0 -9999 -9999 -9999 -9999 -9999 -9999 -9999 -9999 -9999 -9999 -9999 -9999 -9999 -9999 -9999 -9999 -9999 -9999 -9999
-9999 -9999 -9999 -9999 -9999 -9999 -9999 -9999 -9999 -9999 -9999 0.5253464579582214 0.5147331953048706 -9999 -9999 0.464991956949234 0.4360682964324951 -9999 -9999 -9999
-9999 -9999 -9999 -9999 0.5669551491737366 0.6050784587860107 0.6728355884552002 0.7250301241874695 0.7545555233955383 0.7687036991119385 0.6908681392669678 0.6338003277778625 0.6280333399772644 0.6266913414001465 0.5697531700134277 0.5025107860565186 0.45512616634368896 0.4250907003879547 -9999 -9999
-9999 -9999 -9999 0.5413607954978943 0.5824176669120789 0.63484787940979 0.7085067629814148 0.7780536413192749 0.8500011563301086 0.9059895873069763 0.9366305470466614 0.9214150309562683 0.897946298122406 0.8249312043190002 0.7249382138252258 0.6130383014678955 0.5266510844230652 0.48034414649009705 -9999 -9999
-9999 -9999 -9999 0.5412611365318298 0.5898209810256958 0.6844742298126221 0.7963566780090332 0.9217110872268677 1.0708303451538086 1.2611801624298096 1.4394325017929077 1.5151588916778564 1.4606107473373413 1.2643887996673584 1.0481469631195068 0.8294476866722107 0.6728268265724182 0.6316742300987244 -9999 -9999
-9999 -9999 0.4538802206516266 0.5215534567832947 0.6081964373588562 0.7353929877281189 0.8871533870697021 1.0749881267547607 1.35176682472229 1.6999160051345825 2.0618016719818115 2.2308976650238037 2.1849093437194824 1.8856227397918701 1.4975923299789429 1.1492631435394287 0.9042414426803589 0.8039556741714478 0.7344779968261719 -9999
-9999 -9999 0.4532930850982666 0.5139304995536804 0.6413413286209106 0.814453125 1.0138750076293945 1.2798001766204834 1.6565853357315063 2.1231679916381836 2.5849359035491943 2.844104528427124 2.821240186691284 2.5188148021698 0 1.599328637123108 1.2439868450164795 1.0262470245361328 0.9372921586036682 -9999
-9999 -9999 0.47798019647598267 0.5630008578300476 0.7350685000419617 0.9580116271972656 1.2364217042922974 1.5842610597610474 2.0011727809906006 2.4751412868499756 2.876546621322632 3.137519121170044 3.1628923416137695 2.951812744140625 2.575141668319702 2.1087913513183594 1.6913082599639893 1.3904025554656982 1.2678228616714478 -9999
-9999 0.4353031516075134 0.5272266268730164 0.66680908203125 0.9159455895423889 1.239659070968628 1.606034278869629 2.030278444290161 2.4547643661499023 2.8315868377685547 3.102699041366577 3.2847836017608643 3.3576464653015137 3.2654011249542236 3.044963836669922 0 2.215348243713379 1.8542637825012207 1.6980501413345337 -9999
-9999 0.5088621377944946 0.613613486289978 0.8473138213157654 1.2006645202636719 1.635650634765625 2.109813928604126 2.5840349197387695 2.9681332111358643 3.2192986011505127 3.356318473815918 3.4685616493225098 3.5458600521087646 3.5542361736297607 3.450768232345581 0 2.7783188819885254 2.402092456817627 2.233867883682251 -9999
-9999 0.6610966920852661 0.7941123247146606 1.092509150505066 1.5103586912155151 2.0165719985961914 2.5666704177856445 3.0639264583587646 3.3804173469543457 3.537606954574585 3.626404047012329 3.725764036178589 3.851292371749878 3.9043757915496826 3.843965768814087 3.6836585998535156 3.344097375869751 3.0033886432647705 2.8391029834747314 -9999
-9999 0.9157744646072388 1.070512056350708 1.4220647811889648 1.8731337785720825 2.381096839904785 2.916271924972534 3.3488988876342773 3.572319984436035 3.664991855621338 3.743067502975464 3.895961284637451 0 0 4.193760871887207 0 3.827692985534668 3.554131507873535 3.40907621383667 -9999
-9999 1.2924747467041016 1.4828736782073975 1.8882311582565308 2.3196871280670166 2.7645442485809326 3.186450958251953 3.4876604080200195 3.5930185317993164 3.60461163520813 3.6495347023010254 3.792708396911621 0 0 0 4.058226585388184 3.9587819576263428 3.845468044281006 3.723313331604004 -9999
-9999 1.751774549484253 1.9698799848556519 2.412616014480591 2.818239212036133 3.148561954498291 3.398960828781128 3.524717330932617 3.52012038230896 3.4799716472625732 3.480687141418457 3.5461738109588623 0 0 0 3.588151454925537 3.6274094581604004 3.7710468769073486 3.6853127479553223 -9999
-9999 2.150341033935547 2.375319004058838 2.8269431591033936 3.1798434257507324 3.3749032020568848 3.4604079723358154 3.460638999938965 3.413792133331299 3.377345561981201 3.3762664794921875 3.3404629230499268 3.274440050125122 3.164346933364868 0 0 2.970775604248047 3.267953634262085 -9999 -9999
-9999 2.3809754848480225 2.6020281314849854 3.025212526321411 3.2951598167419434 3.379088878631592 3.366598606109619 3.3232388496398926 3.3135666847229004 3.346977710723877 0 0 0 2.8031373023986816 0 0 2.2805871963500977 0 -9999 -9999
-9999 2.545604944229126 2.7345283031463623 3.0818710327148438 3.278747797012329 3.27234148979187 3.197307825088501 3.145688056945801 3.1886751651763916 0 0 0 0 2.534559488296509 2.2471179962158203 2.0041253566741943 1.8200029134750366 1.6828068494796753 0 0
-9999 -9999 2.8415284156799316 3.089252471923828 3.2223637104034424 3.146050453186035 3.010315179824829 2.949723720550537 0 0 0 0 0 0 0 0 0 0 0 0
-9999 -9999 3.0007245540618896 3.1088132858276367 3.1574530601501465 3.00850772857666 2.8068432807922363 2.7011666297912598 0 0 0 0 0 0 0 0 0 0 0 0
-9999 -9999 -9999 3.1037368774414062 3.117762804031372 2.9401016235351562 2.701606273651123 2.573699951171875 0 0 0 0 0 0 0 0 0 0 0 0
