ncols         20
nrows         20
xllcorner     0
yllcorner     -3.5992928
cellsize      0.17996463
NODATA_value  -9999
-9999.0 -9999 -9999 -9999 -9999 -9999 -9999 -9999 -9999 -9999 -9999 -9999 -9999 -9999 -9999 -9999 -9999 -9999 -9999 -9999
-9999 -9999 -9999 -9999 -9999 -9999 -9999 -9999 -9999 -9999 -9999 1.1166290044784546 1.1153323650360107 -9999 -9999 1.1395981311798096 1.1262755393981934 -9999 -9999 -9999
-9999 -9999 -9999 -9999 1.1137334108352661 1.1234478950500488 1.138890027999878 1.144302248954773 1.1441696882247925 1.1463857889175415 1.134558081626892 1.138859748840332 1.1492936611175537 1.1581149101257324 1.1570178270339966 1.150830626487732 1.1379474401474 1.1263515949249268 -9999 -9999
-9999 -9999 -9999 1.1238040924072266 1.1327064037322998 1.1430577039718628 1.1541095972061157 1.1578282117843628 1.1598457098007202 1.1601300239562988 1.1637994050979614 1.1710821390151978 1.1814160346984863 1.1879221200942993 1.1928467750549316 1.1872868537902832 1.1710158586502075 1.156522274017334 -9999 -9999
-9999 -9999 -9999 1.1386903524398804 1.150865912437439 1.171370029449463 1.1810084581375122 1.180277943611145 1.1713894605636597 1.1554769277572632 1.1348395347595215 1.126486897468567 1.1400854587554932 1.1705374717712402 1.2003321647644043 1.214461088180542 1.2085413932800293 1.2099335193634033 -9999 -9999
-9999 -9999 1.139589786529541 1.1564958095550537 1.1773847341537476 1.1949323415756226 1.1941173076629639 1.1782865524291992 1.1396738290786743 1.0675048828125 0.9815247058868408 0.9363632202148438 0.952627420425415 1.0320439338684082 1.1291403770446777 1.1882344484329224 1.2174311876296997 1.2252939939498901 1.2121425867080688 -9999
-9999 -9999 1.1545701026916504 1.173909306526184 1.2041873931884766 1.2147821187973022 1.1995855569839478 1.1550742387771606 1.0599945783615112 0.9186463952064514 0.7766206860542297 0.6987401843070984 0.7109391093254089 0.8158019185066223 0 1.0981155633926392 1.1777232885360718 1.2093273401260376 1.2167026996612549 -9999
-9999 -9999 1.1877267360687256 1.2112085819244385 1.2330759763717651 1.2230675220489502 1.1783994436264038 1.0787357091903687 0.9262259006500244 0.7478156089782715 0.6007367968559265 0.5177810192108154 0.5187276601791382 0.6038913130760193 0.7566183805465698 0.9251867532730103 1.0579264163970947 1.1418540477752686 1.1728694438934326 -9999
-9999 1.1990541219711304 1.2271511554718018 1.2461098432540894 1.2440835237503052 1.1938937902450562 1.0837163925170898 0.9165735840797424 0.7290644645690918 0.5621370077133179 0.4466545581817627 0.3841785490512848 0.37656524777412415 0.43210917711257935 0.5470319986343384 0 0.8675104379653931 0.9867413640022278 1.0434544086456299 -9999
-9999 1.234645128250122 1.2556078433990479 1.259082317352295 1.208491563796997 1.0851280689239502 0.896809458732605 0.6827186942100525 0.499375581741333 0.37412557005882263 0.3039230704307556 0.2674805223941803 0.26289743185043335 0.2919695973396301 0.36577263474464417 0 0.6292087435722351 0.7575547695159912 0.8234272599220276 -9999
-9999 1.2671970129013062 1.2683486938476562 1.2257825136184692 1.117774248123169 0.9280449151992798 0.6868987679481506 0.45963844656944275 0.3050822615623474 0.21978622674942017 0.17848293483257294 0.16068197786808014 0.15865455567836761 0.17398136854171753 0.21381056308746338 0.2878009080886841 0.3884222209453583 0.4962179660797119 0.5536305904388428 -9999
-9999 1.2576797008514404 1.2310315370559692 1.1373897790908813 0.9726553559303284 0.749258279800415 0.5031622648239136 0.30124399065971375 0.18086890876293182 0.1199873834848404 0.09299370646476746 0.08124537020921707 0 0 0.10132645070552826 0 0.19882987439632416 0.26773229241371155 0.3055744767189026 -9999
-9999 1.1749310493469238 1.1178189516067505 0.9636144638061523 0.7687620520591736 0.5536063313484192 0.34910720586776733 0.1938880980014801 0.10578256845474243 0.06523250043392181 0.042534273117780685 0.034011103212833405 0 0 0 0.04997401311993599 0.08138410747051239 0.1187981590628624 0.14296920597553253 -9999
-9999 1.0179623365402222 0.927138090133667 0.7292730212211609 0.5296107530593872 0.3563680648803711 0.2161027044057846 0.11721307784318924 0.058595236390829086 0.03481282666325569 0.023410798981785774 0.01796475611627102 0 0 0 0.018051333725452423 0.026019778102636337 0.042478956282138824 0.05650684982538223 -9999
-9999 0.837969958782196 0.7305107712745667 0.5169864296913147 0.3326147198677063 0.20637808740139008 0.12085457146167755 0.06314501166343689 0.03530402109026909 0.022243762388825417 0.015837164595723152 0.012219135649502277 0.010153533890843391 0.009140928275883198 0 0 0.010564661584794521 0.015448207035660744 -9999 -9999
-9999 0.7063460946083069 0.5918469429016113 0.38203108310699463 0.22024337947368622 0.12174047529697418 0.06561219692230225 0.03717159479856491 0.023455306887626648 0.0162398349493742 0 0 0 0.010143295861780643 0 0 0.012857917696237564 0 -9999 -9999
-9999 0.6116281151771545 0.49092087149620056 0.3053455650806427 0.16202062368392944 0.07513945549726486 0.040320418775081635 0.02393265627324581 0.016261542215943336 0 0 0 0 0.012993424199521542 0.014428988099098206 0.01563442312180996 0.016631798818707466 0.017690690234303474 0 0
-9999 -9999 0.3852669894695282 0.2514827251434326 0.12797926366329193 0.055622514337301254 0.02817643992602825 0.016871847212314606 0 0 0 0 0 0 0 0 0 0 0 0
-9999 -9999 0.277189701795578 0.19751524925231934 0.10270745307207108 0.04300905391573906 0.02095414511859417 0.012389256618916988 0 0 0 0 0 0 0 0 0 0 0 0
-9999 -9999 -9999 0.16448840498924255 0.08693355321884155 0.03789084032177925 0.01820448413491249 0.01076150219887495 0 0 0 0 0 0 0 0 0 0 0 0
