ncols         20
nrows         20
xllcorner     0
yllcorner     -3.5992928
cellsize      0.17996463
NODATA_value  -9999
-9999.0 -9999 -9999 -9999 -9999 -9999 -9999 -9999 -9999 -9999 -9999 -9999 -9999 -9999 -9999 -9999 -9999 -9999 -9999 -9999
-9999 -9999 -9999 -9999 -9999 -9999 -9999 -9999 -9999 -9999 -9999 0.19276392459869385 0.18975421786308289 -9999 -9999 0.17314644157886505 0.16226112842559814 -9999 -9999 -9999
-9999 -9999 -9999 -9999 0.175399512052536 0.19070620834827423 0.21905413269996643 0.2454359233379364 0.26590874791145325 0.2807988226413727 0.2593400776386261 0.24084241688251495 0.24216188490390778 0.24717505276203156 0.22544726729393005 0.19549475610256195 0.1767057478427887 0.16749022901058197 -9999 -9999
-9999 -9999 -9999 0.17213521897792816 0.18540559709072113 0.2064853310585022 0.2387361377477646 0.27361178398132324 0.31269365549087524 0.34748828411102295 0.3720913529396057 0.37504929304122925 0.37163832783699036 0.34520503878593445 0.3039969205856323 0.2556118369102478 0.2189614623785019 0.20030827820301056 -9999 -9999
-9999 -9999 -9999 0.1800232231616974 0.19832919538021088 0.23690730333328247 0.28735268115997314 0.3493800163269043 0.42759764194488525 0.5292574167251587 0.6293861865997314 0.6816343069076538 0.668189287185669 0.5830665230751038 0.48372364044189453 0.381400465965271 0.30860060453414917 0.2905348539352417 -9999 -9999
-9999 -9999 0.16772444546222687 0.1881028711795807 0.222312793135643 0.2783201336860657 0.3520321846008301 0.4505870044231415 0.6003270149230957 0.7961134910583496 1.0079172849655151 1.1226575374603271 1.1181215047836304 0.972270667552948 0.7719981670379639 0.5907687544822693 0.46464434266090393 0.4169624447822571 0.39555785059928894 -9999
-9999 -9999 0.1789061576128006 0.20347203314304352 0.26054421067237854 0.3451913893222809 0.4524461328983307 0.6048246622085571 0.8291807174682617 1.118728756904602 1.4188764095306396 1.606264352798462 1.6193300485610962 1.4558504819869995 1.211808443069458 0.9216556549072266 0.714747428894043 0.5892949104309082 0.542180597782135 -9999
-9999 -9999 0.20991265773773193 0.2508103549480438 0.33887699246406555 0.46273648738861084 0.6302037239074707 0.853837251663208 1.1363046169281006 1.4706584215164185 1.7714112997055054 1.9832336902618408 2.030811309814453 1.9088603258132935 1.6650826930999756 1.3594850301742554 1.0854991674423218 0.8887979984283447 0.8095159530639648 -9999
-9999 0.22531606256961823 0.2634609639644623 0.33818793296813965 0.4828171133995056 0.6864404082298279 0.9374257326126099 1.2482528686523438 1.5807175636291504 1.8946633338928223 2.1391868591308594 2.3151137828826904 2.3999063968658447 2.3490653038024902 2.189399003982544 1.942574381828308 1.5774270296096802 1.3144549131393433 1.2004517316818237 -9999
-9999 0.28203630447387695 0.3411112129688263 0.4847640097141266 0.7171847820281982 1.0264948606491089 1.3933484554290771 1.7905620336532593 2.143172025680542 2.401628017425537 2.565762519836426 2.6980512142181396 2.7878456115722656 2.8078229427337646 2.72263240814209 2.5587751865386963 2.172536849975586 1.8710870742797852 1.735282301902771 -9999
-9999 0.401700884103775 0.4894014298915863 0.696607232093811 1.0059690475463867 1.4078460931777954 1.8800327777862549 2.345494508743286 2.6829400062561035 2.8853516578674316 3.015049695968628 3.1351943016052246 3.260128974914551 3.313927412033081 3.2635273933410645 3.1176998615264893 2.826594352722168 2.5315303802490234 2.387819766998291 -9999
-9999 0.6115767955780029 0.7273328304290771 1.0014519691467285 1.3737571239471436 1.8218456506729126 2.327470302581787 2.774853229522705 3.047818660736084 3.1919944286346436 3.3008780479431152 3.45295786857605 3.7060797214508057 3.802504777908325 3.723140239715576 3.6853623390197754 3.413599967956543 3.1717114448547363 3.0407626628875732 -9999
-9999 0.943516731262207 1.1038585901260376 1.4541234970092773 1.8508422374725342 2.2868549823760986 2.727398157119751 3.0720043182373047 3.2304861545562744 3.2821803092956543 3.3412351608276367 3.468078374862671 3.7149546146392822 3.8141109943389893 3.815093517303467 3.7041358947753906 3.6377182006835938 3.54563045501709 3.439873218536377 -9999
-9999 1.3851978778839111 1.587141990661621 2.0019168853759766 2.4125497341156006 2.7755825519561768 3.072669267654419 3.24658203125 3.2792348861694336 3.259352922439575 3.257105588912964 3.2975568771362305 3.413398504257202 3.4211270809173584 3.3792521953582764 3.297978162765503 3.3576295375823975 3.5073087215423584 3.451493263244629 -9999
-9999 1.812375783920288 2.0355026721954346 2.4881017208099365 2.8753764629364014 3.1215476989746094 3.253469705581665 3.284475803375244 3.2509076595306396 3.205820322036743 3.1776342391967773 3.1123921871185303 3.018876075744629 2.8929882049560547 2.803422451019287 2.7230632305145264 2.702420949935913 2.9815142154693604 -9999 -9999
-9999 2.0987722873687744 2.3368544578552246 2.7862870693206787 3.104149103164673 3.234206438064575 3.249390125274658 3.212602376937866 3.183673858642578 3.1728501319885254 3.1924946308135986 3.0647735595703125 2.8329381942749023 2.522184371948242 2.323413610458374 2.130373239517212 1.991478681564331 1.782841682434082 -9999 -9999
-9999 2.3062431812286377 2.5502402782440186 2.9415066242218018 3.1846258640289307 3.207602024078369 3.13927960395813 3.0661463737487793 3.05729603767395 3.0962274074554443 3.0463759899139404 2.864980936050415 2.5730910301208496 2.225660562515259 1.9414125680923462 1.699660301208496 1.5092966556549072 1.3466848134994507 1.263859748840332 1.1220366954803467
-9999 -9999 2.7574880123138428 3.036355495452881 3.202116012573242 3.1365933418273926 2.985142946243286 2.878540515899658 2.8960299491882324 2.873497724533081 2.7885782718658447 2.5972237586975098 2.322404146194458 1.9756476879119873 1.6830953359603882 1.4608128070831299 1.2607347965240479 1.1228498220443726 1.0270692110061646 1.062845230102539
-9999 -9999 2.973238945007324 3.1164655685424805 3.1858015060424805 3.0319650173187256 2.7982115745544434 2.6339144706726074 2.6069600582122803 2.565312385559082 2.513359308242798 2.3306326866149902 2.061492681503296 1.7389287948608398 1.4835484027862549 1.292879343032837 1.1325453519821167 1.0320161581039429 1.0683856010437012 1.0898674726486206
-9999 -9999 -9999 3.152090072631836 3.1701440811157227 2.978458881378174 2.6994247436523438 2.5075623989105225 2.4666523933410645 2.432229518890381 2.371450185775757 2.2272772789001465 1.9612469673156738 1.6477481126785278 1.384203553199768 1.2316073179244995 1.0601038932800293 1.0650804042816162 1.0916836261749268 1.1074072122573853
