ncols         20
nrows         20
xllcorner     0
yllcorner     -3.5992928
cellsize      0.17996463
NODATA_value  -9999
-9999.0 -9999 -9999 -9999 -9999 -9999 -9999 -9999 -9999 -9999 -9999 -9999 -9999 -9999 -9999 -9999 -9999 -9999 -9999 -9999
-9999 -9999 -9999 -9999 -9999 -9999 -9999 -9999 -9999 -9999 -9999 0 0 -9999 -9999 0 0 -9999 -9999 -9999
-9999 -9999 -9999 -9999 0 0 0 0 0 0 0 0 0 0 0 0 0 0 -9999 -9999
-9999 -9999 -9999 0 0 0 0 0 0 0 0 0 0 0 0 0 0 0 -9999 -9999
-9999 -9999 -9999 0 0 0 0 0 0 0 0 0 0 0 0 0 0 0 -9999 -9999
-9999 -9999 0 0 0 0 8.803144454956055 7.984186172485352 7.32442569732666 6.587612628936768 5.861971855163574 5.538876056671143 5.7526535987854 6.5844035148620605 7.822208881378174 9.373878479003906 0 0 0 -9999
-9999 -9999 0 0 0 8.797466278076172 7.475069046020508 6.447177886962891 5.400671482086182 4.295811653137207 3.3765945434570312 2.9393272399902344 3.0567517280578613 3.791165828704834 5.119424343109131 7.074291706085205 0 0 0 -9999
-9999 -9999 0 0 9.424413681030273 7.862340450286865 6.491382598876953 5.155173301696777 3.862032651901245 2.7378759384155273 1.9885884523391724 1.6277023553848267 1.660232424736023 2.115734577178955 3.0887205600738525 4.679246425628662 6.880919456481934 0 0 -9999
-9999 0 0 10.772964477539062 8.829712867736816 7.059845924377441 5.3245530128479 3.726945161819458 2.4661521911621094 1.619611382484436 1.1510252952575684 0.9370662569999695 0.926580011844635 1.157137393951416 1.700379490852356 2.7163054943084717 4.281083106994629 6.197750568389893 0 -9999
-9999 0 0 10.768254280090332 8.2158784866333 5.868090629577637 3.8180062770843506 2.2706871032714844 1.3219354152679443 0.8304527997970581 0.607151210308075 0.5087562203407288 0.504627525806427 0.6006184816360474 0.8634727001190186 1.3945480585098267 2.350637435913086 3.6287152767181396 0 -9999
-9999 0 0 10.431198120117188 7.1745219230651855 4.499541759490967 2.4699673652648926 1.2140213251113892 0.6178327798843384 0.36967456340789795 0.2706335783004761 0.23379027843475342 0.23307301104068756 0.2721378803253174 0.378925085067749 0.6192229986190796 1.0780446529388428 0 0 -9999
-9999 0 0 9.222935676574707 5.6909871101379395 3.171098232269287 1.5064302682876587 0.6357287764549255 0.2863253355026245 0.1562499701976776 0.10936322063207626 0.09140260517597198 0.08994339406490326 0.10064194351434708 0.13342082500457764 0.21567142009735107 0.3930225670337677 0 0 -9999
-9999 0 0 6.956218719482422 3.8736560344696045 1.9570159912109375 0.8550501465797424 0.3314971923828125 0.13623404502868652 0.0703018382191658 0.04254532977938652 0.032658129930496216 0.029392380267381668 0.03082270175218582 0.03932911530137062 0.06049240007996559 0.11596130579710007 0 0 -9999
-9999 0 0 4.3607988357543945 2.1383023262023926 0.991002082824707 0.4193092882633209 0.16502125561237335 0.06608858704566956 0.03350738435983658 0.02026216872036457 0.014476963318884373 0.011799138970673084 0.011168494820594788 0.012332607991993427 0.016913805156946182 0.02867947332561016 0 0 -9999
-9999 0 0 2.4667611122131348 1.0385286808013916 0.44154083728790283 0.18678005039691925 0.07620858401060104 0.0350295715034008 0.018673473969101906 0.011535970494151115 0.007907804101705551 0.006042808759957552 0.005220875144004822 0.004983306862413883 0.005668517202138901 0.0076021719723939896 0 -9999 -9999
-9999 0 0 1.485605239868164 0.5527135729789734 0.21037819981575012 0.08638878911733627 0.03904713690280914 0.020235851407051086 0.011634645983576775 0.007490029092878103 0.005177357699722052 0.0041414834558963776 0.004604246001690626 0.0052313366904854774 0.005989402532577515 0.0068432483822107315 0.007598244119435549 -9999 -9999
-9999 0 0 1.005249261856079 0.34450042247772217 0.11237291991710663 0.04635541886091232 0.021836576983332634 0.011982095427811146 0.007294758222997189 0.004922849126160145 0.004336192272603512 0.004678961355239153 0.005222411826252937 0.005917425267398357 0.006730949506163597 0.007653957698494196 0.008674975484609604 0.009843024425208569 0.010401279665529728
-9999 -9999 0 0.7069344520568848 0.23746240139007568 0.07420734316110611 0.02872650884091854 0.013421459123492241 0.0074502392672002316 0.004782053641974926 0.004654292948544025 0.004809970501810312 0.00521035585552454 0.00581361772492528 0.006557027343660593 0.0073885563760995865 0.008272316306829453 0.009159836918115616 0.009931289590895176 0.0103162145242095
-9999 -9999 0 0 0.17232941091060638 0.0523388534784317 0.019336726516485214 0.008707013912498951 0.005469494499266148 0.0050877961330115795 0.005007636267691851 0.005203758366405964 0.005645266268402338 0.006285408977419138 0.00705045135691762 0.007872192189097404 0.008690777234733105 0.009416233748197556 0.009946784935891628 0.01021855790168047
-9999 -9999 -9999 0 0.13851457834243774 0.04410824924707413 0.015942370519042015 0.007045174017548561 0.005613950081169605 0.00526454858481884 0.005208059214055538 0.0054221199825406075 0.0058835591189563274 0.006541287060827017 0.0073160650208592415 0.0081237917765975 0.008902505971491337 0.00953158363699913 0.009968455880880356 0.010190634988248348
