ncols         20
nrows         20
xllcorner     0
yllcorner     -3.5992928
cellsize      0.17996463
NODATA_value  -9999
-9999.0 -9999 -9999 -9999 -9999 -9999 -9999 -9999 -9999 -9999 -9999 -9999 -9999 -9999 -9999 -9999 -9999 -9999 -9999 -9999
-9999 -9999 -9999 -9999 -9999 -9999 -9999 -9999 -9999 -9999 -9999 1.1233344078063965 1.1221801042556763 -9999 -9999 1.1486798524856567 1.1354665756225586 -9999 -9999 -9999
-9999 -9999 -9999 -9999 1.1205569505691528 1.1298433542251587 1.1446642875671387 1.1494404077529907 1.1488021612167358 1.150659441947937 1.1389633417129517 1.1441271305084229 1.1551100015640259 1.1644424200057983 1.1643646955490112 1.1592577695846558 1.146878719329834 1.1354635953903198 -9999 -9999
-9999 -9999 -9999 1.13130784034729 1.139738917350769 1.1494110822677612 1.1596636772155762 1.1626521348953247 1.164095401763916 1.16337251663208 1.1663818359375 1.1737959384918213 1.184937834739685 1.192875862121582 1.199427604675293 1.194951057434082 1.1794023513793945 1.165274739265442 -9999 -9999
-9999 -9999 -9999 1.1464214324951172 1.157989501953125 1.1775823831558228 1.1861920356750488 1.1847350597381592 1.1759546995162964 1.1574043035507202 1.1345070600509644 1.1255053281784058 1.1403204202651978 1.173536777496338 1.2061212062835693 1.2209011316299438 1.2158746719360352 1.217952847480774 -9999 -9999
-9999 -9999 1.1485264301300049 1.164717435836792 1.184636116027832 1.200979232788086 1.1989754438400269 1.182547688484192 1.1401450634002686 1.0633915662765503 0.9741597771644592 0.9280363917350769 0.9455553889274597 1.028313159942627 1.1300601959228516 1.1931254863739014 1.2232242822647095 1.2323559522628784 1.219274640083313 -9999
-9999 -9999 1.1636582612991333 1.1822729110717773 1.21140456199646 1.2207890748977661 1.2047102451324463 1.1556963920593262 1.0547341108322144 0.9083250164985657 0.7637235522270203 0.6855059862136841 0.6987245082855225 0.8060265183448792 0 1.0979807376861572 1.1819244623184204 1.2162482738494873 1.2232438325881958 -9999
-9999 -9999 1.1970804929733276 1.2195467948913574 1.2399468421936035 1.2294130325317383 1.1804429292678833 1.0745601654052734 0.9161535501480103 0.7340333461761475 0.5858436226844788 0.5034165382385254 0.5052610635757446 0.5917187929153442 0.747012197971344 0.9197338819503784 1.0572636127471924 1.1449153423309326 1.1777327060699463 -9999
-9999 1.2102255821228027 1.2371644973754883 1.2541908025741577 1.2497444152832031 1.1972523927688599 1.0814697742462158 0.9085365533828735 0.7170228362083435 0.5484169125556946 0.4329091012477875 0.3712276816368103 0.36449670791625977 0.4206860363483429 0.5366480350494385 0 0.8622454404830933 0.9845818877220154 1.0430216789245605 -9999
-9999 1.2460136413574219 1.2658710479736328 1.267189860343933 1.2138922214508057 1.0852104425430298 0.8914270997047424 0.6736589670181274 0.48885443806648254 0.3634583055973053 0.293535977602005 0.25767824053764343 0.2536698579788208 0.2831706702709198 0.3571995794773102 0 0.6220130920410156 0.7517096996307373 0.8185444474220276 -9999
-9999 1.2784712314605713 1.278372883796692 1.233900785446167 1.1206822395324707 0.9254853129386902 0.6805482506752014 0.45210665464401245 0.2978903353214264 0.21316498517990112 0.1722531020641327 0.15476317703723907 0.15303859114646912 0.16855081915855408 0.20833244919776917 0.28200310468673706 0.38232290744781494 0.4899119436740875 0.547423779964447 -9999
-9999 1.2683908939361572 1.2397862672805786 1.1430526971817017 0.9728769659996033 0.7453041076660156 0.4974362552165985 0.29592907428741455 0.17657756805419922 0.11648012697696686 0.08990315347909927 0.07842470705509186 0 0 0.09874477982521057 0 0.19523701071739197 0.2634273171424866 0.30095547437667847 -9999
-9999 1.1852792501449585 1.124906063079834 0.9656829833984375 0.766971230506897 0.549569845199585 0.34478747844696045 0.19053368270397186 0.10344713181257248 0.06351609528064728 0.041288822889328 0.03299454599618912 0 0 0 0.048979781568050385 0.07991015166044235 0.11675089597702026 0.14052937924861908 -9999
-9999 1.0233485698699951 0.9294604659080505 0.7287509441375732 0.5272248983383179 0.35335439443588257 0.21346238255500793 0.11537204682826996 0.05748586729168892 0.03408072143793106 0.02291201241314411 0.017609329894185066 0 0 0 0.0178234726190567 0.025671185925602913 0.04185081273317337 0.055526357144117355 -9999
-9999 0.8382265567779541 0.7298715114593506 0.5154373645782471 0.33072707056999207 0.2046564221382141 0.11955990642309189 0.062354955822229385 0.0348333865404129 0.021961823105812073 0.015677668154239655 0.012146379798650742 0.010131367482244968 0.00914981309324503 0 0 0.010583441704511642 0.015451699495315552 -9999 -9999
-9999 0.7049021124839783 0.5901943445205688 0.3804855942726135 0.21903251111507416 0.12091633677482605 0.06512854248285294 0.0369020439684391 0.023317642509937286 0.016193242743611336 0 0 0 0.010242263786494732 0 0 0.012985517270863056 0 -9999 -9999
-9999 0.6098060011863708 0.4892056882381439 0.3041357100009918 0.1613362580537796 0.07487207651138306 0.04021558538079262 0.023913772776722908 0.016299830749630928 0 0 0 0 0.013172649778425694 0.014625068753957748 0.015844471752643585 0.016856171190738678 0.017939971759915352 0 0
-9999 -9999 0.38394513726234436 0.2506878674030304 0.12766951322555542 0.05561660975217819 0.028239471837878227 0.016963424161076546 0 0 0 0 0 0 0 0 0 0 0 0
-9999 -9999 0.2764509618282318 0.19715021550655365 0.10266686975955963 0.043134622275829315 0.021082637831568718 0.012518494389951229 0 0 0 0 0 0 0 0 0 0 0 0
-9999 -9999 -9999 0.16442739963531494 0.08710789680480957 0.03808007761836052 0.018355950713157654 0.010899853892624378 0 0 0 0 0 0 0 0 0 0 0 0
