ncols         20
nrows         20
xllcorner     0
yllcorner     -3.5992928
cellsize      0.17996463
NODATA_value  -9999
-9999.0 -9999 -9999 -9999 -9999 -9999 -9999 -9999 -9999 -9999 -9999 -9999 -9999 -9999 -9999 -9999 -9999 -9999 -9999 -9999
-9999 -9999 -9999 -9999 -9999 -9999 -9999 -9999 -9999 -9999 -9999 11.800984382629395 11.770598411560059 -9999 -9999 11.672672271728516 11.51112174987793 -9999 -9999 -9999
-9999 -9999 -9999 -9999 11.525761604309082 11.700075149536133 11.980079650878906 12.157174110412598 12.246429443359375 12.310282707214355 12.150151252746582 12.105695724487305 12.169812202453613 12.223907470703125 12.106311798095703 11.887077331542969 11.691131591796875 11.579293251037598 -9999 -9999
-9999 -9999 -9999 11.530562400817871 11.671751976013184 11.847378730773926 12.06673812866211 12.203743934631348 12.30655574798584 12.364312171936035 12.419815063476562 12.467865943908691 12.544187545776367 12.561832427978516 12.519322395324707 12.342610359191895 12.11689567565918 11.977482795715332 -9999 -9999
-9999 -9999 -9999 11.669539451599121 11.816859245300293 12.073342323303223 12.21824836730957 12.215485572814941 12.14402961730957 12.03414535522461 11.909492492675781 11.889684677124023 12.06329345703125 12.368474006652832 12.64258861541748 12.718442916870117 12.624722480773926 12.669412612915039 -9999 -9999
-9999 -9999 11.633816719055176 11.835735321044922 12.067023277282715 12.227082252502441 12.071695327758789 11.60511302947998 11.108413696289062 10.534286499023438 9.932056427001953 9.702305793762207 10.018789291381836 10.847551345825195 11.78396224975586 12.445319175720215 12.758811950683594 12.914605140686035 12.862858772277832 -9999
-9999 -9999 11.850446701049805 12.056083679199219 12.350353240966797 12.260744094848633 11.436208724975586 9.908339500427246 8.779476165771484 7.780513763427734 6.938737869262695 6.649819374084473 7.191976547241211 8.351469993591309 9.833447456359863 11.225248336791992 12.143218994140625 12.612255096435547 12.785874366760254 -9999
-9999 -9999 12.334453582763672 12.58730697631836 12.736133575439453 12.11542797088623 10.190359115600586 6.235573768615723 4.887309551239014 4.114959239959717 3.643645763397217 3.6186420917510986 4.754746913909912 5.939802646636963 7.466835021972656 9.155924797058105 10.571930885314941 11.525521278381348 11.945829391479492 -9999
-9999 12.668648719787598 12.935020446777344 13.172724723815918 13.009260177612305 11.783656120300293 9.122187614440918 4.897281169891357 3.3894312381744385 2.6847031116485596 2.37172794342041 2.4250056743621826 3.205265522003174 4.043472766876221 5.17825984954834 6.66862678527832 8.250470161437988 9.489472389221191 10.093486785888672 -9999
-9999 13.17250919342041 13.397777557373047 13.494891166687012 12.765789985656738 10.82960033416748 7.737446308135986 3.873561143875122 2.448225259780884 1.842036247253418 1.6275014877319336 1.672750473022461 2.1385393142700195 2.6040101051330566 3.3064379692077637 4.330591201782227 5.657995223999023 6.84431266784668 7.457705020904541 -9999
-9999 13.663740158081055 13.659222602844238 13.217059135437012 11.800545692443848 9.349308013916016 6.172976493835449 2.906954050064087 1.6948473453521729 1.200994849205017 1.0258703231811523 1.0361590385437012 1.2594882249832153 1.4889788627624512 1.84928297996521 2.455404043197632 3.2898690700531006 4.181349277496338 4.664642333984375 -9999
-9999 13.573385238647461 13.208273887634277 12.082698822021484 10.106243133544922 7.508208274841309 4.650721073150635 2.1263883113861084 1.1492456197738647 0.7377683520317078 0.5822898745536804 0.546112060546875 0.6207549571990967 0.6960341334342957 0.8337023258209229 1.1160719394683838 1.575459361076355 2.0980992317199707 2.3888750076293945 -9999
-9999 12.399507522583008 11.629620552062988 9.878558158874512 7.718369007110596 5.410403728485107 3.255136251449585 1.6285775899887085 0.8189219236373901 0.48021072149276733 0.32177168130874634 0.2631620466709137 0.2471853792667389 0.25134405493736267 0.289430171251297 0.3801414370536804 0.5949106216430664 0.8584819436073303 1.0328741073608398 -9999
-9999 10.142831802368164 9.098803520202637 7.06234073638916 5.0370402336120605 3.310776948928833 1.9406085014343262 0.9973646402359009 0.48255687952041626 0.27173736691474915 0.175462007522583 0.12992022931575775 0.10661481320858002 0.09666763991117477 0.09761359542608261 0.11742851883172989 0.16874916851520538 0.27855318784713745 0.38057953119277954 -9999
-9999 7.716367244720459 6.629825592041016 4.628321170806885 2.92048978805542 1.765946865081787 1.0011067390441895 0.5070677995681763 0.268347829580307 0.15636953711509705 0.10220557451248169 0.07225005328655243 0.055345650762319565 0.046377457678318024 0.04180668666958809 0.04372154921293259 0.052315499633550644 0.07958590239286423 -9999 -9999
-9999 6.00137996673584 4.9224042892456055 3.1106386184692383 1.7456693649291992 0.9329392910003662 0.4849036931991577 0.2596561312675476 0.15129220485687256 0.09495150297880173 0.06521055847406387 0.04697269946336746 0.038167983293533325 0.04189126193523407 0.04626057296991348 0.05073932185769081 0.05493081733584404 0.058437246829271317 -9999 -9999
-9999 4.903041839599609 3.7507760524749756 2.2526848316192627 1.1491769552230835 0.5074727535247803 0.2554442286491394 0.13938669860363007 0.08577422052621841 0.057609207928180695 0.042093001306056976 0.03914879262447357 0.04345051199197769 0.048902783542871475 0.055148325860500336 0.06185848265886307 0.06911177188158035 0.0780588835477829 0.0931423231959343 0.10019505769014359
-9999 -9999 2.645721673965454 1.6773933172225952 0.814164400100708 0.33057069778442383 0.15279565751552582 0.08204618841409683 0.051530223339796066 0.03707219287753105 0.039328183978796005 0.043376822024583817 0.04903075098991394 0.05600256100296974 0.06379441171884537 0.07198954373598099 0.0804656594991684 0.08922059834003448 0.09806695580482483 0.10269150882959366
-9999 -9999 1.7782657146453857 1.2097282409667969 0.5951157808303833 0.22959575057029724 0.09995530545711517 0.051888179033994675 0.03727063536643982 0.038853444159030914 0.04208769649267197 0.04707414284348488 0.05373489856719971 0.061774011701345444 0.07055701315402985 0.07949990034103394 0.08817864209413528 0.09591470658779144 0.10189290344715118 0.1050579771399498
-9999 -9999 -9999 0.9328636527061462 0.47103261947631836 0.18932868540287018 0.08082571625709534 0.04155266657471657 0.03784025460481644 0.03998115286231041 0.04371507093310356 0.04915998503565788 0.05634254589676857 0.06492991745471954 0.07420966774225235 0.08341031521558762 0.09204965829849243 0.09898387640714645 0.10390039533376694 0.10644927620887756
