ncols         20
nrows         20
xllcorner     0
yllcorner     -3.5992928
cellsize      0.17996463
NODATA_value  -9999
-9999.0 -9999 -9999 -9999 -9999 -9999 -9999 -9999 -9999 -9999 -9999 -9999 -9999 -9999 -9999 -9999 -9999 -9999 -9999 -9999
-9999 -9999 -9999 -9999 -9999 -9999 -9999 -9999 -9999 -9999 -9999 0.13441786170005798 0.1345232129096985 -9999 -9999 0.13685649633407593 0.13703644275665283 -9999 -9999 -9999
-9999 -9999 -9999 -9999 0.1339046210050583 0.1338760256767273 0.13387759029865265 0.13393038511276245 0.1340513378381729 0.13423828780651093 0.13444793224334717 0.12449194490909576 0.12481987476348877 0.13571414351463318 0.13634029030799866 0.12664416432380676 0.1271791309118271 0.13817645609378815 -9999 -9999
-9999 -9999 -9999 0.1341812163591385 0.12395956367254257 0.10548150539398193 0.10551497340202332 0.10561256110668182 0.10577677935361862 0.10599368810653687 0.10624098777770996 0.09843381494283676 0.09874960780143738 0.10732527822256088 0.1078467071056366 0.10027032345533371 0.10917840152978897 0.13927508890628815 -9999 -9999
-9999 -9999 -9999 0.1344062089920044 0.10575829446315765 0.07699020206928253 0.07105264067649841 0.07121036946773529 0.0714249238371849 0.07167597860097885 0.07193774729967117 0.06679412722587585 0.06705744564533234 0.0728401243686676 0.07328080385923386 0.07390723377466202 0.11092531681060791 0.1415460705757141 -9999 -9999
-9999 -9999 0.13491345942020416 0.12463275343179703 0.09810327738523483 0.06599775701761246 0.040927328169345856 0.04109874740242958 0.041318997740745544 0.041557446122169495 0.04179400950670242 0.038755595684051514 0.038979653269052505 0.04257006570696831 0.04297477379441261 0.07014641910791397 0.10509517788887024 0.13464993238449097 0.14781390130519867 -9999
-9999 -9999 0.13532520830631256 0.10655350238084793 0.0777057558298111 0.05242091044783592 0.030006272718310356 0.02032657340168953 0.02049837075173855 0.020679255947470665 0.020858068019151688 0.01941695064306259 0.01961197331547737 0.021527741104364395 0.0324472114443779 0.0574517585337162 0.08587019145488739 0.11856091767549515 0.1513926237821579 -9999
-9999 -9999 0.13611195981502533 0.10727614909410477 0.07225654274225235 0.04161185771226883 0.02049972116947174 0.010102755390107632 0.008732270449399948 0.008844771422445774 0.008960348553955555 0.008394098840653896 0.008557804860174656 0.011139250360429287 0.023174140602350235 0.047547247260808945 0.08297034353017807 0.1235964372754097 0.15714798867702484 -9999
-9999 0.137851744890213 0.12710431218147278 0.10018229484558105 0.06767323613166809 0.03895992785692215 0.019272107630968094 0.008160125464200974 0.0032128645107150078 0.003280741861090064 0.0033507233019918203 0.0031580226495862007 0.0035500095691531897 0.010216337628662586 0.02463519759476185 0.05029764771461487 0.08743280172348022 0.12976020574569702 0.16461493074893951 -9999
-9999 0.13949072360992432 0.1098475381731987 0.08026163280010223 0.05435008555650711 0.0314788818359375 0.015576092526316643 0.006612274795770645 0.0024496125988662243 0.0016340939328074455 0.0016888388199731708 0.0017369948327541351 0.003823730628937483 0.010888217017054558 0.02612192928791046 0.053212642669677734 0.09236572682857513 0.1369016170501709 0.17347335815429688 -9999
-9999 0.14240850508213043 0.11232925951480865 0.07584092766046524 0.04386899247765541 0.021739445626735687 0.010784796439111233 0.004615916404873133 0.0017246935749426484 0.0017334374133497477 0.0017999046249315143 0.0018553363624960184 0.004074344411492348 0.011539946310222149 0.027608273550868034 0.05618472397327423 0.09748007357120514 0.14440426230430603 0.18287836015224457 -9999
-9999 0.14651308953762054 0.11570163816213608 0.07828091830015182 0.045404113829135895 0.02255643717944622 0.009595359675586224 0.003518583718687296 0.0017374535091221333 0.001823684200644493 0.0018988024676218629 0.0020721792243421078 0.00600448390468955 0.014381995424628258 0.029084714129567146 0.059143491089344025 0.10254120081663132 0.1517166942358017 0.1918446272611618 -9999
-9999 0.15174037218093872 0.11998234689235687 0.08135657012462616 0.04727192223072052 0.02366388589143753 0.01008974201977253 0.003710220567882061 0.0018135786522179842 0.001903025433421135 0.001984942238777876 0.0032403827644884586 0.009349392727017403 0.022369204089045525 0.04573604837059975 0.07918129861354828 0.11661319434642792 0.1585523784160614 0.19951757788658142 -9999
-9999 0.15794596076011658 0.12513987720012665 0.08536281436681747 0.04970288276672363 0.024737708270549774 0.01053853053599596 0.0038656271062791348 0.0018810987239703536 0.001969144446775317 0.002051824936643243 0.00424848310649395 0.012231310829520226 0.02945852279663086 0.06015618145465851 0.10440785437822342 0.15436913073062897 0.19397376477718353 0.20483866333961487 -9999
-9999 0.16450661420822144 0.13055060803890228 0.08920617401599884 0.051998063921928406 0.02588990516960621 0.012903956696391106 0.005535381846129894 0.0020450216252356768 0.002022851025685668 0.0021032807417213917 0.004726736806333065 0.013548639602959156 0.03269781172275543 0.06697581708431244 0.11674784868955612 0.17290203273296356 0.21915096044540405 -9999 -9999
-9999 0.1704031229019165 0.13613447546958923 0.10053598135709763 0.06889966130256653 0.04023035243153572 0.0200886782258749 0.008526625111699104 0.003392148297280073 0.002063757972791791 0.0021427248138934374 0.004807580262422562 0.013793372549116611 0.03334982320666313 0.06847003847360611 0.11968731880187988 0.1783573031425476 0.22636094689369202 -9999 -9999
-9999 0.17456194758415222 0.16522139310836792 0.1323404312133789 0.09038322418928146 0.05267421528697014 0.028362061828374863 0.014069151133298874 0.006001635454595089 0.002204568823799491 0.002171321539208293 0.004476607311517 0.012922380119562149 0.03129517287015915 0.06435219198465347 0.11265526711940765 0.16850656270980835 0.21597088873386383 0.23822152614593506 0.24005280435085297
-9999 -9999 0.18494009971618652 0.14754082262516022 0.10857383906841278 0.07401231676340103 0.042965617030858994 0.02136530727148056 0.00903935357928276 0.003329481463879347 0.0021890071220695972 0.0035551295150071383 0.010297240689396858 0.02504216507077217 0.051410991698503494 0.09025285392999649 0.1350121945142746 0.17266729474067688 0.18856538832187653 0.18950198590755463
-9999 -9999 0.18843623995780945 0.17619085311889648 0.1401551514863968 0.09516385197639465 0.055184487253427505 0.027302272617816925 0.011554880999028683 0.004237646237015724 0.002198240254074335 0.0023994059301912785 0.0069707403890788555 0.016919376328587532 0.03497840464115143 0.06111333146691322 0.09178659319877625 0.11711501330137253 0.12726902961730957 0.12765614688396454
-9999 -9999 -9999 0.19334813952445984 0.15330636501312256 0.10389836132526398 0.060113199055194855 0.02970060333609581 0.01255609467625618 0.004615636542439461 0.0022024675272405148 0.00228024460375309 0.004011673852801323 0.009706908836960793 0.020122533664107323 0.035158734768629074 0.0528605654835701 0.06711776554584503 0.07305504381656647 0.07320638000965118
