ncols         20
nrows         20
xllcorner     0
yllcorner     -3.5992928
cellsize      0.17996463
NODATA_value  -9999
-9999.0 -9999 -9999 -9999 -9999 -9999 -9999 -9999 -9999 -9999 -9999 -9999 -9999 -9999 -9999 -9999 -9999 -9999 -9999 -9999
-9999 -9999 -9999 -9999 -9999 -9999 -9999 -9999 -9999 -9999 -9999 2.509110689163208 2.5073020458221436 -9999 -9999 2.6145811080932617 2.585404634475708 -9999 -9999 -9999
-9999 -9999 -9999 -9999 2.5580763816833496 2.5748496055603027 2.5992441177368164 2.594822406768799 2.5756802558898926 2.5643608570098877 2.5279312133789062 2.5406854152679443 2.568331241607666 2.5951309204101562 2.610157012939453 2.619149923324585 2.597870349884033 2.5699174404144287 -9999 -9999
-9999 -9999 -9999 2.586456775665283 2.602501392364502 2.6166088581085205 2.624328851699829 2.6071741580963135 2.5845401287078857 2.56147837638855 2.5541443824768066 2.565716028213501 2.5935373306274414 2.623229742050171 2.658914566040039 2.6707146167755127 2.6478018760681152 2.619844675064087 -9999 -9999
-9999 -9999 -9999 2.6189076900482178 2.6399738788604736 2.6693577766418457 2.6569337844848633 2.6041910648345947 2.5364034175872803 2.4620187282562256 2.3950061798095703 2.3682703971862793 2.40409779548645 2.495680332183838 2.6033120155334473 2.6725528240203857 2.6825897693634033 2.696678876876831 -9999 -9999
-9999 -9999 2.6175320148468018 2.6546990871429443 2.6893508434295654 2.6923882961273193 2.613069534301758 2.45833683013916 2.3040452003479004 2.1320934295654297 1.964308738708496 1.8795057535171509 1.9198215007781982 2.096644639968872 2.3293449878692627 2.5156216621398926 2.614016056060791 2.647568464279175 2.6006672382354736 -9999
-9999 -9999 2.647303581237793 2.6859405040740967 2.7291393280029297 2.672636032104492 2.444654941558838 2.0424320697784424 1.786490559577942 1.552031397819519 1.3443962335586548 1.2586506605148315 1.3624523878097534 1.5865840911865234 1.8770880699157715 2.1819159984588623 2.3956711292266846 2.500476360321045 2.5253148078918457 -9999
-9999 -9999 2.7147164344787598 2.7597715854644775 2.764461040496826 2.5904181003570557 2.1055636405944824 0.9473499059677124 0.7029604911804199 0.5966230034828186 0.5366940498352051 0.5575856566429138 0.8738585710525513 1.122947335243225 1.4175328016281128 1.7393840551376343 2.014028787612915 2.2053298950195312 2.283414363861084 -9999
-9999 2.7149641513824463 2.784393072128296 2.8184940814971924 2.747873544692993 2.4576003551483154 1.8638404607772827 0.7095547318458557 0.4398671090602875 0.3502219617366791 0.32456570863723755 0.3651687800884247 0.5857135057449341 0.7637996673583984 0.9794450402259827 1.259204626083374 1.551634669303894 1.7685308456420898 1.8734387159347534 -9999
-9999 2.7654590606689453 2.806675672531128 2.7945573329925537 2.599743604660034 2.182015895843506 1.5512514114379883 0.5752957463264465 0.3282201290130615 0.249119833111763 0.23356780409812927 0.2648175358772278 0.39453667402267456 0.49127084016799927 0.6201401352882385 0.8097732067108154 1.0599629878997803 1.27935791015625 1.387079119682312 -9999
-9999 2.7689900398254395 2.7532811164855957 2.625378131866455 2.303524971008301 1.831140160560608 1.2088823318481445 0.45210352540016174 0.24878360331058502 0.18127892911434174 0.16445735096931458 0.17870908975601196 0.2366005778312683 0.28022658824920654 0.34197643399238586 0.45028257369995117 0.6054927110671997 0.7734281420707703 0.8621162176132202 -9999
-9999 2.6278977394104004 2.540306568145752 2.2853667736053467 1.8851689100265503 1.4296932220458984 0.8877924084663391 0.3509233295917511 0.18856458365917206 0.1269788146018982 0.1056818962097168 0.10353684425354004 0.11935748904943466 0.13093827664852142 0.15200230479240417 0.19976624846458435 0.282176673412323 0.3773435354232788 0.4293915033340454 -9999
-9999 2.280787706375122 2.1241543292999268 1.778372883796692 1.4009228944778442 1.0000886917114258 0.6064980030059814 0.29554080963134766 0.14879658818244934 0.08977364748716354 0.06077666953206062 0.050391845405101776 0.04671144858002663 0.045757848769426346 0.05044316127896309 0.06474626809358597 0.10458625108003616 0.1504104733467102 0.1794208288192749 -9999
-9999 1.787445306777954 1.596360206604004 1.2409708499908447 0.8899518251419067 0.5910686254501343 0.3501129150390625 0.18033495545387268 0.08642977476119995 0.05062398687005043 0.03437260910868645 0.026521261781454086 0.022043727338314056 0.01966048590838909 0.019082339480519295 0.021799981594085693 0.02990506775677204 0.046974651515483856 0.06089456379413605 -9999
-9999 1.3612713813781738 1.1719590425491333 0.8104549646377563 0.5069422125816345 0.30730146169662476 0.17584694921970367 0.08811099827289581 0.048278506845235825 0.0304875448346138 0.02200489677488804 0.01708768680691719 0.014064389280974865 0.012353469617664814 0.011263171210885048 0.011435242369771004 0.012838298454880714 0.018044376745820045 -9999 -9999
-9999 1.0898222923278809 0.894849956035614 0.5553686022758484 0.3059229552745819 0.162166029214859 0.082856185734272 0.04583485424518585 0.029111770913004875 0.020772524178028107 0.016453661024570465 0.013567591086030006 0.012180756777524948 0.013940795324742794 0.015472033061087132 0.016610920429229736 0.017348062247037888 0.017973797395825386 -9999 -9999
-9999 0.9109561443328857 0.7047578692436218 0.4171340763568878 0.20867452025413513 0.08859948813915253 0.04536982253193855 0.026922235265374184 0.019026534631848335 0.015102780424058437 0.013027575798332691 0.013598669320344925 0.016038784757256508 0.0184200257062912 0.020597027614712715 0.022456269711256027 0.02411235123872757 0.02615305408835411 0.030280133709311485 0.031958021223545074
-9999 -9999 0.518386960029602 0.32498422265052795 0.15571974217891693 0.06110278144478798 0.029754823073744774 0.01827625371515751 0.013791045174002647 0.011955322697758675 0.014313556253910065 0.016933264210820198 0.019717274233698845 0.02252446487545967 0.025066066533327103 0.027185915037989616 0.02899356745183468 0.03062203712761402 0.03227902948856354 0.032925624400377274
-9999 -9999 0.3548968732357025 0.24260097742080688 0.11886156350374222 0.04522980749607086 0.021552328020334244 0.013438114896416664 0.011838767677545547 0.014283585362136364 0.016866980120539665 0.01966923475265503 0.022659361362457275 0.025655662640929222 0.02827671729028225 0.030338937416672707 0.0319175161421299 0.03295087814331055 0.033445365726947784 0.03361274674534798
-9999 -9999 -9999 0.1923178881406784 0.09419585764408112 0.038582004606723785 0.018532412126660347 0.01179400086402893 0.01300801057368517 0.015613066032528877 0.01830197684466839 0.021153245121240616 0.024212030693888664 0.027262749150395393 0.0298971738666296 0.03183877095580101 0.03326006978750229 0.033823877573013306 0.03395681455731392 0.03396005183458328
