ncols         20
nrows         20
xllcorner     0
yllcorner     -3.5992928
cellsize      0.17996463
NODATA_value  -9999
-9999.0 -9999 -9999 -9999 -9999 -9999 -9999 -9999 -9999 -9999 -9999 -9999 -9999 -9999 -9999 -9999 -9999 -9999 -9999 -9999
-9999 -9999 -9999 -9999 -9999 -9999 -9999 -9999 -9999 -9999 -9999 2.7100813388824463 2.7256698608398438 -9999 -9999 3.097398281097412 3.12227201461792 -9999 -9999 -9999
-9999 -9999 -9999 -9999 2.902949571609497 2.820375442504883 2.705462694168091 2.5927717685699463 2.505601406097412 2.4587643146514893 2.463339328765869 2.544156789779663 2.5920143127441406 2.629075527191162 2.7374157905578613 2.91003155708313 2.995805501937866 3.0116591453552246 -9999 -9999
-9999 -9999 -9999 2.8776228427886963 2.812778949737549 2.6784918308258057 2.5250613689422607 2.392225503921509 2.296114206314087 2.2420849800109863 2.23280668258667 2.266059398651123 2.3175435066223145 2.391082286834717 2.5054657459259033 2.6526858806610107 2.7864811420440674 2.8658382892608643 -9999 -9999
-9999 -9999 -9999 2.7459163665771484 2.6122241020202637 2.404066801071167 2.1783764362335205 2.0164456367492676 1.9117655754089355 1.8529878854751587 1.8340919017791748 1.8504263162612915 1.8960148096084595 1.9740194082260132 2.0950722694396973 2.265540599822998 2.477019786834717 2.611941337585449 -9999 -9999
-9999 -9999 2.6094536781311035 2.53773832321167 2.3173487186431885 2.0089499950408936 1.6474090814590454 1.4748337268829346 1.383040189743042 1.3362053632736206 1.319974660873413 1.3283671140670776 1.3600871562957764 1.4203455448150635 1.5245096683502197 1.709129810333252 2.0777201652526855 2.278599262237549 2.2769205570220947 -9999
-9999 -9999 2.442690372467041 2.264336585998535 1.9460949897766113 1.5411696434020996 1.2914259433746338 1.15175199508667 1.076481580734253 1.0388809442520142 1.0254420042037964 1.0309860706329346 1.0555310249328613 1.1049861907958984 1.1954118013381958 1.3640648126602173 1.701716423034668 1.948142647743225 2.05973744392395 -9999
-9999 -9999 2.2153358459472656 1.9378911256790161 1.517159342765808 1.2363269329071045 1.0572024583816528 0.9516175389289856 0.8929306268692017 0.8633545637130737 0.8527518510818481 0.8570266962051392 0.8765209317207336 0.9159463047981262 0.9860810041427612 1.1070382595062256 1.3085498809814453 1.5935596227645874 1.7549537420272827 -9999
-9999 2.209043502807617 2.0274977684020996 1.5732154846191406 1.2543985843658447 1.0423372983932495 0.9076486229896545 0.8267825245857239 0.7807924747467041 0.757101833820343 0.7484825253486633 0.7518894076347351 0.7674576640129089 0.7983282804489136 0.8510452508926392 0.9358687996864319 1.0647413730621338 1.242527961730957 1.4469090700149536 -9999
-9999 2.120454788208008 1.8792638778686523 1.3936316967010498 1.103807806968689 0.9246370196342468 0.8154107928276062 0.7500162720680237 0.7121824026107788 0.6921588182449341 0.6845399737358093 0.6869535446166992 0.6993202567100525 0.7236906290054321 0.7642914652824402 0.8276466727256775 0.9222016930580139 1.0567116737365723 1.220162272453308 -9999
-9999 2.004669189453125 1.7557334899902344 1.2849698066711426 1.0144835710525513 0.8543999195098877 0.7595800757408142 0.7031627297401428 0.6701632738113403 0.6522943377494812 0.6450670957565308 0.6464341282844543 0.6562042236328125 0.6758684515953064 0.7086260914802551 0.7600417733192444 0.8401297330856323 0.9701889753341675 1.0696607828140259 -9999
-9999 1.8784427642822266 1.6416484117507935 1.2062548398971558 0.9566630721092224 0.8110016584396362 0.7252628803253174 0.6742531061172485 0.6442394256591797 0.6276987791061401 0.6206023097038269 0.6210055947303772 0.6286599636077881 0.6447982788085938 0.6719724535942078 0.7147276401519775 0.7814121246337891 0.8872321844100952 0.9608480930328369 -9999
-9999 1.7436234951019287 1.5274722576141357 1.1398067474365234 0.9139472246170044 0.7816652059555054 0.7030032873153687 0.6559175848960876 0.6280527114868164 0.6123957633972168 0.6054345965385437 0.605011522769928 0.6109949350357056 0.6243789792060852 0.6472329497337341 0.6833175420761108 0.7389257550239563 0.8253360986709595 0.8879601955413818 -9999
-9999 1.6024868488311768 1.4101698398590088 1.0764652490615845 0.8776364326477051 0.7589024305343628 0.6871545910835266 0.6437183618545532 0.6178203821182251 0.6026395559310913 0.5952997803688049 0.594147801399231 0.598781168460846 0.6098576188087463 0.6290388703346252 0.6596577167510986 0.7083354592323303 0.7826864719390869 0.8490456342697144 -9999
-9999 1.466500163078308 1.296366810798645 1.0144953727722168 0.8433923721313477 0.7389841675758362 0.6746887564659119 0.6351096630096436 0.6104005575180054 0.5957038998603821 0.58822101354599 0.5864742398262024 0.5899304151535034 0.5988764762878418 0.6144324541091919 0.6389658451080322 0.6768773198127747 0.7236354947090149 -9999 -9999
-9999 1.3539044857025146 1.1974986791610718 0.9586519002914429 0.8122358918190002 0.7214905023574829 0.6646008491516113 0.6280258893966675 0.604793131351471 0.590659499168396 0.5831274390220642 0.5808551907539368 0.583202600479126 0.5901272892951965 0.6021491885185242 0.6205712556838989 0.6475419402122498 0.6743982434272766 -9999 -9999
-9999 1.2818588018417358 1.114141583442688 0.9122393131256104 0.7859228849411011 0.7071828842163086 0.6558796763420105 0.6223331689834595 0.6006028056144714 0.5870784521102905 0.5795927047729492 0.5768668055534363 0.5781797170639038 0.5832293033599854 0.5920534729957581 0.6050463914871216 0.6227794289588928 0.6398061513900757 0.6374010443687439 0.6370834112167358
-9999 -9999 0.9993255138397217 0.8692452907562256 0.7649534344673157 0.695594847202301 0.6490783095359802 0.618094265460968 0.5976685881614685 0.5847190618515015 0.5772948265075684 0.5741856694221497 0.5746184587478638 0.5781177878379822 0.5843528509140015 0.5930761694908142 0.603728175163269 0.6143515110015869 0.6187030076980591 0.6200329065322876
-9999 -9999 0.9536789059638977 0.8599111437797546 0.7560138702392578 0.6887105107307434 0.6447104811668396 0.6153952479362488 0.5958971977233887 0.5833553075790405 0.5759561657905579 0.5725625157356262 0.5723699331283569 0.5747818350791931 0.5792694091796875 0.5853235721588135 0.5921903252601624 0.5984543561935425 0.6021227240562439 0.6036765575408936
-9999 -9999 -9999 0.8251007795333862 0.7469354867935181 0.6843900680541992 0.6423622369766235 0.6140327453613281 0.5950376987457275 0.5827087163925171 0.5753276944160461 0.5717757940292358 0.571260929107666 0.573124885559082 0.5767625570297241 0.5815721154212952 0.5868453979492188 0.5915015935897827 0.5946090221405029 0.596089243888855
