ncols         20
nrows         20
xllcorner     0
yllcorner     -3.5992928
cellsize      0.17996463
NODATA_value  -9999
-9999.0 -9999 -9999 -9999 -9999 -9999 -9999 -9999 -9999 -9999 -9999 -9999 -9999 -9999 -9999 -9999 -9999 -9999 -9999 -9999
-9999 -9999 -9999 -9999 -9999 -9999 -9999 -9999 -9999 -9999 -9999 0 0 -9999 -9999 0 0 -9999 -9999 -9999
-9999 -9999 -9999 -9999 0 0 0 0 0 0 0 0 0 0 0 0 0 0 -9999 -9999
-9999 -9999 -9999 0 0 0 0 0 0 0 0 0 0 0 0 0 0 0 -9999 -9999
-9999 -9999 -9999 0 0 0 0 0 0 0 0 0 0 0 0 0 0 0 -9999 -9999
-9999 -9999 0 0 0 0 3.899970769882202 3.6678659915924072 3.504166603088379 3.344935894012451 3.195633888244629 3.1342248916625977 3.1945929527282715 3.3900554180145264 3.67342209815979 4.040858745574951 0 0 0 -9999
-9999 -9999 0 0 0 3.8278675079345703 3.4602389335632324 3.1928327083587646 2.941903829574585 2.676311731338501 2.439514636993408 2.3222737312316895 2.368903398513794 2.5909981727600098 0.32804447412490845 3.4428582191467285 0 0 0 -9999
-9999 -9999 0 0 3.909316062927246 3.489718198776245 3.138484477996826 2.807534694671631 2.475334882736206 2.1544811725616455 1.9091159105300903 1.780164122581482 1.803679347038269 1.9888049364089966 2.327218532562256 2.799163341522217 3.3750901222229004 0 0 -9999
-9999 0 0 4.1438822746276855 3.6586875915527344 3.231114387512207 2.812037706375122 2.395595073699951 2.0155162811279297 1.7096505165100098 1.5090430974960327 1.408748984336853 1.4126794338226318 1.5411487817764282 1.7958970069885254 0.48555988073349 2.6785898208618164 3.201738119125366 0 -9999
-9999 0 0 4.036746501922607 3.4663166999816895 2.929692029953003 2.4064788818359375 1.9291898012161255 1.5565478801727295 1.3115713596343994 1.1785407066345215 1.116281270980835 1.121043086051941 1.1982600688934326 1.37237548828125 0.368087500333786 2.0594677925109863 2.5079421997070312 0 -9999
-9999 0 0 3.920670986175537 3.227513074874878 2.5888302326202393 1.9935762882232666 1.4998947381973267 1.1728425025939941 0.9908825755119324 0.9031455516815186 0.869559645652771 0.8751428127288818 0.9240691065788269 1.0332146883010864 1.2287203073501587 1.5212442874908447 0 0 -9999
-9999 0 0 3.6839990615844727 2.9031364917755127 2.2244832515716553 1.6316239833831787 1.1830754280090332 0.9149467945098877 0.7758897542953491 0.7139578461647034 0.6898416876792908 0.308048278093338 0.39958712458610535 0.779499351978302 0.19912585616111755 1.088569164276123 0 0 -9999
-9999 0 0 3.2524263858795166 2.465515613555908 1.8293849229812622 1.3203591108322144 0.9581681489944458 0.7517367601394653 0.652923583984375 0.6025183796882629 0.5839303731918335 0.3882123827934265 0.5294849276542664 0.41928011178970337 0.690496563911438 0.8044167757034302 0 0 -9999
-9999 0 0 2.6765215396881104 1.9468005895614624 1.4211655855178833 1.0436632633209229 0.7936153411865234 0.6498288512229919 0.5833048820495605 0.5510019659996033 0.537291407585144 0.23775745928287506 0.4220970571041107 0.37414517998695374 0.5957720279693604 0.6562846899032593 0 0 -9999
-9999 0 0 2.133113384246826 1.4955003261566162 1.092464804649353 0.8370581865310669 0.6767750978469849 0.5915250778198242 0.547324538230896 0.5249719023704529 0.5145968198776245 0.5127037167549133 0.5180664658546448 0.35368433594703674 0.3069996237754822 0.5880899429321289 0 -9999 -9999
-9999 0 0 1.7551195621490479 1.2120689153671265 0.8920586109161377 0.7121893167495728 0.6119815707206726 0.5574632883071899 0.5267012715339661 0.34008389711380005 0.3905014395713806 0.05567140132188797 0.5075071454048157 0.23053129017353058 0.23798152804374695 0.5592752695083618 0.08322162926197052 -9999 -9999
-9999 0 0 1.5142977237701416 1.0472733974456787 0.7754338979721069 0.645351231098175 0.5746498107910156 0.5355352759361267 0.3418298065662384 0.44446852803230286 0.4955754280090332 0.3864717483520508 0.5019533038139343 0.510543942451477 0.5227828025817871 0.5389358401298523 0.5543487668037415 0.39546889066696167 0.5541292428970337
-9999 -9999 0 1.3283413648605347 0.9405975341796875 0.715392529964447 0.6084918975830078 0.5529829263687134 0.2899875342845917 0.44795891642570496 0.4964892268180847 0.49356982111930847 0.43943753838539124 0.3875656723976135 0.33657190203666687 0.3424193859100342 0.3493148982524872 0.4154183566570282 0.4789232909679413 0.5404523015022278
-9999 -9999 0 0 0.8694323301315308 0.676798939704895 0.5863441824913025 0.539757251739502 0.343406617641449 0.5026629567146301 0.49552682042121887 0.4925868809223175 0.49302852153778076 0.4961821436882019 0.5013825297355652 0.5079923272132874 0.5152057409286499 0.5216617584228516 0.5255792737007141 0.5273188352584839
-9999 -9999 -9999 0 0.8255205750465393 0.65955650806427 0.5770760178565979 0.534421980381012 0.3427761495113373 0.5021239519119263 0.495156466960907 0.4921928644180298 0.492451548576355 0.49521729350090027 0.49976298213005066 0.5053567886352539 0.5112400054931641 0.5162744522094727 0.5196375846862793 0.5212616920471191
