ncols         20
nrows         20
xllcorner     0
yllcorner     -3.5992928
cellsize      0.17996463
NODATA_value  -9999
-9999.0 -9999 -9999 -9999 -9999 -9999 -9999 -9999 -9999 -9999 -9999 -9999 -9999 -9999 -9999 -9999 -9999 -9999 -9999 -9999
-9999 -9999 -9999 -9999 -9999 -9999 -9999 -9999 -9999 -9999 -9999 27.01665496826172 27.01876449584961 -9999 -9999 27.09009552001953 27.153932571411133 -9999 -9999 -9999
-9999 -9999 -9999 -9999 27.138612747192383 27.046430587768555 26.902687072753906 26.787853240966797 26.721511840820312 26.704622268676758 26.777698516845703 26.857776641845703 26.837133407592773 26.760982513427734 26.805679321289062 26.944623947143555 27.031522750854492 27.042354583740234 -9999 -9999
-9999 -9999 -9999 27.166858673095703 27.126665115356445 27.05768585205078 26.95848274230957 26.874786376953125 26.819351196289062 26.800155639648438 26.80976676940918 26.821475982666016 26.786388397216797 26.73984146118164 26.735595703125 26.785526275634766 26.817264556884766 26.808042526245117 -9999 -9999
-9999 -9999 -9999 27.144142150878906 27.136220932006836 27.119800567626953 27.11695671081543 27.12122344970703 27.164793014526367 27.24116325378418 27.31627655029297 27.344404220581055 27.27671241760254 27.1287784576416 26.94957733154297 26.80306625366211 26.639057159423828 26.495357513427734 -9999 -9999
-9999 -9999 27.13033103942871 27.13312530517578 27.175539016723633 27.288909912109375 27.486488342285156 27.687705993652344 27.930776596069336 28.207162857055664 28.449081420898438 28.563261032104492 28.478687286376953 28.192773818969727 27.765539169311523 27.278789520263672 26.768861770629883 26.4075870513916 26.214025497436523 -9999
-9999 -9999 27.040170669555664 27.115755081176758 27.264846801757812 27.543601989746094 27.917438507080078 28.36638641357422 28.87088394165039 29.385578155517578 29.79738426208496 29.995973587036133 29.91901206970215 29.547199249267578 28.91062355041504 28.16796112060547 27.374645233154297 26.767385482788086 26.453128814697266 -9999
-9999 -9999 26.819812774658203 27.02454948425293 27.361913681030273 27.82034683227539 28.44000816345215 29.1625919342041 29.91680145263672 30.60051727294922 31.097328186035156 31.334083557128906 31.28118324279785 30.922630310058594 30.26354217529297 29.400266647338867 28.47266387939453 27.659618377685547 27.196680068969727 -9999
-9999 26.16735076904297 26.47657585144043 26.936328887939453 27.482648849487305 28.2314453125 29.151233673095703 30.132966995239258 31.044191360473633 31.77223777770996 32.255985260009766 32.47963333129883 32.44362258911133 32.140262603759766 31.558704376220703 30.734989166259766 29.844425201416016 29.011377334594727 28.47292137145996 -9999
-9999 25.91242790222168 26.247657775878906 26.92777442932129 27.802400588989258 28.90125846862793 30.104846954345703 31.24730682373047 32.18124008178711 32.84684371948242 33.253353118896484 33.42805862426758 33.391273498535156 33.15422058105469 32.70353698730469 32.0405158996582 31.293506622314453 30.55321502685547 30.059526443481445 -9999
-9999 25.68893814086914 26.165538787841797 27.154211044311523 28.413515090942383 29.8077449798584 31.180089950561523 32.35076904296875 33.21229934692383 33.774871826171875 34.0908203125 34.20219421386719 34.14359664916992 33.96260070800781 33.65534973144531 33.19318771362305 32.63700866699219 32.05722427368164 31.679594039916992 -9999
-9999 25.80914878845215 26.470382690429688 27.79408836364746 29.32238006591797 30.856647491455078 32.237945556640625 33.3260498046875 34.08139419555664 34.55356979370117 34.799869537353516 34.85346603393555 34.74949264526367 34.6049690246582 34.422332763671875 34.1195182800293 33.7525520324707 33.3492431640625 33.081787109375 -9999
-9999 26.52409553527832 27.364192962646484 28.88033676147461 30.49713134765625 31.984359741210938 33.224796295166016 34.16161346435547 34.80808639526367 35.209068298339844 35.42842102050781 35.464881896972656 35.366127014160156 35.254981994628906 35.13029861450195 34.957733154296875 34.674076080322266 34.36036682128906 34.126590728759766 -9999
-9999 27.80068016052246 28.70733070373535 30.246980667114258 31.790132522583008 33.09697341918945 34.11997985839844 34.880523681640625 35.42206573486328 35.74519729614258 35.92039108276367 35.97757339477539 35.94403839111328 35.89934158325195 35.83088302612305 35.71543502807617 35.492549896240234 35.186744689941406 34.80638122558594 -9999
-9999 29.2078857421875 30.105073928833008 31.566680908203125 32.958160400390625 34.06294631958008 34.88693618774414 35.49386978149414 35.888492584228516 36.130149841308594 36.272972106933594 36.37108612060547 36.439971923828125 36.487693786621094 36.479209899902344 36.41596984863281 36.28433609008789 36.08927917480469 -9999 -9999
-9999 30.355932235717773 31.2629337310791 32.61045837402344 33.84693145751953 34.80940246582031 35.50678253173828 35.96343994140625 36.241600036621094 36.40089797973633 36.50075149536133 36.62356185913086 36.77132034301758 36.917213439941406 36.98783493041992 37.004234313964844 36.97882080078125 36.96436309814453 -9999 -9999
-9999 31.09355926513672 32.189395904541016 33.38883590698242 34.4881706237793 35.37294006347656 35.96237564086914 36.331748962402344 36.53107452392578 36.632198333740234 36.7239990234375 36.861488342285156 37.04484558105469 37.23856735229492 37.371315002441406 37.441993713378906 37.47169494628906 37.51284408569336 37.6625862121582 37.73604202270508
-9999 -9999 33.260562896728516 34.05130386352539 34.95985794067383 35.749732971191406 36.294803619384766 36.62758255004883 36.78598403930664 36.87389373779297 36.958953857421875 37.095211029052734 37.28167724609375 37.489173889160156 37.64776611328125 37.74081802368164 37.79297637939453 37.82319259643555 37.85923767089844 37.85921096801758
-9999 -9999 33.870948791503906 34.53759002685547 35.29295349121094 36.010276794433594 36.540531158447266 36.87106704711914 37.02238082885742 37.09971237182617 37.16984558105469 37.29779052734375 37.48256301879883 37.689979553222656 37.85251998901367 37.952266693115234 38.00788497924805 38.01738739013672 37.98923110961914 37.96849060058594
-9999 -9999 -9999 34.95344543457031 35.51822280883789 36.152870178222656 36.670318603515625 37.0011100769043 37.14786148071289 37.21891403198242 37.284080505371094 37.39937210083008 37.582496643066406 37.791656494140625 37.96310043334961 38.06478500366211 38.12901306152344 38.11189651489258 38.07271194458008 38.04877471923828
