ncols         20
nrows         20
xllcorner     0
yllcorner     -3.5992928
cellsize      0.17996463
NODATA_value  -9999
-9999.0 -9999 -9999 -9999 -9999 -9999 -9999 -9999 -9999 -9999 -9999 -9999 -9999 -9999 -9999 -9999 -9999 -9999 -9999 -9999
-9999 -9999 -9999 -9999 -9999 -9999 -9999 -9999 -9999 -9999 -9999 0.018032293766736984 0.01803612895309925 -9999 -9999 0.018169203773140907 0.018176522105932236 -9999 -9999 -9999
-9999 -9999 -9999 -9999 0.018131360411643982 0.01809372566640377 0.018038377165794373 0.017971951514482498 0.017908593639731407 0.01786402240395546 0.017852503806352615 0.03790224343538284 0.03792588785290718 0.017900744453072548 0.017941271886229515 0.038180746138095856 0.03822687640786171 0.018039949238300323 -9999 -9999
-9999 -9999 -9999 0.01804441586136818 0.03818802908062935 0.0794125571846962 0.07914260029792786 0.07879272103309631 0.07845063507556915 0.07819773256778717 0.0780944973230362 0.09412770718336105 0.09422731399536133 0.07833884656429291 0.07852187752723694 0.09485358744859695 0.07892841100692749 0.017897561192512512 -9999 -9999
-9999 -9999 -9999 0.01792001910507679 0.0789925754070282 0.11406520009040833 0.11357584595680237 0.11293746531009674 0.11231738328933716 0.1118573248386383 0.11165337264537811 0.11173863708972931 0.11191731691360474 0.1121249571442604 0.11242743581533432 0.11274581402540207 0.07803007960319519 0.017656078562140465 -9999 -9999
-9999 -9999 0.017685268074274063 0.03750560060143471 0.09414321929216385 0.11282311379909515 0.11214382201433182 0.11127250641584396 0.11044895648956299 0.10985392332077026 0.1095861941576004 0.10964781790971756 0.10992693901062012 0.11030107736587524 0.11068622022867203 0.1109672337770462 0.09231724590063095 0.036614272743463516 0.017190242186188698 -9999
-9999 -9999 0.01752673275768757 0.0772339329123497 0.11162073910236359 0.11107580363750458 0.11005899310112 0.10878124088048935 0.10764613002538681 0.10686701536178589 0.1065506711602211 0.1066824272274971 0.1071389764547348 0.107715904712677 0.1082555428147316 0.10862912237644196 0.1086776927113533 0.07490313798189163 0.016969017684459686 -9999
-9999 -9999 0.0172799751162529 0.07620153576135635 0.10984943807125092 0.10895287990570068 0.10749354958534241 0.10568439215421677 0.10431511700153351 0.10342991352081299 0.10305246710777283 0.10317962616682053 0.10377670079469681 0.10458224266767502 0.10531740635633469 0.10587892681360245 0.10619474947452545 0.07344772666692734 0.016644958406686783 -9999
-9999 0.016897693276405334 0.03588135167956352 0.0901070162653923 0.10778407752513885 0.10659941285848618 0.10478033870458603 0.10272131860256195 0.10117589682340622 0.10017381608486176 0.099713996052742 0.09978721290826797 0.10035525262355804 0.1011957973241806 0.10205532610416412 0.10277204215526581 0.1032615602016449 0.07155639678239822 0.01623392663896084 -9999
-9999 0.01672324724495411 0.07360908389091492 0.10632853209972382 0.10560589283704758 0.10414914786815643 0.1020626500248909 0.09991483390331268 0.09826818108558655 0.09716883301734924 0.09661584347486496 0.0965954065322876 0.09706242382526398 0.09780961275100708 0.0986761525273323 0.09946787357330322 0.10006535053253174 0.0694349855184555 0.015770668163895607 -9999
-9999 0.01648213341832161 0.07249761372804642 0.10436730831861496 0.10335452109575272 0.10168082267045975 0.09944631159305573 0.09729739278554916 0.09560786932706833 0.0944361537694931 0.0937877744436264 0.09364958107471466 0.0939788743853569 0.09459387511014938 0.09535887837409973 0.09615347534418106 0.09681669622659683 0.06726361811161041 0.015294848009943962 -9999
-9999 0.01618712581694126 0.07111912220716476 0.10219305008649826 0.1010238453745842 0.09924560785293579 0.09701524674892426 0.09491158276796341 0.09321897476911545 0.09199453890323639 0.09125049412250519 0.09097648411989212 0.09113579243421555 0.09158030152320862 0.09220632165670395 0.09294871985912323 0.0936926081776619 0.06523022055625916 0.014850758947432041 -9999
-9999 0.01586105301976204 0.0696127712726593 0.09990967065095901 0.09866708517074585 0.09688210487365723 0.09476011991500854 0.09277280420064926 0.09110888838768005 0.08984573185443878 0.0890066921710968 0.08858342468738556 0.08853442221879959 0.088768370449543 0.08921612054109573 0.08985798805952072 0.09077592939138412 0.06353270262479782 0.014474764466285706 -9999
-9999 0.01552998460829258 0.06809546798467636 0.09763415902853012 0.09635591506958008 0.0946180447936058 0.09264357388019562 0.09078636765480042 0.08917678892612457 0.08789800852537155 0.0869777649641037 0.08640731871128082 0.08615212887525558 0.08615396916866302 0.08636308461427689 0.08675654232501984 0.07246949523687363 0.02947179041802883 0.014189165085554123 -9999
-9999 0.01522352360188961 0.06669413298368454 0.09548407047986984 0.09416800737380981 0.09249650686979294 0.09066659957170486 0.08893613517284393 0.08740095794200897 0.0861254408955574 0.08514062315225601 0.08443951606750488 0.08399540930986404 0.08376582711935043 0.08370670676231384 0.08377770334482193 0.05800940841436386 0.013190362602472305 -9999 -9999
-9999 0.01497095637023449 0.0651889368891716 0.09356970340013504 0.09214617311954498 0.09054337441921234 0.0888553261756897 0.08725201338529587 0.08579639345407486 0.08453930914402008 0.08351051807403564 0.08270447701215744 0.08209969848394394 0.08166157454252243 0.08134997636079788 0.0811271220445633 0.05557096377015114 0.012584458105266094 -9999 -9999
-9999 0.01479350496083498 0.03086259961128235 0.07587575167417526 0.09021730720996857 0.08877089619636536 0.08725330233573914 0.08577767014503479 0.08440307527780533 0.083174929022789 0.08212173730134964 0.08123860508203506 0.08050759881734848 0.07989728450775146 0.07936301827430725 0.07884451746940613 0.06473078578710556 0.025394216179847717 0.011654750443994999 0.011518403887748718
-9999 -9999 0.014225898310542107 0.06176036223769188 0.08859486877918243 0.08727720379829407 0.08592543751001358 0.084572933614254 0.08327620476484299 0.08208229392766953 0.0810202807188034 0.08008669316768646 0.0792667344212532 0.07853101193904877 0.07783429324626923 0.07709824293851852 0.07616418600082397 0.06226783245801926 0.05095227435231209 0.05059667304158211
-9999 -9999 0.013860753737390041 0.02933516725897789 0.0722435712814331 0.08608819544315338 0.08494048565626144 0.08370538055896759 0.08247651904821396 0.08131496608257294 0.08025412261486053 0.07929233461618423 0.07841857522726059 0.07760945707559586 0.07683053612709045 0.076031394302845 0.07515385001897812 0.07419504970312119 0.0734366700053215 0.07304982095956802
-9999 -9999 -9999 0.013490704819560051 0.059310153126716614 0.08542097359895706 0.08441339433193207 0.08325294405221939 0.0820656269788742 0.0809246227145195 0.0798657014966011 0.07889200747013092 0.07799366861581802 0.07715213298797607 0.07634161412715912 0.07553228735923767 0.07470643520355225 0.07391078770160675 0.07328805327415466 0.07295586913824081
