ncols         20
nrows         20
xllcorner     0
yllcorner     -3.5992928
cellsize      0.17996463
NODATA_value  -9999
-9999.0 -9999 -9999 -9999 -9999 -9999 -9999 -9999 -9999 -9999 -9999 -9999 -9999 -9999 -9999 -9999 -9999 -9999 -9999 -9999
-9999 -9999 -9999 -9999 -9999 -9999 -9999 -9999 -9999 -9999 -9999 0.018413610756397247 0.01841307058930397 -9999 -9999 0.018512889742851257 0.018520129844546318 -9999 -9999 -9999
-9999 -9999 -9999 -9999 0.018546177074313164 0.018505575135350227 0.0184461772441864 0.01837477833032608 0.018305083736777306 0.01825171336531639 0.018227405846118927 0.038667719811201096 0.038665562868118286 0.01822458580136299 0.018252898007631302 0.0388442724943161 0.03889215365052223 0.018351830542087555 -9999 -9999
-9999 -9999 -9999 0.01844106614589691 0.03902636840939522 0.08113989233970642 0.08085458725690842 0.0804893895983696 0.0801270455121994 0.07983700186014175 0.0796666368842125 0.09591330587863922 0.09589420258998871 0.07960718125104904 0.0797250047326088 0.09629286080598831 0.08013744652271271 0.018179520964622498 -9999 -9999
-9999 -9999 -9999 0.0182962566614151 0.08062655478715897 0.11641417443752289 0.11590497940778732 0.11526426672935486 0.11464006453752518 0.11413952708244324 0.1138269230723381 0.11374100297689438 0.11370598524808884 0.11370435357093811 0.11388592422008514 0.11418400704860687 0.07904502004384995 0.01788996532559395 -9999 -9999
-9999 -9999 0.018027789890766144 0.03822975605726242 0.09595070779323578 0.11497405171394348 0.11428093165159225 0.11346091330051422 0.11269456148147583 0.11210320889949799 0.11171744018793106 0.111533023416996 0.111485555768013 0.11155606061220169 0.11176265776157379 0.11200734972953796 0.0932069718837738 0.036963220685720444 0.01734771393239498 -9999
-9999 -9999 0.0178498774766922 0.07859762758016586 0.11355887353420258 0.11299066245555878 0.11204683780670166 0.11100786924362183 0.11010489612817764 0.10943777859210968 0.10899137705564499 0.1087525486946106 0.10867422074079514 0.10874006897211075 0.10896410793066025 0.1092548742890358 0.10934831947088242 0.0753885880112648 0.017094485461711884 -9999
-9999 -9999 0.017579376697540283 0.07744016498327255 0.11156000941991806 0.11067719757556915 0.10948825627565384 0.10835417360067368 0.1074075773358345 0.10668685287237167 0.106181800365448 0.10587508231401443 0.10573513805866241 0.10574664175510406 0.10590852797031403 0.10619980841875076 0.10652222484350204 0.07373989373445511 0.01673044078052044 -9999
-9999 0.01719270646572113 0.036466244608163834 0.09144581854343414 0.10930374264717102 0.10819096118211746 0.10687483102083206 0.10569386184215546 0.10471024364233017 0.10394534468650818 0.10338534414768219 0.10301774740219116 0.10282070934772491 0.10277742147445679 0.10287730395793915 0.10309737920761108 0.10338182002305984 0.07166586816310883 0.016279764473438263 -9999
-9999 0.017009910196065903 0.0747562125325203 0.10782269388437271 0.10699629783630371 0.10565601289272308 0.10428573191165924 0.1030757799744606 0.10206674784421921 0.1012645736336708 0.10065475851297379 0.10023263841867447 0.09998346120119095 0.09989115595817566 0.09993928670883179 0.10010236501693726 0.10032584518194199 0.06950122117996216 0.015793737024068832 -9999
-9999 0.016759149730205536 0.07359585165977478 0.10576778650283813 0.10463713109493256 0.10314199328422546 0.1017477810382843 0.1005285382270813 0.09950346499681473 0.09867063909769058 0.0980193167924881 0.09755121916532516 0.09725705534219742 0.09712176024913788 0.0971309021115303 0.09726417809724808 0.09747341275215149 0.06752267479896545 0.015330331400036812 -9999
-9999 0.016452813521027565 0.07215502858161926 0.10348097234964371 0.10218226164579391 0.10066618025302887 0.09928233921527863 0.09807082265615463 0.09703771770000458 0.096181720495224 0.095496766269207 0.09498992562294006 0.09465578198432922 0.09448006749153137 0.0944579616189003 0.09459137171506882 0.09485497325658798 0.06578418612480164 0.014935816638171673 -9999
-9999 0.016112957149744034 0.0705685243010521 0.10105157643556595 0.09967523068189621 0.09824487566947937 0.09691353142261505 0.09572704136371613 0.09469584375619888 0.09382536262273788 0.09311127662658691 0.09256602823734283 0.09218493103981018 0.09195859730243683 0.09189629554748535 0.09203384071588516 0.09247074276208878 0.064383365213871 0.014619055204093456 -9999
-9999 0.015763673931360245 0.06895234435796738 0.09861449152231216 0.09729199856519699 0.09594906866550446 0.0946824699640274 0.09353229403495789 0.09251391142606735 0.09164179861545563 0.09090913832187653 0.0903230533003807 0.08988145738840103 0.0895799770951271 0.08943100273609161 0.08946726471185684 0.07441003620624542 0.030069921165704727 0.014385955408215523 -9999
-9999 0.015435698442161083 0.06744708865880966 0.09632674604654312 0.09508547186851501 0.09382596611976624 0.09262806922197342 0.09152519702911377 0.09054051339626312 0.08967865258455276 0.08893270045518875 0.08830517530441284 0.08779307454824448 0.08739525824785233 0.0871197059750557 0.08697684109210968 0.060075532644987106 0.013617740012705326 -9999 -9999
-9999 0.01516391895711422 0.06586261093616486 0.09436117112636566 0.09309378266334534 0.09190771728754044 0.09078669548034668 0.08975128829479218 0.08881150186061859 0.08797118812799454 0.08722084015607834 0.08655756711959839 0.08597613871097565 0.08547437936067581 0.08505719900131226 0.08472690731287003 0.05797978863120079 0.013121867552399635 -9999 -9999
-9999 0.014972635544836521 0.03115907683968544 0.07654032856225967 0.09124663472175598 0.09021227061748505 0.08920255303382874 0.08824633806943893 0.08736005425453186 0.08654822409152985 0.08579820394515991 0.085106760263443 0.08446602523326874 0.08386974036693573 0.08331117033958435 0.08276601880788803 0.06799015402793884 0.026739945635199547 0.012330301105976105 0.012208841741085052
-9999 -9999 0.014344105497002602 0.06234649568796158 0.08973585069179535 0.08881811052560806 0.08792321383953094 0.08705061674118042 0.08621980994939804 0.0854368805885315 0.08469206839799881 0.08398251235485077 0.08329912275075912 0.0826321467757225 0.08196641504764557 0.08125624060630798 0.08038123697042465 0.065876305103302 0.05402303487062454 0.053695909678936005
-9999 -9999 0.01397433876991272 0.0296467375010252 0.07330749183893204 0.08774130791425705 0.08699534088373184 0.0862061083316803 0.08542419224977493 0.08466704189777374 0.08393040299415588 0.08321195840835571 0.08250332623720169 0.08179626613855362 0.0810801163315773 0.080330029129982 0.07951023429632187 0.07862712442874908 0.0779285654425621 0.07756517827510834
-9999 -9999 -9999 0.013654704205691814 0.06026146560907364 0.08714123070240021 0.08649738132953644 0.08576193451881409 0.08500957489013672 0.08426732569932938 0.0835370346903801 0.08281634002923965 0.08209697902202606 0.08137323707342148 0.08063982427120209 0.07988827675580978 0.07911662012338638 0.0783754289150238 0.07779446244239807 0.07748038321733475
