ncols         20
nrows         20
xllcorner     0
yllcorner     -3.5992928
cellsize      0.17996463
NODATA_value  -9999
-9999.0 -9999 -9999 -9999 -9999 -9999 -9999 -9999 -9999 -9999 -9999 -9999 -9999 -9999 -9999 -9999 -9999 -9999 -9999 -9999
-9999 -9999 -9999 -9999 -9999 -9999 -9999 -9999 -9999 -9999 -9999 27.39926528930664 27.396839141845703 -9999 -9999 27.375192642211914 27.436138153076172 -9999 -9999 -9999
-9999 -9999 -9999 -9999 27.42662239074707 27.347530364990234 27.226900100708008 27.14246368408203 27.109092712402344 27.119625091552734 27.198863983154297 27.26064109802246 27.224441528320312 27.131813049316406 27.150014877319336 27.25618553161621 27.333433151245117 27.35138702392578 -9999 -9999
-9999 -9999 -9999 27.446332931518555 27.411720275878906 27.35597038269043 27.283737182617188 27.238525390625 27.232479095458984 27.2470645904541 27.26561164855957 27.261276245117188 27.201425552368164 27.125741958618164 27.087722778320312 27.11650276184082 27.143041610717773 27.140287399291992 -9999 -9999
-9999 -9999 -9999 27.428930282592773 27.42430305480957 27.421066284179688 27.452716827392578 27.517234802246094 27.592952728271484 27.65953826904297 27.69915008544922 27.692392349243164 27.61381721496582 27.480722427368164 27.316143035888672 27.158390045166016 26.996423721313477 26.86295509338379 -9999 -9999
-9999 -9999 27.425140380859375 27.425823211669922 27.471973419189453 27.600963592529297 27.843612670898438 28.075647354125977 28.292747497558594 28.487628936767578 28.620014190673828 28.657804489135742 28.569108963012695 28.353424072265625 28.022499084472656 27.617189407348633 27.159818649291992 26.820146560668945 26.65681266784668 -9999
-9999 -9999 27.34274673461914 27.41510772705078 27.566328048706055 27.869140625 28.26729965209961 28.683609008789062 29.087453842163086 29.434783935546875 29.659399032592773 29.733455657958984 29.651071548461914 29.394227981567383 28.936124801635742 28.365123748779297 27.709247589111328 27.191396713256836 26.915687561035156 -9999
-9999 -9999 27.128755569458008 27.32457733154297 27.654052734375 28.128639221191406 28.700477600097656 29.310972213745117 29.884654998779297 30.336576461791992 30.611671447753906 30.703128814697266 30.634572982788086 30.395986557006836 29.94985008239746 29.32680892944336 28.61014175415039 27.956323623657227 27.5744686126709 -9999
-9999 26.487483978271484 26.781295776367188 27.216310501098633 27.744848251342773 28.424551010131836 29.202423095703125 29.974777221679688 30.635082244873047 31.11237335205078 31.393512725830078 31.491647720336914 31.43381118774414 31.227460861206055 30.84406852722168 30.28377914428711 29.651201248168945 29.02954864501953 28.611303329467773 -9999
-9999 26.22650909423828 26.530927658081055 27.153396606445312 27.94700813293457 28.868526458740234 29.816204071044922 30.65572166442871 31.300975799560547 31.740259170532227 31.998411178588867 32.09107208251953 32.042259216308594 31.871540069580078 31.574182510375977 31.142772674560547 30.656925201416016 30.152132034301758 29.797128677368164 -9999
-9999 25.978755950927734 26.403650283813477 27.292211532592773 28.355945587158203 29.467023849487305 30.48646354675293 31.29769515991211 31.877017974853516 32.26220703125 32.4858283996582 32.559814453125 32.50594711303711 32.36978530883789 32.159732818603516 31.86188507080078 31.51658821105957 31.1507625579834 30.900569915771484 -9999
-9999 26.034584045410156 26.620807647705078 27.732078552246094 28.97395133972168 30.155803680419922 31.147048950195312 31.887897491455078 32.41350173950195 32.77130126953125 32.978546142578125 33.0341911315918 32.958675384521484 32.84770202636719 32.70905685424805 32.490264892578125 32.24454879760742 31.980825424194336 31.799619674682617 -9999
-9999 26.595993041992188 27.278194427490234 28.495328903198242 29.76744842529297 30.889301300048828 31.78057098388672 32.44966506958008 32.95536804199219 33.31989288330078 33.55438995361328 33.63538360595703 33.59413146972656 33.525970458984375 33.42502212524414 33.26701354980469 33.014286041259766 32.74052429199219 32.52348327636719 -9999
-9999 27.561141967773438 28.265567779541016 29.45417022705078 30.63142204284668 31.617218017578125 32.392982482910156 33.00782775878906 33.51046371459961 33.877010345458984 34.130332946777344 34.27825164794922 34.33845901489258 34.366512298583984 34.341251373291016 34.22715759277344 33.97831726074219 33.6180419921875 33.111324310302734 -9999
-9999 28.62732696533203 29.304031372070312 30.39015769958496 31.43419075012207 32.299415588378906 32.99648666381836 33.57464599609375 34.026283264160156 34.37480545043945 34.64338302612305 34.869998931884766 35.061866760253906 35.216651916503906 35.2966194152832 35.27647399902344 35.14400100708008 34.91737747192383 -9999 -9999
-9999 29.511417388916016 30.183752059936523 31.165809631347656 32.1061897277832 32.91539001464844 33.58488464355469 34.10713195800781 34.50536346435547 34.813270568847656 35.07099151611328 35.34705352783203 35.638946533203125 35.914390563964844 36.1063232421875 36.21604919433594 36.25674819946289 36.304195404052734 -9999 -9999
-9999 30.077383041381836 30.905132293701172 31.7857723236084 32.6538200378418 33.46167755126953 34.10885238647461 34.6093864440918 34.97104263305664 35.24617004394531 35.50712966918945 35.80681610107422 36.14124298095703 36.46979904174805 36.73183822631836 36.91872787475586 37.0548210144043 37.21523666381836 37.559242248535156 37.70918273925781
-9999 -9999 31.74558448791504 32.33809280395508 33.09815216064453 33.88722610473633 34.555564880371094 35.066734313964844 35.41610336303711 35.68621063232422 35.93993377685547 36.23496627807617 36.5684814453125 36.910640716552734 37.1909294128418 37.39225387573242 37.54416275024414 37.66773223876953 37.7931022644043 37.83241271972656
-9999 -9999 32.207305908203125 32.75178527832031 33.4346809387207 34.21295166015625 34.91496276855469 35.45630645751953 35.81467819213867 36.07426452636719 36.30302047729492 36.57992172241211 36.903011322021484 37.235923767089844 37.506046295166016 37.6976203918457 37.83442306518555 37.9101448059082 37.92719268798828 37.92743682861328
-9999 -9999 -9999 33.11876678466797 33.66172790527344 34.394893646240234 35.11033248901367 35.66643142700195 36.0258903503418 36.276248931884766 36.49486541748047 36.750701904296875 37.06574249267578 37.39373016357422 37.66482925415039 37.84693908691406 37.98003387451172 38.010406494140625 38.00129699707031 37.991397857666016
