ncols         20
nrows         20
xllcorner     0
yllcorner     -3.5992928
cellsize      0.17996463
NODATA_value  -9999
-9999.0 -9999 -9999 -9999 -9999 -9999 -9999 -9999 -9999 -9999 -9999 -9999 -9999 -9999 -9999 -9999 -9999 -9999 -9999 -9999
-9999 -9999 -9999 -9999 -9999 -9999 -9999 -9999 -9999 -9999 -9999 0 0 -9999 -9999 0 0 -9999 -9999 -9999
-9999 -9999 -9999 -9999 0 0 0 0 0 0 0 0 0 0 0 0 0 0 -9999 -9999
-9999 -9999 -9999 0 0 0 0 0 0 0 0 0 0 0 0 0 0 0 -9999 -9999
-9999 -9999 -9999 0 0 0 0 0 0 0 0 0 0 0 0 0 0 0 -9999 -9999
-9999 -9999 0 0 0 0 3.524714469909668 3.343675374984741 3.1673405170440674 2.9555106163024902 2.739154100418091 2.639333724975586 2.7023096084594727 2.9391725063323975 3.25860333442688 3.5968878269195557 0 0 0 -9999
-9999 -9999 0 0 0 3.5830037593841553 3.2987046241760254 3.0282323360443115 2.7123658657073975 2.345442771911621 2.010436534881592 1.838581919670105 1.8847887516021729 2.1580309867858887 0.2877388000488281 3.112166166305542 0 0 0 -9999
-9999 -9999 0 0 3.7664074897766113 3.443488121032715 3.0978047847747803 2.7013683319091797 2.2599780559539795 1.8189442157745361 1.4806623458862305 1.2997877597808838 1.316643238067627 1.5379422903060913 1.9438245296478271 2.481544017791748 3.0669236183166504 0 0 -9999
-9999 0 0 4.0814127922058105 3.70742130279541 3.2886438369750977 2.797344207763672 2.2601053714752197 1.7519302368164062 1.3410578966140747 1.0722458362579346 0.9348607063293457 0.928013265132904 1.0736345052719116 1.3704243898391724 0.4044150710105896 2.3627662658691406 2.8855020999908447 0 -9999
-9999 0 0 4.13706111907959 3.600731372833252 2.9875833988189697 2.3287060260772705 1.7042120695114136 1.2160205841064453 0.8982932567596436 0.7260376811027527 0.641940176486969 0.6377816796302795 0.7173459529876709 0.9094259738922119 0.2725506126880646 1.6709363460540771 2.127981424331665 0 -9999
-9999 0 0 4.091962814331055 3.3563013076782227 2.5840704441070557 1.820442795753479 1.1807588338851929 0.7647325992584229 0.5385985970497131 0.430269718170166 0.3855991065502167 0.3838375210762024 0.42794081568717957 0.5367350578308105 0.7396628856658936 1.0397398471832275 0 0 -9999
-9999 0 0 3.8308563232421875 2.954141139984131 2.1234519481658936 1.3674241304397583 0.7968012690544128 0.4652656316757202 0.29909005761146545 0.22650383412837982 0.19574739038944244 0.08558155596256256 0.11620686203241348 0.2572713792324066 0.08036065101623535 0.5390088558197021 0 0 -9999
-9999 0 0 3.2691564559936523 2.3750741481781006 1.6065711975097656 0.9735002517700195 0.5247458815574646 0.2771025002002716 0.16464847326278687 0.1074780821800232 0.08501525968313217 0.0514114610850811 0.0707617849111557 0.06440944224596024 0.13526900112628937 0.22121872007846832 0 0 -9999
-9999 0 0 2.5004799365997314 1.6782361268997192 1.0658373832702637 0.6186081767082214 0.32396742701530457 0.1595492660999298 0.0900452509522438 0.05742938816547394 0.0420234352350235 0.015346840023994446 0.025186970829963684 0.023125411942601204 0.044765882194042206 0.0686144009232521 0 0 -9999
-9999 0 0 1.7901841402053833 1.0806517601013184 0.634390652179718 0.3541068434715271 0.1803911179304123 0.09519609063863754 0.05476938560605049 0.03519659489393234 0.024596601724624634 0.01889483630657196 0.016204575076699257 0.010091283358633518 0.009174561128020287 0.02074378728866577 0 -9999 -9999
-9999 0 0 1.3226382732391357 0.723233699798584 0.3802616000175476 0.19790616631507874 0.1047830805182457 0.05967813730239868 0.03627968579530716 0.016062645241618156 0.013154654763638973 0.0015056078555062413 0.01483555044978857 0.007316794246435165 0.008099425584077835 0.01990574598312378 0.003031329484656453 -9999 -9999
-9999 0 0 1.045484185218811 0.5298408269882202 0.23895686864852905 0.11991892755031586 0.06377382576465607 0.0375816784799099 0.01592285744845867 0.0146725969389081 0.014616545289754868 0.012172448448836803 0.017205016687512398 0.019097119569778442 0.02116493135690689 0.023329228162765503 0.025749439373612404 0.02100078947842121 0.031101258471608162
-9999 -9999 0 0.8445249199867249 0.4118846654891968 0.1738433837890625 0.08023019134998322 0.041468508541584015 0.013563785701990128 0.014402610249817371 0.015924250707030296 0.016452226787805557 0.015713902190327644 0.015128540806472301 0.014370120130479336 0.015871359035372734 0.01739995926618576 0.02206425555050373 0.027150359004735947 0.03166475519537926
-9999 -9999 0 0 0.32727837562561035 0.1313171088695526 0.056789763271808624 0.027922680601477623 0.012241200543940067 0.01741698570549488 0.01728399656713009 0.017943713814020157 0.019309593364596367 0.021224388852715492 0.023445624858140945 0.025757355615496635 0.027995578944683075 0.029952051118016243 0.03142278268933296 0.03219195455312729
-9999 -9999 -9999 0 0.2791004478931427 0.11427540332078934 0.047888144850730896 0.02295360155403614 0.012637540698051453 0.018106859177350998 0.01804683730006218 0.018766187131404877 0.02020159363746643 0.02218620851635933 0.02446417510509491 0.026777224615216255 0.028956174850463867 0.03068535588681698 0.03188933804631233 0.03250700980424881
