ncols         20
nrows         20
xllcorner     0
yllcorner     -3.5992928
cellsize      0.17996463
NODATA_value  -9999
-9999.0 -9999 -9999 -9999 -9999 -9999 -9999 -9999 -9999 -9999 -9999 -9999 -9999 -9999 -9999 -9999 -9999 -9999 -9999 -9999
-9999 -9999 -9999 -9999 -9999 -9999 -9999 -9999 -9999 -9999 -9999 0.017971083521842957 0.01797371543943882 -9999 -9999 0.018082445487380028 0.018089041113853455 -9999 -9999 -9999
-9999 -9999 -9999 -9999 0.018086301162838936 0.01804943010210991 0.01799483597278595 0.017928708344697952 0.017864609137177467 0.017817702144384384 0.017801908776164055 0.037781305611133575 0.03779733180999756 0.017833275720477104 0.01786682941019535 0.03800778090953827 0.03804917633533478 0.01795462891459465 -9999 -9999
-9999 -9999 -9999 0.0179988332092762 0.03809420391917229 0.07922340929508209 0.07895880192518234 0.07861319929361343 0.07827091217041016 0.0780104398727417 0.0778907984495163 0.09385208040475845 0.09392285346984863 0.07805679738521576 0.07821091264486313 0.09444846212863922 0.0785774290561676 0.017815031111240387 -9999 -9999
-9999 -9999 -9999 0.017874829471111298 0.0788017213344574 0.11380036920309067 0.11332368105649948 0.11269719898700714 0.11208249628543854 0.11161613464355469 0.11139114946126938 0.11144143342971802 0.1115795224905014 0.1117432489991188 0.11200262606143951 0.11228597164154053 0.07769546657800674 0.0175773985683918 -9999 -9999
-9999 -9999 0.017637765035033226 0.03741014748811722 0.09391814470291138 0.11256971955299377 0.11191116273403168 0.11106016486883163 0.11025028675794601 0.10965505242347717 0.10936866700649261 0.10939528793096542 0.10963022708892822 0.10995513945817947 0.11029326915740967 0.11053679883480072 0.09193868190050125 0.03645827993750572 0.017115449532866478 -9999
-9999 -9999 0.01747891679406166 0.07703669369220734 0.11135634779930115 0.11083760112524033 0.10985353589057922 0.10860516875982285 0.10749275982379913 0.10671938955783844 0.10638353228569031 0.10647699981927872 0.10688894987106323 0.10741154104471207 0.10790009796619415 0.10823159664869308 0.1082521602511406 0.07459712028503418 0.0168968066573143 -9999
-9999 -9999 0.0172309298068285 0.07600344717502594 0.10959161072969437 0.10873313248157501 0.1073182225227356 0.10551564395427704 0.10413993149995804 0.10324083268642426 0.10284476727247238 0.10295598208904266 0.10355658084154129 0.10430581867694855 0.10499055683612823 0.1055101752281189 0.10579466074705124 0.07315570116043091 0.0165756493806839 -9999
-9999 0.016841145232319832 0.03577154129743576 0.0898623839020729 0.10753002017736435 0.1063997894525528 0.10464104264974594 0.10255734622478485 0.10097948461771011 0.09994637221097946 0.09946226328611374 0.09952118247747421 0.1000867560505867 0.10091541707515717 0.10173603892326355 0.1024131327867508 0.10287478566169739 0.0712728276848793 0.01616637036204338 -9999
-9999 0.016665346920490265 0.07337301224470139 0.10602422058582306 0.10535258799791336 0.10396815091371536 0.1019592359662056 0.09975138306617737 0.09804854542016983 0.09690278023481369 0.09631738066673279 0.09627876430749893 0.09674014151096344 0.09748269617557526 0.09833565354347229 0.09909587353467941 0.09966534376144409 0.06914286315441132 0.015701405704021454 -9999
-9999 0.016422152519226074 0.07225384563207626 0.1040538027882576 0.10309852659702301 0.10150547325611115 0.09934698790311813 0.09711715579032898 0.09535631537437439 0.09412731975317001 0.0934392511844635 0.09327749162912369 0.09359638392925262 0.09420662373304367 0.0949682965874672 0.09573953598737717 0.09637909382581711 0.06694775819778442 0.015220444649457932 -9999
-9999 0.01612444408237934 0.07086392492055893 0.10186383128166199 0.10075241327285767 0.09904893487691879 0.09686492383480072 0.09468742460012436 0.0929211974143982 0.09163539111614227 0.09084748476743698 0.09054532647132874 0.0906885489821434 0.0911225751042366 0.09173691272735596 0.09246904402971268 0.09319667518138885 0.06487773358821869 0.014768363907933235 -9999
-9999 0.01579493097960949 0.0693402886390686 0.09955079853534698 0.0983567088842392 0.09662792831659317 0.09453675150871277 0.09248195588588715 0.09074883908033371 0.08942624181509018 0.0885433554649353 0.08809021860361099 0.08802180737257004 0.0882418304681778 0.08867572993040085 0.08930733799934387 0.09021936357021332 0.06314465403556824 0.014384177513420582 -9999
-9999 0.015458839014172554 0.06779416650533676 0.09721753001213074 0.09597164392471313 0.09427130222320557 0.0923086404800415 0.09039958566427231 0.08873502165079117 0.08740615844726562 0.08644790202379227 0.08585061877965927 0.08557742834091187 0.08556638658046722 0.08576396852731705 0.08614953607320786 0.07196353375911713 0.029268186539411545 0.014092507772147655 -9999
-9999 0.01514427736401558 0.06634780019521713 0.09498949348926544 0.0936887264251709 0.09203502535820007 0.09020225703716278 0.08843570947647095 0.08686459064483643 0.0855536013841629 0.08454146981239319 0.08382119238376617 0.08336485922336578 0.08312773704528809 0.08306340128183365 0.08313029259443283 0.057560887187719345 0.013088764622807503 -9999 -9999
-9999 0.014882795512676239 0.06479893624782562 0.09298311918973923 0.09155299514532089 0.08995321393013 0.08825796842575073 0.08663772791624069 0.0851638913154602 0.08388782292604446 0.08284491300582886 0.08203033357858658 0.08142217248678207 0.08098441362380981 0.08067521452903748 0.08045516908168793 0.05511126667261124 0.012480713427066803 -9999 -9999
-9999 0.014697371050715446 0.030643513426184654 0.0752951055765152 0.08950001001358032 0.08805312216281891 0.08653893321752548 0.08506164699792862 0.0836845189332962 0.08245263248682022 0.08139849454164505 0.08051808178424835 0.07979347556829453 0.07919223606586456 0.07866837084293365 0.07816003262996674 0.06417158246040344 0.025175053626298904 0.01155389379709959 0.011418819427490234
-9999 -9999 0.014101331122219563 0.06120268628001213 0.0877646803855896 0.08645490556955338 0.0851166844367981 0.08377545326948166 0.08248957991600037 0.08130430430173874 0.0802524983882904 0.07933148741722107 0.07852660864591599 0.07780782133340836 0.07712869346141815 0.07640985399484634 0.07549217343330383 0.061723463237285614 0.05051020160317421 0.050159141421318054
-9999 -9999 0.013724351301789284 0.029032014310359955 0.07147595286369324 0.08518968522548676 0.08406524360179901 0.08285204321146011 0.08164362609386444 0.0804995745420456 0.07945679128170013 0.07851460576057434 0.07766224443912506 0.0768757164478302 0.07611940056085587 0.07534193992614746 0.07448454946279526 0.07354361563920975 0.07279806584119797 0.0724172592163086
-9999 -9999 -9999 0.013337120413780212 0.058632832020521164 0.08448170125484467 0.08350425213575363 0.08237198740243912 0.08121006935834885 0.08009111136198044 0.07905411720275879 0.0781034380197525 0.07722964882850647 0.07641349732875824 0.07562801986932755 0.07484231889247894 0.07403789460659027 0.07325983047485352 0.07264940440654755 0.07232319563627243
