ncols         20
nrows         20
xllcorner     0
yllcorner     -3.5992928
cellsize      0.17996463
NODATA_value  -9999
-9999.0 -9999 -9999 -9999 -9999 -9999 -9999 -9999 -9999 -9999 -9999 -9999 -9999 -9999 -9999 -9999 -9999 -9999 -9999 -9999
-9999 -9999 -9999 -9999 -9999 -9999 -9999 -9999 -9999 -9999 -9999 13.343340873718262 13.354381561279297 -9999 -9999 13.22859001159668 13.311128616333008 -9999 -9999 -9999
-9999 -9999 -9999 -9999 13.218087196350098 13.155373573303223 13.05459213256836 13.022079467773438 13.036650657653809 13.0556058883667 13.180273056030273 13.197717666625977 13.150794982910156 13.106736183166504 13.13424301147461 13.183334350585938 13.271061897277832 13.349884986877441 -9999 -9999
-9999 -9999 -9999 13.181520462036133 13.128984451293945 13.065378189086914 13.003166198730469 12.993616104125977 12.993627548217773 12.995250701904297 12.985142707824707 12.956356048583984 12.907465934753418 12.899552345275879 12.912507057189941 12.98393440246582 13.100486755371094 13.18579387664795 -9999 -9999
-9999 -9999 -9999 13.117077827453613 13.050500869750977 12.952718734741211 12.931885719299316 12.987444877624512 13.046026229858398 13.075302124023438 13.079488754272461 13.049973487854004 12.969796180725098 12.880450248718262 12.799356460571289 12.810522079467773 12.890984535217285 12.886941909790039 -9999 -9999
-9999 -9999 13.147555351257324 13.045366287231445 12.939188003540039 12.900221824645996 13.041959762573242 13.319543838500977 13.526029586791992 13.691110610961914 13.818140029907227 13.832297325134277 13.672433853149414 13.402017593383789 13.116087913513184 12.925246238708496 12.858814239501953 12.838953018188477 12.957332611083984 -9999
-9999 -9999 13.052019119262695 12.942964553833008 12.814335823059082 12.913984298706055 13.400922775268555 14.18850326538086 14.603668212890625 14.894511222839355 15.104421615600586 15.103521347045898 14.754433631896973 14.303934097290039 13.818132400512695 13.39832592010498 13.120495796203613 13.000953674316406 12.98762321472168 -9999
-9999 -9999 12.807679176330566 12.673406600952148 12.616000175476074 12.986844062805176 14.021429061889648 15.915689468383789 16.424427032470703 16.624418258666992 16.743417739868164 16.647876739501953 15.82427978515625 15.228561401367188 14.67831802368164 14.144980430603027 13.710640907287598 13.438190460205078 13.318586349487305 -9999
-9999 12.653306007385254 12.489873886108398 12.342435836791992 12.426397323608398 13.059759140014648 14.373961448669434 16.391159057617188 16.961734771728516 17.152191162109375 17.235166549682617 17.137102127075195 16.44408416748047 15.941934585571289 15.487975120544434 15.003061294555664 14.528484344482422 14.171538352966309 13.996927261352539 -9999
-9999 12.377134323120117 12.21855640411377 12.122123718261719 12.445767402648926 13.357941627502441 14.802002906799316 16.66866683959961 17.217912673950195 17.388263702392578 17.44704818725586 17.370437622070312 16.834062576293945 16.462881088256836 16.14092445373535 15.79039478302002 15.401389122009277 15.071121215820312 14.899588584899902 -9999
-9999 12.093185424804688 12.048047065734863 12.190929412841797 12.797948837280273 13.87197208404541 15.314126014709473 16.96387481689453 17.44405174255371 17.582050323486328 17.62864112854004 17.57149887084961 17.12373924255371 16.840530395507812 16.626022338867188 16.40180778503418 16.153467178344727 15.923468589782715 15.80202579498291 -9999
-9999 12.091519355773926 12.218297004699707 12.648752212524414 13.451628684997559 14.521536827087402 15.795614242553711 17.162397384643555 17.564308166503906 17.682838439941406 17.725658416748047 17.689512252807617 17.307025909423828 17.099149703979492 16.96336555480957 16.82674217224121 16.676361083984375 16.548381805419922 16.493011474609375 -9999
-9999 12.578473091125488 12.863062858581543 13.505452156066895 14.331974983215332 15.236572265625 16.140567779541016 16.921424865722656 17.28998374938965 17.43824577331543 17.492538452148438 17.47466278076172 17.355438232421875 17.270450592041016 17.19923973083496 17.118240356445312 17.007503509521484 16.922794342041016 16.91776466369629 -9999
-9999 13.46984577178955 13.833267211914062 14.542872428894043 15.288599967956543 15.952740669250488 16.519723892211914 16.960975646972656 17.222951889038086 17.3460693359375 17.39853858947754 17.410842895507812 17.398740768432617 17.391796112060547 17.38751220703125 17.352027893066406 17.26955223083496 17.1566162109375 17.192279815673828 -9999
-9999 14.371575355529785 14.746501922607422 15.428247451782227 16.051607131958008 16.510488510131836 16.847000122070312 17.09471893310547 17.246822357177734 17.332502365112305 17.376497268676758 17.407346725463867 17.435789108276367 17.468782424926758 17.509994506835938 17.52324867248535 17.492351531982422 17.36263084411621 -9999 -9999
-9999 15.011552810668945 15.384819984436035 15.998123168945312 16.51410484313965 16.861652374267578 17.076862335205078 17.214523315429688 17.293935775756836 17.344135284423828 17.374649047851562 17.40916633605957 17.45290756225586 17.503910064697266 17.558568954467773 17.606962203979492 17.640180587768555 17.71498680114746 -9999 -9999
-9999 15.401592254638672 15.83082389831543 16.3426513671875 16.774703979492188 17.076425552368164 17.230979919433594 17.31874656677246 17.360746383666992 17.386707305908203 17.405258178710938 17.433841705322266 17.474796295166016 17.52131462097168 17.57436752319336 17.626075744628906 17.66850471496582 17.699020385742188 17.640880584716797 17.650541305541992
-9999 -9999 16.271692276000977 16.59003448486328 16.933618545532227 17.195878982543945 17.339168548583984 17.409378051757812 17.435579299926758 17.445877075195312 17.449323654174805 17.4677734375 17.498226165771484 17.54598617553711 17.588857650756836 17.623031616210938 17.65863609313965 17.67827606201172 17.67078971862793 17.64284896850586
-9999 -9999 16.578065872192383 16.78995132446289 17.050447463989258 17.28894805908203 17.43355941772461 17.50172233581543 17.520395278930664 17.5129451751709 17.495624542236328 17.505491256713867 17.531478881835938 17.57076072692871 17.597919464111328 17.616992950439453 17.639175415039062 17.64789581298828 17.620067596435547 17.603296279907227
-9999 -9999 -9999 16.91545867919922 17.111412048339844 17.325977325439453 17.474124908447266 17.54051971435547 17.54948616027832 17.532878875732422 17.514202117919922 17.511362075805664 17.53553009033203 17.57157325744629 17.598939895629883 17.606069564819336 17.629972457885742 17.611045837402344 17.59074592590332 17.58088493347168
