ncols         20
nrows         20
xllcorner     0
yllcorner     -3.5992928
cellsize      0.17996463
NODATA_value  -9999
-9999.0 -9999 -9999 -9999 -9999 -9999 -9999 -9999 -9999 -9999 -9999 -9999 -9999 -9999 -9999 -9999 -9999 -9999 -9999 -9999
-9999 -9999 -9999 -9999 -9999 -9999 -9999 -9999 -9999 -9999 -9999 12.082453727722168 12.066681861877441 -9999 -9999 12.202981948852539 12.056805610656738 -9999 -9999 -9999
-9999 -9999 -9999 -9999 12.055856704711914 12.149974822998047 12.318137168884277 12.381756782531738 12.376045227050781 12.380339622497559 12.214542388916016 12.242535591125488 12.356279373168945 12.456064224243164 12.435243606567383 12.342164039611816 12.227621078491211 12.168562889099121 -9999 -9999
-9999 -9999 -9999 12.194133758544922 12.21644115447998 12.224568367004395 12.255349159240723 12.23836898803711 12.221048355102539 12.194616317749023 12.217103004455566 12.288763999938965 12.419611930847168 12.527277946472168 12.62455940246582 12.631036758422852 12.592691421508789 12.567838668823242 -9999 -9999
-9999 -9999 -9999 12.354928970336914 12.293383598327637 12.22948169708252 12.010994911193848 11.808293342590332 11.599493026733398 11.377974510192871 11.190801620483398 11.152961730957031 11.341306686401367 11.715900421142578 12.15939712524414 12.550976753234863 12.911469459533691 13.233662605285645 -9999 -9999
-9999 -9999 12.653586387634277 12.568360328674316 12.356255531311035 11.907821655273438 10.996896743774414 10.462438583374023 9.938799858093262 9.297185897827148 8.632180213928223 8.321852684020996 8.512548446655273 9.239147186279297 10.2164888381958 11.249126434326172 12.658080101013184 13.404169082641602 13.633904457092285 -9999
-9999 -9999 12.875120162963867 12.652463912963867 12.203583717346191 11.174580574035645 10.322961807250977 9.510009765625 8.548505783081055 7.417731285095215 6.375919342041016 5.837201118469238 5.977720260620117 6.825138092041016 8.161221504211426 9.775568962097168 11.696049690246582 12.89138412475586 13.444568634033203 -9999
-9999 -9999 13.381661415100098 12.836067199707031 11.737018585205078 10.767632484436035 9.723085403442383 8.512975692749023 7.1528401374816895 5.781754016876221 4.722840785980225 4.152230739593506 4.201835632324219 4.892614841461182 6.158287525177002 7.831149578094482 9.649239540100098 11.483795166015625 12.402375221252441 -9999
-9999 14.736966133117676 14.17358112335205 12.70528793334961 11.57858943939209 10.308135986328125 8.803853034973145 7.145589351654053 5.565878868103027 4.280536651611328 3.4351181983947754 2.9999749660491943 2.975409746170044 3.4318485260009766 4.362444877624512 5.769637107849121 7.467357635498047 9.101082801818848 10.376861572265625 -9999
-9999 15.41174030303955 14.769447326660156 12.898714065551758 11.26549243927002 9.383968353271484 7.346954822540283 5.403221130371094 3.874910354614258 2.8757708072662354 2.332453727722168 2.0655369758605957 2.0506789684295654 2.3004531860351562 2.9057998657226562 3.904560089111328 5.304375171661377 6.742896556854248 7.831063270568848 -9999
-9999 16.13300132751465 15.220626831054688 12.77623462677002 10.517060279846191 8.13031005859375 5.754299163818359 3.7508585453033447 2.441178321838379 1.7268282175064087 1.3839818239212036 1.242091417312622 1.2357020378112793 1.3747676610946655 1.7192988395690918 2.3625693321228027 3.313814163208008 4.477550029754639 5.177274703979492 -9999
-9999 16.24089813232422 14.985174179077148 11.978747367858887 9.27043628692627 6.690601825714111 4.32778263092041 2.533438205718994 1.485944151878357 0.9591118693351746 0.7286378145217896 0.6305851936340332 0.619998037815094 0.6723904013633728 0.8253172039985657 1.157740831375122 1.723203182220459 2.43613862991333 2.8508379459381104 -9999
-9999 15.165518760681152 13.587815284729004 10.23957347869873 7.464354515075684 5.0682477951049805 3.0834007263183594 1.6687809228897095 0.8848699331283569 0.5278257131576538 0.3458685278892517 0.2740195095539093 0.2484527826309204 0.25616228580474854 0.31049564480781555 0.4342349171638489 0.7090514302253723 1.0824499130249023 1.3363606929779053 -9999
-9999 12.874624252319336 11.153382301330566 7.846460342407227 5.282294273376465 3.3659210205078125 1.9602676630020142 1.0303425788879395 0.5096877813339233 0.2886941432952881 0.18465927243232727 0.13532207906246185 0.11117751151323318 0.10419730097055435 0.11154838651418686 0.1439177691936493 0.22054234147071838 0.38847145438194275 0.5478367805480957 -9999
-9999 10.34022045135498 8.678752899169922 5.627692222595215 3.405870199203491 2.004934787750244 1.1225066184997559 0.574018120765686 0.3039696216583252 0.1753917634487152 0.11295325309038162 0.07904180139303207 0.060737479478120804 0.05207386240363121 0.048623308539390564 0.053047358989715576 0.06665581464767456 0.10700321942567825 -9999 -9999
-9999 8.524352073669434 6.9194183349609375 4.16391658782959 2.2814855575561523 1.2024203538894653 0.6277536153793335 0.3333361744880676 0.19034232199192047 0.11595676094293594 0.07713334262371063 0.05419901758432388 0.04343932494521141 0.047566790133714676 0.05277813598513603 0.05841816961765289 0.06380464136600494 0.06799643486738205 -9999 -9999
-9999 7.278528213500977 5.633194923400879 3.294870376586914 1.6724154949188232 0.7560985684394836 0.3803165853023529 0.20269079506397247 0.11966564506292343 0.07617518305778503 0.05271068215370178 0.04671714827418327 0.05005153641104698 0.05504453182220459 0.061099302023649216 0.06770089268684387 0.07459018379449844 0.08225440979003906 0.09375722706317902 0.09911388158798218
-9999 -9999 4.265967845916748 2.6638386249542236 1.30059015750885 0.5500089526176453 0.2542790472507477 0.13163121044635773 0.07761452347040176 0.05158160626888275 0.0507536455988884 0.05248325318098068 0.05642750859260559 0.06211113929748535 0.06883592903614044 0.07601217180490494 0.08329670131206512 0.09047693014144897 0.09734081476926804 0.10087241232395172
-9999 -9999 3.0318920612335205 2.0883424282073975 1.033767819404602 0.41537946462631226 0.17987079918384552 0.08855491131544113 0.05831252411007881 0.055383481085300446 0.055021174252033234 0.05716759338974953 0.06155823916196823 0.06768923997879028 0.07478044927120209 0.0821402445435524 0.08924659341573715 0.09544090926647186 0.1000853031873703 0.102510467171669
-9999 -9999 -9999 1.7045520544052124 0.8820747137069702 0.36146944761276245 0.15160484611988068 0.07276339828968048 0.06016986444592476 0.057544998824596405 0.05741589143872261 0.05975145846605301 0.06436256319284439 0.0707131177186966 0.07798164337873459 0.08534267544746399 0.09226013720035553 0.09773635864257812 0.10154088586568832 0.1034889817237854
