ncols         20
nrows         20
xllcorner     0
yllcorner     -3.5992928
cellsize      0.17996463
NODATA_value  -9999
-9999.0 -9999 -9999 -9999 -9999 -9999 -9999 -9999 -9999 -9999 -9999 -9999 -9999 -9999 -9999 -9999 -9999 -9999 -9999 -9999
-9999 -9999 -9999 -9999 -9999 -9999 -9999 -9999 -9999 -9999 -9999 3.010181427001953 3.025540828704834 -9999 -9999 3.3619515895843506 3.3845882415771484 -9999 -9999 -9999
-9999 -9999 -9999 -9999 3.159160852432251 3.080946207046509 2.9728646278381348 2.8673698902130127 2.7866783142089844 2.7449803352355957 2.753214120864868 2.8378262519836426 2.885852336883545 2.9188976287841797 3.021594285964966 3.185556650161743 3.269134044647217 3.288831949234009 -9999 -9999
-9999 -9999 -9999 3.128202199935913 3.0649361610412598 2.932520866394043 2.7815237045288086 2.652249813079834 2.560251235961914 2.5100739002227783 2.504246234893799 2.540466785430908 2.5934369564056396 2.667013168334961 2.781480312347412 2.929847478866577 3.068190336227417 3.152223825454712 -9999 -9999
-9999 -9999 -9999 2.9921798706054688 2.8552682399749756 2.641347646713257 2.408064365386963 2.242511749267578 2.1371212005615234 2.079101324081421 2.061723232269287 2.0801947116851807 2.1288034915924072 2.2113900184631348 2.33998703956604 2.523364305496216 2.754246473312378 2.9025938510894775 -9999 -9999
-9999 -9999 2.8512918949127197 2.774813413619995 2.5428075790405273 2.2158167362213135 1.8284125328063965 1.6436007022857666 1.545422911643982 1.495079755783081 1.477481722831726 1.48665452003479 1.522012710571289 1.589869499206543 1.7073876857757568 1.9157911539077759 2.3306260108947754 2.5603842735290527 2.573007822036743 -9999
-9999 -9999 2.675499439239502 2.48534893989563 2.144854784011841 1.7079334259033203 1.4358350038528442 1.2817904949188232 1.1970241069793701 1.1534767150878906 1.1372859477996826 1.1429251432418823 1.1711491346359253 1.2292418479919434 1.335228443145752 1.5308793783187866 1.9179155826568604 2.201491355895996 2.3325366973876953 -9999
-9999 -9999 2.4337210655212402 2.1357264518737793 1.6809771060943604 1.3734474182128906 1.1741054058074951 1.0532608032226562 0.9846958518028259 0.949007511138916 0.9353542923927307 0.9393956065177917 0.9619781970977783 1.0088433027267456 1.0924832820892334 1.2363189458847046 1.471732497215271 1.8008973598480225 1.986762523651123 -9999
-9999 2.424748659133911 2.231891632080078 1.7423255443572998 1.393700122833252 1.157689094543457 1.0036895275115967 0.9088141918182373 0.8534814119338989 0.8238747715950012 0.8122075200080872 0.8151593804359436 0.833113968372345 0.869866132736206 0.9330456852912903 1.0344796180725098 1.1874992847442627 1.394336223602295 1.6295889616012573 -9999
-9999 2.3285298347473145 2.0719189643859863 1.5462385416030884 1.2265642881393433 1.0242769718170166 0.896647572517395 0.8184095621109009 0.7718486785888672 0.7462493181228638 0.7356936931610107 0.7374581694602966 0.7515125870704651 0.7802594900131226 0.8285747170448303 0.9038639068603516 1.0154063701629639 1.1720787286758423 1.359992265701294 -9999
-9999 2.204221248626709 1.9381970167160034 1.4259737730026245 1.1253948211669922 0.942099392414093 0.8301753997802734 0.7617914080619812 0.720673680305481 0.6976389288902283 0.68763667345047 0.6881894469261169 0.6990181803703308 0.7217773199081421 0.7600521445274353 0.8200356960296631 0.9127464890480042 1.061551570892334 1.1749366521835327 -9999
-9999 2.0696682929992676 1.814867615699768 1.3379642963409424 1.0582798719406128 0.8896304965019226 0.7877840995788574 0.7256112098693848 0.6881257891654968 0.6668639183044434 0.6571844816207886 0.6566448211669922 0.6648299098014832 0.6830279231071472 0.7139942049980164 0.7626267075538635 0.8379059433937073 0.9561033248901367 1.0381481647491455 -9999
-9999 1.9270753860473633 1.691480278968811 1.2627394199371338 1.0069117546081543 0.8526293039321899 0.7589120864868164 0.7016068696975708 0.667009711265564 0.6471048593521118 0.6378028988838196 0.6363478302955627 0.6424536108970642 0.6571080684661865 0.6824634671211243 0.7224359512329102 0.7834904193878174 0.8774653673171997 0.9458127617835999 -9999
-9999 1.7763090133666992 1.5631003379821777 1.1892833709716797 0.9611929059028625 0.8224760890007019 0.7372362017631531 0.6848042011260986 0.6530616283416748 0.6340845227241516 0.6245312690734863 0.6222985982894897 0.6267675757408142 0.6385320425033569 0.6592543721199036 0.6923488974571228 0.7445863485336304 0.8239109516143799 0.8966147303581238 -9999
-9999 1.626539945602417 1.4351019859313965 1.1153407096862793 0.917597770690918 0.7955605387687683 0.7196382880210876 0.672431230545044 0.6426190733909607 0.6246052980422974 0.6151230931282043 0.6123117208480835 0.6154319643974304 0.6246668696403503 0.6410762667655945 0.6670342683792114 0.7069050073623657 0.7556220889091492 -9999 -9999
-9999 1.4987634420394897 1.3202543258666992 1.0471625328063965 0.8776554465293884 0.771880567073822 0.7052555084228516 0.6621571183204651 0.6345797777175903 0.6175937652587891 0.6082938313484192 0.6050186157226562 0.6069453358650208 0.6139194965362549 0.6263651847839355 0.6455410718917847 0.6735092401504517 0.7011874914169312 -9999 -9999
-9999 1.4147287607192993 1.2197133302688599 0.9890190362930298 0.843541145324707 0.7524352669715881 0.6929106116294861 0.6538687348365784 0.6284616589546204 0.6124966144561768 0.6034731864929199 0.599837064743042 0.6007075905799866 0.6056750416755676 0.6146776080131531 0.6280354857444763 0.6461998224258423 0.6633642911911011 0.659868061542511 0.6591933369636536
-9999 -9999 1.080803632736206 0.9341065883636475 0.8157155513763428 0.736541748046875 0.6832356452941895 0.6476283669471741 0.6240680813789368 0.6090221405029297 0.6002645492553711 0.5963400602340698 0.5963369011878967 0.5996828079223633 0.6059688329696655 0.6148714423179626 0.6257271766662598 0.6364312171936035 0.6405482888221741 0.641758143901825
-9999 -9999 1.023442029953003 0.9171155691146851 0.8018981218338013 0.7265534400939941 0.6768423318862915 0.6435472369194031 0.6213124990463257 0.6069295406341553 0.5983482003211975 0.5942139029502869 0.593601644039154 0.5958321690559387 0.6003140211105347 0.6064706444740295 0.6134706139564514 0.6198227405548096 0.6234849691390991 0.6250342726707458
-9999 -9999 -9999 0.8746174573898315 0.7896556854248047 0.7205088138580322 0.6734488606452942 0.6415027379989624 0.6199894547462463 0.6059549450874329 0.5974652767181396 0.5932127237319946 0.5922887921333313 0.5939621329307556 0.597571611404419 0.6024569869041443 0.607843279838562 0.6126008629798889 0.615763783454895 0.6172736883163452
