ncols         20
nrows         20
xllcorner     0
yllcorner     -3.5992928
cellsize      0.17996463
NODATA_value  -9999
-9999.0 -9999 -9999 -9999 -9999 -9999 -9999 -9999 -9999 -9999 -9999 -9999 -9999 -9999 -9999 -9999 -9999 -9999 -9999 -9999
-9999 -9999 -9999 -9999 -9999 -9999 -9999 -9999 -9999 -9999 -9999 0.12602165341377258 0.12418755888938904 -9999 -9999 0.11489491909742355 0.10769452154636383 -9999 -9999 -9999
-9999 -9999 -9999 -9999 0.11984815448522568 0.12928111851215363 0.14662587642669678 0.16207130253314972 0.17364872992038727 0.18220257759094238 0.1679391860961914 0.15652060508728027 0.1580849438905716 0.16208365559577942 0.1484113186597824 0.12919460237026215 0.11685670912265778 0.11056928336620331 -9999 -9999
-9999 -9999 -9999 0.11659315228462219 0.12524569034576416 0.13786689937114716 0.15662705898284912 0.17622436583042145 0.1986258327960968 0.2193859964609146 0.23536701500415802 0.2393152415752411 0.2399349957704544 0.22524957358837128 0.1998574137687683 0.1687154769897461 0.14464832842350006 0.1322467029094696 -9999 -9999
-9999 -9999 -9999 0.1200733482837677 0.13096794486045837 0.1530141532421112 0.1798824667930603 0.21156659722328186 0.25278571248054504 0.31012508273124695 0.37252625823020935 0.41309505701065063 0.41702157258987427 0.37371116876602173 0.3158259689807892 0.25150954723358154 0.20441187918186188 0.19278934597969055 -9999 -9999
-9999 -9999 0.1094396561384201 0.12256516516208649 0.14188554883003235 0.1704162210226059 0.20267724990844727 0.24159181118011475 0.3059353828430176 0.3997238576412201 0.5182821154594421 0.6092700362205505 0.6500821709632874 0.5993436574935913 0.49398109316825867 0.3874146640300751 0.30872035026550293 0.2787271738052368 0.26540279388427734 -9999
-9999 -9999 0.11571037769317627 0.12975898385047913 0.15973304212093353 0.19619642198085785 0.2274027317762375 0.2572820782661438 0.31799957156181335 0.41811835765838623 0.5557807087898254 0.7048393487930298 0.8404978513717651 0.8490748405456543 0.7482966780662537 0.5986032485961914 0.4757203161716461 0.39660415053367615 0.366472989320755 -9999
-9999 -9999 0.13507133722305298 0.15736980736255646 0.19996969401836395 0.24221046268939972 0.2634987235069275 0.23312893509864807 0.24897052347660065 0.2999226748943329 0.38345223665237427 0.5357825756072998 0.9096328020095825 1.0588628053665161 1.0232430696487427 0.8785896897315979 0.7250542044639587 0.6039304137229919 0.5536724925041199 -9999
-9999 0.1481628566980362 0.17068630456924438 0.21124261617660522 0.2787863314151764 0.3409348726272583 0.3504793643951416 0.2705838084220886 0.2561527192592621 0.283046692609787 0.35475975275039673 0.5286253094673157 1.0064327716827393 1.2749989032745361 1.3416557312011719 1.2412889003753662 1.0614348649978638 0.9044607877731323 0.833256185054779 -9999
-9999 0.18725475668907166 0.22327393293380737 0.3048005998134613 0.41472506523132324 0.5053759813308716 0.5094119906425476 0.36213600635528564 0.3204807639122009 0.33325403928756714 0.40182599425315857 0.5967732667922974 1.1594595909118652 1.5293947458267212 1.6891374588012695 1.6629118919372559 1.4964730739593506 1.3206920623779297 1.2347947359085083 -9999
-9999 0.27047115564346313 0.3250201940536499 0.44508135318756104 0.5943288803100586 0.7172242403030396 0.7301927208900452 0.5094388723373413 0.45021966099739075 0.4566761553287506 0.5254188776016235 0.7351758480072021 1.3970755338668823 1.8324891328811646 2.0654664039611816 2.1103413105010986 2.0115294456481934 1.8465912342071533 1.7571539878845215 -9999
-9999 0.41662031412124634 0.48973771929740906 0.652573823928833 0.8407495021820068 0.9994396567344666 1.0404291152954102 0.7723383903503418 0.7165225744247437 0.722149133682251 0.7834122776985168 0.9817549586296082 1.6763622760772705 2.106548309326172 2.369356155395508 2.4939167499542236 2.482819080352783 2.3808085918426514 2.308109998703003 -9999
-9999 0.6459894776344299 0.7491667866706848 0.9648767709732056 1.1850582361221313 1.3811249732971191 1.4943870306015015 1.4660303592681885 1.4225753545761108 1.4033751487731934 1.4593126773834229 1.627319574356079 1.9433797597885132 2.2114815711975098 2.425002098083496 2.5901310443878174 2.701256275177002 2.715211868286133 2.6657838821411133 -9999
-9999 0.9443668723106384 1.0765337944030762 1.34929358959198 1.6092109680175781 1.8079923391342163 1.9198578596115112 1.922835111618042 1.867761254310608 1.8264598846435547 1.8359390497207642 1.9025813341140747 2.00925350189209 2.109750270843506 2.2009117603302 2.3321588039398193 2.5109410285949707 2.704462766647339 2.6971898078918457 -9999
-9999 1.2242450714111328 1.3792678117752075 1.700103998184204 1.9724688529968262 2.1289684772491455 2.1823654174804688 2.1522202491760254 2.086705207824707 2.0289056301116943 1.9993318319320679 1.9765424728393555 1.9512388706207275 1.9195756912231445 1.8809150457382202 1.9061119556427002 2.0078744888305664 2.2771689891815186 -9999 -9999
-9999 1.4126737117767334 1.5879848003387451 1.9209671020507812 2.161208152770996 2.255403757095337 2.251080274581909 2.1958703994750977 2.1367647647857666 2.081961154937744 2.035764694213867 1.9628411531448364 1.85567307472229 1.724905252456665 1.6032485961914062 1.5137174129486084 1.4791887998580933 1.3367363214492798 -9999 -9999
-9999 1.5542596578598022 1.740962266921997 2.0381932258605957 2.2300753593444824 2.2530007362365723 2.193934679031372 2.111845016479492 2.0508527755737305 1.9988832473754883 1.9446930885314941 1.8472036123275757 1.7036399841308594 1.5461180210113525 1.3859949111938477 1.248024821281433 1.1437302827835083 1.0471482276916504 1.0089452266693115 0.910668671131134
-9999 -9999 1.8985469341278076 2.111198902130127 2.244502067565918 2.2012760639190674 2.0786681175231934 1.9622766971588135 1.8868513107299805 1.8341119289398193 1.780090093612671 1.683219075202942 1.544811487197876 1.3604307174682617 1.1968224048614502 1.0727192163467407 0.9573641419410706 0.8799907565116882 0.8272275924682617 0.8687270879745483
-9999 -9999 2.056802749633789 2.1720032691955566 2.231491804122925 2.1207122802734375 1.9363435506820679 1.7785143852233887 1.6798046827316284 1.6300381422042847 1.6069461107254028 1.518159031867981 1.3791829347610474 1.2016487121582031 1.0605772733688354 0.9569709300994873 0.8687161803245544 0.8183661103248596 0.8685266375541687 0.8975374698638916
-9999 -9999 -9999 2.203594923019409 2.2202062606811523 2.0789411067962646 1.8610177040100098 1.6851398944854736 1.5834647417068481 1.5439146757125854 1.5187681913375854 1.4556772708892822 1.3173773288726807 1.1431245803833008 0.9945670962333679 0.9171358346939087 0.8193176984786987 0.8501182198524475 0.891934335231781 0.9156551361083984
