ncols         20
nrows         20
xllcorner     0
yllcorner     -3.5992928
cellsize      0.17996463
NODATA_value  -9999
-9999.0 -9999 -9999 -9999 -9999 -9999 -9999 -9999 -9999 -9999 -9999 -9999 -9999 -9999 -9999 -9999 -9999 -9999 -9999 -9999
-9999 -9999 -9999 -9999 -9999 -9999 -9999 -9999 -9999 -9999 -9999 1.1342723369598389 1.1168286800384521 -9999 -9999 1.0751703977584839 1.0108281373977661 -9999 -9999 -9999
-9999 -9999 -9999 -9999 1.1554609537124634 1.2300395965576172 1.3619508743286133 1.4620105028152466 1.520744800567627 1.5573475360870361 1.4178593158721924 1.3325647115707397 1.341417670249939 1.3561830520629883 1.256109356880188 1.1347427368164062 1.0367988348007202 0.9664393663406372 -9999 -9999
-9999 -9999 -9999 1.0776704549789429 1.1643450260162354 1.2635241746902466 1.3984805345535278 1.522940754890442 1.6568306684494019 1.7718626260757446 1.8524856567382812 1.8566441535949707 1.8470983505249023 1.7329051494598389 1.5545493364334106 1.3404700756072998 1.1652711629867554 1.0670593976974487 -9999 -9999
-9999 -9999 -9999 1.048883080482483 1.137886643409729 1.302571415901184 1.485558271408081 1.6833369731903076 1.928849220275879 2.2708373069763184 2.6259448528289795 2.830349922180176 2.8090198040008545 2.505465030670166 2.1306002140045166 1.7249809503555298 1.4205548763275146 1.341599941253662 -9999 -9999
-9999 -9999 0.823694109916687 0.9605656862258911 1.106909155845642 1.299425721168518 1.501386284828186 1.7324072122573853 2.1061534881591797 2.6263608932495117 3.2416164875030518 3.645678997039795 3.758673667907715 3.4058632850646973 2.8076202869415283 2.2258312702178955 1.786112666130066 1.5970431566238403 1.4322831630706787 -9999
-9999 -9999 0.79080730676651 0.8900124430656433 1.0758278369903564 1.2873846292495728 1.4642456769943237 1.6454609632492065 1.9753508567810059 2.4677464962005615 3.0727651119232178 3.626443862915039 4.052334785461426 3.962747097015381 3.4729537963867188 2.8050549030303955 2.258673906326294 1.8963825702667236 1.7359223365783691 -9999
-9999 -9999 0.780781626701355 0.8991343975067139 1.1090292930603027 1.3043838739395142 1.41163969039917 1.2971627712249756 1.382327914237976 1.587345838546753 1.854104995727539 2.2825143337249756 3.4752883911132812 3.8909223079681396 3.7442526817321777 3.263875961303711 2.7509703636169434 2.331667900085449 2.152876853942871 -9999
-9999 0.6426458358764648 0.7921224236488342 0.9706749320030212 1.2306110858917236 1.4435129165649414 1.4619510173797607 1.162476658821106 1.0971779823303223 1.1469802856445312 1.2857047319412231 1.6558716297149658 2.859661102294922 3.517650604248047 3.7143917083740234 3.522139072418213 3.1168768405914307 2.7368602752685547 2.5607221126556396 -9999
-9999 0.7189236283302307 0.8573371171951294 1.1300241947174072 1.4534496068954468 1.6699235439300537 1.5998914241790771 1.1081238985061646 0.9310318827629089 0.8925065398216248 0.9662690162658691 1.2806150913238525 2.3496897220611572 3.069448709487915 3.4442808628082275 3.5069992542266846 3.2957444190979004 3.026089906692505 2.8945627212524414 -9999
-9999 0.8815912008285522 1.0373176336288452 1.3540828227996826 1.6881098747253418 1.87424635887146 1.7218157052993774 1.0632286071777344 0.8188332915306091 0.7378077507019043 0.7810752391815186 1.0443103313446045 1.9953796863555908 2.6655452251434326 3.093787908554077 3.2910447120666504 3.284433126449585 3.1497604846954346 3.078047275543213 -9999
-9999 1.155037522315979 1.3193950653076172 1.6612550020217896 1.9691163301467896 2.083052635192871 1.8576070070266724 1.09526526927948 0.8304261565208435 0.7296649217605591 0.7456485629081726 0.9488759636878967 1.7547473907470703 2.310250759124756 2.7067408561706543 2.9688525199890137 3.0857765674591064 3.0844688415527344 3.075035333633423 -9999
-9999 1.5512518882751465 1.7377601861953735 2.089629650115967 2.3098926544189453 2.327975034713745 2.09696102142334 1.652655839920044 1.325016736984253 1.1419651508331299 1.1156842708587646 1.2601381540298462 1.6106172800064087 1.9459331035614014 2.2473201751708984 2.5131263732910156 2.721670627593994 2.8384737968444824 2.8787841796875 -9999
-9999 2.0060102939605713 2.1902260780334473 2.508188486099243 2.629889488220215 2.5220463275909424 2.236502170562744 1.8583871126174927 1.5335900783538818 1.3225113153457642 1.244670033454895 1.2857190370559692 1.4164403676986694 1.5710023641586304 1.7296113967895508 1.9243671894073486 2.165334701538086 2.439671754837036 2.5902721881866455 -9999
-9999 2.331173896789551 2.4738144874572754 2.721029281616211 2.7373955249786377 2.524477005004883 2.1975862979888916 1.8494315147399902 1.5493080615997314 1.3477171659469604 1.2481913566589355 1.2197113037109375 1.2371093034744263 1.2745985984802246 1.3145670890808105 1.3969314098358154 1.5340290069580078 1.7952040433883667 -9999 -9999
-9999 2.4256656169891357 2.509408950805664 2.667186737060547 2.595698833465576 2.3413875102996826 2.024445056915283 1.710665225982666 1.466441035270691 1.2988917827606201 1.2024545669555664 1.1435928344726562 1.1021203994750977 1.0652868747711182 1.0370122194290161 1.0231937170028687 1.0371745824813843 0.96037358045578 -9999 -9999
-9999 2.4645442962646484 2.4171218872070312 2.472994565963745 2.360600233078003 2.1001341342926025 1.794594407081604 1.5239793062210083 1.328706979751587 1.1950385570526123 1.1097252368927002 1.0410114526748657 0.9753507375717163 0.9159213304519653 0.8559668064117432 0.8021177053451538 0.7591671943664551 0.707710325717926 0.6752042174339294 0.608544111251831
-9999 -9999 2.213743209838867 2.242152214050293 2.1285758018493652 1.8708277940750122 1.5786277055740356 1.3397655487060547 1.1760517358779907 1.0681548118591309 0.996695876121521 0.9326913356781006 0.868198573589325 0.7890254259109497 0.721611738204956 0.671382486820221 0.6179394721984863 0.5795906782150269 0.548659086227417 0.5775893330574036
-9999 -9999 2.1627113819122314 2.0780622959136963 1.9454210996627808 1.683610200881958 1.39686918258667 1.171733021736145 1.0231612920761108 0.9360837340354919 0.8917088508605957 0.835097074508667 0.7691141366958618 0.6906889081001282 0.6329032778739929 0.5922612547874451 0.554528534412384 0.5336586236953735 0.5725772976875305 0.5944657921791077
-9999 -9999 -9999 1.934788703918457 1.8423972129821777 1.5905942916870117 1.3074463605880737 1.0908395051956177 0.9541192054748535 0.8811707496643066 0.8397414684295654 0.7984819412231445 0.7325636744499207 0.6549140810966492 0.5915753245353699 0.5655831098556519 0.5216179490089417 0.5528724193572998 0.5871659517288208 0.6061273217201233
