ncols         20
nrows         20
xllcorner     0
yllcorner     -3.5992928
cellsize      0.17996463
NODATA_value  -9999
-9999.0 -9999 -9999 -9999 -9999 -9999 -9999 -9999 -9999 -9999 -9999 -9999 -9999 -9999 -9999 -9999 -9999 -9999 -9999 -9999
-9999 -9999 -9999 -9999 -9999 -9999 -9999 -9999 -9999 -9999 -9999 0.03213786333799362 0.03078649193048477 -9999 -9999 0.024280326440930367 0.021303752437233925 -9999 -9999 -9999
-9999 -9999 -9999 -9999 0.037940189242362976 0.04326213523745537 0.053543560206890106 0.06213673949241638 0.0671418085694313 0.06940937042236328 0.0557500459253788 0.04663838446140289 0.04547889903187752 0.04478193819522858 0.03662867099046707 0.02826259657740593 0.02303914725780487 0.019970526918768883 -9999 -9999
-9999 -9999 -9999 0.03428557515144348 0.039810437709093094 0.04737062007188797 0.05902568995952606 0.07109156996011734 0.08459367603063583 0.09568605571985245 0.10162269324064255 0.09761368483304977 0.09191896766424179 0.07676135748624802 0.058602895587682724 0.04149855300784111 0.030399121344089508 0.02516993321478367 -9999 -9999
-9999 -9999 -9999 0.03398296609520912 0.04041758179664612 0.05446327105164528 0.07363860309123993 0.09832973033189774 0.13216878473758698 0.18263192474842072 0.2361418455839157 0.25923463702201843 0.23836152255535126 0.17622539401054382 0.11921075731515884 0.07385048270225525 0.04818945378065109 0.04224542900919914 -9999 -9999
-9999 -9999 0.023241326212882996 0.030985066667199135 0.04223735257983208 0.0617009773850441 0.08944360166788101 0.13057269155979156 0.20532965660095215 0.3216487169265747 0.46744054555892944 0.5402002930641174 0.5113356113433838 0.37483036518096924 0.23218576610088348 0.13530470430850983 0.08294766396284103 0.06488435715436935 0.05287664756178856 -9999
-9999 -9999 0.02278759330511093 0.029390249401330948 0.04577158764004707 0.07352660596370697 0.11312497407197952 0.17877203226089478 0.29557645320892334 0.47713449597358704 0.693638801574707 0.8239777088165283 0.7970472574234009 0.6229701042175293 0 0.24402324855327606 0.1472093015909195 0.09969094395637512 0.0825207456946373 -9999
-9999 -9999 0.024491086602211 0.03403661772608757 0.05788842588663101 0.09757872670888901 0.16083529591560364 0.25963038206100464 0.40493011474609375 0.6030974388122559 0.7925530076026917 0.9189663529396057 0.9137458801269531 0.7801092267036438 0.582364559173584 0.3858790099620819 0.24890172481536865 0.1688791811466217 0.14048603177070618 -9999
-9999 0.01861799694597721 0.028120556846261024 0.04534408450126648 0.08535882830619812 0.15450994670391083 0.25419846177101135 0.3947688639163971 0.5573481917381287 0.7144994139671326 0.8270785808563232 0.8962210416793823 0.9097004532814026 0.8402808308601379 0.7154690623283386 0 0.3781794607639313 0.26938045024871826 0.22787855565547943 -9999
-9999 0.024366773664951324 0.0358172208070755 0.06872070580720901 0.13723960518836975 0.24992838501930237 0.4026469886302948 0.5783499479293823 0.7264668941497803 0.8130415678024292 0.8421452045440674 0.8596442937850952 0.864058792591095 0.8445659279823303 0.7821707129478455 0 0.5142866969108582 0.3942877948284149 0.34595194458961487 -9999
-9999 0.03848841041326523 0.055805567651987076 0.10611040890216827 0.20104841887950897 0.3481016457080841 0.5379495620727539 0.7220403552055359 0.8241569995880127 0.8464851975440979 0.835114598274231 0.8287859559059143 0.8366171717643738 0.8337078094482422 0.8044389486312866 0.7421387434005737 0.6310474872589111 0.5248017311096191 0.47790515422821045 -9999
-9999 0.06859316676855087 0.09393659234046936 0.16601668298244476 0.282607764005661 0.4379253387451172 0.617491602897644 0.7561999559402466 0.7966618537902832 0.7767207622528076 0.7506174445152283 0.7502428293228149 0 0 0.7783643007278442 0 0.6901028752326965 0.6189234256744385 0.5838338136672974 -9999
-9999 0.12739019095897675 0.16756325960159302 0.2685181200504303 0.3910071849822998 0.5246540307998657 0.6469751596450806 0.7125906348228455 0.6946261525154114 0.6427428722381592 0.6054796576499939 0.5983491539955139 0 0 0 0.6346028447151184 0.632266640663147 0.6208950281143188 0.6029166579246521 -9999
-9999 0.22012576460838318 0.27520862221717834 0.3987903594970703 0.5149242877960205 0.598187267780304 0.6409759521484375 0.6302201747894287 0.574130654335022 0.5101159811019897 0.4655213952064514 0.44347935914993286 0 0 0 0.4240863025188446 0.45787400007247925 0.5218024253845215 0.5381882786750793 -9999
-9999 0.311368465423584 0.36940765380859375 0.49481549859046936 0.5820656418800354 0.603185772895813 0.579464316368103 0.5269536972045898 0.46161165833473206 0.4060656726360321 0.3679751455783844 0.3347598612308502 0.30573850870132446 0.2787429690361023 0 0 0.26114925742149353 0.32843586802482605 -9999 -9999
-9999 0.3564854562282562 0.40675193071365356 0.5108681321144104 0.5562828779220581 0.5343520641326904 0.4818456172943115 0.42068734765052795 0.37130337953567505 0.335580438375473 0 0 0 0.1931178867816925 0 0 0.13125070929527283 0 -9999 -9999
-9999 0.3860244154930115 0.41002750396728516 0.4776577949523926 0.4929652810096741 0.44754600524902344 0.38372984528541565 0.3287894129753113 0.2955012917518616 0 0 0 0 0.14147122204303741 0.11156623810529709 0.08898119628429413 0.07329989969730377 0.06060793995857239 0 0
-9999 -9999 0.39022037386894226 0.43130579590797424 0.4301932752132416 0.37327831983566284 0.3054065406322479 0.257148802280426 0 0 0 0 0 0 0 0 0 0 0 0
-9999 -9999 0.40200501680374146 0.4004828631877899 0.3813420534133911 0.31563833355903625 0.2455155998468399 0.19905701279640198 0 0 0 0 0 0 0 0 0 0 0 0
-9999 -9999 -9999 0.37124186754226685 0.35481083393096924 0.2888375222682953 0.21834605932235718 0.17362691462039948 0 0 0 0 0 0 0 0 0 0 0 0
