ncols         20
nrows         20
xllcorner     0
yllcorner     -3.5992928
cellsize      0.17996463
NODATA_value  -9999
-9999.0 -9999 -9999 -9999 -9999 -9999 -9999 -9999 -9999 -9999 -9999 -9999 -9999 -9999 -9999 -9999 -9999 -9999 -9999 -9999
-9999 -9999 -9999 -9999 -9999 -9999 -9999 -9999 -9999 -9999 -9999 1.8419443368911743 1.839571237564087 -9999 -9999 1.876339316368103 1.854028344154358 -9999 -9999 -9999
-9999 -9999 -9999 -9999 1.8370405435562134 1.8537745475769043 1.8802845478057861 1.8901968002319336 1.8907498121261597 1.894968867301941 1.875150442123413 1.8809462785720825 1.8974334001541138 1.9114177227020264 1.908179759979248 1.896045207977295 1.8737316131591797 1.854116678237915 -9999 -9999
-9999 -9999 -9999 1.8526976108551025 1.8681750297546387 1.886342167854309 1.9058246612548828 1.9130618572235107 1.9173076152801514 1.9191313982009888 1.9260873794555664 1.9378691911697388 1.9538531303405762 1.9628628492355347 1.9691996574401855 1.9577479362487793 1.9292547702789307 1.9045016765594482 -9999 -9999
-9999 -9999 -9999 1.8770097494125366 1.8981363773345947 1.9335026741027832 1.9509258270263672 1.9507246017456055 1.9361060857772827 1.912617802619934 1.8815031051635742 1.8686109781265259 1.8895816802978516 1.9366124868392944 1.9844646453857422 2.0044305324554443 1.9924848079681396 1.993573784828186 -9999 -9999
-9999 -9999 1.8765408992767334 1.9057323932647705 1.9419420957565308 1.972920536994934 1.9729801416397095 1.9469976425170898 1.8882248401641846 1.7748852968215942 1.636966586112976 1.5635020732879639 1.5887354612350464 1.7158310413360596 1.8706077337265015 1.9617747068405151 2.0083014965057373 2.0196969509124756 1.9970401525497437 -9999
-9999 -9999 1.9010192155838013 1.9342738389968872 1.9865168333053589 2.006398916244507 1.9813581705093384 1.9134947061538696 1.763957142829895 1.5367351770401 1.3050187826156616 1.1764111518859863 1.1950839757919312 1.365278959274292 1.6423689126968384 1.8192106485366821 1.9445898532867432 1.994999885559082 2.005537748336792 -9999
-9999 -9999 1.9551976919174194 1.995698094367981 2.0347306728363037 2.0215959548950195 1.951073169708252 1.7937366962432861 1.5488662719726562 1.2582967281341553 1.0161120891571045 0.8778271079063416 0.8779435157775879 1.0169438123703003 1.266103744506836 1.5394079685211182 1.752661943435669 1.8859755992889404 1.9338312149047852 -9999
-9999 1.9710969924926758 2.0191335678100586 2.0529625415802 2.0528812408447266 1.9738967418670654 1.799314260482788 1.529976487159729 1.2245657444000244 0.9501868486404419 0.7587911486625671 0.6540319919586182 0.6399716138839722 0.7307723760604858 0.9193334579467773 1.2008469104766846 1.442868947982788 1.6362382173538208 1.7277467250823975 -9999
-9999 2.029820203781128 2.0659966468811035 2.074521541595459 1.9932379722595215 1.797682285308838 1.4932217597961426 1.143336296081543 0.8414352536201477 0.6340224742889404 0.5172135829925537 0.45587989687919617 0.4472934603691101 0.4945974051952362 0.6161835193634033 0.8191692233085632 1.05009925365448 1.2608599662780762 1.3687528371810913 -9999
-9999 2.0837886333465576 2.0876142978668213 2.0208590030670166 1.8468194007873535 1.540580153465271 1.1460973024368286 0.7711083292961121 0.5145719647407532 0.37245240807533264 0.3034191429615021 0.27339115738868713 0.26947593688964844 0.2944304943084717 0.36021295189857483 0.4828455150127411 0.6495791673660278 0.8281426429748535 0.9230390191078186 -9999
-9999 2.0682342052459717 2.026644229888916 1.875411033630371 1.6104727983474731 1.2457332611083984 0.840275764465332 0.5052914023399353 0.3046177625656128 0.20277410745620728 0.15749846398830414 0.1376359760761261 0.13453805446624756 0.14290668070316315 0.17028480768203735 0.23224128782749176 0.3325198292732239 0.4472266137599945 0.5101584792137146 -9999
-9999 1.9307019710540771 1.840193271636963 1.5916945934295654 1.2746061086654663 0.921076774597168 0.5827518701553345 0.3245900273323059 0.1775258481502533 0.1096692904829979 0.07153560221195221 0.057146549224853516 0.05150145664811134 0.05197501927614212 0.061146896332502365 0.08336980640888214 0.1357787847518921 0.1981770396232605 0.23852622509002686 -9999
-9999 1.6761491298675537 1.5293645858764648 1.2067328691482544 0.8786923885345459 0.5926641225814819 0.36006760597229004 0.19552938640117645 0.09775052219629288 0.058032065629959106 0.03894515708088875 0.02980383299291134 0.025032777339220047 0.023368868976831436 0.024281028658151627 0.02984657883644104 0.043105803430080414 0.07049908488988876 0.09400641173124313 -9999
-9999 1.3840514421463013 1.2084832191467285 0.8562954068183899 0.551605761051178 0.34256890416145325 0.20064693689346313 0.10469770431518555 0.058400027453899384 0.03667889162898064 0.026012828573584557 0.019988644868135452 0.016568055376410484 0.01490019541233778 0.014003517106175423 0.01475810818374157 0.01728791370987892 0.02532259188592434 -9999 -9999
-9999 1.1697299480438232 0.9801127314567566 0.6326009631156921 0.3646135628223419 0.20136883854866028 0.10826770216226578 0.061145052313804626 0.03843019902706146 0.02649191953241825 0.020137827843427658 0.01613106206059456 0.014319074340164661 0.016446270048618317 0.01837160997092724 0.019909542053937912 0.0209511648863554 0.02165411412715912 -9999 -9999
-9999 1.013283133506775 0.8126233816146851 0.5049189329147339 0.26749229431152344 0.12360174208879471 0.06606775522232056 0.039043836295604706 0.026405001059174538 0.019635893404483795 0.01592223346233368 0.015958573669195175 0.01845460571348667 0.021042054519057274 0.02341970056295395 0.02542385272681713 0.027083072811365128 0.028828442096710205 0.03213420510292053 0.03341931104660034
-9999 -9999 0.6365410089492798 0.41493692994117737 0.21063382923603058 0.09104863554239273 0.045886531472206116 0.02733725495636463 0.01913905143737793 0.015234455466270447 0.017145635560154915 0.019470812752842903 0.02213130332529545 0.02493630163371563 0.02748504839837551 0.029562484472990036 0.031226256862282753 0.03256005421280861 0.03379397094249725 0.034203555434942245
-9999 -9999 0.45711323618888855 0.32505545020103455 0.1684885025024414 0.07011730968952179 0.0339716300368309 0.019978497177362442 0.016015052795410156 0.01783115416765213 0.019849132746458054 0.02223186381161213 0.02495422400534153 0.027788620442152023 0.030279619619250298 0.03219849243760109 0.03359339386224747 0.03440038487315178 0.0346672497689724 0.03470226377248764
-9999 -9999 -9999 0.26993563771247864 0.14206208288669586 0.06159917637705803 0.029442334547638893 0.01731705293059349 0.017361188307404518 0.0192710030823946 0.0213283933699131 0.023691263049840927 0.02640727534890175 0.029218243435025215 0.03166010603308678 0.033422160893678665 0.034657903015613556 0.03504449874162674 0.03502585366368294 0.03494179993867874
