ncols         20
nrows         20
xllcorner     0
yllcorner     -3.5992928
cellsize      0.17996463
NODATA_value  -9999
-9999.0 -9999 -9999 -9999 -9999 -9999 -9999 -9999 -9999 -9999 -9999 -9999 -9999 -9999 -9999 -9999 -9999 -9999 -9999 -9999
-9999 -9999 -9999 -9999 -9999 -9999 -9999 -9999 -9999 -9999 -9999 11.817729949951172 11.789971351623535 -9999 -9999 11.792332649230957 11.637651443481445 -9999 -9999 -9999
-9999 -9999 -9999 -9999 11.727548599243164 11.878131866455078 12.119305610656738 12.245891571044922 12.28197956085205 12.300955772399902 12.116726875305176 12.078374862670898 12.149799346923828 12.216143608093262 12.136920928955078 11.969324111938477 11.800131797790527 11.699271202087402 -9999 -9999
-9999 -9999 -9999 11.784695625305176 11.895910263061523 12.031801223754883 12.198776245117188 12.272080421447754 12.307974815368652 12.305624008178711 12.318964004516602 12.350589752197266 12.432003021240234 12.477998733520508 12.485640525817871 12.366254806518555 12.183919906616211 12.067880630493164 -9999 -9999
-9999 -9999 -9999 11.95061206817627 12.063066482543945 12.265243530273438 12.336450576782227 12.24675464630127 12.085502624511719 11.892343521118164 11.704111099243164 11.648093223571777 11.815711975097656 12.149954795837402 12.484597206115723 12.635112762451172 12.605514526367188 12.68617057800293 -9999 -9999
-9999 -9999 12.01047134399414 12.168050765991211 12.343992233276367 12.426255226135254 12.170808792114258 11.594518661499023 10.99333381652832 10.328082084655762 9.656668663024902 9.379579544067383 9.668107986450195 10.501626014709473 11.481221199035645 12.213874816894531 12.60045051574707 12.79931640625 12.73087215423584 -9999
-9999 -9999 12.2608060836792 12.429082870483398 12.657405853271484 12.46682071685791 11.51971435546875 9.87232494354248 8.650312423706055 7.582403659820557 6.693633556365967 6.361964702606201 6.844541549682617 7.957222938537598 9.428032875061035 10.854573249816895 11.82717227935791 12.342872619628906 12.534019470214844 -9999
-9999 -9999 12.805049896240234 13.014079093933105 13.077922821044922 12.333047866821289 10.273764610290527 6.20503044128418 4.80548620223999 4.004391193389893 3.5129055976867676 3.4565601348876953 4.487588882446289 5.588986396789551 7.054247856140137 8.715034484863281 10.136531829833984 11.11144733428955 11.546060562133789 -9999
-9999 13.27320671081543 13.491643905639648 13.65792179107666 13.38437271118164 12.01916790008545 9.222809791564941 4.893904209136963 3.3449501991271973 2.6186766624450684 2.2883763313293457 2.3131442070007324 3.0148568153381348 3.7804477214813232 4.843742847442627 6.2663373947143555 7.798069953918457 9.008831024169922 9.604545593261719 -9999
-9999 13.815633773803711 14.003055572509766 14.017414093017578 13.16008472442627 11.080094337463379 7.862678527832031 3.902735471725464 2.438936948776245 1.8111501932144165 1.5786762237548828 1.6003094911575317 2.0163400173187256 2.436323642730713 3.0847954750061035 4.044410705566406 5.29757833480835 6.424544811248779 7.011273384094238 -9999
-9999 14.331900596618652 14.280784606933594 13.739864349365234 12.193418502807617 9.611380577087402 6.325240135192871 2.9656152725219727 1.714452862739563 1.1985946893692017 1.0073223114013672 1.000627040863037 1.1979371309280396 1.4032827615737915 1.7337868213653564 2.2978522777557373 3.07743501663208 3.9113521575927734 4.364275932312012 -9999
-9999 14.211569786071777 13.793630599975586 12.570570945739746 10.483548164367676 7.779478549957275 4.824126720428467 2.207134485244751 1.1881095170974731 0.7538446187973022 0.5847150683403015 0.5373730659484863 0.5999695658683777 0.6649266481399536 0.7906199097633362 1.0542571544647217 1.4843711853027344 1.9740424156188965 2.2466347217559814 -9999
-9999 12.949869155883789 12.136407852172852 10.310876846313477 8.067731857299805 5.672365665435791 3.43133807182312 1.7279353141784668 0.870522141456604 0.5068842172622681 0.33604222536087036 0.268726646900177 0.2465047389268875 0.24638603627681732 0.28056561946868896 0.36575207114219666 0.5670222640037537 0.8169118762016296 0.9832783937454224 -9999
-9999 10.60091495513916 9.529768943786621 7.431111812591553 5.332699775695801 3.532322645187378 2.0889434814453125 1.0850987434387207 0.5319774746894836 0.29826614260673523 0.18933044373989105 0.13629162311553955 0.10840444266796112 0.09578005224466324 0.09505724161863327 0.11332318186759949 0.1623934507369995 0.2689838707447052 0.3701460361480713 -9999
-9999 8.112820625305176 7.001310348510742 4.935251235961914 3.152759552001953 1.9297304153442383 1.1082721948623657 0.5729517340660095 0.30559325218200684 0.17627228796482086 0.11219582706689835 0.07620961219072342 0.05569475144147873 0.044620636850595474 0.03882457688450813 0.03979172185063362 0.0473414808511734 0.07254332304000854 -9999 -9999
-9999 6.358907699584961 5.254133224487305 3.3695363998413086 1.9243881702423096 1.047877550125122 0.5588834881782532 0.30326253175735474 0.17620301246643066 0.1080842837691307 0.0711452066898346 0.04825102537870407 0.03664185479283333 0.03813297301530838 0.040458980947732925 0.04315405711531639 0.04584711417555809 0.048166096210479736 -9999 -9999
-9999 5.232950687408447 4.05318546295166 2.4776737689971924 1.2914983034133911 0.5907554030418396 0.30365994572639465 0.16616462171077728 0.10043366253376007 0.06466791033744812 0.04425401985645294 0.03823811560869217 0.039725396782159805 0.042394764721393585 0.045916128903627396 0.049977660179138184 0.05452520400285721 0.06016579642891884 0.06952536106109619 0.0739375501871109
-9999 -9999 2.9154067039489746 1.8746739625930786 0.9299368858337402 0.3927576243877411 0.1845458298921585 0.09811067581176758 0.05936775729060173 0.040013980120420456 0.03950919955968857 0.04058089852333069 0.04309232160449028 0.04680956155061722 0.05133345350623131 0.05631795898079872 0.06160605698823929 0.06710661202669144 0.07263291627168655 0.07551195472478867
-9999 -9999 1.9897046089172363 1.3738294839859009 0.6910773515701294 0.27651458978652954 0.1213110089302063 0.0613909475505352 0.04172544181346893 0.04060640558600426 0.040922973304986954 0.04274224862456322 0.045997459441423416 0.050445571541786194 0.055612385272979736 0.06106339395046234 0.06646373867988586 0.07130404561758041 0.07502001523971558 0.0769803375005722
-9999 -9999 -9999 1.0788084268569946 0.5609477162361145 0.23076067864894867 0.09824185073375702 0.0486530102789402 0.04170799255371094 0.04107888415455818 0.04180675372481346 0.043985772877931595 0.04761986434459686 0.05244035646319389 0.05793348699808121 0.06354572623968124 0.06891534477472305 0.07322796434164047 0.0762694925069809 0.07784029096364975
