ncols         20
nrows         20
xllcorner     0
yllcorner     -3.5992928
cellsize      0.17996463
NODATA_value  -9999
-9999.0 -9999 -9999 -9999 -9999 -9999 -9999 -9999 -9999 -9999 -9999 -9999 -9999 -9999 -9999 -9999 -9999 -9999 -9999 -9999
-9999 -9999 -9999 -9999 -9999 -9999 -9999 -9999 -9999 -9999 -9999 0.018250392749905586 0.01825517602264881 -9999 -9999 0.01841369830071926 0.01842188835144043 -9999 -9999 -9999
-9999 -9999 -9999 -9999 0.01836508698761463 0.01832462102174759 0.01826544851064682 0.01819485053420067 0.018127867951989174 0.018081068992614746 0.018069494515657425 0.03836609050631523 0.0383952297270298 0.01812947355210781 0.018177147954702377 0.03869514539837837 0.038746606558561325 0.018287688493728638 -9999 -9999
-9999 -9999 -9999 0.01828978769481182 0.0386967658996582 0.08045408129692078 0.08016475290060043 0.07979243993759155 0.07943004369735718 0.07916367053985596 0.07905808091163635 0.09529814124107361 0.09541784971952438 0.07935573905706406 0.07956802845001221 0.09614411741495132 0.08001603186130524 0.018147015944123268 -9999 -9999
-9999 -9999 -9999 0.01817426085472107 0.08009246736764908 0.11561933904886246 0.11509253829717636 0.11441278457641602 0.11375487595796585 0.11326824873685837 0.11305668950080872 0.11315307766199112 0.11335966736078262 0.11360841244459152 0.11395502090454102 0.11431078612804413 0.0791315883398056 0.017910251393914223 -9999 -9999
-9999 -9999 0.01796851120889187 0.03808291628956795 0.09553644061088562 0.1144477128982544 0.11371824890375137 0.11279234290122986 0.11191769689321518 0.11128509044647217 0.11100336164236069 0.11107489466667175 0.11138440668582916 0.11180374026298523 0.11223903298377991 0.11256581544876099 0.09368086606264114 0.037173476070165634 0.017461195588111877 -9999
-9999 -9999 0.017824774608016014 0.07851981371641159 0.11341537535190582 0.11280834674835205 0.11172524094581604 0.11037249863147736 0.10916528850793839 0.10833066701889038 0.10799019783735275 0.10812952369451523 0.108619324862957 0.10925035923719406 0.10985084623098373 0.11028193682432175 0.11038018763065338 0.07611146569252014 0.01724717952311039 -9999
-9999 -9999 0.017604153603315353 0.07758523523807526 0.11178979277610779 0.11082791537046432 0.10928836464881897 0.10737156122922897 0.10590950399637222 0.10495679825544357 0.10454496741294861 0.10466930270195007 0.10529012978076935 0.10616368055343628 0.10697375982999802 0.10760457068681717 0.10797438770532608 0.07470674067735672 0.01693546772003174 -9999
-9999 0.017282653599977493 0.03665740042924881 0.09195557236671448 0.10992445796728134 0.10866116732358932 0.10674558579921722 0.10454163700342178 0.10287793725728989 0.10179142653942108 0.10128561407327652 0.10134926438331604 0.10194436460733414 0.10284628719091415 0.10379578173160553 0.10459648072719574 0.10514872521162033 0.07289248704910278 0.016542628407478333 -9999
-9999 0.01713181845843792 0.07538418471813202 0.10880163311958313 0.10799072682857513 0.10644090920686722 0.10423672944307327 0.10190494358539581 0.10011237114667892 0.09890873730182648 0.09829582273960114 0.09825699031352997 0.09874819964170456 0.099558524787426 0.10052183270454407 0.10141483694314957 0.10208991914987564 0.07087138295173645 0.016103116795420647 -9999
-9999 0.016926417127251625 0.07443167269229889 0.10710688680410385 0.10602107644081116 0.10424350202083588 0.10185176134109497 0.09949285537004471 0.09763097763061523 0.09633257985115051 0.09560690075159073 0.09543775022029877 0.09578365832567215 0.09645922482013702 0.09732427448034286 0.09823552519083023 0.09899163246154785 0.06881283223628998 0.01565456949174404 -9999
-9999 0.016678843647241592 0.07326995581388474 0.10526314377784729 0.10402677208185196 0.10213080048561096 0.09969883412122726 0.09735863655805588 0.09546360373497009 0.09408535808324814 0.09324173629283905 0.09291922301054001 0.09308189153671265 0.09357710182666779 0.0942961573600769 0.09516321867704391 0.09600888937711716 0.06688278913497925 0.015235726721584797 -9999
-9999 0.01640939712524414 0.07202300429344177 0.10336832702159882 0.10206367075443268 0.10014952719211578 0.09779880940914154 0.09553003311157227 0.0936230942606926 0.09217160940170288 0.09120465815067291 0.09070944786071777 0.09064251184463501 0.09090745449066162 0.09142926335334778 0.09218012541532516 0.09320046007633209 0.06526012718677521 0.014879177324473858 -9999
-9999 0.016139579936861992 0.07078750431537628 0.10151877254247665 0.10018791258335114 0.09831172227859497 0.09608516842126846 0.09389360249042511 0.09199627488851547 0.09049086272716522 0.08940984308719635 0.08873803168535233 0.08843626081943512 0.08843930065631866 0.08868894726037979 0.08915001899003983 0.07452702522277832 0.03032648377120495 0.01460595615208149 -9999
-9999 0.015891680493950844 0.06965486705303192 0.09978422522544861 0.09843586385250092 0.09662548452615738 0.09451968967914581 0.09240661561489105 0.09054205566644669 0.0890015959739685 0.08782076835632324 0.08698468655347824 0.08645974099636078 0.0861951932311058 0.08613725006580353 0.0862332284450531 0.05973320081830025 0.013589048758149147 -9999 -9999
-9999 0.01568792387843132 0.06834760308265686 0.09823031723499298 0.09680400788784027 0.0950755625963211 0.09309125691652298 0.09106923639774323 0.08924918621778488 0.0876927599310875 0.08643390238285065 0.08545824140310287 0.084736667573452 0.08422606438398361 0.08387713134288788 0.08364236354827881 0.05730113387107849 0.012979920953512192 -9999 -9999
-9999 0.015544219873845577 0.03248961642384529 0.08001182973384857 0.09520609676837921 0.09364038705825806 0.09180735796689987 0.08989159017801285 0.0881284549832344 0.08657439798116684 0.08526197075843811 0.08417798578739166 0.08329705148935318 0.08257986605167389 0.08197399973869324 0.08141183853149414 0.06683696061372757 0.026227455586194992 0.012040986679494381 0.011900794692337513
-9999 -9999 0.015046274289488792 0.06536491960287094 0.09382551908493042 0.0923798531293869 0.09070280939340591 0.08890765905380249 0.08721140027046204 0.08567491173744202 0.08433272689580917 0.08317408710718155 0.0821775421500206 0.08130688965320587 0.08051030337810516 0.07970239967107773 0.07871648669242859 0.06435094773769379 0.05265313759446144 0.05228251963853836
-9999 -9999 0.014698504470288754 0.031136853620409966 0.07670941203832626 0.09131743013858795 0.0898362398147583 0.08817631006240845 0.08654846251010895 0.08503708243370056 0.08368398994207382 0.08248152583837509 0.08141299337148666 0.08044927567243576 0.07955031841993332 0.07865865528583527 0.07770988345146179 0.07669510692358017 0.0758962631225586 0.0754883661866188
-9999 -9999 -9999 0.01434861309826374 0.06306793540716171 0.09070263803005219 0.0893590971827507 0.08778803050518036 0.08620581775903702 0.08471331745386124 0.08335639536380768 0.08213426917791367 0.08103177696466446 0.08002499490976334 0.07908282428979874 0.07817097008228302 0.07726560533046722 0.07641066610813141 0.07574701309204102 0.07539370656013489
