ncols         20
nrows         20
xllcorner     0
yllcorner     -3.5992928
cellsize      0.17996463
NODATA_value  -9999
-9999.0 -9999 -9999 -9999 -9999 -9999 -9999 -9999 -9999 -9999 -9999 -9999 -9999 -9999 -9999 -9999 -9999 -9999 -9999 -9999
-9999 -9999 -9999 -9999 -9999 -9999 -9999 -9999 -9999 -9999 -9999 0.13831014931201935 0.13844020664691925 -9999 -9999 0.14074519276618958 0.14091379940509796 -9999 -9999 -9999
-9999 -9999 -9999 -9999 0.13759902119636536 0.1375463753938675 0.13752523064613342 0.13757121562957764 0.13771240413188934 0.13795049488544464 0.13823863863945007 0.12808102369308472 0.1284787654876709 0.13974858820438385 0.14038154482841492 0.13032028079032898 0.13082700967788696 0.14212830364704132 -9999 -9999
-9999 -9999 -9999 0.13796551525592804 0.12740664184093475 0.10836830735206604 0.10836143791675568 0.10843684524297714 0.10860945284366608 0.10886996984481812 0.10919082164764404 0.10124749690294266 0.10164812952280045 0.11053481698036194 0.11107844859361649 0.10323779284954071 0.11236336082220078 0.14329352974891663 -9999 -9999
-9999 -9999 -9999 0.1382446438074112 0.10872097313404083 0.07907517999410629 0.07290926575660706 0.07302352041006088 0.07322888821363449 0.07351107150316238 0.07383797317743301 0.06863618642091751 0.0689866840839386 0.07500463724136353 0.07548533380031586 0.0761183425784111 0.11419529467821121 0.14563563466072083 -9999 -9999
-9999 -9999 0.1389717012643814 0.12827849388122559 0.10086731612682343 0.06774511188268661 0.04191836342215538 0.042034588754177094 0.04223455488681793 0.042493127286434174 0.042781081050634384 0.039733678102493286 0.04003044590353966 0.04377979785203934 0.04422841966152191 0.07221351563930511 0.10817074030637741 0.13841380178928375 0.1517864614725113 -9999
-9999 -9999 0.139444500207901 0.1097121387720108 0.07988223433494568 0.05375267565250397 0.030669094994664192 0.020719630643725395 0.020868245512247086 0.021056685596704483 0.021267134696245193 0.019838137552142143 0.020079974085092545 0.02208433672785759 0.03333761543035507 0.05907859653234482 0.08830533176660538 0.12175224721431732 0.1553553342819214 -9999
-9999 -9999 0.14029347896575928 0.11046722531318665 0.07425294816493988 0.04262816905975342 0.02091328799724579 0.010264436714351177 0.008852560073137283 0.008966123685240746 0.009096892550587654 0.008541815914213657 0.008726152591407299 0.011380809359252453 0.02373100444674492 0.04877077415585518 0.08515898883342743 0.126776322722435 0.16109062731266022 -9999
-9999 0.14211323857307434 0.13100364804267883 0.10313107818365097 0.06952105462551117 0.03988756239414215 0.019639568403363228 0.008274548687040806 0.0032447539269924164 0.003310407977551222 0.0033846586011350155 0.0031969156116247177 0.003601222764700651 0.010397369042038918 0.025138404220342636 0.051423780620098114 0.08948115259408951 0.13284189999103546 0.16849827766418457 -9999
-9999 0.1436261385679245 0.11313306540250778 0.08258280903100967 0.05581708997488022 0.032219041138887405 0.015865705907344818 0.006699719466269016 0.0024690707214176655 0.0016428695525974035 0.0016983478562906384 0.0017504406860098243 0.0038654727395623922 0.011044830083847046 0.026567164808511734 0.05421553552150726 0.09419174492359161 0.13966521620750427 0.17700619995594025 -9999
-9999 0.14632396399974823 0.11549485474824905 0.07795396447181702 0.04501819238066673 0.02223462052643299 0.01097911037504673 0.004674809519201517 0.0017361599020659924 0.001739767612889409 0.0018061291193589568 0.0018652512226253748 0.004109062720090151 0.011675811372697353 0.027998676523566246 0.05705968663096428 0.09905555099248886 0.1467648148536682 0.18587009608745575 -9999
-9999 0.15016859769821167 0.11868533492088318 0.08029012382030487 0.04649776220321655 0.02302880771458149 0.00975458137691021 0.003559265984222293 0.001747652655467391 0.0018290565349161625 0.0019037120509892702 0.0020809501875191927 0.006046595983207226 0.014521603472530842 0.029424382373690605 0.059899091720581055 0.10387969017028809 0.15369772911071777 0.19434846937656403 -9999
-9999 0.15502680838108063 0.12263201922178268 0.08308947086334229 0.048197370022535324 0.024066710844635963 0.010226964019238949 0.0037448443472385406 0.001822104793973267 0.0019074014853686094 0.0019889106042683125 0.0032515565399080515 0.009404539130628109 0.02254747785627842 0.046165719628334045 0.07998231053352356 0.11781968176364899 0.1602129489183426 0.2016783356666565 -9999
-9999 0.16054098308086395 0.1270945519208908 0.08656162023544312 0.050326377153396606 0.025011999532580376 0.01063352357596159 0.0038894731551408768 0.0018869767664000392 0.001972319558262825 0.0020552175119519234 0.0042612385004758835 0.01229054108262062 0.02964373119175434 0.060593314468860626 0.10520899295806885 0.15556581318378448 0.195530965924263 0.20678289234638214 -9999
-9999 0.1661672741174698 0.1317298710346222 0.08984667807817459 0.052286118268966675 0.02600557543337345 0.012947372160851955 0.00554622383788228 0.0020464856643229723 0.0020234722178429365 0.0021050050854682922 0.004736721981316805 0.013594022952020168 0.032835762947797775 0.0672989934682846 0.11733540892601013 0.17375445365905762 0.22019942104816437 -9999 -9999
-9999 0.17124053835868835 0.1366150826215744 0.10068541020154953 0.06888183206319809 0.040171489119529724 0.02005084417760372 0.00850730948150158 0.0033833524212241173 0.0020598648115992546 0.002140937140211463 0.004810458980500698 0.013813488185405731 0.03341227024793625 0.06861534714698792 0.11994016915559769 0.17869088053703308 0.22673124074935913 -9999 -9999
-9999 0.1748594045639038 0.16513624787330627 0.13202005624771118 0.09004167467355728 0.0524296760559082 0.02821369841694832 0.013991293497383595 0.005967599339783192 0.0021944481413811445 0.0021644572261720896 0.004469843581318855 0.012912530452013016 0.03127631917595863 0.06431211531162262 0.11255884915590286 0.1682736724615097 0.21545350551605225 0.23706480860710144 0.23868118226528168
-9999 -9999 0.1842847764492035 0.14684651792049408 0.1079484298825264 0.07353387027978897 0.04266361519694328 0.021204648539423943 0.008969000540673733 0.0033052333164960146 0.002176686655730009 0.0035412805154919624 0.010266201570630074 0.024970024824142456 0.05125663802027702 0.0899563655257225 0.13450734317302704 0.17189237475395203 0.18751823902130127 0.188349649310112
-9999 -9999 0.18748876452445984 0.17513558268547058 0.13920538127422333 0.09447183459997177 0.054756637662649155 0.02707374095916748 0.011451791040599346 0.004200112074613571 0.0021816424559801817 0.0023846204858273268 0.006936180405318737 0.016839785501360893 0.03481157496571541 0.06080828234553337 0.0912974551320076 0.11643590033054352 0.12646335363388062 0.12681357562541962
-9999 -9999 -9999 0.19206847250461578 0.15222077071666718 0.10312196612358093 0.059637296944856644 0.029445763677358627 0.01243993453681469 0.0045720902271568775 0.0021838638931512833 0.002263643080368638 0.0039868950843811035 0.009650827385485172 0.020006131380796432 0.03494913503527641 0.05253269523382187 0.06667948514223099 0.07255594432353973 0.07269542664289474
