ncols         20
nrows         20
xllcorner     0
yllcorner     -3.5992928
cellsize      0.17996463
NODATA_value  -9999
-9999.0 -9999 -9999 -9999 -9999 -9999 -9999 -9999 -9999 -9999 -9999 -9999 -9999 -9999 -9999 -9999 -9999 -9999 -9999 -9999
-9999 -9999 -9999 -9999 -9999 -9999 -9999 -9999 -9999 -9999 -9999 0.135858416557312 0.13596390187740326 -9999 -9999 0.1385178416967392 0.13871459662914276 -9999 -9999 -9999
-9999 -9999 -9999 -9999 0.1357213854789734 0.13564732670783997 0.1355791836977005 0.13555607199668884 0.13561025261878967 0.13575081527233124 0.13592463731765747 0.12584571540355682 0.12618547677993774 0.13723790645599365 0.1379254162311554 0.1281881332397461 0.12879014015197754 0.13998021185398102 -9999 -9999
-9999 -9999 -9999 0.13609637320041656 0.12569129467010498 0.10690637677907944 0.10687974095344543 0.10691756010055542 0.10703159868717194 0.10721443593502045 0.10743740200996399 0.09953586757183075 0.09986568987369537 0.10857011377811432 0.10915088653564453 0.10156432539224625 0.11069390922784805 0.14127452671527863 -9999 -9999
-9999 -9999 -9999 0.13638117909431458 0.10729379951953888 0.07807564735412598 0.07200918346643448 0.07212764769792557 0.072311632335186 0.07254289090633392 0.07279101759195328 0.06758420169353485 0.06786287575960159 0.07374808937311172 0.0742526426911354 0.07499238103628159 0.11275490373373032 0.14401723444461823 -9999 -9999
-9999 -9999 0.13703329861164093 0.12655913829803467 0.09960328787565231 0.06699033826589584 0.04152112454175949 0.04166863113641739 0.04187357425689697 0.04210444167256355 0.04233631491661072 0.03926008939743042 0.03950028121471405 0.043169859796762466 0.0436365082859993 0.07136116176843643 0.10718241333961487 0.1375666856765747 0.15134012699127197 -9999
-9999 -9999 0.13757215440273285 0.10831815004348755 0.07899096608161926 0.053285032510757446 0.030492961406707764 0.02064378932118416 0.020808113738894463 0.0209876149892807 0.021168680861592293 0.019711308181285858 0.01992112770676613 0.021891586482524872 0.033047404140233994 0.058613281697034836 0.08782725781202316 0.12144280970096588 0.15520699322223663 -9999
-9999 -9999 0.1386358141899109 0.10923643410205841 0.07358163595199585 0.042388737201690674 0.020888162776827812 0.01029085461050272 0.00888876523822546 0.009002281352877617 0.009122251532971859 0.008551952429115772 0.00872938334941864 0.011384538374841213 0.023707157000899315 0.04866774380207062 0.08503635972738266 0.12682119011878967 0.16131281852722168 -9999
-9999 0.1413521021604538 0.12997861206531525 0.10228653997182846 0.0690828263759613 0.03979213535785675 0.01969669573009014 0.008343216963112354 0.0032854201272130013 0.0033549543004482985 0.0034286906011402607 0.003235948970541358 0.003645408432930708 0.010501522570848465 0.025317106395959854 0.05165621638298035 0.08976330608129501 0.13329052925109863 0.16911478340625763 -9999
-9999 0.1432994157075882 0.11273235082626343 0.0822412520647049 0.05567106604576111 0.03226272389292717 0.015978297218680382 0.006788666360080242 0.0025174275506287813 0.0016817697323858738 0.0017399804200977087 0.001791840884834528 0.003949607722461224 0.011249279603362083 0.026967104524374008 0.054858602583408356 0.09507938474416733 0.14076143503189087 0.1782509982585907 -9999
-9999 0.14658410847187042 0.11558616161346436 0.07797451317310333 0.045116569846868515 0.02238425798714161 0.011117280460894108 0.0047631352208554745 0.0017825798131525517 0.0017936715157702565 0.001864199759438634 0.0019236132502555847 0.00422807177528739 0.011973964050412178 0.028617724776268005 0.058142099529504776 0.1006755381822586 0.1488696187734604 0.18831853568553925 -9999
-9999 0.15102459490299225 0.1192701905965805 0.08068463951349258 0.04685357213020325 0.023317750543355942 0.009937171824276447 0.003649978432804346 0.0018046873155981302 0.0018956215353682637 0.0019748674239963293 0.0021568057127296925 0.00625328253954649 0.014970756135880947 0.030239485204219818 0.06138627976179123 0.10621635615825653 0.1568671464920044 0.1981339454650879 -9999
-9999 0.15648077428340912 0.12376275658607483 0.08397453278303146 0.048881687223911285 0.024532094597816467 0.010485997423529625 0.0038638939149677753 0.0018910018261522055 0.001984979258850217 0.002070547081530094 0.00338064250536263 0.00975174643099308 0.023316511884331703 0.047618865966796875 0.08230790495872498 0.12100058794021606 0.1642625778913498 0.20654073357582092 -9999
-9999 0.16274146735668182 0.12896329164505005 0.08808828890323639 0.05142582207918167 0.025684677064418793 0.010977402329444885 0.004036634229123592 0.001966668525710702 0.002058642450720072 0.002143670106306672 0.004434400238096714 0.012753642164170742 0.03068462759256363 0.06258252263069153 0.10846111178398132 0.16012535989284515 0.20099052786827087 0.21224960684776306 -9999
-9999 0.16945330798625946 0.13461388647556305 0.09214621782302856 0.053855281323194504 0.02690996415913105 0.013460011221468449 0.0057893237099051476 0.002141128061339259 0.0021168221719563007 0.0021978532895445824 0.004929190035909414 0.014104248955845833 0.033988479524850845 0.06951887905597687 0.12100312858819962 0.17895928025245667 0.22661183774471283 -9999 -9999
-9999 0.17574454843997955 0.1406247913837433 0.10406370460987091 0.07149818539619446 0.04186612740159035 0.020968656986951828 0.008921604603528976 0.0035526081919670105 0.002159044612199068 0.002236851491034031 0.005004331469535828 0.014323676005005836 0.034568049013614655 0.07085242867469788 0.1236538290977478 0.1839933842420578 0.2332528829574585 -9999 -9999
-9999 0.18027950823307037 0.17110100388526917 0.13732752203941345 0.0939859002828598 0.05489384010434151 0.029619578272104263 0.014719041995704174 0.0062824576161801815 0.0023040359374135733 0.002262865426018834 0.0046490211971104145 0.01338067278265953 0.032336097210645676 0.06636906415224075 0.11597803235054016 0.17315250635147095 0.2214294970035553 0.24330928921699524 0.24479134380817413
-9999 -9999 0.19215795397758484 0.15347574651241302 0.11311725527048111 0.07723674923181534 0.04490159451961517 0.02234932966530323 0.009456398896872997 0.0034764243755489588 0.0022773416712880135 0.003683806164190173 0.010632133111357689 0.02579675242304802 0.05285773426294327 0.09262613952159882 0.13831667602062225 0.1765539050102234 0.19240806996822357 0.19314441084861755
-9999 -9999 0.19610098004341125 0.18360482156276703 0.14622578024864197 0.09940516948699951 0.057702191174030304 0.028561871498823166 0.01208350621163845 0.0044220928102731705 0.0022839803714305162 0.002482154406607151 0.00718074943870306 0.017386069521307945 0.0358748622238636 0.0625736340880394 0.09382978081703186 0.11953746527433395 0.12972231209278107 0.13001494109630585
-9999 -9999 -9999 0.20174828171730042 0.1600620299577713 0.10857649892568588 0.06287049502134323 0.031072285026311874 0.013128834776580334 0.004815205931663513 0.002286851406097412 0.0023568524047732353 0.004127982072532177 0.009959641844034195 0.020606830716133118 0.03594651445746422 0.053966622799634933 0.06843137741088867 0.07440590858459473 0.0745156928896904
