ncols         20
nrows         20
xllcorner     0
yllcorner     -3.5992928
cellsize      0.17996463
NODATA_value  -9999
-9999.0 -9999 -9999 -9999 -9999 -9999 -9999 -9999 -9999 -9999 -9999 -9999 -9999 -9999 -9999 -9999 -9999 -9999 -9999 -9999
-9999 -9999 -9999 -9999 -9999 -9999 -9999 -9999 -9999 -9999 -9999 0.1560787707567215 0.15621256828308105 -9999 -9999 0.1734306365251541 0.164155051112175 -9999 -9999 -9999
-9999 -9999 -9999 -9999 0.13105815649032593 0.13991457223892212 0.15708130598068237 0.17330694198608398 0.18769991397857666 0.2018548995256424 0.19361713528633118 0.190468892455101 0.20171137154102325 0.21895386278629303 0.2118096947669983 0.19362106919288635 0.18043504655361176 0.174471914768219 -9999 -9999
-9999 -9999 -9999 0.13173140585422516 0.13883565366268158 0.14989522099494934 0.16756241023540497 0.1873653680086136 0.21292352676391602 0.24117296934127808 0.26954954862594604 0.2886073589324951 0.3060447573661804 0.3053306043148041 0.2874935567378998 0.25593891739845276 0.2282334268093109 0.21341851353645325 -9999 -9999
-9999 -9999 -9999 0.1389608383178711 0.14813567698001862 0.16809381544589996 0.19244059920310974 0.22274380922317505 0.2669808566570282 0.33633172512054443 0.42333635687828064 0.4979172348976135 0.5356330871582031 0.5141113996505737 0.46407896280288696 0.39228489995002747 0.33417025208473206 0.32398802042007446 -9999 -9999
-9999 -9999 0.13963235914707184 0.14976948499679565 0.16661885380744934 0.19171158969402313 0.21869592368602753 0.2526763677597046 0.31831619143486023 0.42809227108955383 0.5871310830116272 0.7429839372634888 0.8561879396438599 0.8526319861412048 0.754412829875946 0.6305601596832275 0.5291003584861755 0.496236115694046 0.48845821619033813 -9999
-9999 -9999 0.15529103577136993 0.16880179941654205 0.19868457317352295 0.2314174771308899 0.2531123161315918 0.27085545659065247 0.3271966278553009 0.44199079275131226 0.6296892166137695 0.8762784600257874 1.1525263786315918 1.2675180435180664 1.2030199766159058 1.0252331495285034 0.8572030067443848 0.7406569123268127 0.6986231207847595 -9999
-9999 -9999 0.1980888545513153 0.22379902005195618 0.27156296372413635 0.31089794635772705 0.3164253532886505 0.25559696555137634 0.2587532103061676 0.31461697816848755 0.4299008548259735 0.6699740290641785 1.319696068763733 1.673026442527771 1.7358629703521729 1.5852643251419067 1.3741694688796997 1.184267282485962 1.104905605316162 -9999
-9999 0.2580975890159607 0.28178539872169495 0.33541929721832275 0.42407286167144775 0.4932439625263214 0.47585898637771606 0.3305600881576538 0.2897794246673584 0.31642958521842957 0.4207844138145447 0.702164888381958 1.5550178289413452 2.130525588989258 2.390751838684082 2.340425729751587 2.0980210304260254 1.8502260446548462 1.7336223125457764 -9999
-9999 0.3490476906299591 0.40723031759262085 0.5420211553573608 0.7148197889328003 0.8393688201904297 0.7996461391448975 0.5024330019950867 0.4086264371871948 0.41222384572029114 0.5128936767578125 0.8364591598510742 1.8902218341827393 2.67722225189209 3.1295645236968994 3.2389109134674072 3.0427191257476807 2.7743406295776367 2.6399731636047363 -9999
-9999 0.5530422925949097 0.657802939414978 0.8877874612808228 1.1615428924560547 1.363556146621704 1.3147342205047607 0.7911825776100159 0.6459327340126038 0.6294909715652466 0.7215675115585327 1.0716654062271118 2.3726282119750977 3.3182852268218994 3.930175304412842 4.194685459136963 4.151960372924805 3.925276517868042 3.797701835632324 -9999
-9999 0.9359058141708374 1.095529556274414 1.452177882194519 1.8484705686569214 2.1380081176757812 2.1123769283294678 1.344988465309143 1.1726454496383667 1.1312164068222046 1.1894079446792603 1.5095387697219849 2.943887233734131 3.899810552597046 4.5742645263671875 4.999615669250488 5.143908977508545 5.064370155334473 4.989359378814697 -9999
-9999 1.5795477628707886 1.8321399688720703 2.3580119609832764 2.8572981357574463 3.2357730865478516 3.3553333282470703 3.106083393096924 2.8438243865966797 2.653272867202759 2.6448616981506348 2.905381917953491 3.5430829524993896 4.15027379989624 4.6984405517578125 5.180351257324219 5.56112003326416 5.728272914886475 5.728534698486328 -9999
-9999 2.4765589237213135 2.8261518478393555 3.5224030017852783 4.126572132110596 4.500356674194336 4.584959030151367 4.35990047454834 3.995640277862549 3.685832977294922 3.531161069869995 3.556568145751953 3.7369515895843506 3.968353271484375 4.225551605224609 4.588362693786621 5.064940452575684 5.590904712677002 5.748034477233887 -9999
-9999 3.385941505432129 3.803788661956787 4.629917621612549 5.2628326416015625 5.512355327606201 5.421411037445068 5.074851989746094 4.633303165435791 4.236922740936279 3.9581456184387207 3.7660086154937744 3.6438183784484863 3.5699729919433594 3.522643566131592 3.6165518760681152 3.8685505390167236 4.451223373413086 -9999 -9999
-9999 4.050757884979248 4.527973651885986 5.392967700958252 5.930916786193848 6.002140045166016 5.742101192474365 5.302877426147461 4.843306064605713 4.421216011047363 4.0763044357299805 3.7509360313415527 3.4337716102600098 3.1324002742767334 2.8851938247680664 2.712893009185791 2.6420676708221436 2.3710618019104004 -9999 -9999
-9999 4.54146671295166 5.079776287078857 5.855108261108398 6.254029273986816 6.118879795074463 5.695272922515869 5.170076370239258 4.692063808441162 4.264862537384033 3.8910021781921387 3.500988483428955 3.0946075916290283 2.7206807136535645 2.3789708614349365 2.0926547050476074 1.8635987043380737 1.6267435550689697 1.4254660606384277 1.2333160638809204
-9999 -9999 5.631403923034668 6.169679164886475 6.399955749511719 6.0639848709106445 5.455442428588867 4.836123466491699 4.324787139892578 3.9014618396759033 3.5327186584472656 3.1446988582611084 2.7443182468414307 2.316608190536499 1.9631781578063965 1.6964147090911865 1.4530748128890991 1.271910548210144 1.1323330402374268 1.15605628490448
-9999 -9999 6.153014183044434 6.411830425262451 6.432826042175293 5.895627498626709 5.114096641540527 4.394553184509277 3.8428382873535156 3.4454870223999023 3.15705943107605 2.7957165241241455 2.401543140411377 1.9913041591644287 1.6796648502349854 1.45045804977417 1.2582045793533325 1.1325979232788086 1.1580896377563477 1.173032283782959
-9999 -9999 -9999 6.5129570960998535 6.431034088134766 5.805066108703613 4.928846836090088 4.166120529174805 3.6150174140930176 3.2494475841522217 2.964242696762085 2.657829761505127 2.2682981491088867 1.8669203519821167 1.5461963415145874 1.3608992099761963 1.1596460342407227 1.154296636581421 1.1736135482788086 1.1848175525665283
