ncols         20
nrows         20
xllcorner     0
yllcorner     -3.5992928
cellsize      0.17996463
NODATA_value  -9999
-9999.0 -9999 -9999 -9999 -9999 -9999 -9999 -9999 -9999 -9999 -9999 -9999 -9999 -9999 -9999 -9999 -9999 -9999 -9999 -9999
-9999 -9999 -9999 -9999 -9999 -9999 -9999 -9999 -9999 -9999 -9999 1.2645070552825928 1.2622541189193726 -9999 -9999 1.3337926864624023 1.304958701133728 -9999 -9999 -9999
-9999 -9999 -9999 -9999 1.2592848539352417 1.2767442464828491 1.3054243326187134 1.3119937181472778 1.3079549074172974 1.3117998838424683 1.2874380350112915 1.3034183979034424 1.329412579536438 1.3502566814422607 1.3551024198532104 1.351664662361145 1.3277329206466675 1.3033137321472168 -9999 -9999
-9999 -9999 -9999 1.2871012687683105 1.302701473236084 1.319486379623413 1.3371323347091675 1.3394837379455566 1.3400733470916748 1.3377197980880737 1.3437650203704834 1.3603066205978394 1.3855537176132202 1.403913974761963 1.4264668226242065 1.4253182411193848 1.3961914777755737 1.366877794265747 -9999 -9999
-9999 -9999 -9999 1.3215703964233398 1.343152642250061 1.381077766418457 1.3938839435577393 1.3870166540145874 1.3505361080169678 1.2855480909347534 1.2183072566986084 1.1931397914886475 1.2313991785049438 1.3231004476547241 1.4234989881515503 1.4711557626724243 1.4710931777954102 1.4820055961608887 -9999 -9999
-9999 -9999 1.3327441215515137 1.3647273778915405 1.402847409248352 1.4309667348861694 1.4176695346832275 1.357488989830017 1.2245643138885498 1.0297811031341553 0.8398097157478333 0.7531775832176208 0.7893869280815125 0.9600313901901245 1.2004526853561401 1.3785927295684814 1.4749339818954468 1.5041579008102417 1.4743223190307617 -9999
-9999 -9999 1.366461992263794 1.4035563468933105 1.4613806009292603 1.4705543518066406 1.4110441207885742 1.2551674842834473 0.9989220499992371 0.7040214538574219 0.47584494948387146 0.3753536343574524 0.39479100704193115 0.5472925305366516 0 1.1200588941574097 1.3433890342712402 1.4520246982574463 1.4778028726577759 -9999
-9999 -9999 1.442431092262268 1.487247109413147 1.521707534790039 1.479020357131958 1.3193352222442627 1.0425628423690796 0.714726984500885 0.43026459217071533 0.25898176431655884 0.18580745160579681 0.18953837454319 0.27279606461524963 0.4630529582500458 0.7439037561416626 1.0293488502502441 1.2438268661499023 1.334472417831421 -9999
-9999 1.4783400297164917 1.5361759662628174 1.5632070302963257 1.5358176231384277 1.3716912269592285 1.0697697401046753 0.7121564745903015 0.4144452214241028 0.22581854462623596 0.1324308067560196 0.09439229965209961 0.09204301983118057 0.12872612476348877 0.22372283041477203 0 0.6478522419929504 0.8750219941139221 0.9986063241958618 -9999
-9999 1.5610103607177734 1.5990591049194336 1.580707311630249 1.4255517721176147 1.094476342201233 0.6987015604972839 0.3733580708503723 0.1828175187110901 0.09407704323530197 0.05791926383972168 0.04337846860289574 0.04249101132154465 0.05535981431603432 0.0936947762966156 0 0.3176671266555786 0.4805189371109009 0.5795854926109314 -9999
-9999 1.6328027248382568 1.6199615001678467 1.489728569984436 1.1880935430526733 0.7709223628044128 0.3917554020881653 0.1611594706773758 0.06506988406181335 0.031139781698584557 0.019305815920233727 0.015220941975712776 0.015045658685266972 0.018974345177412033 0.030575960874557495 0.0590694323182106 0.11340085417032242 0.1918797641992569 0.24315690994262695 -9999
-9999 1.5930225849151611 1.51386296749115 1.2526254653930664 0.8701547384262085 0.4837265908718109 0.2022550106048584 0.0668741911649704 0.022249141708016396 0.009100337512791157 0.00517324497923255 0.003862852230668068 0 0 0.006694534327834845 0 0.028234556317329407 0.052516140043735504 0.0692313015460968 -9999
-9999 1.3728296756744385 1.2150567770004272 0.867040753364563 0.5228847861289978 0.2544006407260895 0.09439831227064133 0.02711842954158783 0.007515464443713427 0.0026804287917912006 0.0010768214706331491 0.0006784240249544382 0 0 0 0.0016674055950716138 0.004583910573273897 0.009901603683829308 0.014375188387930393 -9999
-9999 0.9863579273223877 0.7995608448982239 0.475734680891037 0.23826950788497925 0.10187816619873047 0.0353204570710659 0.00977805070579052 0.0022798003628849983 0.0007689178455621004 0.0003412890946492553 0.0002037731755990535 0 0 0 0.00022922444622963667 0.0004742666205856949 0.0012446582550182939 0.0021363666746765375 -9999
-9999 0.636669933795929 0.47477540373802185 0.2294444739818573 0.09074749797582626 0.03330075740814209 0.010873263701796532 0.0028070781845599413 0.0008444467675872147 0.0003324183926451951 0.0001728682400425896 0.00010805878991959617 7.898652256699279E-05 6.747424777131528E-05 0 0 9.338273230241612E-05 0.00019539406639523804 -9999 -9999
-9999 0.4361096918582916 0.30075955390930176 0.12150559574365616 0.038917191326618195 0.011429271660745144 0.0031768521293997765 0.0009908215142786503 0.0003935523855034262 0.00019451993284747005 0 0 0 9.355122165288776E-05 0 0 0.00015655957395210862 0 -9999 -9999
-9999 0.3200933635234833 0.20185332000255585 0.07618368417024612 0.02086542546749115 0.004334334284067154 0.001220402424223721 0.00043032047688029706 0.00020503747509792447 0 0 0 0 0.00016429126844741404 0.00020564714213833213 0.0002444119891151786 0.0002800487563945353 0.0003227652341593057 0 0
-9999 -9999 0.12133990973234177 0.05107226222753525 0.013009472750127316 0.0024073573295027018 0.0006161646451801062 0.00022712411009706557 0 0 0 0 0 0 0 0 0 0 0 0
-9999 -9999 0.06220380961894989 0.0313396081328392 0.008397824130952358 0.0014626778429374099 0.00035219916026107967 0.00012920086737722158 0 0 0 0 0 0 0 0 0 0 0 0
-9999 -9999 -9999 0.021639540791511536 0.006013210397213697 0.0011455812491476536 0.00027121719904243946 0.00010034543083747849 0 0 0 0 0 0 0 0 0 0 0 0
