ncols         20
nrows         20
xllcorner     0
yllcorner     -3.5992928
cellsize      0.17996463
NODATA_value  -9999
-9999.0 -9999 -9999 -9999 -9999 -9999 -9999 -9999 -9999 -9999 -9999 -9999 -9999 -9999 -9999 -9999 -9999 -9999 -9999 -9999
-9999 -9999 -9999 -9999 -9999 -9999 -9999 -9999 -9999 -9999 -9999 13.321911811828613 13.333416938781738 -9999 -9999 13.213435173034668 13.29647445678711 -9999 -9999 -9999
-9999 -9999 -9999 -9999 13.18998908996582 13.126935005187988 13.02569580078125 12.993196487426758 13.008298873901367 13.028291702270508 13.154731750488281 13.174396514892578 13.128799438476562 13.086112976074219 13.115620613098145 13.16700553894043 13.256060600280762 13.335549354553223 -9999 -9999
-9999 -9999 -9999 13.152322769165039 13.099945068359375 13.036190032958984 12.973787307739258 12.964377403259277 12.964946746826172 12.967623710632324 12.958955764770508 12.93185806274414 12.88447093963623 12.878214836120605 12.893171310424805 12.966761589050293 13.085004806518555 13.171226501464844 -9999 -9999
-9999 -9999 -9999 13.086845397949219 13.020357131958008 12.92252254486084 12.9019193649292 12.958269119262695 13.018086433410645 13.049161911010742 13.055312156677246 13.02756118774414 12.948741912841797 12.860398292541504 12.780611991882324 12.793523788452148 12.875702857971191 12.872791290283203 -9999 -9999
-9999 -9999 13.115426063537598 13.013760566711426 12.907958030700684 12.869569778442383 13.012873649597168 13.293147087097168 13.502432823181152 13.670989036560059 13.800886154174805 13.816722869873047 13.657796859741211 13.38742733001709 13.101052284240723 12.91084098815918 12.845645904541016 12.827280044555664 12.947308540344238 -9999
-9999 -9999 13.01938533782959 12.910768508911133 12.782854080200195 12.884346961975098 13.375465393066406 14.169418334960938 14.588582992553711 14.882476806640625 15.094826698303223 15.095359802246094 14.74695110321045 14.296163558959961 13.809566497802734 13.389305114746094 13.111577033996582 12.992815971374512 12.980315208435059 -9999
-9999 -9999 12.774801254272461 12.641371726989746 12.585756301879883 12.960367202758789 14.002313613891602 15.90761947631836 16.41977310180664 16.62100601196289 16.740341186523438 16.64462661743164 15.822070121765137 15.226579666137695 14.675825119018555 14.14185905456543 13.707344055175781 13.435065269470215 13.315835952758789 -9999
-9999 12.621710777282715 12.458513259887695 12.312973022460938 12.400224685668945 13.038639068603516 14.360204696655273 16.38574981689453 16.959503173828125 17.151058197021484 17.234058380126953 17.135709762573242 16.444955825805664 15.943860054016113 15.49006462097168 15.004925727844238 14.5302095413208 14.173383712768555 13.999008178710938 -9999
-9999 12.349668502807617 12.192410469055176 12.09904956817627 12.42728328704834 13.345008850097656 14.794398307800293 16.664657592773438 17.216312408447266 17.387714385986328 17.446510314941406 17.369701385498047 16.836505889892578 16.46686553955078 16.145442962646484 15.795092582702637 15.406243324279785 15.076252937316895 14.904964447021484 -9999
-9999 12.075098037719727 12.031707763671875 12.177799224853516 12.789213180541992 13.867874145507812 15.3129243850708 16.961074829101562 17.442493438720703 17.58124542236328 17.627662658691406 17.570281982421875 17.126476287841797 16.844993591308594 16.630992889404297 16.40700340270996 16.158945083618164 15.929315567016602 15.80806827545166 -9999
-9999 12.087472915649414 12.215397834777832 12.647936820983887 13.45361042022705 14.526366233825684 15.800165176391602 17.161096572875977 17.562950134277344 17.681673049926758 17.724014282226562 17.687421798706055 17.309303283691406 17.102895736694336 16.967266082763672 16.83068084716797 16.68045425415039 16.552658081054688 16.497241973876953 -9999
-9999 12.5902681350708 12.874690055847168 13.516416549682617 14.343305587768555 15.248011589050293 16.15024757385254 16.927383422851562 17.294025421142578 17.44123077392578 17.49471092224121 17.47640609741211 17.35794448852539 17.27297019958496 17.201353073120117 17.120079040527344 17.0093994140625 16.9246883392334 16.919179916381836 -9999
-9999 13.495898246765137 13.857281684875488 14.562727928161621 15.304645538330078 15.965705871582031 16.529638290405273 16.96799659729004 17.227968215942383 17.34994125366211 17.40158462524414 17.413209915161133 17.400537490844727 17.392833709716797 17.38770866394043 17.351783752441406 17.26931381225586 17.156652450561523 17.191139221191406 -9999
-9999 14.411273956298828 14.781984329223633 15.45395278930664 16.067718505859375 16.520639419555664 16.853639602661133 17.099079132080078 17.25021743774414 17.33525276184082 17.378713607788086 17.408884048461914 17.436582565307617 17.46874237060547 17.50904655456543 17.521738052368164 17.49073600769043 17.36189842224121 -9999 -9999
-9999 15.061233520507812 15.429189682006836 16.02964973449707 16.52956199645996 16.86820411682129 17.079641342163086 17.215728759765625 17.295028686523438 17.34518814086914 17.37554931640625 17.409711837768555 17.45292854309082 17.503387451171875 17.55748176574707 17.605405807495117 17.63839340209961 17.712871551513672 -9999 -9999
-9999 15.454740524291992 15.878922462463379 16.377269744873047 16.790454864501953 17.080581665039062 17.230852127075195 17.317283630371094 17.359561920166016 17.385845184326172 17.404701232910156 17.433435440063477 17.474327087402344 17.520639419555664 17.573408126831055 17.624906539916992 17.667348861694336 17.6983585357666 17.642175674438477 17.652408599853516
-9999 -9999 16.318748474121094 16.625228881835938 16.951704025268555 17.19967269897461 17.337379455566406 17.406082153320312 17.432571411132812 17.443567276000977 17.447839736938477 17.466800689697266 17.497509002685547 17.545223236083984 17.58804702758789 17.62229347229004 17.658138275146484 17.67848014831543 17.672210693359375 17.64471435546875
-9999 -9999 16.619647979736328 16.823352813720703 17.070159912109375 17.2930908203125 17.43081283569336 17.497236251831055 17.51634979248047 17.50998306274414 17.493675231933594 17.504228591918945 17.530555725097656 17.56991958618164 17.597211837768555 17.61653709411621 17.63924217224121 17.649017333984375 17.62183380126953 17.605270385742188
-9999 -9999 -9999 16.946884155273438 17.13165855407715 17.33140754699707 17.47140884399414 17.53575325012207 17.545330047607422 17.529834747314453 17.512161254882812 17.510086059570312 17.53459930419922 17.57076644897461 17.598299026489258 17.605812072753906 17.630455017089844 17.612550735473633 17.5926513671875 17.582883834838867
