ncols         20
nrows         20
xllcorner     0
yllcorner     -3.5992928
cellsize      0.17996463
NODATA_value  -9999
-9999.0 -9999 -9999 -9999 -9999 -9999 -9999 -9999 -9999 -9999 -9999 -9999 -9999 -9999 -9999 -9999 -9999 -9999 -9999 -9999
-9999 -9999 -9999 -9999 -9999 -9999 -9999 -9999 -9999 -9999 -9999 0.13469813764095306 0.1348075121641159 -9999 -9999 0.13717369735240936 0.13735421001911163 -9999 -9999 -9999
-9999 -9999 -9999 -9999 0.13417170941829681 0.13413843512535095 0.1341356635093689 0.13418669998645782 0.13430963456630707 0.13450264930725098 0.13472169637680054 0.12475515156984329 0.12509436905384064 0.1360287368297577 0.13666421175003052 0.12694576382637024 0.12748348712921143 0.13851140439510345 -9999 -9999
-9999 -9999 -9999 0.1344698965549469 0.12421754002571106 0.10569456964731216 0.10572315752506256 0.10581890493631363 0.1059848889708519 0.10620725899934769 0.10646332800388336 0.09864979237318039 0.09897690266370773 0.10758346319198608 0.10811270028352737 0.10052048414945602 0.10945224016904831 0.13962429761886597 -9999 -9999
-9999 -9999 -9999 0.134708970785141 0.10599157959222794 0.0771549865603447 0.07120002061128616 0.07135610282421112 0.07157213240861893 0.07182773947715759 0.07209668308496475 0.06694979965686798 0.06722205877304077 0.07302674651145935 0.07347320765256882 0.07410353422164917 0.1112179085612297 0.14191588759422302 -9999 -9999
-9999 -9999 0.1352538764476776 0.12493559718132019 0.0983356311917305 0.06615039706230164 0.041019465774297714 0.041189514100551605 0.04141080006957054 0.041652388870716095 0.041893865913152695 0.03885342925786972 0.03908317908644676 0.042687591165304184 0.04309575632214546 0.07034251093864441 0.10538168996572495 0.1350085437297821 0.14820337295532227 -9999
-9999 -9999 0.1356811374425888 0.10683035850524902 0.07790480554103851 0.05255328118801117 0.030080897733569145 0.020376360043883324 0.020548688247799873 0.020731275901198387 0.02091267891228199 0.01947036199271679 0.019668295979499817 0.02159121260046959 0.03254251554608345 0.057614415884017944 0.08610016852617264 0.11886043101549149 0.1517644077539444 -9999
-9999 -9999 0.13648967444896698 0.10757218301296234 0.07245530188083649 0.04172653704881668 0.020556515082716942 0.010130765847861767 0.008756262250244617 0.008869408629834652 0.008986027911305428 0.008419040590524673 0.008583822287619114 0.011172973550856113 0.02324112504720688 0.047674115747213364 0.08317089080810547 0.12386593967676163 0.15747244656085968 -9999
-9999 0.13827204704284668 0.12747733294963837 0.10047260671854019 0.0678696483373642 0.039074357599020004 0.019329745322465897 0.008184883743524551 0.003222646191716194 0.0032907682470977306 0.003361072624102235 0.0031678653322160244 0.0035609016194939613 0.010246161371469498 0.02470102533698082 0.050414904952049255 0.08760344237089157 0.12997089326381683 0.1648513823747635 -9999
-9999 0.1399112343788147 0.11017406731843948 0.08049827814102173 0.054511845111846924 0.03157440200448036 0.01562454178929329 0.006633259821683168 0.002457456197589636 0.0016393346013501287 0.0016942068468779325 0.001742382301017642 0.0038349097594618797 0.010917294770479202 0.02618260867893696 0.053311824798583984 0.09248974174261093 0.13702011108398438 0.17357291281223297 -9999
-9999 0.14280878007411957 0.11264516413211823 0.07605522871017456 0.04399519041180611 0.021803561598062515 0.010817624628543854 0.004630356095731258 0.0017301429761573672 0.0017389095155522227 0.0018054622923955321 0.0018607818055897951 0.004085160326212645 0.011566776782274246 0.02766069583594799 0.05626034364104271 0.09755028039216995 0.14442385733127594 0.18283581733703613 -9999
-9999 0.14686527848243713 0.11598226428031921 0.07847550511360168 0.04552018642425537 0.022616121917963028 0.009621638804674149 0.003528551198542118 0.0017425109399482608 0.0018290253356099129 0.0019042062340304255 0.0020776407327502966 0.006018138490617275 0.014409574680030346 0.029127104207873344 0.05919409170746803 0.10256115347146988 0.15165232121944427 0.19168692827224731 -9999
-9999 0.15201415121555328 0.12020164728164673 0.08151137083768845 0.047365400940179825 0.023713698610663414 0.0101121561601758 0.00371888792142272 0.0018180736806243658 0.0019078681943938136 0.001989864045754075 0.0032476086635142565 0.00936700589954853 0.022402670234441757 0.045782506465911865 0.07921715825796127 0.11659503728151321 0.1584344357252121 0.199284166097641 -9999
-9999 0.15811783075332642 0.12527713179588318 0.08546866476535797 0.049766018986701965 0.024772461503744125 0.010554593987762928 0.0038719880394637585 0.001884598401375115 0.0019731002394109964 0.002055959776043892 0.004256228916347027 0.012249826453626156 0.02949201874434948 0.06019790470600128 0.10442850738763809 0.15432079136371613 0.1938188523054123 0.20456993579864502 -9999
-9999 0.16476483643054962 0.1307496726512909 0.08933500945568085 0.05205956846475601 0.025911010801792145 0.01291360892355442 0.005539679899811745 0.002047171350568533 0.0020255211275070906 0.002106316387653351 0.004733242094516754 0.013564012944698334 0.03272435441613197 0.06700566411018372 0.11675611883401871 0.17285598814487457 0.21904446184635162 -9999 -9999
-9999 0.17070510983467102 0.1363619714975357 0.10068589448928833 0.06897921115159988 0.04024859517812729 0.020090583711862564 0.008526668883860111 0.0033925699535757303 0.002064847620204091 0.0021444056183099747 0.004811855498701334 0.013803727924823761 0.03336704522371292 0.06848756223917007 0.11968870460987091 0.17832595109939575 0.2263009399175644 -9999 -9999
-9999 0.17487813532352448 0.1654924750328064 0.1325300633907318 0.09048421680927277 0.05270576849579811 0.02835763618350029 0.014062399044632912 0.005998281762003899 0.0022040691692382097 0.0021715709008276463 0.0044783055782318115 0.01292724534869194 0.03130320459604263 0.06435959786176682 0.11265545338392258 0.16850028932094574 0.21598857641220093 0.23830078542232513 0.24015361070632935
-9999 -9999 0.18521156907081604 0.1477328985929489 0.10868547856807709 0.07405877858400345 0.04296567291021347 0.02135229855775833 0.00903125200420618 0.0033266975078731775 0.002187990117818117 0.003554745577275753 0.010297706350684166 0.025043601170182228 0.05141324922442436 0.09025897085666656 0.13503466546535492 0.1727159470319748 0.1886405497789383 0.18958799540996552
-9999 -9999 0.18869122862815857 0.1763966977596283 0.14028750360012054 0.09522361308336258 0.05519310012459755 0.027289215475320816 0.011543553322553635 0.004232914187014103 0.0021963752806186676 0.002398180076852441 0.006969409063458443 0.016919057816267014 0.03498225286602974 0.061126988381147385 0.0918157547712326 0.11716180294752121 0.1273285299539566 0.12772010266780853
-9999 -9999 -9999 0.19354793429374695 0.15344232320785522 0.10396263003349304 0.06012582778930664 0.02968965470790863 0.012544570490717888 0.004610226023942232 0.0022002854384481907 0.002278742613270879 0.004010613542050123 0.0097070736810565 0.02012651599943638 0.03516976535320282 0.05288157984614372 0.06714886426925659 0.07309243828058243 0.07324560731649399
