ncols         20
nrows         20
xllcorner     0
yllcorner     -3.5992928
cellsize      0.17996463
NODATA_value  -9999
-9999.0 -9999 -9999 -9999 -9999 -9999 -9999 -9999 -9999 -9999 -9999 -9999 -9999 -9999 -9999 -9999 -9999 -9999 -9999 -9999
-9999 -9999 -9999 -9999 -9999 -9999 -9999 -9999 -9999 -9999 -9999 0.13468055427074432 0.13478660583496094 -9999 -9999 0.1371045559644699 0.13728244602680206 -9999 -9999 -9999
-9999 -9999 -9999 -9999 0.1341463178396225 0.13411828875541687 0.1341215968132019 0.13417747616767883 0.13430270552635193 0.13449467718601227 0.13470913469791412 0.12473664432764053 0.12506651878356934 0.1359817534685135 0.1366039514541626 0.12687990069389343 0.1274099349975586 0.1384236216545105 -9999 -9999
-9999 -9999 -9999 0.13442641496658325 0.12418532371520996 0.1056738942861557 0.10570865869522095 0.10580883175134659 0.10597676783800125 0.10619817674160004 0.10645005106925964 0.09863066673278809 0.098948635160923 0.10754063725471497 0.10805883258581161 0.10046087950468063 0.10937879979610443 0.1395246833562851 -9999 -9999
-9999 -9999 -9999 0.13465474545955658 0.10595382004976273 0.07713285833597183 0.07118512690067291 0.07134489715099335 0.07156249135732651 0.0718173235654831 0.07208295911550522 0.06693162024021149 0.06719672679901123 0.07299038767814636 0.07342815399169922 0.07404967397451401 0.11112850159406662 0.14179641008377075 -9999 -9999
-9999 -9999 0.13516901433467865 0.12486746162176132 0.09828796237707138 0.06612256169319153 0.04100556671619415 0.041178490966558456 0.041400909423828125 0.0416419580578804 0.041881222277879715 0.03883810341358185 0.03906315565109253 0.042659927159547806 0.04306204989552498 0.0702800452709198 0.10528203845024109 0.13487306237220764 0.14804278314113617 -9999
-9999 -9999 0.13558311760425568 0.10675697773694992 0.07785481214523315 0.052522290498018265 0.030065182596445084 0.020367290824651718 0.020540351048111916 0.02072261832654476 0.02090275287628174 0.01945912465453148 0.019654422998428345 0.021572861820459366 0.03251089155673981 0.05755520984530449 0.0860106572508812 0.1187351644039154 0.15160197019577026 -9999
-9999 -9999 0.13637174665927887 0.10748240351676941 0.07239687442779541 0.04169383645057678 0.020540909841656685 0.010123545303940773 0.008750547654926777 0.008863556198775768 0.008979561738669872 0.008412051945924759 0.008575566112995148 0.011160637252032757 0.02321447804570198 0.0476214699447155 0.08308444917201996 0.12374284863471985 0.15731924772262573 -9999
-9999 0.13810576498508453 0.1273428350687027 0.10037362575531006 0.0678047388792038 0.039037130773067474 0.01931115984916687 0.008176947943866253 0.0032195178791880608 0.003287527710199356 0.0033575575798749924 0.003164218505844474 0.003556390991434455 0.010232839733362198 0.024670610204339027 0.05035966634750366 0.08752130717039108 0.12986555695533752 0.16472654044628143 -9999
-9999 0.13973650336265564 0.11004488915205002 0.0804099515080452 0.05445335805416107 0.03154026344418526 0.015607158653438091 0.006625586189329624 0.0024544557090848684 0.0016371817328035831 0.001691865036264062 0.0017398754134774208 0.0038293329998850822 0.010902173817157745 0.026150278747081757 0.053257524967193604 0.09241840243339539 0.13694468140602112 0.17350012063980103 -9999
-9999 0.142636239528656 0.11251292377710342 0.07597098499536514 0.04394698515534401 0.021779166534543037 0.010804956778883934 0.004624569788575172 0.0017277670558542013 0.0017363339429721236 0.001802666811272502 0.0018578566377982497 0.004078948870301247 0.011550742201507092 0.027628127485513687 0.056209664791822433 0.09749273955821991 0.1443798989057541 0.18281278014183044 -9999
-9999 0.146712064743042 0.11586381494998932 0.07839909940958023 0.045475758612155914 0.02259315550327301 0.009611235000193119 0.003524341620504856 0.0017401318764314055 0.0018262802623212337 0.0019012013217434287 0.002074344316497445 0.0060091582126915455 0.014390509575605392 0.02909557893872261 0.059148456901311874 0.10251673310995102 0.15163391828536987 0.1917019486427307 -9999
-9999 0.1518995463848114 0.12011454999446869 0.08145638555288315 0.047332555055618286 0.02369561791419983 0.010103576816618443 0.0037152389995753765 0.0018158821621909738 0.001905228360556066 0.0019869033712893724 0.0032427452970296144 0.00935397855937481 0.022375687956809998 0.04573885351419449 0.07916532456874847 0.11655604839324951 0.15842974185943604 0.19932202994823456 -9999
-9999 0.1580573320388794 0.1252370923757553 0.08544579148292542 0.049750007688999176 0.024762416258454323 0.010549372062087059 0.003869549371302128 0.0018829015316441655 0.0019708562176674604 0.002053298754617572 0.00425051711499691 0.01223456859588623 0.029460642486810684 0.060147784650325775 0.10436907410621643 0.1542748361825943 0.1938108503818512 0.20461653172969818 -9999
-9999 0.1646779179573059 0.1306866556406021 0.08929998427629471 0.052048299461603165 0.025908857583999634 0.012912597507238388 0.005538857541978359 0.0020462574902921915 0.002023970242589712 0.0021042069420218468 0.004727909341454506 0.013549557887017727 0.0326944999396801 0.06695737689733505 0.11669554561376572 0.1727980375289917 0.2189977467060089 -9999 -9999
-9999 0.17060483992099762 0.13629023730754852 0.10064444690942764 0.06896448880434036 0.04025444760918617 0.020096445456147194 0.008529216051101685 0.003392984624952078 0.0020642278250306845 0.0021430545020848513 0.0048076999373734 0.013791810721158981 0.033341772854328156 0.06844509392976761 0.11963073164224625 0.17825904488563538 0.22622919082641602 -9999 -9999
-9999 0.17477534711360931 0.165411114692688 0.13248082995414734 0.09046709537506104 0.05271109566092491 0.028370894491672516 0.014070983044803143 0.00600170623511076 0.0022044533398002386 0.002171075902879238 0.004475768655538559 0.012918822467327118 0.03128419443964958 0.06432542204856873 0.11260360479354858 0.16842925548553467 0.21589231491088867 0.23816898465156555 0.24001243710517883
-9999 -9999 0.18513911962509155 0.14768922328948975 0.10867076367139816 0.07406649738550186 0.042986638844013214 0.021368414163589478 0.009038695134222507 0.0033286947291344404 0.0021883093286305666 0.0035538282245397568 0.010293089784681797 0.025031693279743195 0.05138938128948212 0.09021760523319244 0.13496865332126617 0.17262357473373413 0.18853074312210083 0.18947379291057587
-9999 -9999 0.18862956762313843 0.17635762691497803 0.14027507603168488 0.09523360431194305 0.055215008556842804 0.027310209348797798 0.011554359458386898 0.004236425738781691 0.0021972977556288242 0.0023982678540050983 0.006967504974454641 0.01691262610256672 0.03496675565838814 0.06109589338302612 0.09176510572433472 0.11709330230951309 0.1272508054971695 0.1276407241821289
-9999 -9999 -9999 0.19351954758167267 0.15343353152275085 0.10397391021251678 0.06014765426516533 0.029710955917835236 0.012556610628962517 0.004614457953721285 0.002201512223109603 0.0022791787050664425 0.0040100207552313805 0.009703660383820534 0.020117007195949554 0.03515070676803589 0.052850790321826935 0.06710796058177948 0.07304660975933075 0.07319910079240799
