ncols         20
nrows         20
xllcorner     0
yllcorner     -3.5992928
cellsize      0.17996463
NODATA_value  -9999
-9999.0 -9999 -9999 -9999 -9999 -9999 -9999 -9999 -9999 -9999 -9999 -9999 -9999 -9999 -9999 -9999 -9999 -9999 -9999 -9999
-9999 -9999 -9999 -9999 -9999 -9999 -9999 -9999 -9999 -9999 -9999 26.266361236572266 26.265487670898438 -9999 -9999 26.40882110595703 26.487031936645508 -9999 -9999 -9999
-9999 -9999 -9999 -9999 26.434511184692383 26.31577491760254 26.139305114746094 26.000234603881836 25.915864944458008 25.883543014526367 25.947996139526367 26.036949157714844 26.002586364746094 25.89627456665039 25.961257934570312 26.170482635498047 26.299184799194336 26.31891441345215 -9999 -9999
-9999 -9999 -9999 26.433605194091797 26.377830505371094 26.27305030822754 26.144142150878906 26.052064895629883 25.987802505493164 25.94719886779785 25.923860549926758 25.896455764770508 25.817428588867188 25.7416934967041 25.75138282775879 25.858980178833008 25.961849212646484 25.99636459350586 -9999 -9999
-9999 -9999 -9999 26.339900970458984 26.293703079223633 26.2346134185791 26.227331161499023 26.286108016967773 26.352067947387695 26.393890380859375 26.387765884399414 26.303176879882812 26.11701011657715 25.89238929748535 25.71352767944336 25.63446807861328 25.594688415527344 25.53608512878418 -9999 -9999
-9999 -9999 26.222871780395508 26.206844329833984 26.191865921020508 26.289247512817383 26.593730926513672 27.050724029541016 27.45370864868164 27.7784423828125 27.931480407714844 27.814790725708008 27.398235321044922 26.818208694458008 26.247676849365234 25.80722999572754 25.502178192138672 25.288986206054688 25.134267807006836 -9999
-9999 -9999 26.012845993041992 26.015560150146484 26.10419273376465 26.501279830932617 27.378406524658203 28.688461303710938 29.703479766845703 30.329517364501953 30.551284790039062 30.27581787109375 29.482316970825195 28.501983642578125 27.48923110961914 26.579174041748047 25.921703338623047 25.499061584472656 25.283233642578125 -9999
-9999 -9999 25.61343002319336 25.689939498901367 26.00093650817871 26.86623764038086 28.616981506347656 31.285717010498047 32.855438232421875 33.576148986816406 33.66860580444336 33.09996032714844 31.760082244873047 30.43545150756836 29.16668701171875 27.967174530029297 26.950008392333984 26.24359893798828 25.893634796142578 -9999
-9999 24.947101593017578 25.123512268066406 25.356639862060547 25.965595245361328 27.314918518066406 29.745468139648438 32.96268081665039 34.80576705932617 35.58343505859375 35.617401123046875 34.943824768066406 33.515716552734375 32.14250564575195 30.875072479248047 29.64862060546875 28.512569427490234 27.628612518310547 27.14885711669922 -9999
-9999 24.655838012695312 24.807167053222656 25.222938537597656 26.19858169555664 28.028152465820312 30.805225372314453 34.02497863769531 35.869300842285156 36.643104553222656 36.672603607177734 36.031639099121094 34.720096588134766 33.476409912109375 32.36780548095703 31.30881118774414 30.281435012817383 29.426286697387695 28.944076538085938 -9999
-9999 24.425973892211914 24.712921142578125 25.441909790039062 26.818058013916016 29.001264572143555 31.801025390625 34.720947265625 36.39521026611328 37.11295700073242 37.16455078125 36.62431335449219 35.50020217895508 34.45366287231445 33.55710220336914 32.72968292236328 31.929954528808594 31.238771438598633 30.83633041381836 -9999
-9999 24.59331512451172 25.08266258239746 26.164344787597656 27.88440704345703 30.129383087158203 32.64857482910156 35.06446075439453 36.47271728515625 37.11240005493164 37.208072662353516 36.820526123046875 35.953182220458984 35.15432357788086 34.477622985839844 33.856544494628906 33.258148193359375 32.743282318115234 32.435646057128906 -9999
-9999 25.385725021362305 26.080190658569336 27.471908569335938 29.314687728881836 31.331619262695312 33.31468963623047 35.026878356933594 36.12754821777344 36.68836975097656 36.849876403808594 36.659366607666016 36.19801712036133 35.71012496948242 35.248226165771484 34.78839874267578 34.29784393310547 33.87257766723633 33.58357620239258 -9999
-9999 26.768613815307617 27.62968635559082 29.16166877746582 30.88455581665039 32.526668548583984 33.97368621826172 35.15288162231445 35.97681427001953 36.432010650634766 36.61817932128906 36.594505310058594 36.42362594604492 36.19640350341797 35.93362808227539 35.60846710205078 35.21902084350586 34.80375671386719 34.32536697387695 -9999
-9999 28.39156150817871 29.292165756225586 30.7636775970459 32.26883316040039 33.56085968017578 34.61380386352539 35.45351791381836 36.02853012084961 36.388999938964844 36.58774948120117 36.67558670043945 36.68762969970703 36.64896774291992 36.55624008178711 36.37799835205078 36.128265380859375 35.8653564453125 -9999 -9999
-9999 29.730613708496094 30.6451416015625 31.99883460998535 33.29707336425781 34.36430358886719 35.199581146240234 35.80290603637695 36.2244987487793 36.51094436645508 36.70231628417969 36.84507751464844 36.957855224609375 37.03558349609375 37.05852127075195 37.01231002807617 36.92138671875 36.879600524902344 -9999 -9999
-9999 30.572603225708008 31.69695281982422 32.898292541503906 34.03132247924805 34.98915100097656 35.67466735839844 36.16680908203125 36.50809097290039 36.7453727722168 36.9202995300293 37.07746887207031 37.228607177734375 37.35926818847656 37.44601058959961 37.475685119628906 37.47199249267578 37.50509262084961 37.684696197509766 37.765384674072266
-9999 -9999 32.857505798339844 33.64217758178711 34.56928634643555 35.41780090332031 36.05061721801758 36.50646209716797 36.81480407714844 37.02197265625 37.17277526855469 37.321380615234375 37.47951126098633 37.63672637939453 37.75100326538086 37.808109283447266 37.83315658569336 37.85102462768555 37.88966751098633 37.892303466796875
-9999 -9999 33.51274871826172 34.18115997314453 34.94906234741211 35.718685150146484 36.335811614990234 36.78837585449219 37.08634567260742 37.268951416015625 37.39278030395508 37.52770233154297 37.68549728393555 37.849239349365234 37.97047424316406 38.03666687011719 38.06666946411133 38.061622619628906 38.0296630859375 38.007938385009766
-9999 -9999 -9999 34.62254333496094 35.20339584350586 35.88322830200195 36.48670196533203 36.93818664550781 37.226951599121094 37.39606857299805 37.5091552734375 37.62978744506836 37.786476135253906 37.954307556152344 38.08559799194336 38.15544509887695 38.19437026977539 38.16398620605469 38.11883544921875 38.092350006103516
