ncols         20
nrows         20
xllcorner     0
yllcorner     -3.5992928
cellsize      0.17996463
NODATA_value  -9999
-9999.0 -9999 -9999 -9999 -9999 -9999 -9999 -9999 -9999 -9999 -9999 -9999 -9999 -9999 -9999 -9999 -9999 -9999 -9999 -9999
-9999 -9999 -9999 -9999 -9999 -9999 -9999 -9999 -9999 -9999 -9999 1.2692750692367554 1.2671667337417603 -9999 -9999 1.3415427207946777 1.3128588199615479 -9999 -9999 -9999
-9999 -9999 -9999 -9999 1.2657334804534912 1.2825208902359009 1.3102235794067383 1.315847396850586 1.3111772537231445 1.3140915632247925 1.289350152015686 1.306151032447815 1.3327311277389526 1.3539998531341553 1.359704613685608 1.3580111265182495 1.3348833322525024 1.310636281967163 -9999 -9999
-9999 -9999 -9999 1.2941020727157593 1.3090773820877075 1.3247402906417847 1.3410838842391968 1.3424452543258667 1.3431944847106934 1.3386365175247192 1.342871904373169 1.359149694442749 1.3854856491088867 1.4057711362838745 1.4285986423492432 1.42969810962677 1.4018527269363403 1.3731427192687988 -9999 -9999
-9999 -9999 -9999 1.3283777236938477 1.3489320278167725 1.385212779045105 1.3961021900177002 1.3876968622207642 1.346782922744751 1.2765722274780273 1.2058340311050415 1.179595708847046 1.21905517578125 1.314206600189209 1.4196921586990356 1.4728738069534302 1.474048137664795 1.4859389066696167 -9999 -9999
-9999 -9999 1.3401598930358887 1.3712791204452515 1.4076988697052002 1.4335771799087524 1.4177112579345703 1.351048469543457 1.2105203866958618 1.010605812072754 0.8191208243370056 0.7327039837837219 0.7693979740142822 0.9411478042602539 1.1855216026306152 1.370896577835083 1.473525047302246 1.5042150020599365 1.4749560356140137 -9999
-9999 -9999 1.3732713460922241 1.409051775932312 1.4645216464996338 1.4715522527694702 1.4045307636260986 1.2393779754638672 0.9766881465911865 0.6809408068656921 0.45583075284957886 0.35787782073020935 0.37729066610336304 0.5274534225463867 0 1.102256417274475 1.3323472738265991 1.4470592737197876 1.4763339757919312 -9999
-9999 -9999 1.4480658769607544 1.4907375574111938 1.5213111639022827 1.4734488725662231 1.3040471076965332 1.0196805000305176 0.6902526617050171 0.4098169207572937 0.24362218379974365 0.17363455891609192 0.1775343120098114 0.2581191062927246 0.4440697431564331 0.7224423885345459 1.0099140405654907 1.2287641763687134 1.3228819370269775 -9999
-9999 1.483695149421692 1.5401110649108887 1.563582181930542 1.531719446182251 1.358242154121399 1.0483299493789673 0.6889060735702515 0.3949876129627228 0.21186527609825134 0.12254849821329117 0.08669786900281906 0.08471336960792542 0.11972376704216003 0.21108494699001312 0 0.6270048022270203 0.8536911606788635 0.9781121015548706 -9999
-9999 1.5644851922988892 1.5997065305709839 1.5762434005737305 1.4143199920654297 1.075388789176941 0.6778389811515808 0.35683324933052063 0.17190158367156982 0.08703486621379852 0.05286329612135887 0.039311472326517105 0.03858203440904617 0.050763022154569626 0.08710634708404541 0 0.3028300702571869 0.4617660641670227 0.5591795444488525 -9999
-9999 1.6319472789764404 1.6157212257385254 1.480602741241455 1.1710261106491089 0.7508619427680969 0.37606146931648254 0.15221931040287018 0.0604436993598938 0.02847365476191044 0.017434298992156982 0.013663372956216335 0.013535363599658012 0.01722080446779728 0.028089435771107674 0.054923176765441895 0.1064889132976532 0.18143269419670105 0.2307126820087433 -9999
-9999 1.5859671831130981 1.5046231746673584 1.2372446060180664 0.8506680130958557 0.46668046712875366 0.1921766698360443 0.06252288818359375 0.0204696636646986 0.008249322883784771 0.00463616568595171 0.0034454641863703728 0 0 0.006096816621720791 0 0.026169029995799065 0.048916514962911606 0.06463539600372314 -9999
-9999 1.3596057891845703 1.1989500522613525 0.8488839268684387 0.5061739683151245 0.2429630309343338 0.08884081244468689 0.025139255449175835 0.006861197762191296 0.002413330599665642 0.0009566849912516773 0.0006005866453051567 0 0 0 0.0015167574165388942 0.004205747507512569 0.009111301973462105 0.013234088197350502 -9999
-9999 0.9678636789321899 0.7811024188995361 0.46075183153152466 0.22811704874038696 0.09629422426223755 0.0329437218606472 0.008992991410195827 0.0020612224470824003 0.0006873245583847165 0.0003033787361346185 0.0001815766008803621 0 0 0 0.00020951544865965843 0.0004337684658821672 0.0011352312285453081 0.0019367024069651961 -9999
-9999 0.6179186105728149 0.458638459444046 0.21971027553081512 0.08594781160354614 0.031175725162029266 0.010055792517960072 0.0025569177232682705 0.000760671915486455 0.0002982882724609226 0.00015575408178847283 9.837628749664873E-05 7.288985943887383E-05 6.307933654170483E-05 0 0 8.83988177520223E-05 0.00018417081446386874 -9999 -9999
-9999 0.41909483075141907 0.2876017987728119 0.11522258818149567 0.036540769040584564 0.010614678263664246 0.0029111229814589024 0.0008993078954517841 0.00035613978980109096 0.000176974615897052 0 0 0 8.969251939561218E-05 0 0 0.00015239117783494294 0 -9999 -9999
-9999 0.30563268065452576 0.19145196676254272 0.07171400636434555 0.01947234570980072 0.003994976636022329 0.0011149130295962095 0.00039208371890708804 0.0001878456969279796 0 0 0 0 0.00016006275836843997 0.00020154060621280223 0.00024071360530797392 0.00027709011919796467 0.00032117802766151726 0 0
-9999 -9999 0.11404039710760117 0.047786470502614975 0.01209330279380083 0.002214771928265691 0.0005642629694193602 0.00020881675300188363 0 0 0 0 0 0 0 0 0 0 0 0
-9999 -9999 0.058177314698696136 0.029196176677942276 0.007782697677612305 0.0013456011656671762 0.00032387117971666157 0.00011991366773145273 0 0 0 0 0 0 0 0 0 0 0 0
-9999 -9999 -9999 0.020076153799891472 0.00554878544062376 0.0010532616870477796 0.00025010775425471365 9.3667687906418E-05 0 0 0 0 0 0 0 0 0 0 0 0
