ncols         20
nrows         20
xllcorner     0
yllcorner     -3.5992928
cellsize      0.17996463
NODATA_value  -9999
-9999.0 -9999 -9999 -9999 -9999 -9999 -9999 -9999 -9999 -9999 -9999 -9999 -9999 -9999 -9999 -9999 -9999 -9999 -9999 -9999
-9999 -9999 -9999 -9999 -9999 -9999 -9999 -9999 -9999 -9999 -9999 18.973846435546875 18.98245620727539 -9999 -9999 18.91266632080078 18.917125701904297 -9999 -9999 -9999
-9999 -9999 -9999 -9999 18.920183181762695 18.94209098815918 18.959280014038086 18.98456573486328 19.00589370727539 19.000476837158203 19.03931427001953 19.011882781982422 19.00055503845215 19.025026321411133 19.022220611572266 18.975431442260742 18.954795837402344 18.96402359008789 -9999 -9999
-9999 -9999 -9999 18.92267608642578 18.92063331604004 18.94540023803711 18.966449737548828 18.982107162475586 18.977888107299805 18.969497680664062 18.945398330688477 18.941171646118164 18.948564529418945 18.98602294921875 19.002613067626953 19.00600242614746 19.008480072021484 19.02315330505371 -9999 -9999
-9999 -9999 -9999 18.946685791015625 18.959888458251953 18.958839416503906 18.95121955871582 18.92013931274414 18.872283935546875 18.796110153198242 18.716697692871094 18.682926177978516 18.71316146850586 18.810100555419922 18.903057098388672 18.987926483154297 19.049144744873047 19.045833587646484 -9999 -9999
-9999 -9999 18.991455078125 18.98447608947754 18.994327545166016 18.975786209106445 18.911230087280273 18.797752380371094 18.658361434936523 18.504680633544922 18.356475830078125 18.290189743041992 18.32529640197754 18.475759506225586 18.678041458129883 18.85788345336914 18.989635467529297 19.04608154296875 19.130502700805664 -9999
-9999 -9999 19.04865837097168 19.06009292602539 19.039661407470703 18.959327697753906 18.789583206176758 18.560609817504883 18.3313045501709 18.156417846679688 18.020952224731445 17.947038650512695 17.945390701293945 18.08001136779785 18.30980682373047 18.57948875427246 18.789466857910156 18.937297821044922 19.0052490234375 -9999
-9999 -9999 19.13836669921875 19.13355827331543 19.070343017578125 18.903589248657227 18.611515045166016 18.62807846069336 18.29357147216797 18.116941452026367 18.041828155517578 18.041654586791992 17.732505798339844 17.776561737060547 17.95616912841797 18.210922241210938 18.462921142578125 18.666236877441406 18.76213264465332 -9999
-9999 19.273258209228516 19.22102165222168 19.19607925415039 19.063514709472656 18.78898811340332 18.403696060180664 18.31843376159668 17.998876571655273 17.854877471923828 17.8098201751709 17.822179794311523 17.572139739990234 17.561092376708984 17.659217834472656 17.84746551513672 18.07792854309082 18.283082962036133 18.394460678100586 -9999
-9999 19.33055877685547 19.301340103149414 19.194536209106445 18.968280792236328 18.617416381835938 18.21318817138672 18.123191833496094 17.842578887939453 17.721025466918945 17.685935974121094 17.69524383544922 17.460359573364258 17.40412139892578 17.432559967041016 17.541305541992188 17.713441848754883 17.883502960205078 17.979799270629883 -9999
-9999 19.36258888244629 19.288616180419922 19.094926834106445 18.78274917602539 18.38047218322754 18.0186710357666 17.992902755737305 17.758420944213867 17.653446197509766 17.623918533325195 17.627391815185547 17.366336822509766 17.27513313293457 17.254358291625977 17.298446655273438 17.40038299560547 17.5241756439209 17.59798812866211 -9999
-9999 19.258092880249023 19.125648498535156 18.84777069091797 18.488679885864258 18.095441818237305 17.809377670288086 17.890201568603516 17.70053482055664 17.610307693481445 17.584007263183594 17.585206985473633 17.283620834350586 17.179447174072266 17.132831573486328 17.12451934814453 17.164386749267578 17.239261627197266 17.29315757751465 -9999
-9999 18.95665740966797 18.776765823364258 18.456707000732422 18.1020565032959 17.78000831604004 17.544767379760742 17.436676025390625 17.36711883544922 17.33687973022461 17.316314697265625 17.28374671936035 17.20457649230957 17.15005874633789 17.103797912597656 17.06853675842285 17.045452117919922 17.064924240112305 17.112329483032227 -9999
-9999 18.528682708740234 18.330904006958008 18.01202392578125 17.71026611328125 17.473434448242188 17.317228317260742 17.243192672729492 17.223575592041016 17.222381591796875 17.220457077026367 17.2100887298584 17.19422149658203 17.18126106262207 17.17217445373535 17.142269134521484 17.089452743530273 17.016258239746094 17.100086212158203 -9999
-9999 18.1136474609375 17.92866325378418 17.639522552490234 17.402145385742188 17.249862670898438 17.1700382232666 17.14862060546875 17.15688705444336 17.174177169799805 17.185264587402344 17.1973876953125 17.2103328704834 17.22441291809082 17.247943878173828 17.249557495117188 17.229883193969727 17.09352684020996 -9999 -9999
-9999 17.83022689819336 17.656465530395508 17.405698776245117 17.225364685058594 17.141132354736328 17.111921310424805 17.120361328125 17.13624382019043 17.15635871887207 17.17148208618164 17.19420623779297 17.224332809448242 17.259723663330078 17.293476104736328 17.3231143951416 17.3370304107666 17.42763328552246 -9999 -9999
-9999 17.663774490356445 17.48379135131836 17.274232864379883 17.137807846069336 17.104787826538086 17.111011505126953 17.136798858642578 17.155454635620117 17.174667358398438 17.19198226928711 17.21867561340332 17.2537899017334 17.286561965942383 17.32324981689453 17.35814666748047 17.386045455932617 17.4149169921875 17.377717971801758 17.408140182495117
-9999 -9999 17.324811935424805 17.18918800354004 17.094770431518555 17.093631744384766 17.132741928100586 17.171226501464844 17.19378089904785 17.21247673034668 17.22779083251953 17.251976013183594 17.279525756835938 17.320798873901367 17.353532791137695 17.375608444213867 17.40154266357422 17.41826629638672 17.432411193847656 17.40806007385254
-9999 -9999 17.228330612182617 17.136777877807617 17.07821273803711 17.111230850219727 17.17523956298828 17.226612091064453 17.255502700805664 17.26802635192871 17.26678466796875 17.28872299194336 17.316049575805664 17.351816177368164 17.3726806640625 17.38735580444336 17.403554916381836 17.41778564453125 17.39585304260254 17.388980865478516
-9999 -9999 -9999 17.098310470581055 17.068593978881836 17.114179611206055 17.1928768157959 17.247543334960938 17.27302360534668 17.280336380004883 17.28382682800293 17.293100357055664 17.321205139160156 17.354907989501953 17.381078720092773 17.385129928588867 17.41159439086914 17.395009994506836 17.385927200317383 17.382844924926758
