ncols         20
nrows         20
xllcorner     0
yllcorner     -3.5992928
cellsize      0.17996463
NODATA_value  -9999
-9999.0 -9999 -9999 -9999 -9999 -9999 -9999 -9999 -9999 -9999 -9999 -9999 -9999 -9999 -9999 -9999 -9999 -9999 -9999 -9999
-9999 -9999 -9999 -9999 -9999 -9999 -9999 -9999 -9999 -9999 -9999 0.010075005702674389 0.009717176668345928 -9999 -9999 0.008236803114414215 0.007256926503032446 -9999 -9999 -9999
-9999 -9999 -9999 -9999 0.010548118501901627 0.01212273258715868 0.015244058333337307 0.018089838325977325 0.020067812874913216 0.021313106641173363 0.017562877386808395 0.014969372190535069 0.014913459308445454 0.015184089541435242 0.01269268523901701 0.009863830171525478 0.00813158880919218 0.0071900999173521996 -9999 -9999
-9999 -9999 -9999 0.009827608242630959 0.011350993067026138 0.01362345740199089 0.01728484407067299 0.021349556744098663 0.02617001347243786 0.030524561181664467 0.0334479920566082 0.03303183615207672 0.03190726041793823 0.027348952367901802 0.02136276476085186 0.015376514755189419 0.011420397087931633 0.009563708677887917 -9999 -9999
-9999 -9999 -9999 0.010133937932550907 0.012081138789653778 0.016500817611813545 0.022837959229946136 0.031460341066122055 0.04378779977560043 0.06255587935447693 0.08377482742071152 0.09493906795978546 0.08981910347938538 0.06843551248311996 0.04773033782839775 0.030190926045179367 0.02005135454237461 0.01783115044236183 -9999 -9999
-9999 -9999 0.0077278451062738895 0.009981215931475163 0.013617164455354214 0.020244229584932327 0.030220767483115196 0.045767925679683685 0.0747726634144783 0.122197225689888 0.18515487015247345 0.2219366580247879 0.21683941781520844 0.16420942544937134 0.1051892563700676 0.06280327588319778 0.03948809206485748 0.03180757537484169 0.02755703404545784 -9999
-9999 -9999 0.008118615485727787 0.010399069637060165 0.01634843274950981 0.026902221143245697 0.042837973684072495 0.07036155462265015 0.12197219580411911 0.2071884572505951 0.3164192736148834 0.3925510346889496 0.3936122953891754 0.31913313269615173 0 0.1322353184223175 0.08103545010089874 0.05588769167661667 0.0472491979598999 -9999
-9999 -9999 0.009876289404928684 0.013711197301745415 0.023646479472517967 0.04098762199282646 0.06993775814771652 0.11838168650865555 0.1951507180929184 0.3082069754600525 0.4283124506473541 0.52216637134552 0.5409698486328125 0.47880056500434875 0.3694549798965454 0.2505616843700409 0.162237286567688 0.11050622165203094 0.09245967864990234 -9999
-9999 0.00963266845792532 0.013506310991942883 0.02141270972788334 0.04072180762887001 0.07582419365644455 0.1302136331796646 0.21439900994300842 0.32342323660850525 0.4434016942977905 0.5469383597373962 0.6276782155036926 0.6687270402908325 0.6422458291053772 0.5653228163719177 0 0.3020157516002655 0.21141822636127472 0.17732316255569458 -9999
-9999 0.01397557370364666 0.020067108795046806 0.038093432784080505 0.07693014293909073 0.14454302191734314 0.24643607437610626 0.38105884194374084 0.5186845660209656 0.6281939148902893 0.700909435749054 0.7661836743354797 0.8162601590156555 0.831481397151947 0.7906370162963867 0 0.5132915377616882 0.3818705379962921 0.3292645215988159 -9999
-9999 0.025432761758565903 0.036524396389722824 0.06876540929079056 0.13165399432182312 0.2377791553735733 0.39525750279426575 0.5810918211936951 0.7296267151832581 0.8222997188568115 0.8869046568870544 0.9584434628486633 1.04484224319458 1.0867128372192383 1.0578768253326416 0.972213864326477 0.7970209121704102 0.6388132572174072 0.5682644844055176 -9999
-9999 0.05215996876358986 0.07101300358772278 0.12451375275850296 0.2162596881389618 0.3551945686340332 0.5470374822616577 0.7435947060585022 0.8714647889137268 0.9426119327545166 1.0079803466796875 1.117926836013794 0 0 1.339727759361267 0 1.1067453622817993 0.9469912052154541 0.8661633729934692 -9999
-9999 0.10909116268157959 0.14307129383087158 0.23112086951732635 0.35136088728904724 0.5085811614990234 0.6933446526527405 0.8542932868003845 0.9313488602638245 0.9609813094139099 1.008033275604248 1.1124763488769531 0 0 0 1.306599736213684 1.235791802406311 1.157647728919983 1.0759472846984863 -9999
-9999 0.20650143921375275 0.26103895902633667 0.3932413160800934 0.5445830225944519 0.6943598985671997 0.8295010924339294 0.9150318503379822 0.9353627562522888 0.9367668628692627 0.9579325318336487 1.0131105184555054 0 0 0 1.0615456104278564 1.0772879123687744 1.153064250946045 1.0796054601669312 -9999
-9999 0.3174569606781006 0.38923466205596924 0.5592553019523621 0.7218184471130371 0.8316249847412109 0.8952359557151794 0.917190432548523 0.9154126644134521 0.9179303646087646 0.9367340207099915 0.9313861131668091 0.9049436450004578 0.8511860966682434 0 0 0.7519036531448364 0.9056456685066223 -9999 -9999
-9999 0.39577487111091614 0.4788481891155243 0.6603233218193054 0.8010399341583252 0.8615831136703491 0.8752983808517456 0.8747680187225342 0.8923977613449097 0.9329880475997925 0 0 0 0.6867824196815491 0 0 0.4612886905670166 0 -9999 -9999
-9999 0.4588930606842041 0.5420790910720825 0.7039849758148193 0.814770519733429 0.8293871879577637 0.8111808896064758 0.8058564066886902 0.8501075506210327 0 0 0 0 0.5748763680458069 0.45520856976509094 0.3652230501174927 0.3044548034667969 0.26495999097824097 0 0
-9999 -9999 0.603528618812561 0.7247574925422668 0.804298460483551 0.7828824520111084 0.734268844127655 0.7237827777862549 0 0 0 0 0 0 0 0 0 0 0 0
-9999 -9999 0.6845538020133972 0.7471226453781128 0.7842674851417542 0.726426362991333 0.6473466157913208 0.6152632832527161 0 0 0 0 0 0 0 0 0 0 0 0
-9999 -9999 -9999 0.7552534937858582 0.7712327241897583 0.698941171169281 0.6038550734519958 0.5622271299362183 0 0 0 0 0 0 0 0 0 0 0 0
