ncols         20
nrows         20
xllcorner     0
yllcorner     -3.5992928
cellsize      0.17996463
NODATA_value  -9999
-9999.0 -9999 -9999 -9999 -9999 -9999 -9999 -9999 -9999 -9999 -9999 -9999 -9999 -9999 -9999 -9999 -9999 -9999 -9999 -9999
-9999 -9999 -9999 -9999 -9999 -9999 -9999 -9999 -9999 -9999 -9999 0 0 -9999 -9999 0 0 -9999 -9999 -9999
-9999 -9999 -9999 -9999 0 0 0 0 0 0 0 0 0 0 0 0 0 0 -9999 -9999
-9999 -9999 -9999 0 0 0 0 0 0 0 0 0 0 0 0 0 0 0 -9999 -9999
-9999 -9999 -9999 0 0 0 0 0 0 0 0 0 0 0 0 0 0 0 -9999 -9999
-9999 -9999 0 0 0 0 0 0 0 0 0 0 0 0 0 0 0 0 0 -9999
-9999 -9999 0 0 0 0 0 0 0 0 0 0 0 0 0 0 0 0 0 -9999
-9999 -9999 0 0 0 0 0 0.5211626887321472 0.5736417174339294 0.8190887570381165 1.3493635654449463 2.693704843521118 0 0 0 0 0 0 0 -9999
-9999 0 0 0 0 0 0 0.6619125008583069 0.5655655264854431 0.6720385551452637 1.0595835447311401 2.4186131954193115 0 0 0 0 0 0 0 -9999
-9999 0 0 0 0 0 0 1.1374590396881104 0.8275607228279114 0.8519623279571533 1.2314783334732056 2.821575403213501 0 0 0 0 0 0 0 -9999
-9999 0 0 0 0 0 0 2.2026708126068115 1.55677330493927 1.4939976930618286 1.935411810874939 3.9445106983184814 0 0 0 0 0 0 0 -9999
-9999 0 0 0 0 0 0 5.082395076751709 3.917694091796875 3.6718389987945557 4.153815269470215 6.673999786376953 0 0 0 0 0 0 0 -9999
-9999 0 0 0 0 0 0 0 0 0 0 0 0 0 0 0 0 0 0 -9999
-9999 0 0 0 0 0 0 0 0 0 0 0 0 0 0 0 0 0 0 -9999
-9999 0 0 0 0 0 0 0 0 0 0 0 0 0 0 0 0 0 -9999 -9999
-9999 0 0 0 0 0 0 0 0 0 0 0 0 0 0 0 0 0 -9999 -9999
-9999 0 0 0 0 0 0 0 0 0 0 0 0 0 0 0 0 0 0 0
-9999 -9999 0 0 0 0 0 0 0 0 0 0 0 0 0 0 0 0 0 0
-9999 -9999 0 0 0 0 0 0 0 0 0 0 0 0 0 0 0 0 0 0
-9999 -9999 -9999 0 0 0 0 0 0 0 0 0 0 0 0 0 0 0 0 0
