ncols         20
nrows         20
xllcorner     0
yllcorner     -3.5992928
cellsize      0.17996463
NODATA_value  -9999
-9999.0 -9999 -9999 -9999 -9999 -9999 -9999 -9999 -9999 -9999 -9999 -9999 -9999 -9999 -9999 -9999 -9999 -9999 -9999 -9999
-9999 -9999 -9999 -9999 -9999 -9999 -9999 -9999 -9999 -9999 -9999 3.021239757537842 3.0328879356384277 -9999 -9999 3.255255937576294 3.2626514434814453 -9999 -9999 -9999
-9999 -9999 -9999 -9999 3.2773494720458984 3.2221813201904297 3.1397790908813477 3.0436837673187256 2.9555087089538574 2.895083427429199 2.8747973442077637 2.9178152084350586 2.9568116664886475 2.998835802078247 3.071363687515259 3.1619560718536377 3.2010116577148438 3.207482099533081 -9999 -9999
-9999 -9999 -9999 3.3176944255828857 3.257805109024048 3.157538414001465 3.036463975906372 2.9074673652648926 2.7965471744537354 2.7220802307128906 2.694507122039795 2.716392755508423 2.7719950675964355 2.8509459495544434 2.9446377754211426 3.034878969192505 3.1020021438598633 3.1435024738311768 -9999 -9999
-9999 -9999 -9999 3.2955846786499023 3.1939330101013184 3.0360472202301025 2.8446555137634277 2.6486411094665527 2.492090940475464 2.392488956451416 2.3548083305358887 2.3799469470977783 2.460599660873413 2.5783181190490723 2.7130613327026367 2.841068983078003 2.9466757774353027 3.0155839920043945 -9999 -9999
-9999 -9999 3.3618993759155273 3.2743582725524902 3.1042826175689697 2.8591196537017822 2.556842088699341 2.2509326934814453 2.035983085632324 1.9141324758529663 1.8745331764221191 1.9171295166015625 2.03961443901062 2.205296039581299 2.388441801071167 2.5630903244018555 2.707676887512207 2.7976088523864746 2.775362253189087 -9999
-9999 -9999 3.3537914752960205 3.226106882095337 2.985294818878174 2.6286978721618652 2.170027494430542 1.6783082485198975 1.4172006845474243 1.3018306493759155 1.2854278087615967 1.3687677383422852 1.576781153678894 1.7949492931365967 2.014411449432373 2.224128246307373 2.403066635131836 2.5326337814331055 2.590343475341797 -9999
-9999 -9999 3.3562755584716797 3.180901288986206 2.857523202896118 2.378758192062378 1.7287309169769287 0.8215243816375732 0.6125156283378601 0.5655900835990906 0.5905827283859253 0.7114363312721252 1.1462044715881348 1.4257982969284058 1.6580305099487305 1.8729244470596313 2.0644516944885254 2.2167272567749023 2.3034021854400635 -9999
-9999 3.4968276023864746 3.3694210052490234 3.1216683387756348 2.7265920639038086 2.176429033279419 1.4783419370651245 0.6226723194122314 0.40593791007995605 0.3594662845134735 0.390508234500885 0.517198383808136 0.8942091464996338 1.1556750535964966 1.3674120903015137 1.5581470727920532 1.7345021963119507 1.883996605873108 1.9756419658660889 -9999
-9999 3.439990758895874 3.2935163974761963 3.005014419555664 2.569382667541504 2.000206232070923 1.328722357749939 0.571817934513092 0.3618521988391876 0.31135621666908264 0.33798912167549133 0.4513995945453644 0.75468909740448 0.9747498631477356 1.15151047706604 1.3095026016235352 1.4543479681015015 1.582511067390442 1.6657185554504395 -9999
-9999 3.292567253112793 3.127469301223755 2.813173294067383 2.368732452392578 1.8271172046661377 1.2260477542877197 0.5748202204704285 0.38442671298980713 0.33369019627571106 0.3525294363498688 0.4455042779445648 0.6861172914505005 0.8614290356636047 1.0008126497268677 1.1265732049942017 1.2426483631134033 1.3480478525161743 1.4191131591796875 -9999
-9999 3.0335428714752197 2.8592796325683594 2.541508197784424 2.124202013015747 1.6520429849624634 1.1577919721603394 0.6291840076446533 0.46567410230636597 0.41451218724250793 0.4219018220901489 0.4892056882381439 0.6696819067001343 0.7987422347068787 0.9029097557067871 0.9994755387306213 1.0918318033218384 1.179175853729248 1.240743637084961 -9999
-9999 2.680549383163452 2.509267807006836 2.2124805450439453 1.855554461479187 1.4833157062530518 1.1288565397262573 0.826164722442627 0.6634664535522461 0.5911166071891785 0.5784696936607361 0.6142865419387817 0.6944901347160339 0.7724753618240356 0.8441725969314575 0.9157068729400635 0.9899070262908936 1.0651452541351318 1.1231777667999268 -9999
-9999 2.291198968887329 2.1351022720336914 1.88129723072052 1.6033997535705566 1.3295550346374512 1.0806993246078491 0.8821069002151489 0.7568866610527039 0.6901163458824158 0.6678075790405273 0.679938018321991 0.7170762419700623 0.7623101472854614 0.8101366758346558 0.8628377914428711 0.9245213270187378 0.9928151965141296 1.0608174800872803 -9999
-9999 1.9452258348464966 1.811712622642517 1.6133720874786377 1.4044508934020996 1.2041667699813843 1.0266636610031128 0.886864185333252 0.7931848764419556 0.7386044859886169 0.7148606181144714 0.7149554491043091 0.7320137023925781 0.7583680152893066 0.7903305888175964 0.828391432762146 0.8760489225387573 0.919961154460907 -9999 -9999
-9999 1.6973049640655518 1.5791311264038086 1.4184744358062744 1.2570137977600098 1.1073389053344727 0.9768726825714111 0.8737121224403381 0.8029353022575378 0.7597441673278809 0.7381039261817932 0.733225405216217 0.7406771183013916 0.7563804388046265 0.7779871225357056 0.8054916858673096 0.841476321220398 0.8744425773620605 -9999 -9999
-9999 1.5612810850143433 1.4212110042572021 1.282905101776123 1.1515209674835205 1.0349986553192139 0.9353678226470947 0.8563823699951172 0.801849901676178 0.7676180601119995 0.7489830255508423 0.7425483465194702 0.7453482151031494 0.7548481225967407 0.7694512009620667 0.7887781858444214 0.8138679265975952 0.8388294577598572 0.8418492674827576 0.8439093232154846
-9999 -9999 1.2685790061950684 1.1804364919662476 1.076692819595337 0.9828926920890808 0.903368353843689 0.8407389521598816 0.7975415587425232 0.7698141932487488 0.7539026737213135 0.747233510017395 0.7476962208747864 0.7535321712493896 0.7633728384971619 0.7763904333114624 0.7919483184814453 0.8080929517745972 0.8166738152503967 0.8198453187942505
-9999 -9999 1.1963982582092285 1.1183146238327026 1.0308551788330078 0.9492126107215881 0.8814558982849121 0.8293759822845459 0.7935640215873718 0.770094096660614 0.7560462355613708 0.7495012879371643 0.7488146424293518 0.7525538206100464 0.7594490051269531 0.768506646156311 0.7787015438079834 0.7882522344589233 0.7943991422653198 0.7971828579902649
-9999 -9999 -9999 1.0671825408935547 1.0048998594284058 0.9318422675132751 0.8702184557914734 0.8234127759933472 0.7912611365318298 0.7698671817779541 0.7567848563194275 0.7503549456596375 0.7491925358772278 0.7519832849502563 0.7575088739395142 0.7647125124931335 0.7725936770439148 0.7796367406845093 0.784533679485321 0.7869459986686707
