ncols         20
nrows         20
xllcorner     0
yllcorner     -3.5992928
cellsize      0.17996463
NODATA_value  -9999
-9999.0 -9999 -9999 -9999 -9999 -9999 -9999 -9999 -9999 -9999 -9999 -9999 -9999 -9999 -9999 -9999 -9999 -9999 -9999 -9999
-9999 -9999 -9999 -9999 -9999 -9999 -9999 -9999 -9999 -9999 -9999 0.9971405267715454 0.9744287729263306 -9999 -9999 0.862523078918457 0.8081634044647217 -9999 -9999 -9999
-9999 -9999 -9999 -9999 1.1416935920715332 1.2127145528793335 1.3364553451538086 1.4229087829589844 1.4606118202209473 1.4677504301071167 1.303336262702942 1.186997652053833 1.1661275625228882 1.1477633714675903 1.036767840385437 0.9163455963134766 0.8279916644096375 0.7668125033378601 -9999 -9999
-9999 -9999 -9999 1.0775678157806396 1.160496711730957 1.2578569650650024 1.389182209968567 1.5043202638626099 1.616982102394104 1.6951525211334229 1.7249022722244263 1.6752095222473145 1.6152151823043823 1.4696279764175415 1.28280770778656 1.0818089246749878 0.9268914461135864 0.8423939943313599 -9999 -9999
-9999 -9999 -9999 1.0590966939926147 1.15104079246521 1.3240642547607422 1.518984079360962 1.7261929512023926 1.9640676975250244 2.26540470123291 2.533679962158203 2.6229171752929688 2.496624231338501 2.1386592388153076 1.7578067779541016 1.385418176651001 1.119988203048706 1.0470508337020874 -9999 -9999
-9999 -9999 0.8474098443984985 0.9862338304519653 1.1461931467056274 1.3688660860061646 1.6204133033752441 1.917268991470337 2.3483219146728516 2.87194561958313 3.3938376903533936 3.596811532974243 3.4690608978271484 2.9572348594665527 2.326141595840454 1.7771687507629395 1.3907370567321777 1.2229200601577759 1.0805244445800781 -9999
-9999 -9999 0.819577693939209 0.9297617673873901 1.1492453813552856 1.432936429977417 1.73995041847229 2.132784366607666 2.6686975955963135 3.3027734756469727 3.8937225341796875 4.173397064208984 4.062954902648926 3.5732502937316895 2.934009313583374 2.235468626022339 1.7379207611083984 1.4289053678512573 1.2930306196212769 -9999
-9999 -9999 0.8137273788452148 0.9540374279022217 1.2264134883880615 1.5592117309570312 1.9504605531692505 2.4068894386291504 2.9181172847747803 3.4628608226776123 3.875836133956909 4.095617294311523 4.03391695022583 3.702117919921875 3.1926279067993164 2.600344181060791 2.0938568115234375 1.7286241054534912 1.5768144130706787 -9999
-9999 0.6522670388221741 0.8188608884811401 1.034472107887268 1.3934587240219116 1.8265883922576904 2.2723453044891357 2.7396461963653564 3.151244640350342 3.46388578414917 3.6336591243743896 3.7060387134552 3.679762840270996 3.506950855255127 3.2274584770202637 2.8513152599334717 2.3614304065704346 2.002418279647827 1.8466554880142212 -9999
-9999 0.7155531048774719 0.8683525919914246 1.1872655153274536 1.6391401290893555 2.145163059234619 2.6269383430480957 3.0310592651367188 3.2753679752349854 3.3544864654541016 3.321843147277832 3.282050132751465 3.2370758056640625 3.169846296310425 3.043308734893799 2.8614678382873535 2.4903101921081543 2.1952314376831055 2.0652425289154053 -9999
-9999 0.8439093828201294 1.0097836256027222 1.368706464767456 1.8347207307815552 2.331686019897461 2.7817890644073486 3.0858027935028076 3.164947986602783 3.0947623252868652 2.9825446605682373 2.8992083072662354 2.860102415084839 2.8262550830841064 2.769906759262085 2.6701760292053223 2.4787657260894775 2.2794394493103027 2.1876938343048096 -9999
-9999 1.0469141006469727 1.2138981819152832 1.5814083814620972 2.003443956375122 2.4010863304138184 2.726693868637085 2.8805389404296875 2.832636833190918 2.695044994354248 2.569223642349243 2.505419969558716 2.5293006896972656 2.5221753120422363 2.472043752670288 2.4629125595092773 2.3453776836395264 2.2390687465667725 2.1888904571533203 -9999
-9999 1.3230189085006714 1.4992486238479614 1.8527600765228271 2.163573741912842 2.406636953353882 2.553175926208496 2.559129476547241 2.4248290061950684 2.252239227294922 2.1239569187164307 2.0636258125305176 2.089202642440796 2.091714382171631 2.0910751819610596 2.0744895935058594 2.076077699661255 2.0703630447387695 2.0564401149749756 -9999
-9999 1.618760347366333 1.782590627670288 2.0836946964263916 2.2800586223602295 2.3551182746887207 2.3321006298065186 2.217062473297119 2.039255380630493 1.8585724830627441 1.7288627624511719 1.6565122604370117 1.6429468393325806 1.6192383766174316 1.6015206575393677 1.5987025499343872 1.6698803901672363 1.7995954751968384 1.8592336177825928 -9999
-9999 1.8051972389221191 1.9277015924453735 2.15274977684021 2.2382750511169434 2.182209014892578 2.052570104598999 1.8853343725204468 1.7027932405471802 1.5498015880584717 1.443892002105713 1.3604578971862793 1.294766902923584 1.2374987602233887 1.2016125917434692 1.188999891281128 1.2167041301727295 1.3734633922576904 -9999 -9999
-9999 1.8288458585739136 1.8998838663101196 2.0416722297668457 2.037080764770508 1.914929747581482 1.751448631286621 1.578682780265808 1.4372518062591553 1.3341200351715088 1.2733988761901855 1.1952881813049316 1.105042815208435 1.0027596950531006 0.9386456608772278 0.8834124803543091 0.8541584014892578 0.7818728685379028 -9999 -9999
-9999 1.831667423248291 1.7973965406417847 1.851954698562622 1.7995065450668335 1.6508628129959106 1.4747273921966553 1.322569489479065 1.2229489088058472 1.1661938428878784 1.112265706062317 1.0401842594146729 0.948695182800293 0.8487611413002014 0.7663311958312988 0.6968673467636108 0.6452770233154297 0.6011154055595398 0.5891545414924622 0.5362212061882019
-9999 -9999 1.6269216537475586 1.6547638177871704 1.59033203125 1.4321690797805786 1.2556672096252441 1.1233288049697876 1.057382345199585 1.008310317993164 0.9645695090293884 0.905558168888092 0.831212043762207 0.7362101078033447 0.656871497631073 0.5985283255577087 0.5432271361351013 0.507979154586792 0.4842180013656616 0.511817455291748
-9999 -9999 1.578593134880066 1.520240306854248 1.4354172945022583 1.267911434173584 1.0896589756011963 0.9624490737915039 0.9022006988525391 0.864697277545929 0.844667911529541 0.7969105839729309 0.7293520569801331 0.6450675129890442 0.5808739066123962 0.5352494716644287 0.49570780992507935 0.4749385118484497 0.5097769498825073 0.5297896862030029
-9999 -9999 -9999 1.4101072549819946 1.3519105911254883 1.1886378526687622 1.0106613636016846 0.887377917766571 0.8329567909240723 0.8054571747779846 0.7875264286994934 0.7559187412261963 0.6915711164474487 0.6115491390228271 0.5446685552597046 0.5140403509140015 0.46943408250808716 0.49508678913116455 0.5250363349914551 0.5419201254844666
