ncols         20
nrows         20
xllcorner     0
yllcorner     -3.5992928
cellsize      0.17996463
NODATA_value  -9999
-9999.0 -9999 -9999 -9999 -9999 -9999 -9999 -9999 -9999 -9999 -9999 -9999 -9999 -9999 -9999 -9999 -9999 -9999 -9999 -9999
-9999 -9999 -9999 -9999 -9999 -9999 -9999 -9999 -9999 -9999 -9999 0.2035752832889557 0.20039623975753784 -9999 -9999 0.18160073459148407 0.17007282376289368 -9999 -9999 -9999
-9999 -9999 -9999 -9999 0.18269746005535126 0.1990993618965149 0.22954431176185608 0.25821003317832947 0.2807600796222687 0.29732075333595276 0.2750217616558075 0.25533607602119446 0.2567450702190399 0.2621307671070099 0.23865623772144318 0.20613393187522888 0.18602263927459717 0.176433265209198 -9999 -9999
-9999 -9999 -9999 0.17967689037322998 0.19364582002162933 0.21623492240905762 0.2509807348251343 0.28885069489479065 0.33140310645103455 0.369525671005249 0.3966163098812103 0.4001636207103729 0.3965373933315277 0.36801877617836 0.3234897255897522 0.2713058888912201 0.2319895327091217 0.21211792528629303 -9999 -9999
-9999 -9999 -9999 0.18871989846229553 0.20821934938430786 0.2495432049036026 0.3039613664150238 0.37124142050743103 0.4564756155014038 0.5674511790275574 0.6767306327819824 0.7338493466377258 0.71927809715271 0.6267317533493042 0.5186456441879272 0.4079948961734772 0.3295601010322571 0.31011900305747986 -9999 -9999
-9999 -9999 0.17737440764904022 0.1986115574836731 0.23514515161514282 0.295443594455719 0.37531256675720215 0.4827718436717987 0.6465709209442139 0.8609681129455566 1.0929384231567383 1.218652606010437 1.213328242301941 1.0532468557357788 0.8339567184448242 0.6367810964584351 0.5000399947166443 0.4487159252166748 0.426538348197937 -9999
-9999 -9999 0.1902882605791092 0.2165486067533493 0.2780252695083618 0.369770348072052 0.48690423369407654 0.6542248725891113 0.9009339213371277 1.2196683883666992 1.5500749349594116 1.7559716701507568 1.769147515296936 1.5872907638549805 1.3160721063613892 0.9998039603233337 0.7744362354278564 0.6381608247756958 0.5872747302055359 -9999
-9999 -9999 0.22524461150169373 0.26948082447052 0.36521854996681213 0.500670313835144 0.6850473880767822 0.9321109652519226 1.2446730136871338 1.6146554946899414 1.9471309185028076 2.180206537246704 2.2305281162261963 2.0926411151885986 1.8203847408294678 1.482628583908081 1.1827294826507568 0.9680866003036499 0.881747841835022 -9999
-9999 0.2447592169046402 0.2855028808116913 0.36691877245903015 0.5255259275436401 0.7500564455986023 1.0282626152038574 1.3736913204193115 1.7435168027877808 2.092280387878418 2.362767219543457 2.5553998947143555 2.6454272270202637 2.5843420028686523 2.402289867401123 2.123199701309204 1.7258113622665405 1.4387449026107788 1.3143588304519653 -9999
-9999 0.30792951583862305 0.37252533435821533 0.5305203795433044 0.7872539758682251 1.1305875778198242 1.5394421815872192 1.982909917831421 2.3763630390167236 2.663329601287842 2.8429718017578125 2.984665870666504 3.0774972438812256 3.0932860374450684 2.9931623935699463 2.8038768768310547 2.3852317333221436 2.056363344192505 1.9082362651824951 -9999
-9999 0.4414476752281189 0.5383338332176208 0.7677777409553528 1.111635684967041 1.559967279434204 2.0880074501037598 2.6086649894714355 2.9848170280456543 3.2072207927703857 3.3448503017425537 3.4678897857666016 3.5933451652526855 3.6449646949768066 3.587451934814453 3.425443649291992 3.1106696128845215 2.789945602416992 2.6338791847229004 -9999
-9999 0.6762115955352783 0.8050750494003296 1.1104100942611694 1.526230812072754 2.027878761291504 2.594175100326538 3.0940563678741455 3.3958756923675537 3.5496268272399902 3.6590917110443115 3.8098504543304443 4.060898303985596 4.1562676429748535 4.077689170837402 4.03703498840332 3.755605459213257 3.4982879161834717 3.3587212562561035 -9999
-9999 1.0494167804718018 1.2286423444747925 1.620436191558838 2.0650506019592285 2.5539183616638184 3.0466208457946777 3.4289605617523193 3.5990183353424072 3.645441770553589 3.695293426513672 3.8138973712921143 4.053130149841309 4.148539066314697 4.153305530548096 4.052416801452637 3.9956917762756348 3.906205892562866 3.79850435256958 -9999
-9999 1.5477590560913086 1.7742297649383545 2.2394189834594727 2.7001891136169434 3.1063308715820312 3.4355382919311523 3.622558116912842 3.647183895111084 3.609020471572876 3.5874040126800537 3.610206365585327 3.708916425704956 3.7049813270568848 3.659186363220215 3.588911533355713 3.6701645851135254 3.8484718799591064 3.8060410022735596 -9999
-9999 2.0317273139953613 2.2823989391326904 2.7905538082122803 3.2243833541870117 3.4968314170837402 3.6366801261901855 3.6584696769714355 3.603025436401367 3.531062602996826 3.4766018390655518 3.385450839996338 3.267860174179077 3.122243881225586 3.0155439376831055 2.933368682861328 2.9251437187194824 3.2365410327911377 -9999 -9999
-9999 2.3578062057495117 2.625600576400757 3.130049705505371 3.484137535095215 3.622882604598999 3.6271772384643555 3.5670268535614014 3.5097336769104004 3.467796802520752 3.455996036529541 3.2971138954162598 3.0360469818115234 2.7008588314056396 2.4787867069244385 2.2711024284362793 2.126347303390503 1.8999212980270386 -9999 -9999
-9999 2.5939440727233887 2.869171142578125 3.307568311691284 3.575448513031006 3.5905921459198 3.496534585952759 3.389981269836426 3.3475685119628906 3.351689577102661 3.268942356109619 3.0550761222839355 2.7331490516662598 2.362255573272705 2.0550413131713867 1.7944254875183105 1.5887649059295654 1.408731460571289 1.3042712211608887 1.15200674533844
-9999 -9999 3.105259418487549 3.4160208702087402 3.5948433876037598 3.507550001144409 3.316725015640259 3.1682486534118652 3.1469297409057617 3.0887646675109863 2.971733808517456 2.7496836185455322 2.4471020698547363 2.0748209953308105 1.76167893409729 1.523796796798706 1.3099676370620728 1.160815715789795 1.0554423332214355 1.089481234550476
-9999 -9999 3.349675416946411 3.506713390350342 3.5758306980133057 3.3874993324279785 3.1030354499816895 2.8896663188934326 2.8203327655792236 2.74458909034729 2.6655781269073486 2.4548099040985107 2.159667730331421 1.8138039112091064 1.5413552522659302 1.3382054567337036 1.1678297519683838 1.0602672100067139 1.0947662591934204 1.1154441833496094
-9999 -9999 -9999 3.5455541610717773 3.557507038116455 3.326033592224121 2.990461587905884 2.7465732097625732 2.662973642349243 2.596278190612793 2.508946418762207 2.3398585319519043 2.048698902130127 1.7130366563796997 1.432969331741333 1.2701516151428223 1.0894063711166382 1.0916258096694946 1.1171987056732178 1.1323567628860474
