ncols         20
nrows         20
xllcorner     0
yllcorner     -3.5992928
cellsize      0.17996463
NODATA_value  -9999
-9999.0 -9999 -9999 -9999 -9999 -9999 -9999 -9999 -9999 -9999 -9999 -9999 -9999 -9999 -9999 -9999 -9999 -9999 -9999 -9999
-9999 -9999 -9999 -9999 -9999 -9999 -9999 -9999 -9999 -9999 -9999 1.7239080667495728 1.722517490386963 -9999 -9999 1.77388334274292 1.755020022392273 -9999 -9999 -9999
-9999 -9999 -9999 -9999 1.7228044271469116 1.7337753772735596 1.751800537109375 1.7550170421600342 1.7517155408859253 1.7538812160491943 1.736196756362915 1.7475099563598633 1.765339970588684 1.779500961303711 1.783778429031372 1.7837564945220947 1.7690999507904053 1.7531895637512207 -9999 -9999
-9999 -9999 -9999 1.7420697212219238 1.7517602443695068 1.7615575790405273 1.7716615200042725 1.7718210220336914 1.7721723318099976 1.7680872678756714 1.7696622610092163 1.7800092697143555 1.797640323638916 1.8117430210113525 1.8267159461975098 1.8287497758865356 1.811797857284546 1.793734073638916 -9999 -9999
-9999 -9999 -9999 1.764625906944275 1.777580976486206 1.8003571033477783 1.806589126586914 1.7996852397918701 1.7704755067825317 1.720799207687378 1.6701576709747314 1.6510119438171387 1.6791869401931763 1.7457616329193115 1.817495346069336 1.8542871475219727 1.8561571836471558 1.864638328552246 -9999 -9999
-9999 -9999 1.7724491357803345 1.792379379272461 1.8149291276931763 1.830122470855713 1.8183828592300415 1.7715741395950317 1.6723694801330566 1.5236454010009766 1.3683134317398071 1.2926654815673828 1.3255279064178467 1.4693334102630615 1.6539738178253174 1.7837580442428589 1.8533796072006226 1.8748416900634766 1.8559008836746216 -9999
-9999 -9999 1.7936561107635498 1.8159966468811035 1.849829077720642 1.852678656578064 1.8060179948806763 1.6910691261291504 1.4953293800354004 1.2431813478469849 1.0131616592407227 0.895926833152771 0.9206499457359314 1.0921425819396973 1.3767473697662354 1.5922902822494507 1.7564563751220703 1.834586501121521 1.8548189401626587 -9999
-9999 -9999 1.8408880233764648 1.8665013313293457 1.8831816911697388 1.850193738937378 1.7349615097045898 1.5276931524276733 1.2505505084991455 0.9581950306892395 0.7349927425384521 0.6187300086021423 0.6261272430419922 0.7580048441886902 0.999662458896637 1.281688928604126 1.5219106674194336 1.68369722366333 1.7495529651641846 -9999
-9999 1.863040566444397 1.8973287343978882 1.9098540544509888 1.8873080015182495 1.7717058658599854 1.5498573780059814 1.2497776746749878 0.9405979514122009 0.6844300031661987 0.5175248384475708 0.43385958671569824 0.4291417598724365 0.5123199224472046 0.684284508228302 0.9453131556510925 1.191970944404602 1.3956235647201538 1.4963948726654053 -9999
-9999 1.9119864702224731 1.9319695234298706 1.9158309698104858 1.8095189332962036 1.5711870193481445 1.240781545639038 0.894690752029419 0.6167911887168884 0.435891717672348 0.3377380669116974 0.29031509160995483 0.28778380155563354 0.3314218521118164 0.4366365373134613 0.6123898029327393 0.8228049874305725 1.019538402557373 1.1238611936569214 -9999
-9999 1.9506839513778687 1.9387866258621216 1.8527612686157227 1.6415081024169922 1.3077003955841064 0.9197781085968018 0.5811931490898132 0.3636567294597626 0.24791692197322845 0.1929384022951126 0.1703336387872696 0.169660285115242 0.19206681847572327 0.24655933678150177 0.34654179215431213 0.4845881760120392 0.6344223022460938 0.7164930701255798 -9999
-9999 1.9205422401428223 1.8678128719329834 1.6886606216430664 1.3938066959381104 1.0264357328414917 0.6543575525283813 0.37064456939697266 0.21060684323310852 0.13283634185791016 0.09907946735620499 0.0852256566286087 0.08428017795085907 0.09230972826480865 0.11436579376459122 0.1618977189064026 0.23875582218170166 0.3271443545818329 0.37644025683403015 -9999
-9999 1.7727349996566772 1.6615710258483887 1.3930439949035645 1.0702627897262573 0.7370806932449341 0.4428379535675049 0.2340032458305359 0.12142305821180344 0.07156641781330109 0.04478376731276512 0.03542076796293259 0.032476503401994705 0.03370348736643791 0.040771983563899994 0.0569661483168602 0.09523832052946091 0.14036884903907776 0.1692143976688385 -9999
-9999 1.4889636039733887 1.3348215818405151 1.0211095809936523 0.7147362232208252 0.4616996943950653 0.26844072341918945 0.13936540484428406 0.06619717925786972 0.03802172839641571 0.025189319625496864 0.0195041261613369 0.016874928027391434 0.016233127564191818 0.017177950590848923 0.021200602874159813 0.03051816299557686 0.04931652918457985 0.06424841284751892 -9999
-9999 1.183517575263977 1.0174051523208618 0.7013118863105774 0.4364149570465088 0.26143839955329895 0.14764274656772614 0.07391732186079025 0.04009971395134926 0.025057729333639145 0.018133116886019707 0.014477900229394436 0.012539352290332317 0.011735164560377598 0.01132437027990818 0.012023388408124447 0.013980225659906864 0.020142003893852234 -9999 -9999
-9999 0.9700751900672913 0.8017332553863525 0.505450427532196 0.2833070456981659 0.15190023183822632 0.07903257012367249 0.043718259781599045 0.02746373414993286 0.019400378689169884 0.015414102002978325 0.012990826740860939 0.012035144492983818 0.014151855371892452 0.016065044328570366 0.01756978966295719 0.018587326630949974 0.019323814660310745 -9999 -9999
-9999 0.8258305191993713 0.651501476764679 0.397271066904068 0.20613433420658112 0.09278720617294312 0.04879435524344444 0.02888825535774231 0.020038781687617302 0.015591021627187729 0.013322768732905388 0.01389315165579319 0.01646335795521736 0.019044123589992523 0.021432679146528244 0.02348165214061737 0.025252582505345345 0.027263451367616653 0.031200237572193146 0.03275550156831741
-9999 -9999 0.5005137324333191 0.32326453924179077 0.16207650303840637 0.06898152828216553 0.034724220633506775 0.021152254194021225 0.015478805638849735 0.012974817305803299 0.01517414953559637 0.017705529928207397 0.02047589048743248 0.02331867441534996 0.025919603183865547 0.02809632010757923 0.02991686761379242 0.031487468630075455 0.03302869573235512 0.03360482305288315
-9999 -9999 0.3565722703933716 0.2520752549171448 0.12977930903434753 0.053738631308078766 0.026343341916799545 0.01609296165406704 0.013561532832682133 0.01574055477976799 0.018080733716487885 0.02070310153067112 0.023562489077448845 0.026472298428416252 0.029047703370451927 0.031086090952157974 0.032629434019327164 0.03360415995121002 0.03403158113360405 0.03415253013372421
-9999 -9999 -9999 0.20854829251766205 0.10930775105953217 0.0475127287209034 0.023170331493020058 0.014258353039622307 0.014985965564846992 0.017279688268899918 0.019679946824908257 0.022300314158201218 0.025167590007185936 0.02806958183646202 0.03060370683670044 0.03248566761612892 0.033847641199827194 0.034361571073532104 0.034440137445926666 0.03440538048744202
