ncols         20
nrows         20
xllcorner     0
yllcorner     -3.5992928
cellsize      0.17996463
NODATA_value  -9999
-9999.0 -9999 -9999 -9999 -9999 -9999 -9999 -9999 -9999 -9999 -9999 -9999 -9999 -9999 -9999 -9999 -9999 -9999 -9999 -9999
-9999 -9999 -9999 -9999 -9999 -9999 -9999 -9999 -9999 -9999 -9999 0.13459542393684387 0.13471628725528717 -9999 -9999 0.13733583688735962 0.13753677904605865 -9999 -9999 -9999
-9999 -9999 -9999 -9999 0.1344345211982727 0.13434013724327087 0.13426031172275543 0.13423581421375275 0.13429522514343262 0.1344434767961502 0.13464237749576569 0.12468186765909195 0.12505291402339935 0.1360653191804886 0.13677658140659332 0.12711530923843384 0.1277114897966385 0.13882705569267273 -9999 -9999
-9999 -9999 -9999 0.1349291354417801 0.12455117702484131 0.10589854419231415 0.10584860295057297 0.10587501525878906 0.10598541796207428 0.10617035627365112 0.10641221702098846 0.09861202538013458 0.09897364675998688 0.10764356702566147 0.10824324935674667 0.10071394592523575 0.109735868871212 0.1400410234928131 -9999 -9999
-9999 -9999 -9999 0.1352912038564682 0.1063857227563858 0.07737135142087936 0.07132558524608612 0.07142116129398346 0.07159148156642914 0.07181799411773682 0.07207803428173065 0.06694462150335312 0.06724902987480164 0.07311093807220459 0.07362329214811325 0.07433080673217773 0.11164353787899017 0.14251285791397095 -9999 -9999
-9999 -9999 0.13623139262199402 0.12569469213485718 0.0988442674279213 0.06642571091651917 0.041136134415864944 0.0412568636238575 0.041443608701229095 0.04166518524289131 0.04190196096897125 0.038872212171554565 0.039128344506025314 0.042781438678503036 0.043245621025562286 0.07067177444696426 0.10595275461673737 0.13581477105617523 0.1492246836423874 -9999
-9999 -9999 0.13683444261550903 0.10767307877540588 0.07845290005207062 0.05286616086959839 0.030217446386814117 0.02043614536523819 0.020585305988788605 0.02075590379536152 0.02093610353767872 0.019501179456710815 0.019718118011951447 0.021676940843462944 0.03272334486246109 0.05799834430217743 0.08672546595335007 0.119758240878582 0.15295474231243134 -9999
-9999 -9999 0.1379094421863556 0.10863658040761948 0.07311832904815674 0.04206874966621399 0.02069992385804653 0.010184372775256634 0.008787952363491058 0.008894861675798893 0.009011855348944664 0.008449372835457325 0.00862664170563221 0.011251555755734444 0.023435624316334724 0.04809799790382385 0.08392307907342911 0.1249816045165062 0.15889154374599457 -9999
-9999 0.14022640883922577 0.12912161648273468 0.10169129073619843 0.06864137202501297 0.039484016597270966 0.0195123553276062 0.008252052590250969 0.003244526218622923 0.003310448257252574 0.003381635993719101 0.0031904892530292273 0.003592844819650054 0.01035225298255682 0.02496902085840702 0.05096052959561348 0.08852670341730118 0.1312999278306961 0.16650287806987762 -9999
-9999 0.14201121032238007 0.11180364340543747 0.08166098594665527 0.05526544526219368 0.03198448568582535 0.01581333950161934 0.006707082502543926 0.00248281704261899 0.001656391192227602 0.0017123882425948977 0.001762316096574068 0.0038825289811939 0.011058433912694454 0.02651924267411232 0.05397234857082367 0.09357268363237381 0.13853316009044647 0.17541593313217163 -9999
-9999 0.14510568976402283 0.11446453630924225 0.07730724662542343 0.04471166804432869 0.022147616371512413 0.010980406776070595 0.004696548916399479 0.0017543702851980925 0.0017633322859182954 0.0018311836756765842 0.0018879597773775458 0.004146220628172159 0.011738549917936325 0.028057381510734558 0.05702081322669983 0.09877175092697144 0.14609727263450623 0.18484605848789215 -9999
-9999 0.14934901893138885 0.1179698184132576 0.07986855506896973 0.046330634504556656 0.023014556616544724 0.00978818815201521 0.003588641993701458 0.0017719354946166277 0.0018598835449665785 0.0019363529281690717 0.0021127904765307903 0.006119005382061005 0.014642247930169106 0.029571538791060448 0.060032062232494354 0.10389100015163422 0.1534564048051834 0.193839892745018 -9999
-9999 0.15461279451847076 0.122291699051857 0.08295579254627228 0.048210080713033676 0.024141160771250725 0.010296490974724293 0.003787549212574959 0.0018520693993195891 0.0019436485599726439 0.0020268375519663095 0.003306854050606489 0.009531021118164062 0.02277478575706482 0.046493541449308395 0.08035050332546234 0.11811842024326324 0.16033421456813812 0.2015436440706253 -9999
-9999 0.16070179641246796 0.12729467451572418 0.08682415634393692 0.050567902624607086 0.02519002929329872 0.010741333477199078 0.003943829331547022 0.0019210705067962408 0.0020117848180234432 0.0020956143271178007 0.004334868863224983 0.01246277242898941 0.029971763491630554 0.061106182634830475 0.10587839037179947 0.15628677606582642 0.1961122453212738 0.20688368380069733 -9999
-9999 0.16712802648544312 0.132581889629364 0.09054698050022125 0.05276697874069214 0.02629019320011139 0.013119420036673546 0.005635641980916262 0.0020855898037552834 0.0020647894125431776 0.0021465003956109285 0.004818473942577839 0.013790536671876907 0.03323020040988922 0.06796042621135712 0.11828606575727463 0.17495010793209076 0.2215578705072403 -9999 -9999
-9999 0.1729017198085785 0.13803346455097198 0.10184823721647263 0.06975489854812622 0.040731675922870636 0.020362848415970802 0.008657446131110191 0.0034504581708461046 0.002102540573105216 0.0021832864731550217 0.004894010256975889 0.014020169153809547 0.03384755924344063 0.06939249485731125 0.12114103138446808 0.18032720685005188 0.22870279848575592 -9999 -9999
-9999 0.1769418865442276 0.16724464297294617 0.13382752239704132 0.09134272485971451 0.05323457717895508 0.0286851953715086 0.01425030268728733 0.006089005619287491 0.002240806818008423 0.0022080300841480494 0.004549459554255009 0.01311460044234991 0.03171771019697189 0.06513870507478714 0.11390292644500732 0.17020826041698456 0.21798443794250488 0.24023619294166565 0.24199941754341125
-9999 -9999 0.1868426352739334 0.14897216856479645 0.10958020389080048 0.07470554858446121 0.043397001922130585 0.02160528674721718 0.009154547937214375 0.0033769686706364155 0.002221775474026799 0.0036069774068892 0.010434822179377079 0.025347236543893814 0.05198215693235397 0.09117216616868973 0.1362873762845993 0.1741938292980194 0.19013631343841553 0.1910293698310852
-9999 -9999 0.19016824662685394 0.1776953786611557 0.14131975173950195 0.09598231315612793 0.05570061132311821 0.0275875236839056 0.01169037725776434 0.004292730242013931 0.0022280453704297543 0.0024310117587447166 0.007055292837321758 0.01710817590355873 0.03533918783068657 0.061699725687503815 0.09261349588632584 0.11811501532793045 0.12830989062786102 0.1286744624376297
-9999 -9999 -9999 0.19483941793441772 0.15449845790863037 0.10474877059459686 0.06065380945801735 0.029999995604157448 0.01269779447466135 0.004672858864068985 0.002230703132227063 0.0023086005821824074 0.004057760816067457 0.009809481911361217 0.020320497453212738 0.03548310697078705 0.05332226678729057 0.0676773265004158 0.07364337891340256 0.0737844780087471
