ncols         20
nrows         20
xllcorner     0
yllcorner     -3.5992928
cellsize      0.17996463
NODATA_value  -9999
-9999.0 -9999 -9999 -9999 -9999 -9999 -9999 -9999 -9999 -9999 -9999 -9999 -9999 -9999 -9999 -9999 -9999 -9999 -9999 -9999
-9999 -9999 -9999 -9999 -9999 -9999 -9999 -9999 -9999 -9999 -9999 12.397076606750488 12.36949634552002 -9999 -9999 12.328436851501465 12.166592597961426 -9999 -9999 -9999
-9999 -9999 -9999 -9999 12.242018699645996 12.383062362670898 12.626076698303223 12.770417213439941 12.833982467651367 12.880821228027344 12.704261779785156 12.671440124511719 12.752586364746094 12.8275785446167 12.735614776611328 12.546213150024414 12.384215354919434 12.31189250946045 -9999 -9999
-9999 -9999 -9999 12.352988243103027 12.41614818572998 12.494210243225098 12.617177963256836 12.697968482971191 12.769889831542969 12.806720733642578 12.852521896362305 12.902609825134277 12.991239547729492 13.0339937210083 13.042412757873535 12.951666831970215 12.842521667480469 12.782450675964355 -9999 -9999
-9999 -9999 -9999 12.53520393371582 12.534833908081055 12.571864128112793 12.4722900390625 12.39242935180664 12.295075416564941 12.156608581542969 12.006282806396484 11.960254669189453 12.107359886169434 12.410554885864258 12.75609302520752 13.039664268493652 13.3132963180542 13.59157657623291 -9999 -9999
-9999 -9999 12.805378913879395 12.774937629699707 12.662090301513672 12.343207359313965 11.559460639953613 11.150303840637207 10.731006622314453 10.148961067199707 9.492538452148438 9.162653923034668 9.323445320129395 10.012962341308594 10.931520462036133 11.890280723571777 13.241692543029785 13.947186470031738 14.202826499938965 -9999
-9999 -9999 13.060948371887207 12.913392066955566 12.59411334991455 11.707633018493652 10.994027137756348 10.297739028930664 9.408900260925293 8.28955364227295 7.20694637298584 6.620706558227539 6.7394118309021 7.589303016662598 8.92268180847168 10.519695281982422 12.429389953613281 13.597075462341309 14.140399932861328 -9999
-9999 -9999 13.619610786437988 13.17465591430664 12.221437454223633 11.40009593963623 10.480414390563965 9.349699974060059 8.009875297546387 6.59667444229126 5.465431213378906 4.8293914794921875 4.856861114501953 5.56836462020874 6.873285293579102 8.581944465637207 10.424578666687012 12.295809745788574 13.225536346435547 -9999
-9999 14.9261474609375 14.451133728027344 13.12414264678955 12.150227546691895 11.008222579956055 9.583459854125977 7.941308975219727 6.32058572769165 4.959908485412598 4.039541244506836 3.546736478805542 3.4971251487731934 3.9730818271636963 4.952884674072266 6.428579330444336 8.20014762878418 9.90002727508545 11.240885734558105 -9999
-9999 15.647618293762207 15.10737419128418 13.38824462890625 11.886757850646973 10.0840425491333 8.055192947387695 6.0554656982421875 4.439886093139648 3.360764265060425 2.7637088298797607 2.459258794784546 2.428605794906616 2.6880991458892822 3.3366546630859375 4.408015251159668 5.909400463104248 7.448334693908691 8.617509841918945 -9999
-9999 16.441425323486328 15.628240585327148 13.310437202453613 11.138310432434082 8.768199920654297 6.331319332122803 4.216350555419922 2.8023152351379395 2.0189313888549805 1.6387042999267578 1.4771593809127808 1.4628454446792603 1.6092885732650757 1.9839876890182495 2.6891403198242188 3.7326531410217285 5.0110883712768555 5.775631904602051 -9999
-9999 16.624982833862305 15.448921203613281 12.520929336547852 9.841949462890625 7.224311828613281 4.76001501083374 2.8399884700775146 1.6968809366226196 1.113606572151184 0.8563283681869507 0.7444023489952087 0.7291171550750732 0.7836878299713135 0.9516248106956482 1.321481466293335 1.952977180480957 2.749479293823242 3.211085557937622 -9999
-9999 15.604013442993164 14.072298049926758 10.736143112182617 7.9358367919921875 5.469512939453125 3.3798046112060547 1.8580540418624878 1.0009171962738037 0.6059280633926392 0.4020802080631256 0.3200560510158539 0.28926318883895874 0.2962435781955719 0.356605589389801 0.49594786763191223 0.8055960536003113 1.2269643545150757 1.5136373043060303 -9999
-9999 13.326020240783691 11.603813171386719 8.24616813659668 5.616061210632324 3.623009443283081 2.1362926959991455 1.1371244192123413 0.5704668164253235 0.32696038484573364 0.21097798645496368 0.15519829094409943 0.12727491557598114 0.1188088208436966 0.12680715322494507 0.16348706185817719 0.2504693865776062 0.4414852261543274 0.6236682534217834 -9999
-9999 10.752116203308105 9.057865142822266 5.91864013671875 3.6135153770446777 2.1469931602478027 1.2136023044586182 0.627206027507782 0.33530735969543457 0.1950315535068512 0.12624886631965637 0.08853159099817276 0.06801779568195343 0.05821731314063072 0.05430902540683746 0.05932997912168503 0.0747397243976593 0.12024028599262238 -9999 -9999
-9999 8.885210990905762 7.229935169219971 4.3732194900512695 2.4099514484405518 1.2782840728759766 0.6722575426101685 0.3594270348548889 0.20649394392967224 0.1263822466135025 0.08427098393440247 0.05930886045098305 0.04761601239442825 0.05228810757398605 0.05815890058875084 0.06453598290681839 0.07062873989343643 0.07530589401721954 -9999 -9999
-9999 7.592103481292725 5.882959365844727 3.4508776664733887 1.7566707134246826 0.7970647215843201 0.40249186754226685 0.21537134051322937 0.12757398188114166 0.08139237016439438 0.0564446821808815 0.05022482946515083 0.05409805476665497 0.05983223393559456 0.06671074032783508 0.07415308058261871 0.08182648569345474 0.09016193449497223 0.10232913494110107 0.10799121856689453
-9999 -9999 4.447399139404297 2.779787302017212 1.3580931425094604 0.5746338963508606 0.26603272557258606 0.1379513144493103 0.08144782483577728 0.05427137762308121 0.05364154279232025 0.0558205209672451 0.06044764816761017 0.06699710339307785 0.07465577125549316 0.08274246752262115 0.09084421396255493 0.09868557751178741 0.10603341460227966 0.10977672040462494
-9999 -9999 3.152974843978882 2.1697120666503906 1.0735760927200317 0.4307372272014618 0.18648096919059753 0.09183348715305328 0.060584813356399536 0.05777484178543091 0.057735953480005264 0.060436900705099106 0.06560315936803818 0.07267523556947708 0.08075842261314392 0.08905872702598572 0.09697933495044708 0.10378583520650864 0.10880756378173828 0.11139878630638123
-9999 -9999 -9999 1.7647216320037842 0.9122118353843689 0.37314796447753906 0.15636785328388214 0.07506977021694183 0.062224194407463074 0.05978713184595108 0.060044653713703156 0.06298281997442245 0.06841380149126053 0.07574150711297989 0.08402998745441437 0.09233833104372025 0.10006416589021683 0.10610728710889816 0.11025393009185791 0.11235520243644714
