ncols         20
nrows         20
xllcorner     0
yllcorner     -3.5992928
cellsize      0.17996463
NODATA_value  -9999
-9999.0 -9999 -9999 -9999 -9999 -9999 -9999 -9999 -9999 -9999 -9999 -9999 -9999 -9999 -9999 -9999 -9999 -9999 -9999 -9999
-9999 -9999 -9999 -9999 -9999 -9999 -9999 -9999 -9999 -9999 -9999 27.2174072265625 27.215660095214844 -9999 -9999 27.21654510498047 27.277633666992188 -9999 -9999 -9999
-9999 -9999 -9999 -9999 27.27215003967285 27.19133758544922 27.06608009338379 26.97406578063965 26.930482864379883 26.930788040161133 27.01053237915039 27.078065872192383 27.04444122314453 26.953638076782227 26.97857093811035 27.09261131286621 27.170486450195312 27.183422088623047 -9999 -9999
-9999 -9999 -9999 27.29301643371582 27.26040267944336 27.205867767333984 27.12887191772461 27.074161529541016 27.050384521484375 27.059288024902344 27.079071044921875 27.079301834106445 27.021480560302734 26.946401596069336 26.920812606811523 26.952133178710938 26.97579574584961 26.965639114379883 -9999 -9999
-9999 -9999 -9999 27.275409698486328 27.27639389038086 27.277101516723633 27.3028621673584 27.35499382019043 27.428050994873047 27.502887725830078 27.55678367614746 27.561107635498047 27.481657028198242 27.336078643798828 27.158550262451172 26.988597869873047 26.820995330810547 26.677013397216797 -9999 -9999
-9999 -9999 27.264842987060547 27.271541595458984 27.325794219970703 27.460281372070312 27.698562622070312 27.9346923828125 28.16997528076172 28.398860931396484 28.571617126464844 28.635147094726562 28.543241500854492 28.294883728027344 27.919403076171875 27.4702091217041 26.976808547973633 26.61724853515625 26.439756393432617 -9999
-9999 -9999 27.181289672851562 27.262544631958008 27.42445182800293 27.72931671142578 28.141132354736328 28.58399200439453 29.033588409423828 29.44641876220703 29.73951530456543 29.856388092041016 29.770917892456055 29.4642391204834 28.929338455200195 28.281246185302734 27.55975914001465 26.995281219482422 26.692869186401367 -9999
-9999 -9999 26.966997146606445 27.17567253112793 27.52310562133789 28.01189422607422 28.619842529296875 29.285934448242188 29.935386657714844 30.476865768432617 30.83344268798828 30.975126266479492 30.906673431396484 30.61542510986328 30.078500747680664 29.351604461669922 28.54140281677246 27.81447982788086 27.392465591430664 -9999
-9999 26.31808090209961 26.62344741821289 27.07941436767578 27.631988525390625 28.359804153442383 29.20867919921875 30.07302474975586 30.83571434020996 31.410079956054688 31.766115188598633 31.907014846801758 31.85062026977539 31.598730087280273 31.128799438476562 30.454833984375 29.71190643310547 28.998106002807617 28.525959014892578 -9999
-9999 26.063560485839844 26.387619018554688 27.042293548583984 27.889291763305664 28.897216796875 29.958168029785156 30.924468994140625 31.68606948852539 32.213233947753906 32.52568817138672 32.643856048583984 32.59124755859375 32.38547134399414 32.01858139038086 31.486173629760742 30.890666961669922 30.285907745361328 29.870744705200195 -9999
-9999 25.832639694213867 26.287643432617188 27.22882843017578 28.384475708007812 29.62123680114746 30.790390014648438 31.749221801757812 32.44147491455078 32.89462661743164 33.14925765991211 33.22898864746094 33.161827087402344 32.9980354309082 32.742034912109375 32.37234878540039 31.939125061035156 31.483781814575195 31.178848266601562 -9999
-9999 25.92227554321289 26.550439834594727 27.75347137451172 29.12189483642578 30.456562042236328 31.6118106842041 32.494659423828125 33.11116027832031 33.50994110107422 33.7241096496582 33.76580047607422 33.66239929199219 33.52682113647461 33.36600112915039 33.110137939453125 32.81595230102539 32.49476623535156 32.276668548583984 -9999
-9999 26.559507369995117 27.306453704833984 28.648866653442383 30.07147789001465 31.3516845703125 32.39030456542969 33.168514251708984 33.72749710083008 34.09907913208008 34.3156852722168 34.362972259521484 34.279937744140625 34.18217468261719 34.066734313964844 33.90327835083008 33.6396369934082 33.35002899169922 33.126014709472656 -9999
-9999 27.645183563232422 28.433504104614258 29.774044036865234 31.112445831298828 32.238746643066406 33.11957550048828 33.792240142822266 34.304073333740234 34.64243698120117 34.85064697265625 34.94620132446289 34.952056884765625 34.93966293334961 34.89113235473633 34.77515411376953 34.53629684448242 34.198360443115234 33.74703598022461 -9999
-9999 28.84333038330078 29.617229461669922 30.86909294128418 32.06789779663086 33.03950500488281 33.79030227661133 34.37549591064453 34.79389190673828 35.0854377746582 35.28870391845703 35.44987487792969 35.58037567138672 35.68360137939453 35.72120666503906 35.679847717285156 35.545291900634766 35.329002380371094 -9999 -9999
-9999 29.83502769470215 30.61274528503418 31.757762908935547 32.83132553100586 33.709712982177734 34.389495849609375 34.87662887573242 35.212162017822266 35.44335174560547 35.62135314941406 35.824256896972656 36.0514030456543 36.271244049072266 36.4100227355957 36.47819900512695 36.488521575927734 36.507869720458984 -9999 -9999
-9999 30.472864151000977 31.421005249023438 32.44492721557617 33.418392181396484 34.26183319091797 34.881080627441406 35.3162956237793 35.59516143798828 35.78166198730469 35.95997619628906 36.186187744140625 36.45719909667969 36.73182678222656 36.940895080566406 37.07856369018555 37.16845703125 37.277984619140625 37.543487548828125 37.663490295410156
-9999 -9999 32.36305236816406 33.04534912109375 33.873802185058594 34.664268493652344 35.27534484863281 35.699989318847656 35.95318603515625 36.132598876953125 36.3065185546875 36.53218078613281 36.80670166015625 37.097557067871094 37.330753326416016 37.48827362060547 37.59836196899414 37.682411193847656 37.77108383178711 37.79607009887695
-9999 -9999 32.889892578125 33.489990234375 34.207252502441406 34.959781646728516 35.58353042602539 36.0247802734375 36.2806396484375 36.4511604309082 36.60604476928711 36.81970977783203 37.08922576904297 37.376216888427734 37.60677719116211 37.762916564941406 37.866676330566406 37.91501998901367 37.915042877197266 37.908756256103516
-9999 -9999 -9999 33.87833023071289 34.43263244628906 35.12371063232422 35.749813079833984 36.19972229003906 36.454872131347656 36.6182746887207 36.766082763671875 36.96303176879883 37.22809600830078 37.5138053894043 37.74955368041992 37.9017333984375 38.008296966552734 38.02058029174805 38.00178909301758 37.98822784423828
