ncols         20
nrows         20
xllcorner     0
yllcorner     -3.5992928
cellsize      0.17996463
NODATA_value  -9999
-9999.0 -9999 -9999 -9999 -9999 -9999 -9999 -9999 -9999 -9999 -9999 -9999 -9999 -9999 -9999 -9999 -9999 -9999 -9999 -9999
-9999 -9999 -9999 -9999 -9999 -9999 -9999 -9999 -9999 -9999 -9999 0.010211335495114326 0.009851902723312378 -9999 -9999 0.008013213984668255 0.007033064961433411 -9999 -9999 -9999
-9999 -9999 -9999 -9999 0.009659078903496265 0.011266146786510944 0.014514617621898651 0.017696762457489967 0.020145980641245842 0.021847816184163094 0.018226994201540947 0.015537092462182045 0.015497366897761822 0.015814635902643204 0.013065171428024769 0.0099009545519948 0.00807738583534956 0.007164900191128254 -9999 -9999
-9999 -9999 -9999 0.009084873832762241 0.010543521493673325 0.01287776418030262 0.016772879287600517 0.021339351311326027 0.02693858928978443 0.032228127121925354 0.03594966605305672 0.035792604088783264 0.034614093601703644 0.02950621210038662 0.022737374529242516 0.01606803759932518 0.011774756014347076 0.009814643301069736 -9999 -9999
-9999 -9999 -9999 0.009582431055605412 0.011544481851160526 0.016131768003106117 0.023015910759568214 0.03280116990208626 0.04728396236896515 0.06988538056612015 0.0958246961236 0.10986495763063431 0.10396217554807663 0.07831664383411407 0.053533926606178284 0.03321073204278946 0.021700475364923477 0.019157538190484047 -9999 -9999
-9999 -9999 0.007630744017660618 0.009799904190003872 0.01357000321149826 0.020742470398545265 0.03205103427171707 0.050456490367650986 0.08597426861524582 0.1455114334821701 0.22590836882591248 0.2738952040672302 0.26752808690071106 0.2001192420721054 0.12530522048473358 0.07318353652954102 0.04510164260864258 0.03598141670227051 0.03142492473125458 -9999
-9999 -9999 0.008239706046879292 0.010647622868418694 0.017151489853858948 0.0292088370770216 0.048361700028181076 0.08302934467792511 0.14981967210769653 0.26276400685310364 0.40991589426994324 0.5134866237640381 0.5140239596366882 0.41094377636909485 0 0.16313761472702026 0.09810390323400497 0.06657527387142181 0.05598681420087814 -9999
-9999 -9999 0.010427598841488361 0.0147560341283679 0.026324449107050896 0.04752616584300995 0.08497969061136246 0.150058314204216 0.2560690939426422 0.41487208008766174 0.5856186747550964 0.7184833884239197 0.7422410249710083 0.6490863561630249 0.49061319231987 0.3259959816932678 0.20826762914657593 0.13997825980186462 0.11617780476808548 -9999
-9999 0.010526871308684349 0.014839820563793182 0.024295862764120102 0.048357583582401276 0.09464498609304428 0.17036046087741852 0.29135531187057495 0.45185741782188416 0.6306001543998718 0.7847685813903809 0.9015931487083435 0.9550266861915588 0.9060826301574707 0.7821246981620789 0 0.4066452085971832 0.28394514322280884 0.23757760226726532 -9999
-9999 0.01564330980181694 0.022921383380889893 0.04564649611711502 0.09745486825704575 0.1935582309961319 0.34474268555641174 0.5504525899887085 0.7649106383323669 0.935943603515625 1.045533299446106 1.1358288526535034 1.1962991952896118 1.202918291091919 1.1259570121765137 0 0.7202127575874329 0.5377810001373291 0.46443718671798706 -9999
-9999 0.029626579955220222 0.04372532665729523 0.08720555901527405 0.17766845226287842 0.33805426955223083 0.583835780620575 0.8805307745933533 1.1204966306686401 1.2657591104507446 1.3548086881637573 1.440117359161377 1.5352905988693237 1.5744268894195557 1.5247409343719482 1.3929718732833862 1.152193546295166 0.930296778678894 0.8312588334083557 -9999
-9999 0.06429820507764816 0.09032236784696579 0.16860224306583405 0.31045451760292053 0.5318099856376648 0.8432222604751587 1.1654707193374634 1.3720229864120483 1.4736968278884888 1.5476003885269165 1.665059208869934 0 0 1.893697738647461 0 1.6080361604690552 1.397908329963684 1.290851354598999 -9999
-9999 0.14493252336978912 0.1967715620994568 0.33608371019363403 0.533388614654541 0.7951351404190063 1.1030038595199585 1.3664931058883667 1.480107307434082 1.5004850625991821 1.5299737453460693 1.6229228973388672 0 0 0 1.8260666131973267 1.7732053995132446 1.6950243711471558 1.604492425918579 -9999
-9999 0.2991025149822235 0.38912221789360046 0.6087588667869568 0.8663638234138489 1.1223070621490479 1.3464256525039673 1.473780632019043 1.4771573543548584 1.4347901344299316 1.4114558696746826 1.427736520767212 0 0 0 1.4129135608673096 1.476037859916687 1.6232450008392334 1.590014934539795 -9999
-9999 0.4951065182685852 0.6180382966995239 0.9071332812309265 1.187825322151184 1.3731014728546143 1.4646204710006714 1.4671978950500488 1.4126386642456055 1.3514360189437866 1.309004306793213 1.2428438663482666 1.160906434059143 1.062430739402771 0 0 0.9350072145462036 1.1445763111114502 -9999 -9999
-9999 0.6473256945610046 0.7921783328056335 1.1056417226791382 1.3469388484954834 1.4371390342712402 1.4270381927490234 1.3711509704589844 1.3234227895736694 1.2924302816390991 0 0 0 0.7946831583976746 0 0 0.49764132499694824 0 -9999 -9999
-9999 0.7690730690956116 0.9215562343597412 1.2040423154830933 1.3876101970672607 1.3863455057144165 1.3064876794815063 1.224988579750061 1.196010708808899 0 0 0 0 0.6104183793067932 0.4646637737751007 0.3564816415309906 0.2814333140850067 0.22357375919818878 0 0
-9999 -9999 1.0496903657913208 1.2579011917114258 1.3796532154083252 1.3054158687591553 1.1639271974563599 1.063369870185852 0 0 0 0 0 0 0 0 0 0 0 0
-9999 -9999 1.2037450075149536 1.3070584535598755 1.3499095439910889 1.206974983215332 1.012595534324646 0.881644606590271 0 0 0 0 0 0 0 0 0 0 0 0
-9999 -9999 -9999 1.3233649730682373 1.3283770084381104 1.1585429906845093 0.937757134437561 0.7953432202339172 0 0 0 0 0 0 0 0 0 0 0 0
