ncols         20
nrows         20
xllcorner     0
yllcorner     -3.5992928
cellsize      0.17996463
NODATA_value  -9999
-9999.0 -9999 -9999 -9999 -9999 -9999 -9999 -9999 -9999 -9999 -9999 -9999 -9999 -9999 -9999 -9999 -9999 -9999 -9999 -9999
-9999 -9999 -9999 -9999 -9999 -9999 -9999 -9999 -9999 -9999 -9999 0.1623493731021881 0.15981242060661316 -9999 -9999 0.14802713692188263 0.1389034241437912 -9999 -9999 -9999
-9999 -9999 -9999 -9999 0.15247735381126404 0.16494157910346985 0.18790574371814728 0.2086561620235443 0.22418777644634247 0.23522262275218964 0.21647906303405762 0.20114436745643616 0.20222726464271545 0.20630282163619995 0.18894916772842407 0.165268212556839 0.14990314841270447 0.14189513027668 -9999 -9999
-9999 -9999 -9999 0.14896999299526215 0.16024865210056305 0.17743024230003357 0.2033645063638687 0.23084044456481934 0.2613551914691925 0.2882296144962311 0.307010293006897 0.30875325202941895 0.3059101700782776 0.28469976782798767 0.25188085436820984 0.21306027472019196 0.1832716017961502 0.16786876320838928 -9999 -9999
-9999 -9999 -9999 0.1544027477502823 0.16955183446407318 0.20104917883872986 0.24150694906711578 0.2905443012714386 0.3517524302005768 0.43103140592575073 0.5091526508331299 0.5497527122497559 0.5390963554382324 0.47208651900291443 0.3940413296222687 0.312452495098114 0.2539364695549011 0.239437073469162 -9999 -9999
-9999 -9999 0.14128486812114716 0.1589512974023819 0.18709047138690948 0.2322726845741272 0.2907644808292389 0.3679010272026062 0.4842033386230469 0.635836124420166 0.7997949719429016 0.888502836227417 0.8855903744697571 0.7732912302017212 0.6182399988174438 0.4757956862449646 0.3758459985256195 0.33761805295944214 0.31902021169662476 -9999
-9999 -9999 0.14902426302433014 0.1691829115152359 0.21523110568523407 0.2824437916278839 0.366213858127594 0.48366686701774597 0.655949592590332 0.8776642680168152 1.1074224710464478 1.2514448165893555 1.2633986473083496 1.1414060592651367 0.9589147567749023 0.7317183017730713 0.5694926381111145 0.4705553948879242 0.4329076409339905 -9999
-9999 -9999 0.17194531857967377 0.20460796356201172 0.2742099463939667 0.3707018196582794 0.49916112422943115 0.669264554977417 0.8832107186317444 1.1363791227340698 1.364538550376892 1.5269662141799927 1.5666913986206055 1.4791274070739746 1.2987064123153687 1.0667462348937988 0.8541742563247681 0.7005326747894287 0.6383830308914185 -9999
-9999 0.1809806525707245 0.21204403042793274 0.27063611149787903 0.3826773762702942 0.5384635329246521 0.7281078100204468 0.9615340232849121 1.2105931043624878 1.4464222192764282 1.6318318843841553 1.768336534500122 1.83861243724823 1.8077415227890015 1.6953177452087402 1.517594575881958 1.2303768396377563 1.0248969793319702 0.9358256459236145 -9999
-9999 0.22500546276569366 0.27101388573646545 0.38143739104270935 0.558509349822998 0.7915624380111694 1.0655066967010498 1.3610211610794067 1.6237092018127441 1.818403959274292 1.9459975957870483 2.0536813735961914 2.1320459842681885 2.1571409702301025 2.101677894592285 1.9895001649856567 1.6828283071517944 1.4466382265090942 1.3403046131134033 -9999
-9999 0.31783443689346313 0.38465645909309387 0.540576159954071 0.7724775075912476 1.0718060731887817 1.4220260381698608 1.7673860788345337 2.0199005603790283 2.176360845565796 2.284146547317505 2.3909149169921875 2.505828619003296 2.559108257293701 2.5235142707824707 2.4135234355926514 2.1807329654693604 1.9473286867141724 1.8334920406341553 -9999
-9999 0.47818952798843384 0.5644035339355469 0.766982913017273 1.0426139831542969 1.373756766319275 1.747967004776001 2.0813839435577393 2.2899138927459717 2.4088950157165527 2.5090479850769043 2.6521830558776855 2.8895351886749268 2.980879783630371 2.9067606925964355 2.8754944801330566 2.6392810344696045 2.438934564590454 2.3307056427001953 -9999
-9999 0.7254322171211243 0.8420153260231018 1.099442481994629 1.3910678625106812 1.7125625610351562 2.0402281284332275 2.3017587661743164 2.4311890602111816 2.4875752925872803 2.556933879852295 2.687782049179077 2.928776502609253 3.027282238006592 3.022650718688965 2.904343605041504 2.8278794288635254 2.7382006645202637 2.6419148445129395 -9999
-9999 1.0448923110961914 1.1928194761276245 1.4979850053787231 1.8001511096954346 2.069836378097534 2.2960147857666016 2.437617778778076 2.480863571166992 2.4913034439086914 2.519909620285034 2.5855650901794434 2.720418930053711 2.7467312812805176 2.714862823486328 2.6226532459259033 2.6447813510894775 2.7392492294311523 2.662194013595581 -9999
-9999 1.3515664339065552 1.515529990196228 1.8492069244384766 2.1364376544952393 2.3244645595550537 2.4351632595062256 2.4789159297943115 2.482557773590088 2.4835641384124756 2.4995903968811035 2.4803314208984375 2.4316246509552 2.346116781234741 2.29162335395813 2.220975399017334 2.183075428009033 2.3947153091430664 -9999 -9999
-9999 1.5551812648773193 1.7303658723831177 2.06294584274292 2.3025288581848145 2.410402536392212 2.4420764446258545 2.445145845413208 2.4639244079589844 2.5045864582061768 2.5746560096740723 2.506645441055298 2.337387800216675 2.0858824253082275 1.9395679235458374 1.784538745880127 1.6660436391830444 1.5014758110046387 -9999 -9999
-9999 1.7035249471664429 1.8824666738510132 2.1738014221191406 2.3620975017547607 2.396181344985962 2.3733816146850586 2.358675956726074 2.40515398979187 2.499253511428833 2.508187770843506 2.3928754329681396 2.169041156768799 1.8812721967697144 1.653650164604187 1.4600262641906738 1.3098852634429932 1.1914701461791992 1.1611651182174683 1.047395944595337
-9999 -9999 2.0316927433013916 2.2422871589660645 2.376845359802246 2.3501486778259277 2.271160840988159 2.2387967109680176 2.3187220096588135 2.357851266860962 2.333397388458252 2.206547498703003 1.9959162473678589 1.7131909132003784 1.4738982915878296 1.2932723760604858 1.1308387517929077 1.0240947008132935 0.955122709274292 0.998090922832489
-9999 -9999 2.189117431640625 2.3016674518585205 2.3669564723968506 2.2775635719299316 2.1394031047821045 2.064565896987915 2.1090855598449707 2.128162384033203 2.1269125938415527 2.0041704177856445 1.7962646484375 1.5329458713531494 1.3229913711547852 1.167027473449707 1.0359914302825928 0.9574627876281738 1.002899169921875 1.0291812419891357
-9999 -9999 -9999 2.330716609954834 2.3571863174438477 2.2405755519866943 2.069185972213745 1.9732614755630493 2.005452871322632 2.02854061126709 2.018280506134033 1.927018165588379 1.720724105834961 1.4641408920288086 1.245369553565979 1.1219953298568726 0.978717029094696 0.9952805042266846 1.0292744636535645 1.0486485958099365
