ncols         20
nrows         20
xllcorner     0
yllcorner     -3.5992928
cellsize      0.17996463
NODATA_value  -9999
-9999.0 -9999 -9999 -9999 -9999 -9999 -9999 -9999 -9999 -9999 -9999 -9999 -9999 -9999 -9999 -9999 -9999 -9999 -9999 -9999
-9999 -9999 -9999 -9999 -9999 -9999 -9999 -9999 -9999 -9999 -9999 0 0 -9999 -9999 0 0 -9999 -9999 -9999
-9999 -9999 -9999 -9999 0 0 0 0 0 0 0 0 0 0 0 0 0 0 -9999 -9999
-9999 -9999 -9999 0 0 0 0 0 0 0 0 0 0 0 0 0 0 0 -9999 -9999
-9999 -9999 -9999 0 0 0 0 0 0 0 0 0 0 0 0 0 0 0 -9999 -9999
-9999 -9999 0 0 0 0 0 0 0 0 0 0 0 0 0 0 0 0 0 -9999
-9999 -9999 0 0 0 0 0 0 0 0 0 0 0 0 0 0 0 0 0 -9999
-9999 -9999 0 0 0 0 0 29.998098373413086 17.77914810180664 12.728928565979004 10.372084617614746 10.825945854187012 0 0 0 0 0 0 0 -9999
-9999 0 0 0 0 0 0 18.324460983276367 8.432344436645508 5.353424072265625 4.389922142028809 4.978318214416504 0 0 0 0 0 0 0 -9999
-9999 0 0 0 0 0 0 12.078335762023926 4.7261152267456055 2.7361817359924316 2.2598817348480225 2.624356508255005 0 0 0 0 0 0 0 -9999
-9999 0 0 0 0 0 0 7.6238484382629395 2.6948444843292236 1.4486944675445557 1.1481789350509644 1.2983098030090332 0 0 0 0 0 0 0 -9999
-9999 0 0 0 0 0 0 4.925527572631836 1.6787588596343994 0.8272349238395691 0.5981413722038269 0.5995475649833679 0 0 0 0 0 0 0 -9999
-9999 0 0 0 0 0 0 0 0 0 0 0 0 0 0 0 0 0 0 -9999
-9999 0 0 0 0 0 0 0 0 0 0 0 0 0 0 0 0 0 0 -9999
-9999 0 0 0 0 0 0 0 0 0 0 0 0 0 0 0 0 0 -9999 -9999
-9999 0 0 0 0 0 0 0 0 0 0 0 0 0 0 0 0 0 -9999 -9999
-9999 0 0 0 0 0 0 0 0 0 0 0 0 0 0 0 0 0 0 0
-9999 -9999 0 0 0 0 0 0 0 0 0 0 0 0 0 0 0 0 0 0
-9999 -9999 0 0 0 0 0 0 0 0 0 0 0 0 0 0 0 0 0 0
-9999 -9999 -9999 0 0 0 0 0 0 0 0 0 0 0 0 0 0 0 0 0
