ncols         20
nrows         20
xllcorner     0
yllcorner     -3.5992928
cellsize      0.17996463
NODATA_value  -9999
-9999.0 -9999 -9999 -9999 -9999 -9999 -9999 -9999 -9999 -9999 -9999 -9999 -9999 -9999 -9999 -9999 -9999 -9999 -9999 -9999
-9999 -9999 -9999 -9999 -9999 -9999 -9999 -9999 -9999 -9999 -9999 1.1467187404632568 1.145576000213623 -9999 -9999 1.175707459449768 1.1626590490341187 -9999 -9999 -9999
-9999 -9999 -9999 -9999 1.1436316967010498 1.1521058082580566 1.165771245956421 1.1693456172943115 1.1678979396820068 1.170082926750183 1.1592613458633423 1.1657721996307373 1.1769702434539795 1.1860519647598267 1.1875154972076416 1.1846803426742554 1.1733812093734741 1.1622463464736938 -9999 -9999
-9999 -9999 -9999 1.155677080154419 1.1632437705993652 1.1715863943099976 1.1803239583969116 1.1819589138031006 1.1820831298828125 1.1820847988128662 1.1860045194625854 1.1934528350830078 1.2037711143493652 1.2110716104507446 1.220339059829712 1.218306303024292 1.2045701742172241 1.191236138343811 -9999 -9999
-9999 -9999 -9999 1.1711546182632446 1.1815098524093628 1.1993014812469482 1.2060056924819946 1.2036690711975098 1.191236972808838 1.1666381359100342 1.1391026973724365 1.128408670425415 1.1449581384658813 1.1833628416061401 1.2230768203735352 1.240385890007019 1.2385034561157227 1.2422415018081665 -9999 -9999
-9999 -9999 1.1752773523330688 1.190172791481018 1.2080353498458862 1.221623182296753 1.2170988321304321 1.1959620714187622 1.1430320739746094 1.055306315422058 0.9584355354309082 0.9097920656204224 0.9296730160713196 1.0197139978408813 1.1325688362121582 1.2062619924545288 1.2423226833343506 1.2537333965301514 1.2407066822052002 -9999
-9999 -9999 1.1904679536819458 1.2076092958450317 1.2340419292449951 1.2395461797714233 1.2190008163452148 1.1579469442367554 1.0424389839172363 0.8839768171310425 0.7331967353820801 0.6539313197135925 0.6690871715545654 0.7815760970115662 0 1.0967985391616821 1.1927341222763062 1.2347363233566284 1.2429777383804321 -9999
-9999 -9999 1.2239782810211182 1.2444090843200684 1.2612847089767456 1.246799111366272 1.1856447458267212 1.0640465021133423 0.8912776112556458 0.7003676891326904 0.5495122075080872 0.4681609570980072 0.4717212915420532 0.5606178641319275 0.7214387655258179 0.9040003418922424 1.053657054901123 1.1511898040771484 1.1887694597244263 -9999
-9999 1.2390168905258179 1.2642524242401123 1.277693510055542 1.2688865661621094 1.2065231800079346 1.075331211090088 0.8876520395278931 0.6863540410995483 0.5138723850250244 0.39835885167121887 0.33847948908805847 0.3335339426994324 0.39066556096076965 0.50836181640625 0 0.8455662131309509 0.9757460951805115 1.0387616157531738 -9999
-9999 1.2746431827545166 1.2919566631317139 1.2878994941711426 1.2275910377502441 1.0845388174057007 0.8762615323066711 0.6491249799728394 0.460897296667099 0.33544161915779114 0.26632261276245117 0.23185934126377106 0.22901970148086548 0.25910165905952454 0.33294999599456787 0 0.5995514988899231 0.7321971654891968 0.8013368248939514 -9999
-9999 1.3062840700149536 1.303145408630371 1.252753496170044 1.1263978481292725 0.9165571331977844 0.6616380214691162 0.4304332137107849 0.2775585353374481 0.19468435645103455 0.15494126081466675 0.13826197385787964 0.1371772140264511 0.1528492420911789 0.19196085631847382 0.26399120688438416 0.3626004457473755 0.4688139855861664 0.5261507034301758 -9999
-9999 1.2936320304870605 1.2625656127929688 1.154096245765686 0.9700721502304077 0.7313423156738281 0.47907376289367676 0.2793391942977905 0.1633850634098053 0.10584013164043427 0.08057950437068939 0.06990505754947662 0 0 0.09037785977125168 0 0.18279075622558594 0.24821090698242188 0.2844027578830719 -9999
-9999 1.2052655220031738 1.1372424364089966 0.9666585922241211 0.7576242685317993 0.5343828201293945 0.32953256368637085 0.17888760566711426 0.09539862722158432 0.05764269456267357 0.03693300485610962 0.029398731887340546 0 0 0 0.045058585703372955 0.0741976648569107 0.10878186672925949 0.1310131698846817 -9999
-9999 1.0288442373275757 0.9295123219490051 0.7218971252441406 0.5156394243240356 0.3406969904899597 0.2027953863143921 0.10793233662843704 0.05283428728580475 0.030962899327278137 0.020712677389383316 0.015968814492225647 0 0 0 0.01659766398370266 0.023884236812591553 0.03879190981388092 0.051086682826280594 -9999
-9999 0.833311140537262 0.7222124338150024 0.5055079460144043 0.3206760287284851 0.1960502713918686 0.11311120539903641 0.05814593657851219 0.03215983882546425 0.02022821642458439 0.014528537169098854 0.011390437372028828 0.009634768590331078 0.0088158268481493 0 0 0.010285437107086182 0.014934618026018143 -9999 -9999
-9999 0.6946259140968323 0.5790032148361206 0.370370477437973 0.21120697259902954 0.11541231721639633 0.06145026907324791 0.034553010016679764 0.02181166037917137 0.015258115716278553 0 0 0 0.010164610110223293 0 0 0.013016770593822002 0 -9999 -9999
-9999 0.5977932214736938 0.4770061671733856 0.2946827709674835 0.15519893169403076 0.07135407626628876 0.03809051215648651 0.02264469675719738 0.015551107004284859 0 0 0 0 0.01329757459461689 0.014819027855992317 0.01610325463116169 0.017183935269713402 0.018372753635048866 0 0
-9999 -9999 0.3720914125442505 0.24216453731060028 0.1227743923664093 0.05316685512661934 0.026962533593177795 0.016301631927490234 0 0 0 0 0 0 0 0 0 0 0 0
-9999 -9999 0.2672176957130432 0.190154567360878 0.09876035898923874 0.04138883575797081 0.020290784537792206 0.0121915303170681 0 0 0 0 0 0 0 0 0 0 0 0
-9999 -9999 -9999 0.15836797654628754 0.08374205231666565 0.03660959005355835 0.017748847603797913 0.010690657421946526 0 0 0 0 0 0 0 0 0 0 0 0
