ncols         20
nrows         20
xllcorner     0
yllcorner     -3.5992928
cellsize      0.17996463
NODATA_value  -9999
-9999.0 -9999 -9999 -9999 -9999 -9999 -9999 -9999 -9999 -9999 -9999 -9999 -9999 -9999 -9999 -9999 -9999 -9999 -9999 -9999
-9999 -9999 -9999 -9999 -9999 -9999 -9999 -9999 -9999 -9999 -9999 0 0 -9999 -9999 0 0 -9999 -9999 -9999
-9999 -9999 -9999 -9999 0 0 0 0 0 0 0 0 0 0 0 0 0 0 -9999 -9999
-9999 -9999 -9999 0 0 0 0 0 0 0 0 0 0 0 0 0 0 0 -9999 -9999
-9999 -9999 -9999 0 0 0 0 0 0 0 0 0 0 0 0 0 0 0 -9999 -9999
-9999 -9999 0 0 0 0 2.3792757987976074 2.002610206604004 1.791515588760376 1.6489880084991455 1.5539941787719727 1.5338250398635864 1.6037442684173584 1.7838778495788574 2.0841357707977295 2.5813393592834473 0 0 0 -9999
-9999 -9999 0 0 0 2.1854608058929443 1.652643084526062 1.3543554544448853 1.1597728729248047 1.0125784873962402 0.9079145193099976 0.8685441613197327 0.9097092151641846 1.048198938369751 1.3031872510910034 1.749505639076233 0 0 0 -9999
-9999 -9999 0 0 2.2020015716552734 1.598358392715454 1.2221788167953491 0.9753729104995728 0.7999536395072937 0.6682665944099426 0.5824306607246399 0.5455787181854248 0.5672099590301514 0.6580648422241211 0.83729487657547 1.144281268119812 1.6476197242736816 0 0 -9999
-9999 0 0 2.4262211322784424 1.7061055898666382 1.2450741529464722 0.9341622591018677 0.7166921496391296 0.5635491609573364 0.4599277377128601 0.39975225925445557 0.3748337924480438 0.38491761684417725 0.43957260251045227 0.5511437058448792 0.7458842992782593 1.0523648262023926 1.4797552824020386 0 -9999
-9999 0 0 2.096557855606079 1.4213769435882568 0.997815728187561 0.7136912941932678 0.5196613669395447 0.3940407931804657 0.3204793930053711 0.2838863134384155 0.2698473334312439 0.27663594484329224 0.3075582981109619 0.37472689151763916 0.49428021907806396 0.691525936126709 0.9730928540229797 0 -9999
-9999 0 0 1.8777154684066772 1.214087963104248 0.8111170530319214 0.5479195713996887 0.37698841094970703 0.2784920334815979 0.22782287001609802 0.20488028228282928 0.1976705938577652 0.2023293823003769 0.22080831229686737 0.26011770963668823 0.33383408188819885 0.46012601256370544 0 0 -9999
-9999 0 0 1.6555432081222534 1.0274180173873901 0.6591346263885498 0.4266851842403412 0.284528523683548 0.2088078409433365 0.17190703749656677 0.15616010129451752 0.15097445249557495 0.15372209250926971 0.1639586091041565 0.18570692837238312 0.22783724963665009 0.30379238724708557 0 0 -9999
-9999 0 0 1.379646897315979 0.831080436706543 0.520722508430481 0.33391743898391724 0.2240283340215683 0.16738909482955933 0.14136448502540588 0.1288478821516037 0.12476115673780441 0.12571410834789276 0.131562277674675 0.14421439170837402 0.16746123135089874 0.2112889289855957 0 0 -9999
-9999 0 0 1.0700078010559082 0.6276208758354187 0.3914337158203125 0.25754234194755554 0.18207049369812012 0.1424461156129837 0.12438932806253433 0.11591306328773499 0.1127452701330185 0.11313248425722122 0.1169513463973999 0.124855637550354 0.13914188742637634 0.1647316962480545 0 0 -9999
-9999 0 0 0.8010269403457642 0.46142756938934326 0.29207199811935425 0.20248720049858093 0.153139129281044 0.12809748947620392 0.11535599082708359 0.10908204317092896 0.10651915520429611 0.10671767592430115 0.10947821289300919 0.11506372690200806 0.1246972531080246 0.14062358438968658 0 -9999 -9999
-9999 0 0 0.6205641031265259 0.35884058475494385 0.232179194688797 0.16942833364009857 0.13679388165473938 0.11952739953994751 0.11000125855207443 0.105009526014328 0.10284833610057831 0.10300026088953018 0.10555360466241837 0.11008143424987793 0.117125503718853 0.12764358520507812 0.13843439519405365 -9999 -9999
-9999 0 0 0.5073683261871338 0.29898136854171753 0.19731405377388 0.15121600031852722 0.12710343301296234 0.11391080170869827 0.10634946078062057 0.10223126411437988 0.10075242072343826 0.10119947791099548 0.10309633612632751 0.10643253475427628 0.11136294901371002 0.11814018338918686 0.12478042393922806 0.12404867261648178 0.12405930459499359
-9999 -9999 0 0.42186403274536133 0.2604370415210724 0.17860248684883118 0.14082255959510803 0.12130153179168701 0.11036588251590729 0.1040211021900177 0.10105492174625397 0.09983795136213303 0.10002179443836212 0.10139766335487366 0.10381843894720078 0.10718148201704025 0.11128121614456177 0.11539456993341446 0.11718921363353729 0.1177900955080986
-9999 -9999 0 0 0.23716874420642853 0.16691161692142487 0.13455520570278168 0.11773916333913803 0.10850458592176437 0.1034766212105751 0.1005987897515297 0.09933459758758545 0.09933710098266602 0.10035780817270279 0.10217748582363129 0.10458957403898239 0.10730402916669846 0.1097823828458786 0.11127206683158875 0.11192590743303299
-9999 -9999 -9999 0 0.22207693755626678 0.16144490242004395 0.1318349689245224 0.11625035852193832 0.10812823474407196 0.10324045270681381 0.10040716826915741 0.09911385178565979 0.09902358800172806 0.09986785799264908 0.10139966011047363 0.10337371379137039 0.10551383346319199 0.10739065706729889 0.10865367203950882 0.1092647835612297
