ncols         20
nrows         20
xllcorner     0
yllcorner     -3.5992928
cellsize      0.17996463
NODATA_value  -9999
-9999.0 -9999 -9999 -9999 -9999 -9999 -9999 -9999 -9999 -9999 -9999 -9999 -9999 -9999 -9999 -9999 -9999 -9999 -9999 -9999
-9999 -9999 -9999 -9999 -9999 -9999 -9999 -9999 -9999 -9999 -9999 0.223500594496727 0.21997953951358795 -9999 -9999 0.19613803923130035 0.18341854214668274 -9999 -9999 -9999
-9999 -9999 -9999 -9999 0.19521310925483704 0.2136506289243698 0.24820588529109955 0.28164321184158325 0.3087002635002136 0.3289099335670471 0.30519750714302063 0.28304848074913025 0.28456664085388184 0.29067263007164 0.26345887780189514 0.2254042774438858 0.20258259773254395 0.19233213365077972 -9999 -9999
-9999 -9999 -9999 0.19262629747390747 0.20792843401432037 0.23350973427295685 0.2733787000179291 0.3176162838935852 0.3676176071166992 0.4129800796508789 0.4454716444015503 0.4503241181373596 0.44615623354911804 0.41315335035324097 0.3615482449531555 0.3013400733470917 0.25652891397476196 0.23420357704162598 -9999 -9999
-9999 -9999 -9999 0.20406650006771088 0.22599491477012634 0.27298209071159363 0.335771769285202 0.4143471121788025 0.5148577094078064 0.6462995409965515 0.7755110859870911 0.84315025806427 0.825896680355072 0.7170103192329407 0.5897706747055054 0.4614051282405853 0.37131860852241516 0.34904414415359497 -9999 -9999
-9999 -9999 0.19521726667881012 0.21808508038520813 0.25947830080986023 0.32891494035720825 0.42207664251327515 0.5491256713867188 0.744283139705658 1.0003145933151245 1.2771395444869995 1.4269911050796509 1.4191510677337646 1.2265844345092773 0.9646811485290527 0.7328448295593262 0.573519229888916 0.5147550702095032 0.4916601777076721 -9999
-9999 -9999 0.21229569613933563 0.2421330213546753 0.31306523084640503 0.42031002044677734 0.559516429901123 0.7608625292778015 1.0587214231491089 1.4443879127502441 1.8437188863754272 2.091109275817871 2.102900981903076 1.8769605159759521 1.5415868759155273 1.1678167581558228 0.9023561477661133 0.7429254055023193 0.6841490268707275 -9999
-9999 -9999 0.25670531392097473 0.30816635489463806 0.4208635687828064 0.5824744701385498 0.8059611320495605 1.1078667640686035 1.4912328720092773 1.944970965385437 2.3510725498199463 2.632178544998169 2.6862244606018066 2.507937431335449 2.166672945022583 1.753927230834961 1.3963195085525513 1.142511010169983 1.0408806800842285 -9999
-9999 0.2873137295246124 0.3332565426826477 0.42943528294563293 0.6198893785476685 0.8930285573005676 1.235874056816101 1.6643950939178467 2.1243579387664795 2.556750535964966 2.887816905975342 3.1172640323638916 3.2154815196990967 3.1253886222839355 2.8856942653656006 2.5260164737701416 2.0583581924438477 1.7183960676193237 1.5712802410125732 -9999
-9999 0.3662828207015991 0.4432561695575714 0.6340253353118896 0.9474304914474487 1.371732473373413 1.8825234174728394 2.439516544342041 2.933530569076538 3.289790630340576 3.504041910171509 3.663121461868286 3.7564945220947266 3.756028175354004 3.6149818897247314 3.35897159576416 2.871181011199951 2.4820780754089355 2.306835174560547 -9999
-9999 0.5339189767837524 0.6521326303482056 0.9335229396820068 1.3594049215316772 1.920451283454895 2.586268186569214 3.2443368434906006 3.7167906761169434 3.9869601726531982 4.1381354331970215 4.258633613586426 4.373244285583496 4.4120378494262695 4.335499286651611 4.1344428062438965 3.7700884342193604 3.3939290046691895 3.2110304832458496 -9999
-9999 0.8306530714035034 0.9902219176292419 1.3697855472564697 1.8909802436828613 2.524836778640747 3.2427356243133545 3.8743364810943604 4.247420787811279 4.42101526260376 4.522246837615967 4.654016017913818 4.874750137329102 4.957839488983154 4.8883514404296875 4.842033386230469 4.554398536682129 4.2694878578186035 4.113344192504883 -9999
-9999 1.3056302070617676 1.530639886856079 2.0230472087860107 2.5857741832733154 3.207132339477539 3.831376791000366 4.308053970336914 4.504210948944092 4.530842304229736 4.545534610748291 4.625669956207275 4.818671226501465 4.894052505493164 4.911412715911865 4.852363109588623 4.833686351776123 4.761024475097656 4.654432773590088 -9999
-9999 1.9457495212554932 2.232614755630493 2.821943521499634 3.408294439315796 3.923818349838257 4.333951473236084 4.551438331604004 4.550032615661621 4.4565749168396 4.373035430908203 4.335748672485352 4.370797157287598 4.330510139465332 4.277708053588867 4.249856472015381 4.396317481994629 4.65362548828125 4.65219783782959 -9999
-9999 2.5736327171325684 2.8932700157165527 3.540144681930542 4.091739654541016 4.430846214294434 4.588545799255371 4.581259250640869 4.460975170135498 4.308831214904785 4.173914432525635 4.0067853927612305 3.821601629257202 3.625462532043457 3.4763522148132324 3.3975327014923096 3.431340456008911 3.8256237506866455 -9999 -9999
-9999 3.0023934841156006 3.3459208011627197 3.9890637397766113 4.434869289398193 4.593939781188965 4.56532621383667 4.436154365539551 4.293153285980225 4.15608024597168 4.0468549728393555 3.8033621311187744 3.470872402191162 3.083463430404663 2.80849027633667 2.5731077194213867 2.4230940341949463 2.1598360538482666 -9999 -9999
-9999 3.313063144683838 3.670473098754883 4.2286763191223145 4.558045387268066 4.5490593910217285 4.380819320678711 4.175816059112549 4.0302348136901855 3.9261629581451416 3.749417781829834 3.4529857635498047 3.062692642211914 2.6450564861297607 2.2906291484832764 1.9928934574127197 1.7583012580871582 1.543452262878418 1.3943097591400146 1.2213367223739624
-9999 -9999 3.9855945110321045 4.376860618591309 4.585605621337891 4.436014175415039 4.133510589599609 3.862288475036621 3.7204020023345947 3.5581016540527344 3.3539552688598633 3.0571157932281494 2.693429470062256 2.2699663639068604 1.9170911312103271 1.6503546237945557 1.411608099937439 1.2421011924743652 1.1194405555725098 1.1504969596862793
-9999 -9999 4.305752754211426 4.497523307800293 4.561713218688965 4.276763916015625 3.850593090057373 3.496324062347412 3.299564838409424 3.1267642974853516 2.9749677181243896 2.6976394653320312 2.3468549251556396 1.9553275108337402 1.6515121459960938 1.4269789457321167 1.2404614686965942 1.1219531297683716 1.1540725231170654 1.1731338500976562
-9999 -9999 -9999 4.545114994049072 4.536630630493164 4.19406795501709 3.7016780376434326 3.309985399246216 3.0996718406677246 2.941570997238159 2.7841525077819824 2.5560882091522217 2.2120063304901123 1.8337153196334839 1.5243180990219116 1.3453880548477173 1.1505045890808105 1.1499369144439697 1.17398202419281 1.1880863904953003
