ncols         20
nrows         20
xllcorner     0
yllcorner     -3.5992928
cellsize      0.17996463
NODATA_value  -9999
-9999.0 -9999 -9999 -9999 -9999 -9999 -9999 -9999 -9999 -9999 -9999 -9999 -9999 -9999 -9999 -9999 -9999 -9999 -9999 -9999
-9999 -9999 -9999 -9999 -9999 -9999 -9999 -9999 -9999 -9999 -9999 13.40134334564209 13.4041166305542 -9999 -9999 13.164566040039062 13.231307029724121 -9999 -9999 -9999
-9999 -9999 -9999 -9999 13.216410636901855 13.20057487487793 13.16185474395752 13.17967414855957 13.2249755859375 13.254493713378906 13.36608600616455 13.34048843383789 13.27305793762207 13.218622207641602 13.201897621154785 13.17842960357666 13.215108871459961 13.264493942260742 -9999 -9999
-9999 -9999 -9999 13.1549711227417 13.158853530883789 13.185896873474121 13.220956802368164 13.2699613571167 13.295856475830078 13.305754661560059 13.291386604309082 13.247397422790527 13.184025764465332 13.155303001403809 13.121175765991211 13.103690147399902 13.11307430267334 13.131970405578613 -9999 -9999
-9999 -9999 -9999 13.13242244720459 13.180913925170898 13.260567665100098 13.41694450378418 13.519332885742188 13.57650089263916 13.596046447753906 13.591041564941406 13.56425952911377 13.50285530090332 13.428057670593262 13.316868782043457 13.202141761779785 13.04559326171875 12.896068572998047 -9999 -9999
-9999 -9999 13.09411907196045 13.1297607421875 13.269160270690918 13.551591873168945 13.993122100830078 14.200301170349121 14.312256813049316 14.41793441772461 14.518160820007324 14.566810607910156 14.513470649719238 14.360757827758789 14.125954627990723 13.797616004943848 13.221882820129395 12.899277687072754 12.868366241455078 -9999
-9999 -9999 13.074910163879395 13.211341857910156 13.493376731872559 13.994097709655762 14.364273071289062 14.617231369018555 14.84571647644043 15.091145515441895 15.301984786987305 15.408822059631348 15.374876022338867 15.184427261352539 14.832825660705566 14.347209930419922 13.615471839904785 13.129303932189941 12.924162864685059 -9999
-9999 -9999 12.95094108581543 13.276312828063965 13.810103416442871 14.228050231933594 14.58151912689209 14.930646896362305 15.295271873474121 15.6368989944458 15.891426086425781 16.017223358154297 16.003725051879883 15.838826179504395 15.505544662475586 15.01476001739502 14.380924224853516 13.689875602722168 13.314031600952148 -9999
-9999 12.380636215209961 12.676814079284668 13.406570434570312 13.911788940429688 14.350992202758789 14.818547248840332 15.30275821685791 15.750917434692383 16.105571746826172 16.338891983032227 16.45230484008789 16.4520320892334 16.332693099975586 16.073598861694336 15.658456802368164 15.145086288452148 14.573360443115234 14.078620910644531 -9999
-9999 12.068479537963867 12.416730880737305 13.31355094909668 13.957603454589844 14.572998046875 15.198901176452637 15.773930549621582 16.220558166503906 16.519100189208984 16.694110870361328 16.776418685913086 16.778514862060547 16.702022552490234 16.52618408203125 16.224363327026367 15.83267879486084 15.37035846710205 14.968409538269043 -9999
-9999 11.727067947387695 12.167827606201172 13.273064613342285 14.139564514160156 14.925565719604492 15.65242862701416 16.241395950317383 16.63237190246582 16.859046936035156 16.976070404052734 17.022422790527344 17.0147705078125 16.968727111816406 16.87020492553711 16.68413734436035 16.416913986206055 16.06513214111328 15.830307960510254 -9999
-9999 11.57931900024414 12.16601848602295 13.468111038208008 14.496146202087402 15.354879379272461 16.079681396484375 16.613134384155273 16.9386043548584 17.11482810974121 17.19232940673828 17.208654403686523 17.16979217529297 17.141305923461914 17.109453201293945 17.001934051513672 16.860294342041016 16.66063690185547 16.546001434326172 -9999
-9999 11.920581817626953 12.624143600463867 14.003993034362793 15.047134399414062 15.84530258178711 16.460039138793945 16.892074584960938 17.15504264831543 17.292190551757812 17.356496810913086 17.364540100097656 17.328594207763672 17.310747146606445 17.29125213623047 17.260112762451172 17.16739273071289 17.052967071533203 17.01461410522461 -9999
-9999 12.783796310424805 13.496663093566895 14.788479804992676 15.72397518157959 16.361404418945312 16.80565071105957 17.10854148864746 17.30130958557129 17.401185989379883 17.448097229003906 17.462295532226562 17.452173233032227 17.457069396972656 17.464317321777344 17.45798110961914 17.3953857421875 17.286211013793945 17.304180145263672 -9999
-9999 13.746084213256836 14.397628784179688 15.532562255859375 16.32316017150879 16.79662322998047 17.087921142578125 17.27897071838379 17.391292572021484 17.45258331298828 17.480209350585938 17.503929138183594 17.527402877807617 17.554807662963867 17.577123641967773 17.586151123046875 17.566699981689453 17.453088760375977 -9999 -9999
-9999 14.444771766662598 15.048338890075684 16.038583755493164 16.70766830444336 17.084346771240234 17.28152084350586 17.39015769958496 17.442201614379883 17.46476173400879 17.46595001220703 17.489797592163086 17.530567169189453 17.582073211669922 17.616413116455078 17.6495361328125 17.675033569335938 17.731914520263672 -9999 -9999
-9999 14.895819664001465 15.525032043457031 16.34960174560547 16.925148010253906 17.25922966003418 17.401914596557617 17.467870712280273 17.48457908630371 17.480112075805664 17.48224639892578 17.503890991210938 17.54227638244629 17.589298248291016 17.629451751708984 17.665605545043945 17.694116592407227 17.712785720825195 17.653076171875 17.660390853881836
-9999 -9999 16.04526710510254 16.5820369720459 17.058752059936523 17.349578857421875 17.47846031188965 17.526294708251953 17.52334213256836 17.519054412841797 17.516080856323242 17.53060531616211 17.5576171875 17.60076332092285 17.63451385498047 17.65769386291504 17.682205200195312 17.69387435913086 17.683427810668945 17.6553897857666
-9999 -9999 16.453369140625 16.785934448242188 17.160572052001953 17.41986846923828 17.544784545898438 17.59065055847168 17.58526611328125 17.572065353393555 17.554962158203125 17.563508987426758 17.58660316467285 17.621009826660156 17.641427993774414 17.65251922607422 17.66637420654297 17.66925621032715 17.639650344848633 17.622337341308594
-9999 -9999 -9999 16.928157806396484 17.215679168701172 17.44626808166504 17.571359634399414 17.616369247436523 17.604808807373047 17.586509704589844 17.5700626373291 17.56757164001465 17.589359283447266 17.620969772338867 17.642335891723633 17.64301300048828 17.659982681274414 17.63750457763672 17.6154842376709 17.604907989501953
