ncols         20
nrows         20
xllcorner     0
yllcorner     -3.5992928
cellsize      0.17996463
NODATA_value  -9999
-9999.0 -9999 -9999 -9999 -9999 -9999 -9999 -9999 -9999 -9999 -9999 -9999 -9999 -9999 -9999 -9999 -9999 -9999 -9999 -9999
-9999 -9999 -9999 -9999 -9999 -9999 -9999 -9999 -9999 -9999 -9999 3.081876754760742 3.0926949977874756 -9999 -9999 3.3043289184570312 3.310727596282959 -9999 -9999 -9999
-9999 -9999 -9999 -9999 3.361490488052368 3.3038170337677 3.2173635959625244 3.1164867877960205 3.023587226867676 2.959002733230591 2.9354233741760254 2.9763846397399902 3.013012170791626 3.0508968830108643 3.1201717853546143 3.20853590965271 3.244986057281494 3.248114585876465 -9999 -9999
-9999 -9999 -9999 3.3983492851257324 3.3377175331115723 3.2343122959136963 3.108586311340332 2.974501609802246 2.8588504791259766 2.78037691116333 2.7496838569641113 2.7691404819488525 2.822265386581421 2.8981146812438965 2.988633632659912 3.0757129192352295 3.139495372772217 3.1782336235046387 -9999 -9999
-9999 -9999 -9999 3.3680028915405273 3.264214038848877 3.102038621902466 2.9052324295043945 2.7038614749908447 2.542769432067871 2.4395511150360107 2.3991057872772217 2.4220094680786133 2.5005860328674316 2.615910530090332 2.7477307319641113 2.8722009658813477 2.9737939834594727 3.0392725467681885 -9999 -9999
-9999 -9999 3.4160590171813965 3.33101224899292 3.158203601837158 2.908012866973877 2.6001925468444824 2.289283275604248 2.070671558380127 1.9461044073104858 1.9044209718704224 1.945305585861206 2.0663344860076904 2.2302446365356445 2.4108386039733887 2.5818378925323486 2.7216618061065674 2.8056979179382324 2.774487257003784 -9999
-9999 -9999 3.390408515930176 3.261181354522705 3.016521692276001 2.655465602874756 2.1926827430725098 1.697331428527832 1.4345930814743042 1.318207859992981 1.300934076309204 1.3834518194198608 1.590963363647461 1.8076986074447632 2.024665355682373 2.2307114601135254 2.4049832820892334 2.529451608657837 2.582726001739502 -9999
-9999 -9999 3.3614282608032227 3.185153007507324 2.8601484298706055 2.3806967735290527 1.7304182052612305 0.8208156824111938 0.613591730594635 0.5678014755249023 0.5932325124740601 0.7141658067703247 1.151115894317627 1.4296296834945679 1.6591153144836426 1.8699954748153687 2.0568766593933105 2.2047269344329834 2.288468599319458 -9999
-9999 3.4451189041137695 3.3320627212524414 3.089097023010254 2.698251724243164 2.1544761657714844 1.4638789892196655 0.6158170104026794 0.4029211103916168 0.3584023714065552 0.39034971594810486 0.5172300338745117 0.8942570686340332 1.1543992757797241 1.3633397817611694 1.5496348142623901 1.7212191820144653 1.8665947914123535 1.955933928489685 -9999
-9999 3.3601887226104736 3.2190558910369873 2.9377851486206055 2.5130715370178223 1.958183765411377 1.3020490407943726 0.5610411167144775 0.35675710439682007 0.30888819694519043 0.33677995204925537 0.4504021108150482 0.7525022029876709 0.9708834886550903 1.145002841949463 1.2989190816879272 1.4393086433410645 1.5635615587234497 1.644945502281189 -9999
-9999 3.1792144775390625 3.020174264907837 2.7182319164276123 2.291532039642334 1.7707462310791016 1.1909997463226318 0.560919463634491 0.37749147415161133 0.3299410939216614 0.3503930866718292 0.4437483251094818 0.6829615831375122 0.8567318916320801 0.9937225580215454 1.1157617568969727 1.2278836965560913 1.3303712606430054 1.400351643562317 -9999
-9999 2.8962643146514893 2.7308433055877686 2.4304027557373047 2.0355050563812256 1.5874903202056885 1.1170530319213867 0.6115249991416931 0.45582765340805054 0.4085935652256012 0.4182167053222656 0.48641008138656616 0.6660773158073425 0.7941519021987915 0.8964418768882751 0.9896862506866455 1.0785874128341675 1.1636139154434204 1.2244784832000732 -9999
-9999 2.5353927612304688 2.3750016689300537 2.0981240272521973 1.7641968727111816 1.415482759475708 1.0831751823425293 0.7982849478721619 0.6462136507034302 0.5803292989730835 0.5716327428817749 0.6096289157867432 0.6905854940414429 0.7684050798416138 0.838894248008728 0.9078533053398132 0.9790247082710266 1.0522798299789429 1.1094813346862793 -9999
-9999 2.152784824371338 2.007833957672119 1.7726655006408691 1.5132651329040527 1.2600332498550415 1.0315077304840088 0.8506253361701965 0.7366496324539185 0.6772298216819763 0.659695029258728 0.6747318506240845 0.7133762836456299 0.759061336517334 0.8063951134681702 0.8575907945632935 0.916774570941925 0.9833098649978638 1.0491408109664917 -9999
-9999 1.8209228515625 1.6972825527191162 1.5125893354415894 1.3192662000656128 1.136436939239502 0.9771331548690796 0.8543670773506165 0.7724358439445496 0.7254279851913452 0.706668496131897 0.7099272608757019 0.7288182377815247 0.7560049891471863 0.7880067229270935 0.8254358768463135 0.871931791305542 0.9148480296134949 -9999 -9999
-9999 1.5862929821014404 1.4763261079788208 1.327691674232483 1.1792505979537964 1.0437066555023193 0.9291285276412964 0.8421730399131775 0.7829828262329102 0.7471922636032104 0.7304291725158691 0.7287076115608215 0.7380899786949158 0.754827082157135 0.7768146395683289 0.8042265176773071 0.8398050665855408 0.8723599314689636 -9999 -9999
-9999 1.458633303642273 1.3300355672836304 1.202540397644043 1.0820446014404297 0.9771382212638855 0.8911235332489014 0.8271071910858154 0.7833760976791382 0.7560855746269226 0.742046594619751 0.7386250495910645 0.743335485458374 0.7539687752723694 0.7691630721092224 0.7887262105941772 0.8138717412948608 0.8390440344810486 0.8431316614151001 0.8456199765205383
-9999 -9999 1.1916375160217285 1.11040461063385 1.0152947902679443 0.9312683939933777 0.8637181520462036 0.8143426775932312 0.780777096748352 0.7593648433685303 0.747687578201294 0.7438470125198364 0.7461620569229126 0.7531682848930359 0.763715922832489 0.7771492004394531 0.7929803729057312 0.8094058632850647 0.8184280395507812 0.8218472003936768
-9999 -9999 1.1273524761199951 1.056187391281128 0.9759871363639832 0.9029067158699036 0.8463072180747986 0.8058326244354248 0.7783312797546387 0.7605351805686951 0.7503969073295593 0.746518075466156 0.7476209402084351 0.7525367140769958 0.7601950168609619 0.7697528600692749 0.780302107334137 0.7901502251625061 0.7965734004974365 0.7995108962059021
-9999 -9999 -9999 1.0114467144012451 0.9541661143302917 0.8887239694595337 0.8377876281738281 0.8016031384468079 0.776947557926178 0.7608304619789124 0.7514534592628479 0.7475894093513489 0.7481745481491089 0.7521378397941589 0.7584457993507385 0.7661799192428589 0.7744401097297668 0.7817768454551697 0.7868998050689697 0.7894330024719238
