ncols         20
nrows         20
xllcorner     0
yllcorner     -3.5992928
cellsize      0.17996463
NODATA_value  -9999
-9999.0 -9999 -9999 -9999 -9999 -9999 -9999 -9999 -9999 -9999 -9999 -9999 -9999 -9999 -9999 -9999 -9999 -9999 -9999 -9999
-9999 -9999 -9999 -9999 -9999 -9999 -9999 -9999 -9999 -9999 -9999 0.006856717634946108 0.006615735124796629 -9999 -9999 0.005218539386987686 0.004567688796669245 -9999 -9999 -9999
-9999 -9999 -9999 -9999 0.0060858228243887424 0.007161018438637257 0.009374763816595078 0.011649093590676785 0.013504508882761002 0.014859459362924099 0.012499204836785793 0.01064494252204895 0.010625087656080723 0.010865583084523678 0.008898064494132996 0.006612901575863361 0.005351202562451363 0.004758402239531279 -9999 -9999
-9999 -9999 -9999 0.0057549625635147095 0.006702281069010496 0.008284461684525013 0.010992011986672878 0.014282048679888248 0.01840135268867016 0.02241051010787487 0.025316689163446426 0.025352057069540024 0.02453792281448841 0.020837267860770226 0.01591157168149948 0.011098460294306278 0.008058397099375725 0.006697661243379116 -9999 -9999
-9999 -9999 -9999 0.006169989705085754 0.007492294535040855 0.010647861286997795 0.015526891686022282 0.02266325056552887 0.03349338471889496 0.05068612098693848 0.07062206417322159 0.08160232752561569 0.07722901552915573 0.05777262523770332 0.038992252200841904 0.023905890062451363 0.01549563743174076 0.01365208625793457 -9999 -9999
-9999 -9999 0.005090407095849514 0.006506756879389286 0.009108688682317734 0.014203809201717377 0.022475648671388626 0.036357831209897995 0.06378710269927979 0.1105591431260109 0.17441464960575104 0.21297575533390045 0.20786580443382263 0.15417157113552094 0.09514792263507843 0.054968468844890594 0.033636126667261124 0.026868212968111038 0.023774132132530212 -9999
-9999 -9999 0.005658494308590889 0.007348599843680859 0.012030038982629776 0.020953498780727386 0.035628076642751694 0.06301876157522202 0.11682514101266861 0.20929314196109772 0.3309403359889984 0.41685950756073 0.41635724902153015 0.32937344908714294 0 0.12734656035900116 0.07620973140001297 0.05164895951747894 0.043543629348278046 -9999
-9999 -9999 0.007515036500990391 0.01072175893932581 0.019489798694849014 0.03604472056031227 0.06631582975387573 0.12030968815088272 0.20994903147220612 0.3457534611225128 0.492538183927536 0.6059098839759827 0.6236869096755981 0.5401124954223633 0.40214642882347107 0.2636950612068176 0.16780617833137512 0.11275368183851242 0.0936845913529396 -9999
-9999 0.008171528577804565 0.01134445983916521 0.018701301887631416 0.03798212856054306 0.07620180398225784 0.1407267451286316 0.2462494969367981 0.3885367512702942 0.5480213165283203 0.684699296951294 0.785368025302887 0.8267139792442322 0.7762259840965271 0.6600139141082764 0 0.3378532826900482 0.23683962225914001 0.19867251813411713 -9999
-9999 0.012575848959386349 0.01843668706715107 0.03715559467673302 0.08086862415075302 0.1643192023038864 0.29937466979026794 0.4869946539402008 0.6850230097770691 0.8424689173698425 0.939335286617279 1.0129106044769287 1.055120825767517 1.049123764038086 0.9700568914413452 0 0.6160998344421387 0.46331164240837097 0.40173211693763733 -9999
-9999 0.024950603023171425 0.03698733076453209 0.0745757594704628 0.1545030027627945 0.29982760548591614 0.5276905298233032 0.8071809411048889 1.0343915224075317 1.1677097082138062 1.2391810417175293 1.296751618385315 1.3548029661178589 1.3725957870483398 1.3250702619552612 1.2071540355682373 1.0091789960861206 0.8224669098854065 0.7389631271362305 -9999
-9999 0.056686025112867355 0.07994823902845383 0.150619238615036 0.28110864758491516 0.48901867866516113 0.7860536575317383 1.0955489873886108 1.2908340692520142 1.3763996362686157 1.4219050407409668 1.4892688989639282 0 0 1.6213451623916626 0 1.4183464050292969 1.2529958486557007 1.1671444177627563 -9999
-9999 0.1329098492860794 0.18119902908802032 0.31176310777664185 0.49976569414138794 0.752758800983429 1.0517476797103882 1.3045470714569092 1.4038585424423218 1.402475357055664 1.3966737985610962 1.4323049783706665 0 0 0 1.5652512311935425 1.5605859756469727 1.5204843282699585 1.458568811416626 -9999
-9999 0.2833932638168335 0.36993852257728577 0.5820364356040955 0.834054708480835 1.0857160091400146 1.3023570775985718 1.4153920412063599 1.3972471952438354 1.3256458044052124 1.2646853923797607 1.2335110902786255 0 0 0 1.1807156801223755 1.2704720497131348 1.430994987487793 1.4396454095840454 -9999
-9999 0.48070695996284485 0.6018704771995544 0.8872122764587402 1.165794014930725 1.3463588953018188 1.4246981143951416 1.4037139415740967 1.3163337707519531 1.2160189151763916 1.1318470239639282 1.0372618436813354 0.9403162002563477 0.8454727530479431 0 0 0.7643752098083496 0.9541080594062805 -9999 -9999
-9999 0.6394945383071899 0.7853492498397827 1.0991261005401611 1.3384592533111572 1.4179989099502563 1.3850164413452148 1.2937997579574585 1.1994569301605225 1.1134793758392334 0 0 0 0.6064221262931824 0 0 0.3781058192253113 0 -9999 -9999
-9999 0.7677111625671387 0.9262797832489014 1.2114330530166626 1.3894727230072021 1.3695234060287476 1.2572338581085205 1.1309672594070435 1.0429683923721313 0 0 0 0 0.4435619115829468 0.3337942957878113 0.25371113419532776 0.1984698325395584 0.15359428524971008 0 0
-9999 -9999 1.0686701536178589 1.277129888534546 1.387864112854004 1.2872003316879272 1.107422947883606 0.9576241970062256 0 0 0 0 0 0 0 0 0 0 0 0
-9999 -9999 1.2333811521530151 1.333909511566162 1.3611829280853271 1.1870641708374023 0.9542909860610962 0.779677152633667 0 0 0 0 0 0 0 0 0 0 0 0
-9999 -9999 -9999 1.351676106452942 1.3400585651397705 1.137221336364746 0.8789610862731934 0.6966938972473145 0 0 0 0 0 0 0 0 0 0 0 0
