ncols         20
nrows         20
xllcorner     0
yllcorner     -3.5992928
cellsize      0.17996463
NODATA_value  -9999
-9999.0 -9999 -9999 -9999 -9999 -9999 -9999 -9999 -9999 -9999 -9999 -9999 -9999 -9999 -9999 -9999 -9999 -9999 -9999 -9999
-9999 -9999 -9999 -9999 -9999 -9999 -9999 -9999 -9999 -9999 -9999 18.9740047454834 18.98261260986328 -9999 -9999 18.91243553161621 18.916858673095703 -9999 -9999 -9999
-9999 -9999 -9999 -9999 18.919227600097656 18.9412899017334 18.95872688293457 18.984336853027344 19.006017684936523 19.000930786132812 19.039960861206055 19.012426376342773 19.00110626220703 19.02566909790039 19.022687911987305 18.975543975830078 18.954774856567383 18.964080810546875 -9999 -9999
-9999 -9999 -9999 18.92166519165039 18.91969871520996 18.944549560546875 18.965953826904297 18.98202133178711 18.978191375732422 18.970218658447266 18.94649314880371 18.942401885986328 18.949840545654297 18.98727798461914 19.00364112854004 19.006668090820312 19.008975982666016 19.023714065551758 -9999 -9999
-9999 -9999 -9999 18.945764541625977 18.958967208862305 18.95819854736328 18.951011657714844 18.920494079589844 18.873191833496094 18.797569274902344 18.718557357788086 18.685134887695312 18.71554946899414 18.81247901916504 18.905227661132812 18.989803314208984 19.050832748413086 19.04755973815918 -9999 -9999
-9999 -9999 18.990476608276367 18.983642578125 18.99367904663086 18.975597381591797 18.911653518676758 18.79877471923828 18.659957885742188 18.507043838500977 18.35929298400879 18.293292999267578 18.32869529724121 18.479406356811523 18.681493759155273 18.86125946044922 18.9929256439209 19.049541473388672 19.134552001953125 -9999
-9999 -9999 19.047889709472656 19.059429168701172 19.03951644897461 18.959840774536133 18.79069709777832 18.56226921081543 18.333255767822266 18.15867042541504 18.023473739624023 17.949848175048828 17.948646545410156 18.083797454833984 18.314136505126953 18.584228515625 18.79421043395996 18.942228317260742 19.010517120361328 -9999
-9999 -9999 19.13799476623535 19.133546829223633 19.0710506439209 18.90499496459961 18.613431930541992 18.629587173461914 18.295154571533203 18.118671417236328 18.043811798095703 18.044132232666016 17.735136032104492 17.779903411865234 17.960336685180664 18.215946197509766 18.46869659423828 18.672256469726562 18.768529891967773 -9999
-9999 19.273197174072266 19.22135353088379 19.197172164916992 19.06556510925293 18.791507720947266 18.40618324279785 18.320165634155273 18.00029754638672 17.856233596801758 17.811290740966797 17.824045181274414 17.574127197265625 17.563796997070312 17.662817001342773 17.851957321166992 18.083404541015625 18.289417266845703 18.40135955810547 -9999
-9999 19.331668853759766 19.303001403808594 19.197370529174805 18.97203826904297 18.620996475219727 18.216114044189453 18.1251220703125 17.843929290771484 17.7221736907959 17.687097549438477 17.69668960571289 17.4617919921875 17.40604019165039 17.435321807861328 17.544946670532227 17.717994689941406 17.888874053955078 17.985767364501953 -9999
-9999 19.365964889526367 19.292551040649414 19.0997371673584 18.78786849975586 18.38509178161621 18.021778106689453 17.994964599609375 17.759708404541016 17.65443229675293 17.624866485595703 17.628501892089844 17.36731719970703 17.276411056518555 17.25632667541504 17.301109313964844 17.403827667236328 17.528301239013672 17.602615356445312 -9999
-9999 19.26415252685547 19.131845474243164 18.85399055480957 18.49469757080078 18.10015106201172 17.81241226196289 17.892337799072266 17.70179557800293 17.611186981201172 17.584779739379883 17.586021423339844 17.284238815307617 17.180246353149414 17.134092330932617 17.126462936401367 17.166912078857422 17.242300033569336 17.29659652709961 -9999
-9999 18.964475631713867 18.784034729003906 18.463396072387695 18.10770606994629 17.78425407409668 17.547536849975586 17.438274383544922 17.3680362701416 17.337427139282227 17.31671905517578 17.28408432006836 17.204952239990234 17.15054702758789 17.104631423950195 17.069957733154297 17.047334671020508 17.06719398498535 17.11490821838379 -9999
-9999 18.53716278076172 18.33792495727539 18.01742172241211 17.715084075927734 17.47707748413086 17.31970977783203 17.244558334350586 17.22433090209961 17.222822189331055 17.22075653076172 17.21035385131836 17.19454002380371 17.181678771972656 17.172807693481445 17.14325523376465 17.09090232849121 17.01807403564453 17.10218620300293 -9999
-9999 18.12045669555664 17.934133529663086 17.643417358398438 17.404977798461914 17.252683639526367 17.172138214111328 17.14985466003418 17.157573699951172 17.17461585998535 17.185609817504883 17.197763442993164 17.21076011657715 17.22496223449707 17.24863624572754 17.25044822692871 17.2310791015625 17.09502410888672 -9999 -9999
-9999 17.835773468017578 17.660682678222656 17.40836524963379 17.22698211669922 17.142492294311523 17.113658905029297 17.121553421020508 17.13697052001953 17.15690803527832 17.171981811523438 17.19477653503418 17.22496795654297 17.260395050048828 17.294218063354492 17.32391929626465 17.338075637817383 17.428770065307617 -9999 -9999
-9999 17.6685791015625 17.487001419067383 17.276002883911133 17.138673782348633 17.105453491210938 17.11250114440918 17.138017654418945 17.15631103515625 17.17539405822754 17.192712783813477 17.21942901611328 17.254549026489258 17.287353515625 17.324081420898438 17.3590030670166 17.386959075927734 17.415775299072266 17.378765106201172 17.40911102294922
-9999 -9999 17.32655906677246 17.190135955810547 17.095136642456055 17.0938777923584 17.13323211669922 17.17228126525879 17.1947078704834 17.213359832763672 17.228641510009766 17.25284767150879 17.28042984008789 17.32167625427246 17.354387283325195 17.37626075744629 17.402151107788086 17.418903350830078 17.43308448791504 17.4088134765625
-9999 -9999 17.22951316833496 17.13725471496582 17.078292846679688 17.111291885375977 17.17545509338379 17.22688865661621 17.256256103515625 17.268787384033203 17.267595291137695 17.289587020874023 17.31691551208496 17.352415084838867 17.373300552368164 17.387983322143555 17.40420150756836 17.418428421020508 17.396589279174805 17.389739990234375
-9999 -9999 -9999 17.09827423095703 17.068466186523438 17.114137649536133 17.19301986694336 17.247554779052734 17.273164749145508 17.280614852905273 17.28421401977539 17.293596267700195 17.32176971435547 17.355470657348633 17.381683349609375 17.38579559326172 17.412240982055664 17.395769119262695 17.386743545532227 17.383678436279297
