ncols         20
nrows         20
xllcorner     0
yllcorner     -3.5992928
cellsize      0.17996463
NODATA_value  -9999
-9999.0 -9999 -9999 -9999 -9999 -9999 -9999 -9999 -9999 -9999 -9999 -9999 -9999 -9999 -9999 -9999 -9999 -9999 -9999 -9999
-9999 -9999 -9999 -9999 -9999 -9999 -9999 -9999 -9999 -9999 -9999 0.1467331051826477 0.14661380648612976 -9999 -9999 0.1604875773191452 0.1518399566411972 -9999 -9999 -9999
-9999 -9999 -9999 -9999 0.12402532249689102 0.13276059925556183 0.14956006407737732 0.16541659832000732 0.17917606234550476 0.19224727153778076 0.18351075053215027 0.1793818473815918 0.18901702761650085 0.20407848060131073 0.1966119408607483 0.17923177778720856 0.1668035238981247 0.16113406419754028 -9999 -9999
-9999 -9999 -9999 0.12372130155563354 0.1309492439031601 0.1420115977525711 0.1594596803188324 0.178766131401062 0.20318758487701416 0.22961468994617462 0.255484014749527 0.27202779054641724 0.28675901889801025 0.2844386100769043 0.2666861116886139 0.23676304519176483 0.21082252264022827 0.1969786137342453 -9999 -9999
-9999 -9999 -9999 0.12993614375591278 0.13915398716926575 0.15884894132614136 0.18278539180755615 0.212272509932518 0.25458022952079773 0.3199407458305359 0.40076303482055664 0.4686206579208374 0.501213788986206 0.47826844453811646 0.4299772381782532 0.3625437617301941 0.3084566295146942 0.2988918721675873 -9999 -9999
-9999 -9999 0.12848937511444092 0.1388397216796875 0.15560302138328552 0.1802828162908554 0.20697247982025146 0.2403322160243988 0.30326148867607117 0.4069274067878723 0.5549643635749817 0.6972494721412659 0.7987067699432373 0.7915641069412231 0.6980805397033691 0.5824235677719116 0.4884565770626068 0.458063006401062 0.450930118560791 -9999
-9999 -9999 0.14210578799247742 0.15531499683856964 0.18415158987045288 0.21605826914310455 0.23817065358161926 0.2570086121559143 0.31166738271713257 0.4201807975769043 0.5954437851905823 0.8227086067199707 1.0740278959274292 1.1757535934448242 1.113213300704956 0.947754979133606 0.7924133539199829 0.6848864555358887 0.6461195349693298 -9999
-9999 -9999 0.1798585206270218 0.20429322123527527 0.249510258436203 0.287608802318573 0.29526567459106445 0.24242454767227173 0.24788931012153625 0.302126407623291 0.4113277494907379 0.6352534890174866 1.2300177812576294 1.5515385866165161 1.6074554920196533 1.468360185623169 1.274085283279419 1.0990644693374634 1.0258984565734863 -9999
-9999 0.2313760221004486 0.25388050079345703 0.3040239214897156 0.3865262269973755 0.4521346092224121 0.43964627385139465 0.31158724427223206 0.27717626094818115 0.30451393127441406 0.40381139516830444 0.6664943099021912 1.448230504989624 1.975448727607727 2.2160229682922363 2.17285418510437 1.9523757696151733 1.7252823114395142 1.618135690689087 -9999
-9999 0.31307345628738403 0.3661639094352722 0.48935210704803467 0.6480334997177124 0.764306902885437 0.7331786155700684 0.471662700176239 0.3895915150642395 0.39576712250709534 0.49183666706085205 0.7939258813858032 1.7586114406585693 2.4816479682922363 2.9033045768737793 3.0133304595947266 2.841010570526123 2.5985188484191895 2.4766957759857178 -9999
-9999 0.497943639755249 0.5928191542625427 0.801385223865509 1.05062735080719 1.2373604774475098 1.2019970417022705 0.7422667741775513 0.6134296655654907 0.6007269620895386 0.6891571879386902 1.016290307044983 2.2036778926849365 3.073667287826538 3.6477041244506836 3.9087071418762207 3.886615037918091 3.6887028217315674 3.5762414932250977 -9999
-9999 0.8494322299957275 0.9944883584976196 1.3184266090393066 1.678656816482544 1.9441771507263184 1.9304794073104858 1.256812572479248 1.101210355758667 1.0641158819198608 1.1212987899780273 1.4218053817749023 2.7246992588043213 3.606904983520508 4.245090484619141 4.66304874420166 4.822888374328613 4.768711090087891 4.708980560302734 -9999
-9999 1.450404405593872 1.6819579601287842 2.162559747695923 2.615957736968994 2.9569666385650635 3.0643367767333984 2.8407886028289795 2.6008734703063965 2.427668333053589 2.4238474369049072 2.6688361167907715 3.258354425430298 3.8295772075653076 4.357652187347412 4.833237648010254 5.21815824508667 5.398606300354004 5.412150859832764 -9999
-9999 2.3042850494384766 2.628849506378174 3.2711400985717773 3.8176915645599365 4.143554210662842 4.202780246734619 3.9827001094818115 3.6400434970855713 3.3537354469299316 3.2151501178741455 3.246626377105713 3.424456834793091 3.655606985092163 3.9169912338256836 4.281270980834961 4.753651142120361 5.269197940826416 5.431954383850098 -9999
-9999 3.1864676475524902 3.5779738426208496 4.347122669219971 4.918529510498047 5.118361473083496 5.000158309936523 4.652555465698242 4.228323459625244 3.8567721843719482 3.602036237716675 3.434326171875 3.3365097045898438 3.287595510482788 3.265976667404175 3.3758087158203125 3.6314823627471924 4.191829681396484 -9999 -9999
-9999 3.833739757537842 4.286338806152344 5.100355625152588 5.588949203491211 5.617979049682617 5.332862377166748 4.88902473449707 4.439249038696289 4.0378594398498535 3.718726396560669 3.426743984222412 3.148651361465454 2.888427972793579 2.678719997406006 2.536648750305176 2.485182285308838 2.2390129566192627 -9999 -9999
-9999 4.310701370239258 4.829527854919434 5.566414833068848 5.931201934814453 5.7677226066589355 5.326099872589111 4.796499252319336 4.324158668518066 3.9134769439697266 3.564014434814453 3.2094175815582275 2.846149206161499 2.5156402587890625 2.214921474456787 1.9633049964904785 1.7613850831985474 1.5481878519058228 1.3674592971801758 1.1860525608062744
-9999 -9999 5.373756408691406 5.88714599609375 6.096606731414795 5.7485809326171875 5.13288688659668 4.512963771820068 4.007252216339111 3.5975492000579834 3.2502520084381104 2.8944082260131836 2.5331647396087646 2.149470806121826 1.8343595266342163 1.5978567600250244 1.3798569440841675 1.2163562774658203 1.0878318548202515 1.1123756170272827
-9999 -9999 5.882455825805664 6.1316237449646 6.144911289215088 5.610671043395996 4.833708763122559 4.119743824005127 3.5760996341705322 3.1899707317352295 2.9156439304351807 2.5822958946228027 2.224109172821045 1.8535879850387573 1.5745612382888794 1.3707787990570068 1.1987271308898926 1.0855711698532104 1.1135787963867188 1.129155158996582
-9999 -9999 -9999 6.234828472137451 6.1496052742004395 5.534022808074951 4.669387340545654 3.914773941040039 3.371662139892578 3.0148873329162598 2.7431352138519287 2.4596102237701416 2.1044957637786865 1.7408428192138672 1.452041506767273 1.2882843017578125 1.1063520908355713 1.1070942878723145 1.1287082433700562 1.1405415534973145
