ncols         20
nrows         20
xllcorner     0
yllcorner     -3.5992928
cellsize      0.17996463
NODATA_value  -9999
-9999.0 -9999 -9999 -9999 -9999 -9999 -9999 -9999 -9999 -9999 -9999 -9999 -9999 -9999 -9999 -9999 -9999 -9999 -9999 -9999
-9999 -9999 -9999 -9999 -9999 -9999 -9999 -9999 -9999 -9999 -9999 3.026916265487671 3.0384416580200195 -9999 -9999 3.258103847503662 3.2653210163116455 -9999 -9999 -9999
-9999 -9999 -9999 -9999 3.280865430831909 3.2262187004089355 3.1446685791015625 3.0494306087493896 2.961920738220215 2.901850938796997 2.881415843963623 2.923957586288452 2.962728977203369 3.0046234130859375 3.076561450958252 3.166083812713623 3.2048418521881104 3.211698532104492 -9999 -9999
-9999 -9999 -9999 3.32212495803833 3.262071371078491 3.1620383262634277 3.0415844917297363 2.9132254123687744 2.802811622619629 2.728634834289551 2.7010223865509033 2.7227063179016113 2.7782115936279297 2.857109785079956 2.9505534172058105 3.0404019355773926 3.1075148582458496 3.149357318878174 -9999 -9999
-9999 -9999 -9999 3.301534414291382 3.1996116638183594 3.0417027473449707 2.85046648979187 2.654566764831543 2.4981069564819336 2.398554563522339 2.360811233520508 2.3859474658966064 2.466771125793457 2.5847997665405273 2.7198755741119385 2.8482258319854736 2.9544081687927246 3.024031162261963 -9999 -9999
-9999 -9999 3.371675491333008 3.2829670906066895 3.112180709838867 2.8664450645446777 2.5634610652923584 2.25677752494812 2.041304588317871 1.919142723083496 1.8793597221374512 1.9220504760742188 2.0450053215026855 2.211482286453247 2.3956286907196045 2.571385622024536 2.7172462940216064 2.8086886405944824 2.7882916927337646 -9999
-9999 -9999 3.3659298419952393 3.237514019012451 2.9957334995269775 2.637722969055176 2.177109479904175 1.6834173202514648 1.4212191104888916 1.3052935600280762 1.288651943206787 1.3721486330032349 1.580859661102295 1.8001434803009033 2.0210769176483154 2.232480525970459 2.4131836891174316 2.5444793701171875 2.6034977436065674 -9999
-9999 -9999 3.3722634315490723 3.1958584785461426 2.8707435131073 2.38932204246521 1.735888123512268 0.8250747919082642 0.6148768663406372 0.5674800276756287 0.5923153162002563 0.7133405804634094 1.1490249633789062 1.4297230243682861 1.6634917259216309 1.8802889585494995 2.0738413333892822 2.228011131286621 2.3159232139587402 -9999
-9999 3.519709348678589 3.389963388442993 3.140162944793701 2.742293119430542 2.1882450580596924 1.485675573348999 0.6257621049880981 0.40766817331314087 0.3606778383255005 0.3915594816207886 0.5184187889099121 0.8962885141372681 1.1584562063217163 1.3713687658309937 1.5638420581817627 1.7421694993972778 1.8935695886611938 1.9864367246627808 -9999
-9999 3.464916706085205 3.316908121109009 3.025899887084961 2.5865612030029297 2.0125701427459717 1.3360095024108887 0.5746936798095703 0.36329010128974915 0.31222453713417053 0.338664174079895 0.4521881639957428 0.7561162114143372 0.9767170548439026 1.1540883779525757 1.3133397102355957 1.4598009586334229 1.5897183418273926 1.6740524768829346 -9999
-9999 3.319152355194092 3.152341365814209 2.834868907928467 2.3859753608703613 1.8390772342681885 1.2329472303390503 0.5774624347686768 0.38565772771835327 0.3343379497528076 0.35295578837394714 0.44596853852272034 0.6869407892227173 0.8625665903091431 1.002231240272522 1.128838062286377 1.2461373805999756 1.3528938293457031 1.4248933792114258 -9999
-9999 3.0599257946014404 2.8835809230804443 2.562045097351074 2.1399080753326416 1.6625627279281616 1.1638308763504028 0.6315162777900696 0.4667187035083771 0.41498109698295593 0.422120600938797 0.4893855154514313 0.6699627637863159 0.7991830110549927 0.9035708904266357 1.0005377531051636 1.093772053718567 1.1821861267089844 1.2445409297943115 -9999
-9999 2.7044897079467773 2.5308191776275635 2.2299280166625977 1.868298053741455 1.4914958477020264 1.1333645582199097 0.8284010887145996 0.6644232273101807 0.5913816690444946 0.5783863067626953 0.6140631437301636 0.6942598223686218 0.772318422794342 0.8441442251205444 0.9158759117126465 0.990709662437439 1.0668296813964844 1.125586986541748 -9999
-9999 2.310959577560425 2.152313709259033 1.8944015502929688 1.612420678138733 1.3350419998168945 1.0834739208221436 0.8834609985351562 0.7573065757751465 0.6899517178535461 0.6673099994659424 0.6792830228805542 0.716383159160614 0.7616617679595947 0.8096007108688354 0.8624969720840454 0.9245832562446594 0.9936268925666809 1.0624593496322632 -9999
-9999 1.9601935148239136 1.8241249322891235 1.622065544128418 1.409961223602295 1.2073018550872803 1.0279133319854736 0.8871790766716003 0.7929035425186157 0.7379177212715149 0.7139270305633545 0.7138998508453369 0.7309294939041138 0.7573263645172119 0.7893901467323303 0.8276108503341675 0.8755897879600525 0.9198813438415527 -9999 -9999
-9999 1.7080615758895874 1.5873733758926392 1.4236774444580078 1.2597284317016602 1.1084070205688477 0.9767950773239136 0.8730520009994507 0.801965594291687 0.7585502862930298 0.7367694973945618 0.7318264245986938 0.7392785549163818 0.7550370097160339 0.776744544506073 0.8043976426124573 0.8406010866165161 0.8738206028938293 -9999 -9999
-9999 1.5694208145141602 1.4265397787094116 1.2855751514434814 1.1520756483078003 1.034209966659546 0.9340499639511108 0.8548318147659302 0.8002610206604004 0.765977144241333 0.7473084330558777 0.7408736944198608 0.7437100410461426 0.7532797455787659 0.7679829001426697 0.7874405384063721 0.8127003908157349 0.8378247022628784 0.840787947177887 0.8428366780281067
-9999 -9999 1.2709826231002808 1.1811400651931763 1.0756638050079346 0.9807287454605103 0.9007688760757446 0.8384006023406982 0.7954354882240295 0.767812967300415 0.7519646883010864 0.7453528046607971 0.7458828091621399 0.7518014311790466 0.7617413401603699 0.7748730778694153 0.7905557155609131 0.8068217635154724 0.8154545426368713 0.8186454176902771
-9999 -9999 1.1974067687988281 1.1178466081619263 1.0288701057434082 0.9461798667907715 0.8780970573425293 0.8265177607536316 0.7911015748977661 0.7678447961807251 0.7539277076721191 0.747480571269989 0.7468834519386292 0.7507153749465942 0.7577110528945923 0.7668756246566772 0.7771762609481812 0.7868196368217468 0.793025553226471 0.7958369851112366
-9999 -9999 -9999 1.0657556056976318 1.0023890733718872 0.9283797740936279 0.8665090203285217 0.8203478455543518 0.7886283993721008 0.7674918174743652 0.7545728087425232 0.7482608556747437 0.7472001314163208 0.750090479850769 0.7557191252708435 0.7630276083946228 0.7710084319114685 0.7781364321708679 0.7830920815467834 0.7855338454246521
