ncols         20
nrows         20
xllcorner     0
yllcorner     -3.5992928
cellsize      0.17996463
NODATA_value  -9999
-9999.0 -9999 -9999 -9999 -9999 -9999 -9999 -9999 -9999 -9999 -9999 -9999 -9999 -9999 -9999 -9999 -9999 -9999 -9999 -9999
-9999 -9999 -9999 -9999 -9999 -9999 -9999 -9999 -9999 -9999 -9999 1.2010194063186646 1.2000552415847778 -9999 -9999 1.2385600805282593 1.225669503211975 -9999 -9999 -9999
-9999 -9999 -9999 -9999 1.2067641019821167 1.2136741876602173 1.2249141931533813 1.2252744436264038 1.220710277557373 1.22018301486969 1.2072538137435913 1.2153478860855103 1.227790117263794 1.2376298904418945 1.2417335510253906 1.2435197830200195 1.2342095375061035 1.2233253717422485 -9999 -9999
-9999 -9999 -9999 1.2200437784194946 1.2263394594192505 1.2319427728652954 1.237115740776062 1.2347828149795532 1.2319070100784302 1.2270225286483765 1.2268389463424683 1.233429193496704 1.2457009553909302 1.256300926208496 1.268479347229004 1.2718101739883423 1.2616204023361206 1.2499700784683228 -9999 -9999
-9999 -9999 -9999 1.2348856925964355 1.2429136037826538 1.2568058967590332 1.258121371269226 1.2499489784240723 1.2268389463424683 1.189866542816162 1.1526806354522705 1.138107180595398 1.1573755741119385 1.204490065574646 1.2563925981521606 1.2847293615341187 1.288800835609436 1.296352744102478 -9999 -9999
-9999 -9999 1.2391369342803955 1.2527371644973755 1.2668266296386719 1.2744214534759521 1.2620030641555786 1.2261377573013306 1.1540809869766235 1.0479631423950195 0.9378408193588257 0.8838596940040588 0.9060194492340088 1.0061469078063965 1.1361008882522583 1.2295905351638794 1.2817844152450562 1.2993910312652588 1.2862236499786377 -9999
-9999 -9999 1.2526929378509521 1.2671910524368286 1.2882463932037354 1.2858084440231323 1.2494083642959595 1.165891408920288 1.0266081094741821 0.8489569425582886 0.6877895593643188 0.6056164503097534 0.6219368577003479 0.7400549054145813 0 1.090173363685608 1.2081382274627686 1.2659580707550049 1.281836748123169 -9999
-9999 -9999 1.2835841178894043 1.2997524738311768 1.307993769645691 1.2801710367202759 1.1958292722702026 1.0481500625610352 0.8528842329978943 0.6485300064086914 0.4933035373687744 0.41270431876182556 0.41719090938568115 0.5071649551391602 0.6735196709632874 0.8696739673614502 1.0390238761901855 1.1545581817626953 1.2024348974227905 -9999
-9999 1.2966850996017456 1.320133924484253 1.3263311386108398 1.3061631917953491 1.221153974533081 1.0630139112472534 0.8518710732460022 0.6360270380973816 0.4583512246608734 0.3430796265602112 0.2854916453361511 0.2819555401802063 0.33815550804138184 0.45530104637145996 0 0.8057920336723328 0.9485617280006409 1.0199018716812134 -9999
-9999 1.3285831212997437 1.3408204317092896 1.3259791135787964 1.2473114728927612 1.0774216651916504 0.8453143239021301 0.6045592427253723 0.4126679599285126 0.2884269952774048 0.22109447419643402 0.188630610704422 0.18669171631336212 0.21595093607902527 0.2868199050426483 0 0.549622118473053 0.6850021481513977 0.757381021976471 -9999
-9999 1.3519407510757446 1.3412050008773804 1.2772222757339478 1.1257387399673462 0.8908350467681885 0.6213577389717102 0.38868868350982666 0.24046966433525085 0.16204899549484253 0.12481231242418289 0.10946214944124222 0.10891006141901016 0.123787522315979 0.16005730628967285 0.22679084539413452 0.3194257318973541 0.4204675257205963 0.47619661688804626 -9999
-9999 1.3265312910079956 1.28682279586792 1.1580371856689453 0.9496450424194336 0.6936520338058472 0.4378719925880432 0.24525153636932373 0.13771583139896393 0.08587292581796646 0.06343215703964233 0.054268866777420044 0 0 0.07349986582994461 0 0.15533886849880219 0.21373067796230316 0.24643386900424957 -9999
-9999 1.217404842376709 1.1376776695251465 0.9485011696815491 0.723162055015564 0.4934634864330292 0.29338300228118896 0.15327036380767822 0.07858677953481674 0.04580175131559372 0.028314605355262756 0.022290626540780067 0 0 0 0.03636381775140762 0.06124410405755043 0.09050220996141434 0.10916038602590561 -9999
-9999 1.0144609212875366 0.9063307642936707 0.6888302564620972 0.47805508971214294 0.30585941672325134 0.1760142594575882 0.09035896509885788 0.04230364039540291 0.024049971252679825 0.015831060707569122 0.012260309420526028 0 0 0 0.013529333285987377 0.01948060840368271 0.03142016381025314 0.04073983430862427 -9999
-9999 0.7987257242202759 0.6839900612831116 0.4681142568588257 0.2887067198753357 0.1713239997625351 0.0957806333899498 0.04732542112469673 0.02541143074631691 0.015807682648301125 0.011450760066509247 0.009208070114254951 0.00805677380412817 0.007614200934767723 0 0 0.00915970653295517 0.01316380687057972 -9999 -9999
-9999 0.6487466096878052 0.5337963700294495 0.3340104818344116 0.1855589896440506 0.09852955490350723 0.050643060356378555 0.02776365913450718 0.017383087426424026 0.012324842624366283 0 0 0 0.009373405016958714 0 0 0.012483618222177029 0 -9999 -9999
-9999 0.5488048195838928 0.43009719252586365 0.2603149116039276 0.1339247226715088 0.059545181691646576 0.031034888699650764 0.018316254019737244 0.012760387733578682 0 0 0 0 0.012794023379683495 0.014475624077022076 0.015936417505145073 0.017223285511136055 0.01871318742632866 0 0
-9999 -9999 0.32705259323120117 0.21021580696105957 0.10465136170387268 0.044034574180841446 0.02204156666994095 0.01345806010067463 0 0 0 0 0 0 0 0 0 0 0 0
-9999 -9999 0.23156529664993286 0.1629355251789093 0.0833665281534195 0.034203313291072845 0.016733264550566673 0.010303669609129429 0 0 0 0 0 0 0 0 0 0 0 0
-9999 -9999 -9999 0.13403697311878204 0.06977983564138412 0.030164625495672226 0.014720493927598 0.009166461415588856 0 0 0 0 0 0 0 0 0 0 0 0
