ncols         20
nrows         20
xllcorner     0
yllcorner     -3.5992928
cellsize      0.17996463
NODATA_value  -9999
-9999.0 -9999 -9999 -9999 -9999 -9999 -9999 -9999 -9999 -9999 -9999 -9999 -9999 -9999 -9999 -9999 -9999 -9999 -9999 -9999
-9999 -9999 -9999 -9999 -9999 -9999 -9999 -9999 -9999 -9999 -9999 0.010629221796989441 0.010254770517349243 -9999 -9999 0.00838271714746952 0.00736092496663332 -9999 -9999 -9999
-9999 -9999 -9999 -9999 0.010165012441575527 0.011835978366434574 0.015206268057227135 0.018483687192201614 0.0209819208830595 0.022702164947986603 0.018914619460701942 0.016124658286571503 0.016081295907497406 0.01640506088733673 0.013571086339652538 0.0103154880926013 0.008425790816545486 0.007470033597201109 -9999 -9999
-9999 -9999 -9999 0.009547068737447262 0.011074633337557316 0.013499531894922256 0.017530709505081177 0.022230634465813637 0.02797517739236355 0.03337440267205238 0.03715267777442932 0.03695528581738472 0.03573266789317131 0.030477168038487434 0.023518532514572144 0.01665319688618183 0.012220600619912148 0.010190114378929138 -9999 -9999
-9999 -9999 -9999 0.01003892719745636 0.012080841697752476 0.016838645562529564 0.02394479513168335 0.034000493586063385 0.04882233217358589 0.0718902051448822 0.09831833839416504 0.11257855594158173 0.10652202367782593 0.08033071458339691 0.05501915141940117 0.03419365733861923 0.022373877465724945 0.019759245216846466 -9999 -9999
-9999 -9999 0.007942215539515018 0.010212220251560211 0.014121485874056816 0.02152380347251892 0.033140067011117935 0.05195261910557747 0.0881214290857315 0.14858560264110565 0.2300810068845749 0.27861645817756653 0.27214881777763367 0.2038346529006958 0.12792032957077026 0.0748414471745491 0.04618142545223236 0.03683977201581001 0.03211040794849396 -9999
-9999 -9999 0.00853759329766035 0.01102721318602562 0.017724474892020226 0.030087195336818695 0.049617595970630646 0.08479877561330795 0.15237461030483246 0.2663517892360687 0.414595365524292 0.5188449621200562 0.5195107460021973 0.4159734845161438 0 0.1658063530921936 0.09979806840419769 0.06775085628032684 0.05695769190788269 -9999
-9999 -9999 0.01072605513036251 0.015161433257162571 0.026975683867931366 0.04853048548102379 0.0864061564207077 0.15195457637310028 0.2584195137023926 0.4176143705844879 0.5885860919952393 0.7217230200767517 0.7458982467651367 0.6531857848167419 0.4948185384273529 0.32944992184638977 0.21062061190605164 0.14159230887889862 0.11751046031713486 -9999
-9999 0.010706918314099312 0.015129988081753254 0.02474447526037693 0.04910339415073395 0.09574886411428452 0.17168816924095154 0.292624831199646 0.45265433192253113 0.630679726600647 0.7842977643013 0.901135265827179 0.9553090333938599 0.9076708555221558 0.7852330207824707 0 0.4092426896095276 0.2856273949146271 0.2389167845249176 -9999
-9999 0.01583292707800865 0.02319461479783058 0.04609708860516548 0.09811913222074509 0.19420135021209717 0.3447236716747284 0.5489220023155212 0.7614260911941528 0.930971622467041 1.040170669555664 1.1311169862747192 1.1931549310684204 1.2016477584838867 1.1267750263214111 0 0.7215362787246704 0.5382543802261353 0.46459999680519104 -9999
-9999 0.02978534810245037 0.043917182832956314 0.08740611374378204 0.17758135497570038 0.33686503767967224 0.5801688432693481 0.8732321262359619 1.1101311445236206 1.2542296648025513 1.344118356704712 1.4319802522659302 1.531090497970581 1.5728237628936768 1.5238178968429565 1.3927358388900757 1.150215983390808 0.927487313747406 0.8281055092811584 -9999
-9999 0.0642162412405014 0.09009239822626114 0.16784390807151794 0.3083482086658478 0.5269649028778076 0.8339133262634277 1.1513220071792603 1.3553569316864014 1.4575250148773193 1.5343763828277588 1.65742826461792 0 0 1.8970801830291748 0 1.603887677192688 1.3910374641418457 1.2828292846679688 -9999
-9999 0.143752321600914 0.19500581920146942 0.33256497979164124 0.5269319415092468 0.7843387126922607 1.0870393514633179 1.346733808517456 1.4603933095932007 1.4839833974838257 1.5185965299606323 1.619049310684204 0 0 0 1.8297851085662842 1.7699472904205322 1.6871455907821655 1.593636393547058 -9999
-9999 0.29506638646125793 0.38360923528671265 0.5994729995727539 0.8522468209266663 1.1033992767333984 1.3240936994552612 1.45127534866333 1.4583005905151367 1.4218069314956665 1.4053083658218384 1.4293938875198364 0 0 0 1.4222906827926636 1.4794386625289917 1.6211309432983398 1.580681324005127 -9999
-9999 0.48644301295280457 0.6069024801254272 0.8901180028915405 1.1650303602218628 1.3472683429718018 1.439237356185913 1.4458708763122559 1.3981248140335083 1.3450404405593872 1.310911774635315 1.2514599561691284 1.174336552619934 1.0777798891067505 0 0 0.9458109736442566 1.1546417474746704 -9999 -9999
-9999 0.6342225074768066 0.7757382392883301 1.0822293758392334 1.3187047243118286 1.408925175666809 1.403025507926941 1.3543864488601685 1.3157799243927002 1.2953659296035767 0 0 0 0.8121362328529358 0 0 0.510097861289978 0 -9999 -9999
-9999 0.7522718906402588 0.9005923867225647 1.1765447854995728 1.3571442365646362 1.3591135740280151 1.286445140838623 1.2143601179122925 1.1965000629425049 0 0 0 0 0.6292062401771545 0.4802447557449341 0.36941707134246826 0.2925316393375397 0.233877032995224 0 0
-9999 -9999 1.023972511291504 1.2276990413665771 1.348644733428955 1.2803527116775513 1.148284912109375 1.0584115982055664 0 0 0 0 0 0 0 0 0 0 0 0
-9999 -9999 1.1731854677200317 1.274839997291565 1.3192665576934814 1.1844124794006348 1.0005806684494019 0.8801186084747314 0 0 0 0 0 0 0 0 0 0 0 0
-9999 -9999 -9999 1.2906888723373413 1.2981927394866943 1.1372424364089966 0.9274185299873352 0.7951556444168091 0 0 0 0 0 0 0 0 0 0 0 0
