ncols         20
nrows         20
xllcorner     0
yllcorner     -3.5992928
cellsize      0.17996463
NODATA_value  -9999
-9999.0 -9999 -9999 -9999 -9999 -9999 -9999 -9999 -9999 -9999 -9999 -9999 -9999 -9999 -9999 -9999 -9999 -9999 -9999 -9999
-9999 -9999 -9999 -9999 -9999 -9999 -9999 -9999 -9999 -9999 -9999 11.985395431518555 11.972423553466797 -9999 -9999 12.159257888793945 12.017495155334473 -9999 -9999 -9999
-9999 -9999 -9999 -9999 12.005638122558594 12.086580276489258 12.233335494995117 12.27327823638916 12.246526718139648 12.237054824829102 12.071894645690918 12.114327430725098 12.23550796508789 12.341002464294434 12.339828491210938 12.274255752563477 12.172826766967773 12.116488456726074 -9999 -9999
-9999 -9999 -9999 12.149245262145996 12.161038398742676 12.149977684020996 12.154922485351562 12.109917640686035 12.066145896911621 12.020539283752441 12.034235954284668 12.109224319458008 12.24929428100586 12.37302017211914 12.494171142578125 12.526973724365234 12.50766372680664 12.491931915283203 -9999 -9999
-9999 -9999 -9999 12.301097869873047 12.223489761352539 12.132369995117188 11.881247520446777 11.644405364990234 11.4044771194458 11.158733367919922 10.959065437316895 10.9205961227417 11.117189407348633 11.508423805236816 11.9762544631958 12.394994735717773 12.777487754821777 13.1099271774292 -9999 -9999
-9999 -9999 12.59768009185791 12.500822067260742 12.263368606567383 11.780556678771973 10.834795951843262 10.267077445983887 9.715229988098145 9.056913375854492 8.388067245483398 8.080719947814941 8.276325225830078 9.008880615234375 9.997762680053711 11.045845985412598 12.46521282196045 13.217477798461914 13.433032035827637 -9999
-9999 -9999 12.803768157958984 12.562474250793457 12.080195426940918 11.013784408569336 10.126991271972656 9.284367561340332 8.304789543151855 7.171812057495117 6.140825271606445 5.613450050354004 5.7566633224487305 6.598165512084961 7.928427696228027 9.53995418548584 11.4549560546875 12.650700569152832 13.201178550720215 -9999
-9999 -9999 13.285045623779297 12.714481353759766 11.578887939453125 10.572639465332031 9.49796199798584 8.269966125488281 6.907376289367676 5.5502519607543945 4.511919975280762 3.958298683166504 4.011041164398193 4.690756797790527 5.938014030456543 7.591883659362793 9.393431663513184 11.207525253295898 12.116634368896484 -9999
-9999 14.63061237335205 14.0503511428833 12.549776077270508 11.386029243469238 10.086195945739746 8.566323280334473 6.909206390380859 5.345813274383545 4.084715843200684 3.261237382888794 2.841432571411133 2.821437358856201 3.2678794860839844 4.177789688110352 5.556541442871094 7.222696304321289 8.827280044555664 10.075811386108398 -9999
-9999 15.286375999450684 14.616552352905273 12.711313247680664 11.048941612243652 9.153855323791504 7.123057842254639 5.203097820281982 3.7054574489593506 2.732388496398926 2.2053966522216797 1.9486706256866455 1.9364893436431885 2.1801841259002686 2.767772674560547 3.737877130508423 5.09787654876709 6.496721267700195 7.552911758422852 -9999
-9999 15.973165512084961 15.033016204833984 12.564088821411133 10.291025161743164 7.910788059234619 5.563089847564697 3.601407527923584 2.328132152557373 1.6369447708129883 1.3060461282730103 1.1697579622268677 1.164623737335205 1.2994412183761597 1.6315348148345947 2.2507734298706055 3.166430950164795 4.286141395568848 4.960500240325928 -9999
-9999 16.041933059692383 14.766207695007324 11.753894805908203 9.051231384277344 6.495759010314941 4.175721645355225 2.4288573265075684 1.4158074855804443 0.9087062478065491 0.6873242855072021 0.5936596393585205 0.5840917825698853 0.6348589062690735 0.7814096808433533 1.0991485118865967 1.6391159296035767 2.319715976715088 2.715989589691162 -9999
-9999 14.932156562805176 13.351228713989258 10.022194862365723 7.271421909332275 4.911193370819092 2.971221923828125 1.5990307331085205 0.8430374264717102 0.500148355960846 0.3259764611721039 0.25768259167671204 0.23378388583660126 0.24143798649311066 0.2931426167488098 0.41057923436164856 0.6718655824661255 1.0262824296951294 1.2671642303466797 -9999
-9999 12.6320161819458 10.92345905303955 7.658533096313477 5.133851051330566 3.2561211585998535 1.8872512578964233 0.9869151711463928 0.4851544499397278 0.2734082341194153 0.1741674393415451 0.12736842036247253 0.1046605184674263 0.0981750413775444 0.10518261045217514 0.1357487291097641 0.20808717608451843 0.3664367198944092 0.5165944695472717 -9999
-9999 10.10881233215332 8.471761703491211 5.47789192199707 3.30329966545105 1.9370023012161255 1.0798685550689697 0.5492302179336548 0.2894221246242523 0.16631299257278442 0.10678025335073471 0.07458070665597916 0.05728576332330704 0.04913627728819847 0.04590753838419914 0.050085216760635376 0.0629044622182846 0.10091286897659302 -9999 -9999
-9999 8.30876636505127 6.735604286193848 4.044016361236572 2.209444284439087 1.1605168581008911 0.6031736731529236 0.31896063685417175 0.18146094679832458 0.11021500825881958 0.07314764708280563 0.05132848024368286 0.04112063720822334 0.04502153769135475 0.04996667057275772 0.055317435413599014 0.0604286789894104 0.06442635506391525 -9999 -9999
-9999 7.0814008712768555 5.471940040588379 3.1946475505828857 1.617908000946045 0.7288622856140137 0.3654033839702606 0.19414354860782623 0.11431673914194107 0.07260432839393616 0.05015549436211586 0.04440151900053024 0.047537125647068024 0.0522591695189476 0.05801357701420784 0.0643080547451973 0.07090417295694351 0.07829627394676208 0.0894744023680687 0.09467759728431702
-9999 -9999 4.1346635818481445 2.579239845275879 1.2572952508926392 0.5301632881164551 0.24447713792324066 0.12627488374710083 0.07429970055818558 0.049284398555755615 0.04842006042599678 0.05001618340611458 0.05374059081077576 0.059130895882844925 0.06553570926189423 0.07239736616611481 0.0793926864862442 0.08632345497608185 0.09298034012317657 0.09641031175851822
-9999 -9999 2.935235023498535 2.0200886726379395 0.9987360239028931 0.4004388749599457 0.17306625843048096 0.08504466712474823 0.055896349251270294 0.05299849063158035 0.05257925018668175 0.054579779505729675 0.058731745928525925 0.06455797702074051 0.07132329046726227 0.07837148010730743 0.08520274609327316 0.0911806970834732 0.09567970782518387 0.09803416579961777
-9999 -9999 -9999 1.647402286529541 0.8513842821121216 0.348432719707489 0.14595012366771698 0.06991743296384811 0.05771521478891373 0.05510872229933739 0.05491248145699501 0.05709586292505264 0.06146083399653435 0.06750166416168213 0.07444187998771667 0.08149581402540207 0.08814682066440582 0.09343031048774719 0.0971134603023529 0.09900437295436859
