ncols         20
nrows         20
xllcorner     0
yllcorner     -3.5992928
cellsize      0.17996463
NODATA_value  -9999
-9999.0 -9999 -9999 -9999 -9999 -9999 -9999 -9999 -9999 -9999 -9999 -9999 -9999 -9999 -9999 -9999 -9999 -9999 -9999 -9999
-9999 -9999 -9999 -9999 -9999 -9999 -9999 -9999 -9999 -9999 -9999 2.394011974334717 2.3889341354370117 -9999 -9999 2.4705073833465576 2.444162607192993 -9999 -9999 -9999
-9999 -9999 -9999 -9999 2.5171945095062256 2.5282208919525146 2.542348623275757 2.5249359607696533 2.4907968044281006 2.4633212089538574 2.413863182067871 2.41518497467041 2.430443525314331 2.441258668899536 2.451133966445923 2.4637911319732666 2.446079969406128 2.4185564517974854 -9999 -9999
-9999 -9999 -9999 2.5518410205841064 2.5630736351013184 2.5698726177215576 2.566694974899292 2.5354316234588623 2.495316743850708 2.452620506286621 2.425103187561035 2.4180490970611572 2.4291493892669678 2.445911407470703 2.476064682006836 2.4901695251464844 2.4726827144622803 2.448233127593994 -9999 -9999
-9999 -9999 -9999 2.5851473808288574 2.6014420986175537 2.622361421585083 2.5982842445373535 2.530125141143799 2.4425973892211914 2.3454947471618652 2.254563808441162 2.204697847366333 2.2190146446228027 2.29111385345459 2.3878748416900635 2.4557573795318604 2.4705862998962402 2.4854323863983154 -9999 -9999
-9999 -9999 2.5898196697235107 2.6224820613861084 2.6509196758270264 2.6453897953033447 2.555410385131836 2.386923313140869 2.214230537414551 2.02669095993042 1.8405859470367432 1.7358897924423218 1.7535275220870972 1.8923808336257935 2.0967931747436523 2.2667341232299805 2.3617544174194336 2.391888380050659 2.3348140716552734 -9999
-9999 -9999 2.616434097290039 2.6511459350585938 2.687699556350708 2.623802661895752 2.3892710208892822 1.9810739755630493 1.711018681526184 1.4623113870620728 1.2415533065795898 1.1376551389694214 1.2095396518707275 1.4007192850112915 1.6660523414611816 1.9241060018539429 2.1190755367279053 2.2138590812683105 2.234029531478882 -9999
-9999 -9999 2.6743381023406982 2.7149386405944824 2.7131757736206055 2.5348780155181885 2.052590847015381 0.9024466276168823 0.6620054841041565 0.5553900599479675 0.4914795458316803 0.4978940486907959 0.7511274814605713 0.9551547169685364 1.213608741760254 1.5075454711914062 1.7548545598983765 1.91371488571167 1.9824497699737549 -9999
-9999 2.656707763671875 2.7255828380584717 2.7534828186035156 2.6770589351654053 2.387711524963379 1.8049366474151611 0.6724058985710144 0.4115872085094452 0.32383444905281067 0.2944068908691406 0.3202993869781494 0.48927175998687744 0.6258016228675842 0.8017835021018982 1.0443538427352905 1.3108725547790527 1.517045497894287 1.612162470817566 -9999
-9999 2.683387279510498 2.7188210487365723 2.6982429027557373 2.5024425983428955 2.095168113708496 1.484982967376709 0.5427231192588806 0.3068042993545532 0.2301076054573059 0.2108539640903473 0.22968855500221252 0.32349008321762085 0.39072808623313904 0.4864787757396698 0.6366577744483948 0.8443285226821899 1.034426212310791 1.1308904886245728 -9999
-9999 2.64363956451416 2.621875286102295 2.4911534786224365 2.1809756755828857 1.7341341972351074 1.1404454708099365 0.4238734543323517 0.23250998556613922 0.1678330898284912 0.14860817790031433 0.15456770360469818 0.19252437353134155 0.21864093840122223 0.2594239115715027 0.33718714118003845 0.4532395303249359 0.5820695161819458 0.6517866849899292 -9999
-9999 2.449347496032715 2.3611645698547363 2.1190378665924072 1.754180908203125 1.3238095045089722 0.8206464052200317 0.3251950144767761 0.17535924911499023 0.11756252497434616 0.0957653596997261 0.08972212672233582 0.09708293527364731 0.10106097161769867 0.11253306269645691 0.14390116930007935 0.2004992663860321 0.2666477859020233 0.3030056655406952 -9999
-9999 2.0624661445617676 1.9164632558822632 1.6134350299835205 1.2638484239578247 0.8964645266532898 0.5446611046791077 0.2674224376678467 0.13604509830474854 0.08226581662893295 0.05499982833862305 0.04371928423643112 0.03808628395199776 0.03504534438252449 0.03652912378311157 0.044972244650125504 0.0712466686964035 0.1011347845196724 0.1197158545255661 -9999
-9999 1.5795553922653198 1.411704659461975 1.0826352834701538 0.7670470476150513 0.5079239010810852 0.30308327078819275 0.15811221301555634 0.07702506333589554 0.04537808522582054 0.030416123569011688 0.022669905796647072 0.017921406775712967 0.015146157704293728 0.013975489884614944 0.01525071170181036 0.02019447274506092 0.03076714091002941 0.03865339234471321 -9999
-9999 1.146094799041748 0.974825382232666 0.663818359375 0.41209179162979126 0.2507481575012207 0.14516699314117432 0.07389029115438461 0.041063982993364334 0.026063723489642143 0.018670102581381798 0.01422448642551899 0.011410638689994812 0.009799938648939133 0.008801167830824852 0.008828844875097275 0.00976566318422556 0.01344153843820095 -9999 -9999
-9999 0.854996919631958 0.6904441118240356 0.42256370186805725 0.2320990115404129 0.12396859377622604 0.06413403898477554 0.03601676970720291 0.02319599874317646 0.01673707365989685 0.013348417356610298 0.011025588028132915 0.009908893145620823 0.011362864635884762 0.012656188569962978 0.01365782879292965 0.014357315376400948 0.014981091022491455 -9999 -9999
-9999 0.6772433519363403 0.5060499906539917 0.2945176959037781 0.14678843319416046 0.0625406876206398 0.03238041326403618 0.019544899463653564 0.014156443066895008 0.011566166765987873 0.010250668041408062 0.010954799130558968 0.013164027594029903 0.015355803072452545 0.017410840839147568 0.01923508383333683 0.020940156653523445 0.02309686504304409 0.02743428200483322 0.029254179447889328
-9999 -9999 0.3425846993923187 0.21309754252433777 0.1016898974776268 0.039853811264038086 0.019591709598898888 0.01238852646201849 0.009774521924555302 0.008910447359085083 0.01113918423652649 0.013656465336680412 0.016362469643354416 0.01912928745150566 0.021704494953155518 0.02393425814807415 0.025897812098264694 0.027703266590833664 0.02954476699233055 0.03029673732817173
-9999 -9999 0.22328715026378632 0.1499696969985962 0.07285785675048828 0.02764410898089409 0.013366254977881908 0.008748108521103859 0.00822516530752182 0.010533050633966923 0.013095088303089142 0.01593000441789627 0.01898164302110672 0.02208762615919113 0.02489563822746277 0.027197755873203278 0.029007775709033012 0.03022247552871704 0.03083369880914688 0.031048418954014778
-9999 -9999 -9999 0.11328526586294174 0.05523277446627617 0.02266903780400753 0.011157610453665257 0.007575709372758865 0.00897372979670763 0.011479892767965794 0.014215251430869102 0.017185907810926437 0.020394563674926758 0.023649081587791443 0.026559382677078247 0.02880638837814331 0.03047870844602585 0.031201638281345367 0.03140026330947876 0.03141866624355316
