ncols         20
nrows         20
xllcorner     0
yllcorner     -3.5992928
cellsize      0.17996463
NODATA_value  -9999
-9999.0 -9999 -9999 -9999 -9999 -9999 -9999 -9999 -9999 -9999 -9999 -9999 -9999 -9999 -9999 -9999 -9999 -9999 -9999 -9999
-9999 -9999 -9999 -9999 -9999 -9999 -9999 -9999 -9999 -9999 -9999 3.529910087585449 3.549049139022827 -9999 -9999 3.8264687061309814 3.8339266777038574 -9999 -9999 -9999
-9999 -9999 -9999 -9999 3.7828369140625 3.717574119567871 3.624166250228882 3.51908540725708 3.427321434020996 3.3707919120788574 3.361405849456787 3.4242103099823 3.4874472618103027 3.5640172958374023 3.6604058742523193 3.758432388305664 3.806896924972534 3.8319857120513916 -9999 -9999
-9999 -9999 -9999 3.873800754547119 3.7861995697021484 3.6603410243988037 3.515872001647949 3.36850643157959 3.2482457160949707 3.1753227710723877 3.160511016845703 3.2066116333007812 3.2959022521972656 3.4147775173187256 3.5451760292053223 3.6635642051696777 3.753422737121582 3.8119544982910156 -9999 -9999
-9999 -9999 -9999 3.882119655609131 3.7451767921447754 3.542860507965088 3.307173728942871 3.0748748779296875 2.897059440612793 2.79256010055542 2.7658562660217285 2.8183131217956543 2.9420905113220215 3.1141295433044434 3.306352376937866 3.4877638816833496 3.6387481689453125 3.7393288612365723 -9999 -9999
-9999 -9999 4.066540241241455 3.9150197505950928 3.677666425704956 3.3586323261260986 2.982454776763916 2.6141281127929688 2.3627216815948486 2.227470874786377 2.1942248344421387 2.2643394470214844 2.4381186962127686 2.6732325553894043 2.935915470123291 3.190629482269287 3.407865524291992 3.5568201541900635 3.5830764770507812 -9999
-9999 -9999 4.0774383544921875 3.892153024673462 3.5641045570373535 3.104374647140503 2.5373520851135254 1.9471265077590942 1.638289451599121 1.5057953596115112 1.4931552410125732 1.6033954620361328 1.8719106912612915 2.16778302192688 2.4793145656585693 2.787160873413086 3.057493209838867 3.2587435245513916 3.3584673404693604 -9999
-9999 -9999 4.093547821044922 3.853440761566162 3.425448179244995 2.818331241607666 2.0243349075317383 0.9514712691307068 0.7037590742111206 0.6473254561424255 0.6759685277938843 0.8190816044807434 1.344318151473999 1.7025847434997559 2.0222318172454834 2.335127353668213 2.622804641723633 2.8517887592315674 2.980320692062378 -9999
-9999 4.271791934967041 4.102657318115234 3.779991865158081 3.2706987857818604 2.5800955295562744 1.7299185991287231 0.7192299365997314 0.46281808614730835 0.4061598777770996 0.4400339722633362 0.5858625173568726 1.029433250427246 1.3535642623901367 1.6355156898498535 1.9054590463638306 2.1660263538360596 2.386993408203125 2.518339157104492 -9999
-9999 4.176750183105469 3.9914002418518066 3.628483295440674 3.078221082687378 2.3668806552886963 1.5487338304519653 0.6562169790267944 0.4078964293003082 0.34607115387916565 0.3738025724887848 0.501417875289917 0.8487455248832703 1.111721158027649 1.3391056060791016 1.5522074699401855 1.7557148933410645 1.9401416778564453 2.0560357570648193 -9999
-9999 3.9798331260681152 3.7802155017852783 3.3942198753356934 2.833885669708252 2.1529457569122314 1.4177396297454834 0.6521989703178406 0.4265802204608917 0.36394816637039185 0.3819505274295807 0.4840470552444458 0.7515019178390503 0.9542481303215027 1.1263315677642822 1.2866930961608887 1.4392082691192627 1.5790985822677612 1.6718792915344238 -9999
-9999 3.678044557571411 3.4686737060546875 3.072570323944092 2.5342812538146973 1.9295018911361694 1.3197035789489746 0.7007796764373779 0.506140410900116 0.44279804825782776 0.4475216567516327 0.5196258425712585 0.7146915197372437 0.8601100444793701 0.9836375117301941 1.100097417831421 1.213215947151184 1.321475863456726 1.3980337381362915 -9999
-9999 3.279899835586548 3.0646181106567383 2.67311692237854 2.1921298503875732 1.7031774520874023 1.259635329246521 0.8967883586883545 0.7038812041282654 0.6175915002822876 0.6003516912460327 0.6379433870315552 0.7250308990478516 0.8122110366821289 0.8948538899421692 0.9773913621902466 1.0624605417251587 1.1506997346878052 1.2206603288650513 -9999
-9999 2.8168818950653076 2.6033358573913574 2.2437291145324707 1.849753737449646 1.4877547025680542 1.1770942211151123 0.9383406639099121 0.7903956770896912 0.7119026184082031 0.6848841309547424 0.6970028281211853 0.7373565435409546 0.7875510454177856 0.8412955403327942 0.9003255367279053 0.9683007597923279 1.045466661453247 1.1281577348709106 -9999
-9999 2.3663203716278076 2.169926166534424 1.87094247341156 1.5748271942138672 1.3107094764709473 1.091825008392334 0.9271203875541687 0.8182690143585205 0.7551999688148499 0.7275553941726685 0.7268964648246765 0.7452988624572754 0.7741880416870117 0.809241533279419 0.850541889667511 0.9013524651527405 0.9482342004776001 -9999 -9999
-9999 2.0168187618255615 1.8345451354980469 1.5959635972976685 1.3694533109664917 1.174222469329834 1.0174713134765625 0.9002187252044678 0.8204459547996521 0.7717551589012146 0.7472839951515198 0.7414993643760681 0.7493610978126526 0.7662530541419983 0.7893866896629333 0.8183788061141968 0.8553868532180786 0.8889145851135254 -9999 -9999
-9999 1.812058687210083 1.598723292350769 1.400327205657959 1.2214329242706299 1.073785662651062 0.9584948420524597 0.8725982904434204 0.8134347200393677 0.7760025262832642 0.7555133700370789 0.7482880353927612 0.7510825991630554 0.7610796093940735 0.7763984799385071 0.7963600158691406 0.8215875625610352 0.8456121683120728 0.8451700210571289 0.8460372090339661
-9999 -9999 1.3694301843643188 1.2505154609680176 1.116224765777588 1.0034996271133423 0.9155309796333313 0.8501564860343933 0.8049832582473755 0.7755807638168335 0.7585515975952148 0.7512919306755066 0.7516089081764221 0.7576167583465576 0.7678058743476868 0.7811554670333862 0.7967732548713684 0.8124194145202637 0.8198987245559692 0.8225565552711487
-9999 -9999 1.2626255750656128 1.1603419780731201 1.05220365524292 0.9592509269714355 0.8877941370010376 0.8350400924682617 0.7985014319419861 0.7741981148719788 0.7595065832138062 0.7525461912155151 0.7516873478889465 0.7554716467857361 0.7625778913497925 0.7718935608863831 0.7822390794754028 0.7917351722717285 0.7976553440093994 0.8003091812133789
-9999 -9999 -9999 1.089925765991211 1.01671302318573 0.9368260502815247 0.8740257024765015 0.8275328874588013 0.7950912117958069 0.7732195854187012 0.75970458984375 0.7529563307762146 0.7516249418258667 0.7544190883636475 0.7601078152656555 0.7675599455833435 0.7756520509719849 0.7828341722488403 0.7877740859985352 0.7901971936225891
