ncols         20
nrows         20
xllcorner     0
yllcorner     -3.5992928
cellsize      0.17996463
NODATA_value  -9999
-9999.0 -9999 -9999 -9999 -9999 -9999 -9999 -9999 -9999 -9999 -9999 -9999 -9999 -9999 -9999 -9999 -9999 -9999 -9999 -9999
-9999 -9999 -9999 -9999 -9999 -9999 -9999 -9999 -9999 -9999 -9999 1.193671703338623 1.1927013397216797 -9999 -9999 1.2295039892196655 1.2165812253952026 -9999 -9999 -9999
-9999 -9999 -9999 -9999 1.1943297386169434 1.2016136646270752 1.2136114835739136 1.2153115272521973 1.2126790285110474 1.2142643928527832 1.2017141580581665 1.2091683149337769 1.2214595079421997 1.2312933206558228 1.2347023487091064 1.2355291843414307 1.2258296012878418 1.2149600982666016 -9999 -9999
-9999 -9999 -9999 1.2076689004898071 1.2141344547271729 1.2204149961471558 1.2267906665802002 1.226162075996399 1.225885033607483 1.2223578691482544 1.2227799892425537 1.2295916080474854 1.241950511932373 1.2522799968719482 1.2630810737609863 1.265446424484253 1.2544496059417725 1.2423943281173706 -9999 -9999
-9999 -9999 -9999 1.2229667901992798 1.2314637899398804 1.2464679479599 1.2500368356704712 1.243923306465149 1.2221653461456299 1.1861915588378906 1.1499398946762085 1.1361294984817505 1.1558383703231812 1.2029025554656982 1.2541216611862183 1.281416654586792 1.2837169170379639 1.2903602123260498 -9999 -9999
-9999 -9999 1.2281876802444458 1.2416878938674927 1.2565038204193115 1.265856385231018 1.2563352584838867 1.221860647201538 1.1508827209472656 1.0460340976715088 0.9373660087585449 0.8845483064651489 0.9073726534843445 1.0075820684432983 1.1369705200195312 1.229260802268982 1.2798086404800415 1.2962160110473633 1.282779574394226 -9999
-9999 -9999 1.2424099445343018 1.2572784423828125 1.279523491859436 1.2799791097640991 1.2453298568725586 1.163028597831726 1.0251386165618896 0.8491834998130798 0.689664900302887 0.6086493730545044 0.6256924271583557 0.7441715002059937 0 1.0928179025650024 1.2090585231781006 1.2654021978378296 1.2804903984069824 -9999
-9999 -9999 1.27432382106781 1.2911463975906372 1.301013469696045 1.2759597301483154 1.1932682991027832 1.0471030473709106 0.8535376787185669 0.650839626789093 0.4969053864479065 0.41710421442985535 0.4222119152545929 0.5127859115600586 0.6794012188911438 0.8750267624855042 1.0430140495300293 1.156994104385376 1.203877568244934 -9999
-9999 1.2890774011611938 1.312371850013733 1.3197152614593506 1.3019779920578003 1.2189794778823853 1.0625933408737183 0.853117823600769 0.6387404799461365 0.4621160626411438 0.3475329577922821 0.29036206007003784 0.28723645210266113 0.3440856635570526 0.4619266390800476 0 0.8123547434806824 0.9541541934013367 1.024672269821167 -9999
-9999 1.3220406770706177 1.334958553314209 1.3222116231918335 1.245690941810608 1.0777994394302368 0.8473722338676453 0.6077882647514343 0.4165053069591522 0.2925121784210205 0.22537943720817566 0.1930752843618393 0.19140416383743286 0.22115185856819153 0.29283028841018677 0 0.5571892857551575 0.6926540732383728 0.7647821307182312 -9999
-9999 1.3473422527313232 1.337715744972229 1.2760848999023438 1.1268945932388306 0.8938312530517578 0.6253620982170105 0.39277657866477966 0.24418401718139648 0.16541369259357452 0.12804213166236877 0.11270058155059814 0.11227919906377792 0.12749099731445312 0.1644095629453659 0.2321735918521881 0.3259681761264801 0.4279952347278595 0.48407691717147827 -9999
-9999 1.3248502016067505 1.2865039110183716 1.1599122285842896 0.9535512328147888 0.6987019777297974 0.44283056259155273 0.24923838675022125 0.14070039987564087 0.08819348365068436 0.0654483214020729 0.05615584924817085 0 0 0.07590069621801376 0 0.15960733592510223 0.21917562186717987 0.25246745347976685 -9999
-9999 1.2192556858062744 1.1408061981201172 0.9532877802848816 0.7290898561477661 0.4994257986545563 0.2982828915119171 0.15663446485996246 0.08075044304132462 0.04730510339140892 0.02941758744418621 0.023217061534523964 0 0 0 0.03772681951522827 0.06332796066999435 0.09347137808799744 0.11271528899669647 -9999
-9999 1.0198308229446411 0.9124892950057983 0.6954647898674011 0.48445650935173035 0.3112725019454956 0.17996197938919067 0.09286251664161682 0.04376978427171707 0.025003202259540558 0.01651185378432274 0.012790604494512081 0 0 0 0.014049655757844448 0.020234866067767143 0.03266972675919533 0.04245956614613533 -9999
-9999 0.806678295135498 0.6920268535614014 0.47517600655555725 0.29426875710487366 0.1753842830657959 0.09850549697875977 0.04897090792655945 0.026420917361974716 0.016469748690724373 0.01192830316722393 0.009563668631017208 0.008331223390996456 0.007840852253139019 0 0 0.009398522786796093 0.013520578853785992 -9999 -9999
-9999 0.6582102179527283 0.5427581667900085 0.34085333347320557 0.19016829133033752 0.10143963247537613 0.052438024431467056 0.028866520151495934 0.01809755526483059 0.012805200181901455 0 0 0 0.009558824822306633 0 0 0.012651088647544384 0 -9999 -9999
-9999 0.55862957239151 0.4392928183078766 0.2668800950050354 0.13788272440433502 0.06167338043451309 0.03227934241294861 0.01907418482005596 0.013254662044346333 0 0 0 0 0.012956250458955765 0.014623884111642838 0.01606271229684353 0.01731692999601364 0.0187526885420084 0 0
-9999 -9999 0.33590006828308105 0.2164379060268402 0.10813580453395844 0.045760154724121094 0.02296539396047592 0.014002308249473572 0 0 0 0 0 0 0 0 0 0 0 0
-9999 -9999 0.23864521086215973 0.16833466291427612 0.08640383183956146 0.035615161061286926 0.017438292503356934 0.010691491886973381 0 0 0 0 0 0 0 0 0 0 0 0
-9999 -9999 -9999 0.13891734182834625 0.07257413119077682 0.03145984932780266 0.015345378778874874 0.009494039230048656 0 0 0 0 0 0 0 0 0 0 0 0
