ncols         20
nrows         20
xllcorner     0
yllcorner     -3.5992928
cellsize      0.17996463
NODATA_value  -9999
-9999.0 -9999 -9999 -9999 -9999 -9999 -9999 -9999 -9999 -9999 -9999 -9999 -9999 -9999 -9999 -9999 -9999 -9999 -9999 -9999
-9999 -9999 -9999 -9999 -9999 -9999 -9999 -9999 -9999 -9999 -9999 3.3979272842407227 3.413048028945923 -9999 -9999 3.629749059677124 3.632996082305908 -9999 -9999 -9999
-9999 -9999 -9999 -9999 3.6080965995788574 3.5576491355895996 3.484218120574951 3.3972532749176025 3.3179023265838623 3.266195058822632 3.2526769638061523 3.302969455718994 3.3547120094299316 3.416125774383545 3.4934234619140625 3.5708820819854736 3.6068451404571533 3.624130964279175 -9999 -9999
-9999 -9999 -9999 3.682995557785034 3.6113052368164062 3.506969928741455 3.3856701850891113 3.2577192783355713 3.1502842903137207 3.082310676574707 3.0642430782318115 3.100142478942871 3.1756134033203125 3.277130603790283 3.3874623775482178 3.4853458404541016 3.558959484100342 3.6082053184509277 -9999 -9999
-9999 -9999 -9999 3.697800874710083 3.580716609954834 3.40580677986145 3.1965630054473877 2.9846510887145996 2.8193728923797607 2.7191874980926514 2.6889100074768066 2.731168508529663 2.8397867679595947 2.9928905963897705 3.1638951301574707 3.323662757873535 3.4561328887939453 3.546182870864868 -9999 -9999
-9999 -9999 3.8757166862487793 3.7423248291015625 3.53391695022583 3.246739149093628 2.8980844020843506 2.5498476028442383 2.3098559379577637 2.1778600215911865 2.1405892372131348 2.200331449508667 2.358060359954834 2.5724921226501465 2.8120477199554443 3.043607473373413 3.240560531616211 3.376812219619751 3.3999011516571045 -9999
-9999 -9999 3.915173053741455 3.7498738765716553 3.452939510345459 3.0237772464752197 2.482027769088745 1.9111380577087402 1.6115331649780273 1.4810457229614258 1.4649279117584229 1.5663719177246094 1.820361614227295 2.094050884246826 2.3786520957946777 2.6600029468536377 2.9077093601226807 3.0939736366271973 3.1876556873321533 -9999
-9999 -9999 3.98384952545166 3.759429931640625 3.3551297187805176 2.7703537940979004 1.9971630573272705 0.9436911940574646 0.6992849111557007 0.6425557136535645 0.6690675616264343 0.8072052597999573 1.3166770935058594 1.6601449251174927 1.954078197479248 2.2352213859558105 2.4962189197540283 2.707479953765869 2.828230857849121 -9999
-9999 4.241426467895508 4.05624532699585 3.7370495796203613 3.237738609313965 2.5582237243652344 1.7216978073120117 0.7216148376464844 0.46605172753334045 0.4082999527454376 0.4403282105922699 0.5827841758728027 1.0171611309051514 1.3327085971832275 1.5983645915985107 1.842978835105896 2.0724668502807617 2.2719767093658447 2.393033027648926 -9999
-9999 4.175512313842773 3.985180616378784 3.6186203956604004 3.0661568641662598 2.3577980995178223 1.54954195022583 0.6629502773284912 0.41440680623054504 0.3512052893638611 0.3772754371166229 0.5027172565460205 0.845981776714325 1.104123830795288 1.3235127925872803 1.5222371816635132 1.7060818672180176 1.8672289848327637 1.9699575901031494 -9999
-9999 3.9947335720062256 3.7872273921966553 3.3892006874084473 2.821289539337158 2.143419027328491 1.4197732210159302 0.6599708199501038 0.43431976437568665 0.3704774081707001 0.3870566487312317 0.4878159761428833 0.7544697523117065 0.9547662138938904 1.12454354763031 1.278442621231079 1.4209694862365723 1.549572467803955 1.635372519493103 -9999
-9999 3.6736559867858887 3.453874111175537 3.0456109046936035 2.5062594413757324 1.9140076637268066 1.3204669952392578 0.7085638046264648 0.5147334933280945 0.45061880350112915 0.4541718661785126 0.5253814458847046 0.7213876843452454 0.8660308122634888 0.9897034168243408 1.1045465469360352 1.2139049768447876 1.3173327445983887 1.3905143737792969 -9999
-9999 3.226064682006836 3.0052671432495117 2.61492919921875 2.152099847793579 1.690116286277771 1.2643108367919922 0.9075425267219543 0.7162981033325195 0.629561722278595 0.6112069487571716 0.6478109955787659 0.7344642877578735 0.8213291168212891 0.904954195022583 0.9877020120620728 1.0724924802780151 1.1594325304031372 1.2281248569488525 -9999
-9999 2.7130916118621826 2.507741689682007 2.1764323711395264 1.8255938291549683 1.487935185432434 1.188915729522705 0.9526647329330444 0.8043356537818909 0.7251313924789429 0.6970732808113098 0.7082141637802124 0.7479195594787598 0.7979649305343628 0.8527609705924988 0.9127510190010071 0.9814600348472595 1.0590431690216064 1.1416141986846924 -9999
-9999 2.2447872161865234 2.075699806213379 1.8247404098510742 1.5627844333648682 1.3178056478500366 1.1067506074905396 0.9430742859840393 0.8324093222618103 0.7682221531867981 0.7395653128623962 0.7380384206771851 0.7558422684669495 0.7845596075057983 0.8201326131820679 0.8627855777740479 0.9147664904594421 0.9624136686325073 -9999 -9999
-9999 1.9146124124526978 1.76633882522583 1.5654786825180054 1.3652822971343994 1.1842364072799683 1.0325276851654053 0.9157761335372925 0.8339493274688721 0.7839071750640869 0.7584741711616516 0.7519572973251343 0.7593220472335815 0.7760213017463684 0.7993736863136292 0.829076886177063 0.8673986196517944 0.9016662240028381 -9999 -9999
-9999 1.7326412200927734 1.5541870594024658 1.3828530311584473 1.2226074934005737 1.084535837173462 0.9727268815040588 0.8869227170944214 0.825770914554596 0.7870635986328125 0.7657262682914734 0.7579049468040466 0.7603031992912292 0.7701078653335571 0.7854647040367126 0.8057041168212891 0.831419050693512 0.8557441830635071 0.8542564511299133 0.8546388149261475
-9999 -9999 1.3517837524414062 1.2450063228607178 1.1215834617614746 1.0144847631454468 0.9287258982658386 0.8630976676940918 0.8161244988441467 0.7856261134147644 0.767882227897644 0.7601504921913147 0.7601619958877563 0.7659988403320312 0.7761346697807312 0.7895283699035645 0.8052361607551575 0.8208822011947632 0.8280077576637268 0.8304060101509094
-9999 -9999 1.256379246711731 1.162078857421875 1.060163140296936 0.970442533493042 0.9001364707946777 0.8467344641685486 0.8086941838264465 0.7834651470184326 0.7681820392608643 0.7608488202095032 0.7597558498382568 0.7633957266807556 0.770413339138031 0.7796728014945984 0.7899632453918457 0.7993478178977966 0.8050618767738342 0.8075659275054932
-9999 -9999 -9999 1.0967810153961182 1.026084542274475 0.9481380581855774 0.8858816027641296 0.8384341597557068 0.8047288656234741 0.7820513248443604 0.7680241465568542 0.7609590291976929 0.7594336867332458 0.7621015906333923 0.767694354057312 0.7750568389892578 0.783051609992981 0.7900989651679993 0.7948813438415527 0.7971985340118408
