ncols         20
nrows         20
xllcorner     0
yllcorner     -3.5992928
cellsize      0.17996463
NODATA_value  -9999
-9999.0 -9999 -9999 -9999 -9999 -9999 -9999 -9999 -9999 -9999 -9999 -9999 -9999 -9999 -9999 -9999 -9999 -9999 -9999 -9999
-9999 -9999 -9999 -9999 -9999 -9999 -9999 -9999 -9999 -9999 -9999 1.7707099914550781 1.7688981294631958 -9999 -9999 1.8142337799072266 1.7938950061798096 -9999 -9999 -9999
-9999 -9999 -9999 -9999 1.765793800354004 1.7792645692825317 1.8009204864501953 1.8069595098495483 1.8050942420959473 1.8083771467208862 1.7914437055587769 1.8010414838790894 1.8182379007339478 1.8325146436691284 1.834195613861084 1.8288425207138062 1.8108258247375488 1.7933945655822754 -9999 -9999
-9999 -9999 -9999 1.783991813659668 1.796074628829956 1.8095170259475708 1.823615312576294 1.8266798257827759 1.8275551795959473 1.8270022869110107 1.8334592580795288 1.8450344800949097 1.8608258962631226 1.8728097677230835 1.8861693143844604 1.8819338083267212 1.8597674369812012 1.8387086391448975 -9999 -9999
-9999 -9999 -9999 1.807906985282898 1.8244377374649048 1.852662444114685 1.8635705709457397 1.8601199388504028 1.843234896659851 1.8077166080474854 1.7670376300811768 1.7511407136917114 1.7760415077209473 1.8336657285690308 1.8924062252044678 1.917876958847046 1.913330316543579 1.9184767007827759 -9999 -9999
-9999 -9999 1.8135902881622314 1.8372083902359009 1.865708827972412 1.8877053260803223 1.8808646202087402 1.851134181022644 1.7737298011779785 1.6421087980270386 1.494786262512207 1.4202618598937988 1.4501953125 1.5871447324752808 1.757874608039856 1.8676377534866333 1.920027256011963 1.9373100996017456 1.9168341159820557 -9999
-9999 -9999 1.8372056484222412 1.8644078969955444 1.906528115272522 1.9167174100875854 1.886777639389038 1.7971733808517456 1.6238492727279663 1.3826606273651123 1.1509218215942383 1.0282211303710938 1.0510194301605225 1.2237228155136108 1.5066416263580322 1.7037904262542725 1.8475210666656494 1.9093514680862427 1.9204857349395752 -9999
-9999 -9999 1.8892914056777954 1.9217994213104248 1.9494038820266724 1.9289659261703491 1.8391268253326416 1.656753420829773 1.3942511081695557 1.101257085800171 0.8679459691047668 0.7411460876464844 0.7460318803787231 0.8832159042358398 1.1308716535568237 1.4104657173156738 1.6378802061080933 1.7851457595825195 1.841190218925476 -9999
-9999 1.9121317863464355 1.9519203901290894 1.974076509475708 1.9616913795471191 1.8697729110717773 1.6725502014160156 1.3870868682861328 1.0783542394638062 0.8119694590568542 0.6324840784072876 0.5387455821037292 0.5303903818130493 0.6188322901725769 0.8010525703430176 1.0744599103927612 1.320243000984192 1.5192054510116577 1.6150786876678467 -9999
-9999 1.9678148031234741 1.9957325458526611 1.9914488792419434 1.9007171392440796 1.6846661567687988 1.3671789169311523 1.0181727409362793 0.7271390557289124 0.5322555899620056 0.42452138662338257 0.37042415142059326 0.36557549238204956 0.4121289849281311 0.5269964337348938 0.7181652784347534 0.9405774474143982 1.1454601287841797 1.2518761157989502 -9999
-9999 2.0176613330841064 2.0142507553100586 1.9381563663482666 1.7472466230392456 1.4273699522018433 1.035485029220581 0.6774250268936157 0.43936434388160706 0.30985310673713684 0.24761386215686798 0.2213716208934784 0.2194453924894333 0.24376074969768524 0.30483993887901306 0.417466938495636 0.5714244246482849 0.7370410561561584 0.8261787295341492 -9999
-9999 1.9993548393249512 1.9524953365325928 1.7883820533752441 1.5081791877746582 1.1419168710708618 0.7518012523651123 0.4407448172569275 0.2591901421546936 0.16873712837696075 0.1289406567811966 0.11202651262283325 0.11013179272413254 0.11861312389373779 0.1438160538673401 0.19938519597053528 0.28912732005119324 0.39193570613861084 0.4487130641937256 -9999
-9999 1.8645437955856323 1.7621365785598755 1.5015455484390259 1.1810227632522583 0.8365834951400757 0.5183132290840149 0.2827425003051758 0.15152804553508759 0.0919649675488472 0.05916019529104233 0.047141414135694504 0.042817212641239166 0.04372961074113846 0.05204671621322632 0.07163361459970474 0.11765634268522263 0.17233557999134064 0.20751447975635529 -9999
-9999 1.596427321434021 1.4443002939224243 1.1246200799942017 0.8061092495918274 0.5347083806991577 0.31958046555519104 0.1708185225725174 0.08403857052326202 0.04941209405660629 0.03309960290789604 0.025496285408735275 0.02168024703860283 0.020480293780565262 0.021413296461105347 0.026307545602321625 0.037866778671741486 0.061564818024635315 0.08123792707920074 -9999
-9999 1.2969046831130981 1.1255172491073608 0.7897844910621643 0.5026142001152039 0.3083238899707794 0.17851519584655762 0.09215022623538971 0.051115524023771286 0.03217501938343048 0.02306852675974369 0.01802920550107956 0.015191175043582916 0.013849622569978237 0.01311790943145752 0.013828333467245102 0.016117149963974953 0.023436985909938812 -9999 -9999
-9999 1.083784580230713 0.9045920372009277 0.5799569487571716 0.33162614703178406 0.18174919486045837 0.09710089862346649 0.05472337454557419 0.03455677628517151 0.024125950410962105 0.01869095489382744 0.015255473554134369 0.013720504939556122 0.0158410482108593 0.017741242423653603 0.01923084631562233 0.0202226173132658 0.020908396691083908 -9999 -9999
-9999 0.9341216683387756 0.7466078400611877 0.46212393045425415 0.2439126968383789 0.11246424913406372 0.060150712728500366 0.03576460853219032 0.024509727954864502 0.01857953891158104 0.015350179746747017 0.015560081228613853 0.01807592250406742 0.020625069737434387 0.022957373410463333 0.02492246963083744 0.026569299399852753 0.0283683929592371 0.031872592866420746 0.03324143961071968
-9999 -9999 0.5835110545158386 0.38016173243522644 0.19301728904247284 0.08375318348407745 0.04249561205506325 0.025645477697253227 0.018305115401744843 0.014838027767837048 0.016881873831152916 0.01926867663860321 0.021924126893281937 0.024680955335497856 0.027179747819900513 0.029226884245872498 0.030890079215168953 0.03226780518889427 0.0335892029106617 0.03405264765024185
-9999 -9999 0.4194142818450928 0.29869309067726135 0.15528373420238495 0.06514578312635422 0.03191487118601799 0.019114745780825615 0.015610487200319767 0.01760028302669525 0.019730616360902786 0.022154023870825768 0.024860253557562828 0.02764299511909485 0.030085096135735512 0.031977999955415726 0.03337232396006584 0.03420635312795639 0.034518517553806305 0.03458186239004135
-9999 -9999 -9999 0.2488986849784851 0.13172052800655365 0.05759693682193756 0.02787746489048004 0.016728783026337624 0.0170498788356781 0.019124992191791534 0.021283147856593132 0.023679004982113838 0.02637261524796486 0.02912927232682705 0.031520601361989975 0.0332581028342247 0.03448868542909622 0.034896671772003174 0.03490488976240158 0.03483724966645241
