ncols         20
nrows         20
xllcorner     0
yllcorner     -3.5992928
cellsize      0.17996463
NODATA_value  -9999
-9999.0 -9999 -9999 -9999 -9999 -9999 -9999 -9999 -9999 -9999 -9999 -9999 -9999 -9999 -9999 -9999 -9999 -9999 -9999 -9999
-9999 -9999 -9999 -9999 -9999 -9999 -9999 -9999 -9999 -9999 -9999 0.018147384747862816 0.01815193146467209 -9999 -9999 0.018303848803043365 0.018311772495508194 -9999 -9999 -9999
-9999 -9999 -9999 -9999 0.018248308449983597 0.018209468573331833 0.018152546137571335 0.01808452233672142 0.01801999844610691 0.01797514595091343 0.017964692786335945 0.03814499080181122 0.038172900676727295 0.018022360280156136 0.01806805469095707 0.03846054896712303 0.03851049765944481 0.01817532256245613 -9999 -9999
-9999 -9999 -9999 0.018166285008192062 0.038441505283117294 0.07993302494287491 0.07965518534183502 0.07929655909538269 0.07894716411828995 0.07869073748588562 0.07859022915363312 0.09473535418510437 0.09485005587339401 0.07887542247772217 0.0790787786245346 0.09554629027843475 0.07951495051383972 0.018032744526863098 -9999 -9999
-9999 -9999 -9999 0.018045689910650253 0.07953811436891556 0.11483930051326752 0.11433509737253189 0.11368054151535034 0.11304596811532974 0.11257685720920563 0.11237367987632751 0.11246979981660843 0.11266818642616272 0.11290290951728821 0.11323448270559311 0.11357790231704712 0.07861839234828949 0.017792226746678352 -9999 -9999
-9999 -9999 0.017823420464992523 0.03778862580657005 0.09483055025339127 0.1136295273900032 0.11293116211891174 0.11203862726688385 0.11119451373815536 0.11058424413204193 0.11031260341405869 0.11038254201412201 0.11068125069141388 0.11108359694480896 0.11149993538856506 0.11180922389030457 0.09303747862577438 0.036909639835357666 0.017333121970295906 -9999
-9999 -9999 0.017671456560492516 0.07786063104867935 0.11250092089176178 0.11193259805440903 0.11089176684617996 0.10958357900381088 0.10841725766658783 0.1076122373342514 0.107284314930439 0.10742080211639404 0.10789739340543747 0.10850698500871658 0.10908345878124237 0.10949148237705231 0.10956855863332748 0.07553603500127792 0.017115045338869095 -9999
-9999 -9999 0.01743650808930397 0.07687277346849442 0.11079684644937515 0.10987736284732819 0.10838890075683594 0.10651975125074387 0.10509934276342392 0.1041790246963501 0.10378663241863251 0.10391788929700851 0.10453695058822632 0.10538601130247116 0.10616762936115265 0.1067715659737587 0.10711978375911713 0.07410416752099991 0.016796890646219254 -9999
-9999 0.01708221435546875 0.03625455126166344 0.09100056439638138 0.1088259369134903 0.10761372745037079 0.10575813055038452 0.10360731184482574 0.10199134051799774 0.1009436622262001 0.10046420991420746 0.10054066777229309 0.10113459825515747 0.10202020406723022 0.10293880850076675 0.10370948165655136 0.10423824191093445 0.07225129753351212 0.016395166516304016 -9999
-9999 0.0169199351221323 0.07446590065956116 0.10752630233764648 0.10676790773868561 0.10527604818344116 0.10313896089792252 0.10086998343467712 0.09913495928049088 0.09797950834035873 0.09740127623081207 0.09738177061080933 0.09787523746490479 0.09867094457149506 0.09960485249757767 0.10046396404504776 0.10111242532730103 0.07018301635980606 0.015944750979542732 -9999
-9999 0.016698217019438744 0.07343997806310654 0.10570577532052994 0.10466274619102478 0.10294302552938461 0.10062356293201447 0.09833995252847672 0.09654833376407623 0.0953100323677063 0.09462950378656387 0.09448809176683426 0.09484207630157471 0.09550650417804718 0.09634331613779068 0.09721735119819641 0.09794355928897858 0.06807389110326767 0.015484403818845749 -9999
-9999 0.016430353745818138 0.07218458503484726 0.1037166491150856 0.10251642018556595 0.10067635029554367 0.09832239151000977 0.09607124328613281 0.09426148235797882 0.09295769035816193 0.0921720564365387 0.09188804030418396 0.09206736087799072 0.09255795925855637 0.0932532399892807 0.09408159554004669 0.09489639848470688 0.06609874963760376 0.015054934658110142 -9999
-9999 0.0161383505910635 0.0708332434296608 0.10166266560554504 0.10038667917251587 0.09852412343025208 0.09625353664159775 0.09409196674823761 0.09228810667991638 0.09092775732278824 0.09003384411334991 0.08959037810564041 0.08955201506614685 0.08982285857200623 0.09032968431711197 0.09104664623737335 0.0920393317937851 0.06444431096315384 0.014690433628857136 -9999
-9999 0.015845876187086105 0.06949251890182495 0.09965134412050247 0.09833974391222 0.09650993347167969 0.09436757117509842 0.09229778498411179 0.0905209332704544 0.08912400901317596 0.08813244104385376 0.08752770721912384 0.08726931363344193 0.08729293942451477 0.08754297345876694 0.08798855543136597 0.07354161143302917 0.029924647882580757 0.01441238448023796 -9999
-9999 0.015577996149659157 0.06826834380626678 0.09777440130710602 0.09642834961414337 0.09465215355157852 0.09262986481189728 0.09065459668636322 0.08892634510993958 0.08751106262207031 0.08643632382154465 0.08568369597196579 0.08521879464387894 0.08499206602573395 0.08495254069566727 0.08505197614431381 0.058912940323352814 0.013401343487203121 -9999 -9999
-9999 0.015358459204435349 0.066899873316288 0.09610319137573242 0.0946677103638649 0.09295502305030823 0.09104600548744202 0.08917330950498581 0.08750257641077042 0.08608575910329819 0.08494828641414642 0.08407218754291534 0.08342758566141129 0.08297251909971237 0.08266016840934753 0.08244612067937851 0.05648733302950859 0.01279627438634634 -9999 -9999
-9999 0.015204318799078465 0.031759608536958694 0.0781654566526413 0.09296983480453491 0.0914124846458435 0.08964165300130844 0.08787762373685837 0.08627112954854965 0.084866963326931 0.08368832617998123 0.08271797001361847 0.08192942291498184 0.08128418028354645 0.08073186874389648 0.08020737022161484 0.06586246937513351 0.025849847123026848 0.01187044195830822 0.011733651161193848
-9999 -9999 0.014686670154333115 0.06378359347581863 0.09152014553546906 0.09008614718914032 0.08845742791891098 0.08680959790945053 0.0852714329957962 0.08389025926589966 0.08269044011831284 0.08165610581636429 0.08076423406600952 0.0799790769815445 0.07925066351890564 0.07849663496017456 0.07755527645349503 0.06342285871505737 0.05190688371658325 0.05154801905155182
-9999 -9999 0.01433581579476595 0.030357033014297485 0.07476349174976349 0.08898994326591492 0.08755618333816528 0.08602971583604813 0.0845564752817154 0.0832018330693245 0.08199560642242432 0.08092408627271652 0.07996857166290283 0.07909999787807465 0.07827989757061005 0.0774538442492485 0.07655931264162064 0.07558844238519669 0.07482034713029861 0.07442770153284073
-9999 -9999 -9999 0.0139807453379035 0.06144141033291817 0.08836239576339722 0.0870693102478981 0.08562219142913818 0.08419020473957062 0.08285367488861084 0.0816449299454689 0.08055665343999863 0.07957134395837784 0.07866504788398743 0.07780828326940536 0.07696729153394699 0.07611902058124542 0.07530717551708221 0.07467281818389893 0.07433417439460754
