ncols         20
nrows         20
xllcorner     0
yllcorner     -3.5992928
cellsize      0.17996463
NODATA_value  -9999
-9999.0 -9999 -9999 -9999 -9999 -9999 -9999 -9999 -9999 -9999 -9999 -9999 -9999 -9999 -9999 -9999 -9999 -9999 -9999 -9999
-9999 -9999 -9999 -9999 -9999 -9999 -9999 -9999 -9999 -9999 -9999 2.74668288230896 2.7628495693206787 -9999 -9999 3.141026735305786 3.1662445068359375 -9999 -9999 -9999
-9999 -9999 -9999 -9999 2.93198823928833 2.849038600921631 2.7336342334747314 2.6206953525543213 2.533787250518799 2.4878787994384766 2.494293689727783 2.577979326248169 2.6274831295013428 2.6657450199127197 2.776087522506714 2.9513673782348633 3.0384132862091064 3.0545501708984375 -9999 -9999
-9999 -9999 -9999 2.90438175201416 2.839932441711426 2.7052927017211914 2.5511715412139893 2.4179065227508545 2.32189679145813 2.2685959339141846 2.260786533355713 2.295999050140381 2.3492517471313477 2.424517869949341 2.5410449504852295 2.690711736679077 2.826448440551758 2.9067389965057373 -9999 -9999
-9999 -9999 -9999 2.7699596881866455 2.6361517906188965 2.4271750450134277 2.20021390914917 2.037482976913452 1.932610273361206 1.8742334842681885 1.8563220500946045 1.874010682106018 1.9211519956588745 2.000978469848633 2.124314785003662 2.2976388931274414 2.512237071990967 2.6488418579101562 -9999 -9999
-9999 -9999 2.627680540084839 2.557384967803955 2.336784839630127 2.0269033908843994 1.6629141569137573 1.4891247749328613 1.39681875705719 1.3499728441238403 1.3341888189315796 1.3433436155319214 1.3761550188064575 1.4379284381866455 1.5442301034927368 1.732079267501831 2.1063430309295654 2.3098812103271484 2.307697057723999 -9999
-9999 -9999 2.458188772201538 2.2799487113952637 1.9608054161071777 1.5537112951278687 1.3022255897521973 1.161444067955017 1.0855515003204346 1.0478135347366333 1.034607172012329 1.0405913591384888 1.0659345388412476 1.116644024848938 1.2090016603469849 1.380744218826294 1.7238692045211792 1.9738764762878418 2.086773157119751 -9999
-9999 -9999 2.2271246910095215 1.9494231939315796 1.5273536443710327 1.2450343370437622 1.064635992050171 0.9581449627876282 0.8989921808242798 0.8692859411239624 0.8588408827781677 0.8634694814682007 0.8835658431053162 0.923932671546936 0.9955171942710876 1.1187324523925781 1.323674201965332 1.6130391359329224 1.7766315937042236 -9999
-9999 2.215625524520874 2.0356013774871826 1.5812134742736816 1.2615411281585693 1.0484249591827393 0.912769079208374 0.8312788605690002 0.7849602699279785 0.7611730694770813 0.7526744604110718 0.756358802318573 0.7723869681358337 0.8039604425430298 0.857728123664856 0.9440968036651611 1.0751451253890991 1.255659580230713 1.4630239009857178 -9999
-9999 2.125807046890259 1.8854472637176514 1.3996057510375977 1.1090608835220337 0.9290534853935242 0.819115400314331 0.7532748579978943 0.7152045369148254 0.6951082944869995 0.6875807642936707 0.6902065277099609 0.7029222846031189 0.7278183102607727 0.7691852450370789 0.8336328864097595 0.9296948909759521 1.0661526918411255 1.2319530248641968 -9999
-9999 2.0094070434570312 1.7610597610473633 1.2899094820022583 1.0186963081359863 0.8578511476516724 0.7624833583831787 0.7057191729545593 0.672531008720398 0.6545971632003784 0.6474334001541138 0.6489577293395996 0.6589893102645874 0.6790481209754944 0.7123763561248779 0.7646021246910095 0.8458462953567505 0.9776206016540527 1.0783414840698242 -9999
-9999 1.8836368322372437 1.6470922231674194 1.2109217643737793 0.9604448080062866 0.8140305876731873 0.7277824878692627 0.6764527559280396 0.6462599635124207 0.6296466588973999 0.622586190700531 0.623099684715271 0.6309439539909363 0.6473764777183533 0.6749782562255859 0.7183291912078857 0.7858416438102722 0.8928161263465881 0.967182457447052 -9999
-9999 1.750349998474121 1.5337779521942139 1.1447070837020874 0.9176784753799438 0.7845909595489502 0.7053916454315186 0.6579698324203491 0.6299117207527161 0.6141626834869385 0.6072120070457458 0.6068578362464905 0.6129735112190247 0.6265720129013062 0.6497407555580139 0.6862567663192749 0.7424177527427673 0.829533576965332 0.8926636576652527 -9999
-9999 1.610654354095459 1.4174621105194092 1.0817292928695679 0.8815313577651978 0.7618789672851562 0.6895393133163452 0.6457377672195435 0.6196286082267761 0.6043288111686707 0.5969623327255249 0.5958425998687744 0.6005614995956421 0.6117866635322571 0.6311864852905273 0.6621009707450867 0.7111432552337646 0.7859371900558472 0.852872908115387 -9999
-9999 1.4756724834442139 1.304288387298584 1.0199625492095947 0.8474067449569702 0.7420229315757751 0.6771063804626465 0.6371465921401978 0.6121969223022461 0.5973601341247559 0.5898251533508301 0.5880826711654663 0.5915905833244324 0.6006345748901367 0.6163315773010254 0.6410464644432068 0.679153323173523 0.7260622978210449 -9999 -9999
-9999 1.3634448051452637 1.2055108547210693 0.9642542600631714 0.8162846565246582 0.7245535850524902 0.6670491099357605 0.6300753355026245 0.6065905094146729 0.5923045873641968 0.5847039222717285 0.5824165344238281 0.5847914814949036 0.5917795300483704 0.6038912534713745 0.6224214434623718 0.6494925618171692 0.6764070987701416 -9999 -9999
-9999 1.2913166284561157 1.1216450929641724 0.9175838828086853 0.7898604273796082 0.7102205753326416 0.6583192348480225 0.6243812441825867 0.6023994088172913 0.5887188911437988 0.5811574459075928 0.5784054398536682 0.579730212688446 0.5848210453987122 0.5937051177024841 0.6067666411399841 0.6245561838150024 0.6415993571281433 0.6391362547874451 0.6388112306594849
-9999 -9999 1.005506992340088 0.8740716576576233 0.7686782479286194 0.6985465288162231 0.6514834761619568 0.6201296448707581 0.5994603633880615 0.5863581895828247 0.5788569450378418 0.5757160782814026 0.5761508345603943 0.5796768665313721 0.5859554409980774 0.5947299003601074 0.6054273843765259 0.6160759329795837 0.620429515838623 0.6217682957649231
-9999 -9999 0.9592047333717346 0.8643888235092163 0.7595447897911072 0.6915719509124756 0.6470773220062256 0.6174159646034241 0.5976853370666504 0.5849968194961548 0.5775218605995178 0.5740940570831299 0.5738975405693054 0.5763282179832458 0.5808510780334473 0.5869489312171936 0.5938583612442017 0.6001557111740112 0.6038457751274109 0.6054162383079529
-9999 -9999 -9999 0.8290475606918335 0.7503093481063843 0.6871965527534485 0.6447134017944336 0.6160538196563721 0.5968340039253235 0.5843629240989685 0.576905369758606 0.5733176469802856 0.5727959871292114 0.5746751427650452 0.578344464302063 0.5831949710845947 0.5885096192359924 0.5932013392448425 0.59633469581604 0.5978319048881531
