ncols         20
nrows         20
xllcorner     0
yllcorner     -3.5992928
cellsize      0.17996463
NODATA_value  -9999
-9999.0 -9999 -9999 -9999 -9999 -9999 -9999 -9999 -9999 -9999 -9999 -9999 -9999 -9999 -9999 -9999 -9999 -9999 -9999 -9999
-9999 -9999 -9999 -9999 -9999 -9999 -9999 -9999 -9999 -9999 -9999 0.018542584031820297 0.01854720152914524 -9999 -9999 0.018708329647779465 0.01871677301824093 -9999 -9999 -9999
-9999 -9999 -9999 -9999 0.018695788457989693 0.01865171268582344 0.018587332218885422 0.018510449677705765 0.018436919897794724 0.018384074792265892 0.018367616459727287 0.03898945450782776 0.039017051458358765 0.01842343993484974 0.01847194693982601 0.03932161629199982 0.039374273270368576 0.01858479343354702 -9999 -9999
-9999 -9999 -9999 0.01863083243370056 0.03940754383802414 0.0819130539894104 0.08159907907247543 0.08119583874940872 0.0808015838265419 0.08050668984651566 0.0803796797990799 0.09687233716249466 0.09698671847581863 0.08066025376319885 0.08087687194347382 0.09772573411464691 0.08133319765329361 0.01844583824276924 -9999 -9999
-9999 -9999 -9999 0.01852158084511757 0.0816013440489769 0.1177622526884079 0.11719061434268951 0.11645828187465668 0.11574786901473999 0.11521580070257187 0.11497184634208679 0.11504936218261719 0.1152503564953804 0.11550325155258179 0.11585874855518341 0.11622364073991776 0.08045888692140579 0.018212297931313515 -9999 -9999
-9999 -9999 0.01833818480372429 0.0388457365334034 0.09739899635314941 0.11663419753313065 0.11584696918725967 0.11485665291547775 0.11391949653625488 0.11323454976081848 0.11291788518428802 0.11297199130058289 0.11327880620956421 0.11370636522769928 0.11415530741214752 0.11449669301509857 0.09529950469732285 0.037824973464012146 0.017772044986486435 -9999
-9999 -9999 0.01820352114737034 0.08016109466552734 0.11572867631912231 0.11505644023418427 0.1138978824019432 0.11246347427368164 0.1111786738038063 0.1102810949087143 0.10990246385335922 0.11002695560455322 0.11051784455776215 0.11116369068622589 0.11178451031446457 0.1122366189956665 0.11235462874174118 0.07748916745185852 0.017560992389917374 -9999
-9999 -9999 0.017998315393924713 0.0792827382683754 0.11418435722589493 0.11314886063337326 0.11151732504367828 0.10950587689876556 0.10796288400888443 0.10694575309753418 0.1064898818731308 0.1065891683101654 0.10719843208789825 0.10809294879436493 0.10892967134714127 0.10958654433488846 0.10997767746448517 0.0761028379201889 0.01725367270410061 -9999
-9999 0.017714442685246468 0.03754260390996933 0.09409904479980469 0.11242318898439407 0.11107030510902405 0.10904543101787567 0.10674099624156952 0.1049923449754715 0.10383767634630203 0.10328251123428345 0.10331540554761887 0.10389796644449234 0.10480561852455139 0.10578194260597229 0.10661140829324722 0.10718709230422974 0.07431306689977646 0.016866516321897507 -9999
-9999 0.01757378689944744 0.07730267941951752 0.1115003377199173 0.11060432344675064 0.1089499443769455 0.10662031173706055 0.10418704897165298 0.10230632871389389 0.101030133664608 0.10036215931177139 0.10028650611639023 0.10075969249010086 0.10156957060098648 0.10254790633916855 0.10346916317939758 0.10416913032531738 0.07232063263654709 0.016433611512184143 -9999
-9999 0.017381975427269936 0.07641173154115677 0.10991266369819641 0.10874778032302856 0.10686046630144119 0.10433418303728104 0.10187389701604843 0.0999203473329544 0.09854423254728317 0.09775691479444504 0.09754371643066406 0.09786400943994522 0.09853069484233856 0.09939947724342346 0.10033479332923889 0.10111472010612488 0.07029247283935547 0.01599198952317238 -9999
-9999 0.01715010590851307 0.07532233744859695 0.1081809401512146 0.1068691536784172 0.10486427694559097 0.10230383276939392 0.09985364973545074 0.09786137193441391 0.09639914333820343 0.09548629075288773 0.09511144459247589 0.09523985534906387 0.09571787714958191 0.09643474966287613 0.0973130390048027 0.09817667305469513 0.0683908611536026 0.015579444356262684 -9999
-9999 0.016896722838282585 0.07414906471967697 0.10639739781618118 0.10502156615257263 0.10300077497959137 0.10051816701889038 0.09814487397670746 0.09613734483718872 0.09459547698497772 0.09355102479457855 0.09299428761005402 0.09288311749696732 0.09312071651220322 0.09363027662038803 0.09438014775514603 0.09540872275829315 0.06679064780473709 0.015227900817990303 -9999
-9999 0.016641682013869286 0.07298143953084946 0.10465113073587418 0.10325731337070465 0.10128390789031982 0.09893447160720825 0.09663359075784683 0.0946303978562355 0.09302780032157898 0.09186066687107086 0.0911175012588501 0.09076053649187088 0.09072475880384445 0.09095076471567154 0.09140075743198395 0.07638872414827347 0.031070809811353683 0.0149580929428339 -9999
-9999 0.01640569046139717 0.07190311700105667 0.10300128161907196 0.10159817337989807 0.09970889240503311 0.09749320149421692 0.09526749700307846 0.09329253435134888 0.09164859354496002 0.09037326276302338 0.08945579826831818 0.08886417001485825 0.08854842185974121 0.08845449984073639 0.08852876722812653 0.061309877783060074 0.013944090344011784 -9999 -9999
-9999 0.016210535541176796 0.07062016427516937 0.10150912404060364 0.1000383123755455 0.098246268928051 0.09616928547620773 0.09403575956821442 0.09210391342639923 0.09043978154659271 0.08907924592494965 0.08801275491714478 0.08721316605806351 0.08663870394229889 0.08624085783958435 0.08597268164157867 0.05888551473617554 0.013336787931621075 -9999 -9999
-9999 0.016071932390332222 0.033600226044654846 0.0827627182006836 0.09848503023386002 0.09685992449522018 0.09495513886213303 0.09293778985738754 0.09106695652008057 0.08940445631742477 0.08798550069332123 0.08680269122123718 0.08583337068557739 0.08504025638103485 0.084372378885746 0.0837632566690445 0.06875529885292053 0.026980383321642876 0.012389587238430977 0.012246116995811462
-9999 -9999 0.015574829652905464 0.06766136735677719 0.09712658822536469 0.09562396258115768 0.09387492388486862 0.09200120717287064 0.09020764380693436 0.08856581151485443 0.08711504191160202 0.08585185557603836 0.08475847542285919 0.0838012620806694 0.08293045312166214 0.08206093311309814 0.08102405071258545 0.06623148918151855 0.05418935418128967 0.05380583554506302
-9999 -9999 0.015222317539155483 0.03224862366914749 0.07944799959659576 0.09456650912761688 0.09301628172397614 0.09128926694393158 0.08957651257514954 0.08796478062868118 0.08650326728820801 0.08519284427165985 0.08402136713266373 0.08296270668506622 0.08198007941246033 0.08101842552423477 0.08001194894313812 0.0789499431848526 0.07811702787876129 0.07769150286912918
-9999 -9999 -9999 0.014865819364786148 0.06533492356538773 0.09394749253988266 0.0925377681851387 0.09090487658977509 0.08924277871847153 0.087654247879982 0.08619026839733124 0.08485855162143707 0.08364954590797424 0.08254428207874298 0.08151591569185257 0.0805310308933258 0.07956553250551224 0.07866313308477402 0.07796621322631836 0.07759572565555573
