ncols         20
nrows         20
xllcorner     0
yllcorner     -3.5992928
cellsize      0.17996463
NODATA_value  -9999
-9999.0 -9999 -9999 -9999 -9999 -9999 -9999 -9999 -9999 -9999 -9999 -9999 -9999 -9999 -9999 -9999 -9999 -9999 -9999 -9999
-9999 -9999 -9999 -9999 -9999 -9999 -9999 -9999 -9999 -9999 -9999 0.9997469782829285 0.982314944267273 -9999 -9999 0.9064726829528809 0.8505411148071289 -9999 -9999 -9999
-9999 -9999 -9999 -9999 1.0556597709655762 1.1227556467056274 1.2413376569747925 1.3298159837722778 1.3792719841003418 1.406736135482788 1.27299165725708 1.1851533651351929 1.1853296756744385 1.189910888671875 1.0900083780288696 0.969918966293335 0.8806977272033691 0.8211153745651245 -9999 -9999
-9999 -9999 -9999 0.990706205368042 1.0680103302001953 1.157493233680725 1.2794560194015503 1.3910973072052002 1.5101667642593384 1.610280156135559 1.6769819259643555 1.6717345714569092 1.6529405117034912 1.538533091545105 1.3664206266403198 1.16512930393219 1.0051827430725098 0.9177647233009338 -9999 -9999
-9999 -9999 -9999 0.9696479439735413 1.0507338047027588 1.201910376548767 1.3700021505355835 1.5516146421432495 1.776743769645691 2.0897302627563477 2.4135935306549072 2.595257520675659 2.564850091934204 2.271969795227051 1.9150029420852661 1.5348976850509644 1.254059910774231 1.1803945302963257 -9999 -9999
-9999 -9999 0.7749043107032776 0.8983635902404785 1.0336015224456787 1.2132530212402344 1.4027305841445923 1.6203968524932861 1.9722964763641357 2.4636850357055664 3.0463457107543945 3.427398443222046 3.5249180793762207 3.175574541091919 2.5957424640655518 2.038891553878784 1.6245098114013672 1.4496841430664062 1.31197190284729 -9999
-9999 -9999 0.7520932555198669 0.844924807548523 1.0214983224868774 1.2245632410049438 1.3972986936569214 1.577880859375 1.900996446609497 2.384747266769409 2.9827167987823486 3.527803659439087 3.9263784885406494 3.8177490234375 3.3208236694335938 2.658034086227417 2.123671054840088 1.7745219469070435 1.6248009204864502 -9999
-9999 -9999 0.7582413554191589 0.8733857870101929 1.0801074504852295 1.2770506143569946 1.3958356380462646 1.3153157234191895 1.4139889478683472 1.6362614631652832 1.9309022426605225 2.3891899585723877 3.5113370418548584 3.887063503265381 3.710578680038452 3.208635091781616 2.683873176574707 2.261192798614502 2.0825002193450928 -9999
-9999 0.6531413793563843 0.7947889566421509 0.9738103747367859 1.241511344909668 1.4713059663772583 1.516727328300476 1.2569537162780762 1.2053025960922241 1.2707514762878418 1.43635892868042 1.8424263000488281 3.0191376209259033 3.6547629833221436 3.8239083290100098 3.5974061489105225 3.159701347351074 2.7579715251922607 2.5722248554229736 -9999
-9999 0.7468937039375305 0.8891753554344177 1.1774728298187256 1.5296272039413452 1.7857415676116943 1.7585768699645996 1.2972420454025269 1.1209323406219482 1.0852645635604858 1.1745432615280151 1.523458480834961 2.603196382522583 3.3248491287231445 3.687191963195801 3.7212719917297363 3.47054386138916 3.167757987976074 3.0202841758728027 -9999
-9999 0.9466137290000916 1.1168022155761719 1.4692331552505493 1.8562405109405518 2.1050608158111572 2.0064585208892822 1.3598793745040894 1.0974757671356201 1.0032035112380981 1.049365520477295 1.3410414457321167 2.32700252532959 3.012786626815796 3.441082000732422 3.6197407245635986 3.581943988800049 3.414184808731079 3.325821876525879 -9999
-9999 1.2866007089614868 1.4757663011550903 1.8757662773132324 2.257189989089966 2.4444518089294434 2.2725231647491455 1.5050761699676514 1.204544186592102 1.0747718811035156 1.0791817903518677 1.2988332509994507 2.140106201171875 2.7109603881835938 3.1112685203552246 3.365682601928711 3.463212013244629 3.4387729167938232 3.4171338081359863 -9999
-9999 1.7888834476470947 2.013211488723755 2.4440200328826904 2.740304470062256 2.8232827186584473 2.632234573364258 2.183607578277588 1.815167784690857 1.5858063697814941 1.5284466743469238 1.660921335220337 2.010928153991699 2.3452341556549072 2.6460158824920654 2.910543441772461 3.1162586212158203 3.2267839908599854 3.2614121437072754 -9999
-9999 2.3797903060913086 2.608883857727051 3.0124013423919678 3.200361728668213 3.131146192550659 2.8550994396209717 2.450146198272705 2.0706722736358643 1.8016037940979004 1.6773041486740112 1.6849253177642822 1.7901465892791748 1.9245905876159668 2.0686450004577637 2.26021409034729 2.5098989009857178 2.804445266723633 2.964202642440796 -9999
-9999 2.8220043182373047 3.005807638168335 3.331289768218994 3.3929102420806885 3.1867032051086426 2.838656425476074 2.4444100856781006 2.0829594135284424 1.8198333978652954 1.6673592329025269 1.5918755531311035 1.5677090883255005 1.5698614120483398 1.5801782608032227 1.6476119756698608 1.7845667600631714 2.072112798690796 -9999 -9999
-9999 2.9786880016326904 3.0952258110046387 3.314939498901367 3.264352560043335 2.9922752380371094 2.635854721069336 2.2688522338867188 1.9667441844940186 1.7415714263916016 1.5924972295761108 1.4817650318145752 1.3899714946746826 1.306964635848999 1.2406938076019287 1.1985312700271606 1.195188283920288 1.0942106246948242 -9999 -9999
-9999 3.0535366535186768 3.019771099090576 3.115300416946411 3.006711006164551 2.7106430530548096 2.3537566661834717 2.0265729427337646 1.77671480178833 1.5903539657592773 1.455370306968689 1.3353161811828613 1.21837317943573 1.1130110025405884 1.0129705667495728 0.9265694618225098 0.8579297065734863 0.7820957899093628 0.7246502637863159 0.6446077823638916
-9999 -9999 2.8090903759002686 2.862783908843994 2.7433338165283203 2.438450813293457 2.0842196941375732 1.7846169471740723 1.567129373550415 1.4107218980789185 1.294177532196045 1.1836365461349487 1.073038935661316 0.9481722116470337 0.8434422016143799 0.7646348476409912 0.6869566440582275 0.6300897598266602 0.5847530364990234 0.6096003651618958
-9999 -9999 2.771608591079712 2.6830220222473145 2.5316381454467773 2.2121729850769043 1.8539457321166992 1.5623191595077515 1.3589245080947876 1.2282415628433228 1.1484405994415283 1.0505716800689697 0.9421207904815674 0.8222072124481201 0.732237696647644 0.6671006083488464 0.6093868017196655 0.5741294622421265 0.6066361665725708 0.6249343156814575
-9999 -9999 -9999 2.520465612411499 2.4104995727539062 2.0992989540100098 1.740201473236084 1.4549860954284668 1.2647300958633423 1.152066707611084 1.0766730308532715 0.9998118281364441 0.8930529952049255 0.7757309675216675 0.6806538105010986 0.6334613561630249 0.5697554349899292 0.5920041799545288 0.6201269030570984 0.6356886625289917
