ncols         20
nrows         20
xllcorner     0
yllcorner     -3.5992928
cellsize      0.17996463
NODATA_value  -9999
-9999.0 -9999 -9999 -9999 -9999 -9999 -9999 -9999 -9999 -9999 -9999 -9999 -9999 -9999 -9999 -9999 -9999 -9999 -9999 -9999
-9999 -9999 -9999 -9999 -9999 -9999 -9999 -9999 -9999 -9999 -9999 0 0 -9999 -9999 0 0 -9999 -9999 -9999
-9999 -9999 -9999 -9999 0 0 0 0 0 0 0 0 0 0 0 0 0 0 -9999 -9999
-9999 -9999 -9999 0 0 0 0 0 0 0 0 0 0 0 0 0 0 0 -9999 -9999
-9999 -9999 -9999 0 0 0 0 0 0 0 0 0 0 0 0 0 0 0 -9999 -9999
-9999 -9999 0 0 0 0 2.243927240371704 1.8672165870666504 1.653740644454956 1.5108177661895752 1.4177817106246948 1.3992425203323364 1.468093991279602 1.643006682395935 1.9334588050842285 2.409860134124756 0 0 0 -9999
-9999 -9999 0 0 0 2.0658955574035645 1.5437774658203125 1.2516595125198364 1.0620782375335693 0.9209588766098022 0.822364866733551 0.7864511609077454 0.825923502445221 0.9561149477958679 1.195464015007019 1.6128727197647095 0 0 0 -9999
-9999 -9999 0 0 2.0848658084869385 1.4967199563980103 1.132810354232788 0.896621584892273 0.7296650409698486 0.6059204339981079 0.5265728235244751 0.49350035190582275 0.5142052173614502 0.5983715057373047 0.7640071511268616 1.046595573425293 1.5099295377731323 0 0 -9999
-9999 0 0 2.3014097213745117 1.601622462272644 1.157676100730896 0.8619003891944885 0.6568944454193115 0.5136222243309021 0.4178166687488556 0.3629798889160156 0.34093889594078064 0.35086482763290405 0.4011783301830292 0.5034142136573792 0.6814690828323364 0.960655152797699 1.3506994247436523 0 -9999
-9999 0 0 1.9772794246673584 1.3271028995513916 0.9240217804908752 0.6574129462242126 0.476732075214386 0.3608959913253784 0.2938004434108734 0.2608174979686737 0.24859248101711273 0.2553119957447052 0.2838701903820038 0.3452402353286743 0.45415085554122925 0.6333094239234924 0.888496994972229 0 -9999
-9999 0 0 1.7643296718597412 1.130370855331421 0.7508299350738525 0.5057157278060913 0.3480302691459656 0.2581401765346527 0.21238981187343597 0.1919330507516861 0.18579430878162384 0.19045794010162354 0.2076401710510254 0.24368347227573395 0.31091949343681335 0.4258090853691101 0 0 -9999
-9999 0 0 1.5513567924499512 0.9558085203170776 0.6115731596946716 0.39609038829803467 0.26554936170578003 0.19673007726669312 0.16356097161769867 0.14960891008377075 0.14526385068893433 0.14813975989818573 0.15785321593284607 0.17806664109230042 0.21691323816776276 0.28672900795936584 0 0 -9999
-9999 0 0 1.290277123451233 0.7741624116897583 0.4854908287525177 0.3127693235874176 0.21190296113491058 0.16035711765289307 0.13693609833717346 0.12582653760910034 0.1224292516708374 0.12365560233592987 0.12938866019248962 0.141420379281044 0.16333258152008057 0.20451252162456512 0 0 -9999
-9999 0 0 1.000413179397583 0.5873508453369141 0.36798152327537537 0.2441505342721939 0.17467819154262543 0.13842424750328064 0.12214391678571701 0.11464504897594452 0.11201754957437515 0.11268578469753265 0.1165706068277359 0.12434428185224533 0.1382361203432083 0.16303478181362152 0 0 -9999
-9999 0 0 0.7511276602745056 0.4350310266017914 0.2776801884174347 0.19458194077014923 0.14891104400157928 0.12593938410282135 0.11437647044658661 0.10878796875476837 0.10664122551679611 0.10708639025688171 0.10997679829597473 0.1156177967786789 0.12524065375328064 0.14113186299800873 0 -9999 -9999
-9999 0 0 0.5857943296432495 0.3416011929512024 0.22339145839214325 0.16483092308044434 0.13450969755649567 0.11855346709489822 0.10981951653957367 0.10531631112098694 0.10347247123718262 0.1038241758942604 0.10647525638341904 0.11107723414897919 0.11819808930158615 0.1288420557975769 0.13980132341384888 -9999 -9999
-9999 0 0 0.4830247461795807 0.2874896228313446 0.1918741911649704 0.14862501621246338 0.12604761123657227 0.11373483389616013 0.10671808570623398 0.10294803231954575 0.1016816720366478 0.1022602915763855 0.10425170511007309 0.1076715961098671 0.11269767582416534 0.11961773782968521 0.1264641433954239 0.12597064673900604 0.12607096135616302
-9999 -9999 0 0.4057919979095459 0.252879798412323 0.17524340748786926 0.13947662711143494 0.121025949716568 0.1107112467288971 0.10475227981805801 0.10200872272253036 0.10094518959522247 0.10123861581087112 0.10269815474748611 0.10519284754991531 0.1086353063583374 0.11283649504184723 0.11708156019449234 0.11899909377098083 0.11965466290712357
-9999 -9999 0 0 0.23218075931072235 0.16489124298095703 0.1339791715145111 0.11794472485780716 0.1091577559709549 0.10439462959766388 0.10169341415166855 0.10055398941040039 0.10064801573753357 0.10173969715833664 0.1036197692155838 0.10609134286642075 0.10887212306261063 0.11142139881849289 0.11296998709440231 0.11365284025669098
-9999 -9999 -9999 0 0.21848151087760925 0.1600651741027832 0.13161729276180267 0.11667409539222717 0.10890760272741318 0.10424789786338806 0.10156840831041336 0.10038453340530396 0.10037582367658615 0.10128360986709595 0.10286781936883926 0.10488995164632797 0.10707898437976837 0.10900187492370605 0.11030089855194092 0.11093053966760635
