ncols         20
nrows         20
xllcorner     0
yllcorner     -3.5992928
cellsize      0.17996463
NODATA_value  -9999
-9999.0 -9999 -9999 -9999 -9999 -9999 -9999 -9999 -9999 -9999 -9999 -9999 -9999 -9999 -9999 -9999 -9999 -9999 -9999 -9999
-9999 -9999 -9999 -9999 -9999 -9999 -9999 -9999 -9999 -9999 -9999 26.988460540771484 26.99107551574707 -9999 -9999 27.074241638183594 27.138595581054688 -9999 -9999 -9999
-9999 -9999 -9999 -9999 27.120365142822266 27.02613067626953 26.87921905517578 26.760698318481445 26.691043853759766 26.672382354736328 26.745410919189453 26.82741928100586 26.808284759521484 26.733844757080078 26.781566619873047 26.924829483032227 27.013418197631836 27.024036407470703 -9999 -9999
-9999 -9999 -9999 27.149887084960938 27.10818862915039 27.03651237487793 26.93364906311035 26.84568214416504 26.7861270904541 26.765459060668945 26.776058197021484 26.789426803588867 26.755699157714844 26.710651397705078 26.708772659301758 26.762035369873047 26.79551887512207 26.786760330200195 -9999 -9999
-9999 -9999 -9999 27.126142501831055 27.116331100463867 27.096755981445312 27.08964729309082 27.088199615478516 27.123376846313477 27.199298858642578 27.27764892578125 27.309223175048828 27.24321174621582 27.09530258178711 26.9168643951416 26.77569580078125 26.613157272338867 26.46963119506836 -9999 -9999
-9999 -9999 27.111841201782227 27.113670349121094 27.153583526611328 27.263242721557617 27.45558738708496 27.64790916442871 27.8896484375 28.171375274658203 28.422386169433594 28.543636322021484 28.46080780029297 28.17106819152832 27.738378524780273 27.24827003479004 26.73953628540039 26.37643051147461 26.17974853515625 -9999
-9999 -9999 27.020286560058594 27.094390869140625 27.240636825561523 27.51474952697754 27.880220413208008 28.32741355895996 28.83734130859375 29.364439010620117 29.791627883911133 30.001384735107422 29.926591873168945 29.547836303710938 28.89975357055664 28.145875930786133 27.343852996826172 26.730749130249023 26.416563034057617 -9999
-9999 -9999 26.798219680786133 27.001602172851562 27.336313247680664 27.78740692138672 28.406005859375 29.133817672729492 29.899946212768555 30.601137161254883 31.11590003967285 31.365501403808594 31.315814971923828 30.950349807739258 30.277536392211914 29.398202896118164 28.455913543701172 27.631481170654297 27.16325569152832 -9999
-9999 26.143808364868164 26.453413009643555 26.912975311279297 27.458850860595703 28.205137252807617 29.13153076171875 30.126325607299805 31.055015563964844 31.801801681518555 32.30171203613281 32.53658676147461 32.50456619262695 32.19660186767578 31.603092193603516 30.762317657470703 29.8532772064209 29.00482940673828 28.45761489868164 -9999
-9999 25.88875389099121 26.223705291748047 26.904216766357422 27.781496047973633 28.890159606933594 30.110057830810547 31.27304458618164 32.22734451293945 32.90967559814453 33.32810974121094 33.51095962524414 33.47794723510742 33.23899459838867 32.77981948852539 32.10222625732422 31.33616828918457 30.578569412231445 30.074752807617188 -9999
-9999 25.666704177856445 26.14350128173828 27.13249969482422 28.405534744262695 29.818696975708008 31.21492576599121 32.410438537597656 33.29191589355469 33.86783218383789 34.19214630126953 34.30935287475586 34.25450134277344 34.073463439941406 33.76096725463867 33.28799057006836 32.71598434448242 32.12013244628906 31.733135223388672 -9999
-9999 25.79063606262207 26.45522689819336 27.78667640686035 29.33538818359375 30.893444061279297 32.30110549926758 33.41307067871094 34.18486785888672 34.666622161865234 34.91868591308594 34.97703170776367 34.877376556396484 34.734130859375 34.54864501953125 34.23931884765625 33.86128616333008 33.4464111328125 33.172080993652344 -9999
-9999 26.510465621948242 27.35961151123047 28.89752960205078 30.537670135498047 32.048831939697266 33.31239318847656 34.26762771606445 34.925025939941406 35.331214904785156 35.553871154785156 35.59324264526367 35.497779846191406 35.387699127197266 35.26154327392578 35.08517837524414 34.796043395996094 34.47712326049805 34.24049377441406 -9999
-9999 27.805347442626953 28.72951889038086 30.29372787475586 31.8604736328125 33.1876106262207 34.226783752441406 34.998069763183594 35.54480743408203 35.868934631347656 36.04387664794922 36.10079574584961 36.06726837158203 36.02116012573242 35.950225830078125 35.832115173339844 35.608150482177734 35.30351257324219 34.92811965942383 -9999
-9999 29.24209976196289 30.15447998046875 31.640117645263672 33.05284881591797 34.17231750488281 35.00508499145508 35.61623764038086 36.01104736328125 36.25088119506836 36.390968322753906 36.48523712158203 36.54976272583008 36.592350006103516 36.578819274902344 36.511478424072266 36.37788772583008 36.18390655517578 -9999 -9999
-9999 30.410646438598633 31.332229614257812 32.70177459716797 33.95563888549805 34.927494049072266 35.628273010253906 36.0843620300293 36.36031723022461 36.5166015625 36.612342834472656 36.729000091552734 36.86872863769531 37.00556182861328 37.06783676147461 37.07694625854492 37.04578399658203 37.026527404785156 -9999 -9999
-9999 31.16055679321289 32.27251052856445 33.490455627441406 34.60295867919922 35.49288558959961 36.08121871948242 36.44728088378906 36.64322280883789 36.740631103515625 36.827125549316406 36.95670700073242 37.12994384765625 37.312644958496094 37.43501281738281 37.49639892578125 37.517822265625 37.55034637451172 37.686771392822266 37.754661560058594
-9999 -9999 33.357818603515625 34.159671783447266 35.07655715942383 35.867488861083984 36.408203125 36.735713958740234 36.88981628417969 36.97321701049805 37.052127838134766 37.179744720458984 37.35551071166992 37.551326751708984 37.699100494384766 37.782752990722656 37.82661819458008 37.84957504272461 37.87909698486328 37.876121520996094
-9999 -9999 33.97691345214844 34.65032196044922 35.40977096557617 36.12471008300781 36.64799499511719 36.97140121459961 37.11758041381836 37.18992233276367 37.25395584106445 37.37330627441406 37.547401428222656 37.743350982666016 37.895572662353516 37.98664474487305 38.03493881225586 38.03881072998047 38.006980895996094 37.984413146972656
-9999 -9999 -9999 35.069000244140625 35.635231018066406 36.26523208618164 36.77425765991211 37.097007751464844 37.2381591796875 37.30412673950195 37.36322021484375 37.47029113769531 37.64289474487305 37.84080505371094 38.0021858215332 38.09583282470703 38.15328598022461 38.13175582885742 38.0897331237793 38.0643424987793
