ncols         20
nrows         20
xllcorner     0
yllcorner     -3.5992928
cellsize      0.17996463
NODATA_value  -9999
-9999.0 -9999 -9999 -9999 -9999 -9999 -9999 -9999 -9999 -9999 -9999 -9999 -9999 -9999 -9999 -9999 -9999 -9999 -9999 -9999
-9999 -9999 -9999 -9999 -9999 -9999 -9999 -9999 -9999 -9999 -9999 1.027318000793457 1.010349988937378 -9999 -9999 0.9470466375350952 0.8892754316329956 -9999 -9999 -9999
-9999 -9999 -9999 -9999 1.0684312582015991 1.1367828845977783 1.2578526735305786 1.3492000102996826 1.4018584489822388 1.4330627918243408 1.3006324768066406 1.2154462337493896 1.2191698551177979 1.228183627128601 1.1297523975372314 1.0101238489151 0.9193191528320312 0.8577253818511963 -9999 -9999
-9999 -9999 -9999 1.001989483833313 1.080491304397583 1.171493411064148 1.295907735824585 1.410677433013916 1.5340392589569092 1.6393239498138428 1.7116427421569824 1.7112354040145874 1.6970720291137695 1.58506441116333 1.4131478071212769 1.2097115516662598 1.0465720891952515 0.9568468928337097 -9999 -9999
-9999 -9999 -9999 0.980370044708252 1.0624425411224365 1.2156201601028442 1.386480689048767 1.5719575881958008 1.802860140800476 2.1247096061706543 2.459200143814087 2.6502625942230225 2.625732421875 2.3330507278442383 1.9731959104537964 1.587371826171875 1.3008207082748413 1.2263237237930298 -9999 -9999
-9999 -9999 0.7830697894096375 0.9078407287597656 1.0443696975708008 1.2259365320205688 1.417970895767212 1.6394623517990112 1.9982837438583374 2.499880313873291 3.095623731613159 3.4882476329803467 3.594090223312378 3.246267318725586 2.662095069885254 2.09830379486084 1.6766464710235596 1.4987096786499023 1.3555359840393066 -9999
-9999 -9999 0.7598471641540527 0.8533572554588318 1.0311862230300903 1.2357666492462158 1.4101721048355103 1.5933934450149536 1.921550989151001 2.412853240966797 3.0199668407440186 3.5744104385375977 3.982916831970215 3.8799312114715576 3.3841183185577393 2.7178728580474854 2.178135633468628 1.8241207599639893 1.6715490818023682 -9999
-9999 -9999 0.7658107876777649 0.8814568519592285 1.0889781713485718 1.2863507270812988 1.4051405191421509 1.323403239250183 1.423160195350647 1.64719820022583 1.942936897277832 2.402827262878418 3.5411243438720703 3.9254889488220215 3.754474401473999 3.2549920082092285 2.7302918434143066 2.305798053741455 2.126140832901001 -9999
-9999 0.6598979830741882 0.8023306131362915 0.9816696643829346 1.2494428157806396 1.4780101776123047 1.5207439661026 1.257096767425537 1.2046184539794922 1.269660234451294 1.4339216947555542 1.8385413885116577 3.025238275527954 3.666323661804199 3.8401525020599365 3.6185808181762695 3.184915542602539 2.785277843475342 2.600635290145874 -9999
-9999 0.7536110281944275 0.8961578607559204 1.184377908706665 1.5346779823303223 1.7864103317260742 1.7530694007873535 1.2859060764312744 1.1086578369140625 1.0727506875991821 1.1607109308242798 1.5070189237594604 2.5912840366363525 3.31398868560791 3.67692494392395 3.713189125061035 3.466541290283203 3.167813777923584 3.022679567337036 -9999
-9999 0.9520719051361084 1.1217795610427856 1.4720118045806885 1.853606104850769 2.093761444091797 1.9855068922042847 1.332926869392395 1.0715973377227783 0.9790985584259033 1.025395393371582 1.3148818016052246 2.302905559539795 2.9873247146606445 3.412773370742798 3.58935284614563 3.5514957904815674 3.3856382369995117 3.298675060272217 -9999
-9999 1.2867929935455322 1.473649263381958 1.8674476146697998 2.238539695739746 2.413520574569702 2.2321159839630127 1.460507869720459 1.1649577617645264 1.0403213500976562 1.047437071800232 1.2666469812393188 2.1107890605926514 2.6801462173461914 3.0765109062194824 3.3261849880218506 3.4197537899017334 3.392965078353882 3.3700051307678223 -9999
-9999 1.7739930152893066 1.9928444623947144 2.4113636016845703 2.694594144821167 2.767162561416626 2.5721263885498047 2.1271185874938965 1.767817735671997 1.5475902557373047 1.4964866638183594 1.6324169635772705 1.9844446182250977 2.318000316619873 2.6154544353485107 2.8748435974121094 3.075056552886963 3.1799285411834717 3.210122585296631 -9999
-9999 2.3351707458496094 2.5557191371917725 2.943527936935425 3.1204147338867188 3.0487685203552246 2.7786762714385986 2.3857009410858154 2.0202672481536865 1.763901710510254 1.648847222328186 1.6625133752822876 1.7713353633880615 1.9069452285766602 2.049994468688965 2.2381865978240967 2.482255458831787 2.768468141555786 2.917717695236206 -9999
-9999 2.7414653301239014 2.9161863327026367 3.2267887592315674 3.28487229347229 3.0874478816986084 2.7549221515655518 2.3785226345062256 2.0347564220428467 1.7862579822540283 1.6445624828338623 1.5767359733581543 1.5576057434082031 1.5625602006912231 1.573928713798523 1.6407815217971802 1.7757562398910522 2.0594987869262695 -9999 -9999
-9999 2.870098829269409 2.9789273738861084 3.1886963844299316 3.1438326835632324 2.8889894485473633 2.553452968597412 2.2079403400421143 1.9244210720062256 1.7141481637954712 1.5762449502944946 1.4737377166748047 1.3876404762268066 1.3082208633422852 1.2439812421798706 1.2029070854187012 1.2003356218338013 1.0997759103775024 -9999 -9999
-9999 2.927008867263794 2.8888115882873535 2.981043815612793 2.8845160007476807 2.610435724258423 2.2784993648529053 1.974006175994873 1.742393970489502 1.5702178478240967 1.4458929300308228 1.3337583541870117 1.2223180532455444 1.1204769611358643 1.0225619077682495 0.937566876411438 0.8703582286834717 0.7967169880867004 0.7444934248924255 0.6646374464035034
-9999 -9999 2.6734378337860107 2.7289955615997314 2.6247856616973877 2.344895362854004 2.017728567123413 1.7408970594406128 1.5406746864318848 1.3972446918487549 1.2903480529785156 1.186934471130371 1.0812625885009766 0.9593762159347534 0.8564170598983765 0.7788659930229187 0.7020363807678223 0.6463682651519775 0.602487325668335 0.629469096660614
-9999 -9999 2.6311111450195312 2.5526034832000732 2.418513536453247 2.125950336456299 1.7957271337509155 1.5262691974639893 1.3389105796813965 1.2197153568267822 1.1483224630355835 1.0567396879196167 0.9525443911552429 0.8350831270217896 0.7466474175453186 0.682619035243988 0.6256438493728638 0.5913483500480652 0.6264779567718506 0.6462838053703308
-9999 -9999 -9999 2.3978657722473145 2.3011231422424316 2.0170106887817383 1.6861478090286255 1.4226387739181519 1.2476301193237305 1.1456940174102783 1.0782337188720703 1.0073094367980957 0.9045171737670898 0.7893978953361511 0.6955219507217407 0.6496219635009766 0.5862475037574768 0.6108360290527344 0.6411747932434082 0.6579850316047668
