ncols         20
nrows         20
xllcorner     0
yllcorner     -3.5992928
cellsize      0.17996463
NODATA_value  -9999
-9999.0 -9999 -9999 -9999 -9999 -9999 -9999 -9999 -9999 -9999 -9999 -9999 -9999 -9999 -9999 -9999 -9999 -9999 -9999 -9999
-9999 -9999 -9999 -9999 -9999 -9999 -9999 -9999 -9999 -9999 -9999 3.0598878860473633 3.0712380409240723 -9999 -9999 3.284224510192871 3.290738821029663 -9999 -9999 -9999
-9999 -9999 -9999 -9999 3.315675973892212 3.259683847427368 3.1760518550872803 3.0789883136749268 2.9903311729431152 2.92983078956604 2.9100918769836426 2.9538731575012207 2.9918272495269775 3.030377149581909 3.099778652191162 3.188084840774536 3.224297046661377 3.2270219326019287 -9999 -9999
-9999 -9999 -9999 3.3442463874816895 3.287241220474243 3.1875176429748535 3.0661158561706543 2.9370131492614746 2.82635760307312 2.752382516860962 2.7255642414093018 2.747748851776123 2.802281618118286 2.8785321712493896 2.968745708465576 3.0551939010620117 3.1182267665863037 3.1564157009124756 -9999 -9999
-9999 -9999 -9999 3.307419776916504 3.2076451778411865 3.0511269569396973 2.8611109256744385 2.666886568069458 2.51216721534729 2.4141433238983154 2.3777685165405273 2.4033262729644775 2.4831204414367676 2.5984179973602295 2.7292909622192383 2.8523621559143066 2.95249605178833 3.0169341564178467 -9999 -9999
-9999 -9999 3.3364014625549316 3.25909686088562 3.093771457672119 2.852675199508667 2.555345058441162 2.254671335220337 2.0438759326934814 1.924920916557312 1.8872034549713135 1.9304447174072266 2.052324056625366 2.2157483100891113 2.3948240280151367 2.5637567043304443 2.701475143432617 2.783874750137329 2.7519164085388184 -9999
-9999 -9999 3.302821636199951 3.179605484008789 2.944700002670288 2.59678316116333 2.1491944789886475 1.6683865785598755 1.4141591787338257 1.3027980327606201 1.2885743379592896 1.3726483583450317 1.5804017782211304 1.7963451147079468 2.0115487575531006 2.2152233123779297 2.387059450149536 2.5095815658569336 2.5618343353271484 -9999
-9999 -9999 3.261967420578003 3.093515634536743 2.781797409057617 2.320129156112671 1.6904540061950684 0.8038501739501953 0.6030759215354919 0.5598969459533691 0.5865366458892822 0.7077077627182007 1.1436474323272705 1.421107292175293 1.6489057540893555 1.8575118780136108 2.041971206665039 2.187833309173584 2.2704877853393555 -9999
-9999 3.3208391666412354 3.219167709350586 2.988986015319824 2.6154446601867676 2.093137264251709 1.4259310960769653 0.6017000675201416 0.39548686146736145 0.35337579250335693 0.386209636926651 0.5130763649940491 0.8890629410743713 1.1482797861099243 1.3558608293533325 1.5403451919555664 1.7097567319869995 1.8533096313476562 1.9416450262069702 -9999
-9999 3.2345025539398193 3.1017699241638184 2.834766149520874 2.4297709465026855 1.8983078002929688 1.2663060426712036 0.5481603145599365 0.3505719304084778 0.30517277121543884 0.3339650332927704 0.4476419985294342 0.749051034450531 0.9667937755584717 1.1400479078292847 1.2926632165908813 1.4314883947372437 1.5542148351669312 1.6347728967666626 -9999
-9999 3.0563998222351074 2.90537691116333 2.6184799671173096 2.2123942375183105 1.7151165008544922 1.1585397720336914 0.5491234064102173 0.3720017969608307 0.3268989026546478 0.34831076860427856 0.4418776035308838 0.6808549761772156 0.8543288707733154 0.9908772706985474 1.1120591163635254 1.223128318786621 1.324720025062561 1.394269585609436 -9999
-9999 2.7825207710266113 2.6251282691955566 2.3398382663726807 1.9650126695632935 1.5386762619018555 1.0885359048843384 0.6005252599716187 0.45055729150772095 0.40578266978263855 0.416500449180603 0.4851129651069641 0.6649889349937439 0.7930698990821838 0.8952360153198242 0.9879596829414368 1.0761692523956299 1.1606734991073608 1.2213454246520996 -9999
-9999 2.4365081787109375 2.2840094566345215 2.021705150604248 1.7059036493301392 1.3753325939178467 1.0588593482971191 0.7855969667434692 0.6397680044174194 0.5771437883377075 0.5700926184654236 0.6089126467704773 0.6902850866317749 0.7682832479476929 0.8388475775718689 0.9076253175735474 0.9783101677894592 1.0512324571609497 1.1083052158355713 -9999
-9999 2.072636365890503 1.9351049661636353 1.713079571723938 1.4686444997787476 1.229100227355957 1.012198805809021 0.8397722244262695 0.7309247255325317 0.6745071411132812 0.6586257815361023 0.6745548844337463 0.713667631149292 0.7595874071121216 0.807048499584198 0.8583065867424011 0.9173395037651062 0.9835759997367859 1.0490113496780396 -9999
-9999 1.7599997520446777 1.642869234085083 1.4686353206634521 1.2861987352371216 1.1134315729141235 0.9627075791358948 0.8461967706680298 0.7681736350059509 0.7235639691352844 0.7061861157417297 0.7102230787277222 0.7295350432395935 0.7569452524185181 0.7890844941139221 0.8266589045524597 0.8731837868690491 0.916042149066925 -9999 -9999
-9999 1.5414602756500244 1.4370652437210083 1.295775294303894 1.155125379562378 1.0269604921340942 0.9189892411231995 0.8365949988365173 0.7802415490150452 0.7462312579154968 0.7305128574371338 0.7293916344642639 0.7391019463539124 0.7560134530067444 0.7781063318252563 0.8056126832962036 0.8413088917732239 0.8738939762115479 -9999 -9999
-9999 1.4233843088150024 1.301660180091858 1.1795952320098877 1.064530849456787 0.9650014638900757 0.8842343091964722 0.8235974311828613 0.7818998694419861 0.7558889985084534 0.7425963282585144 0.739601731300354 0.7445423007011414 0.7552945613861084 0.7705560326576233 0.7901726961135864 0.8153810501098633 0.840630054473877 0.8447386622428894 0.8472194671630859
-9999 -9999 1.172966718673706 1.0943470001220703 1.002610445022583 0.922474205493927 0.859123706817627 0.8122816681861877 0.7802101373672485 0.7597241401672363 0.7485700845718384 0.745022177696228 0.7474889159202576 0.754567563533783 0.7651508450508118 0.7786082029342651 0.794464111328125 0.8109160661697388 0.8199477791786194 0.8233622312545776
-9999 -9999 1.1133768558502197 1.0446747541427612 0.9666123986244202 0.896375298500061 0.843174159526825 0.804645836353302 0.7783194780349731 0.7612309455871582 0.7514793872833252 0.7478083968162537 0.749011754989624 0.7539689540863037 0.7616424560546875 0.7712075710296631 0.7817631959915161 0.7916176915168762 0.798042893409729 0.8009765148162842
-9999 -9999 -9999 1.002843976020813 0.9465441703796387 0.8833122849464417 0.8353187441825867 0.8007975220680237 0.7771609425544739 0.7616535425186157 0.7526094913482666 0.7489191889762878 0.7495831251144409 0.7535740733146667 0.7598883509635925 0.7676227688789368 0.7758824229240417 0.7832202315330505 0.7883431315422058 0.7908742427825928
