ncols         20
nrows         20
xllcorner     0
yllcorner     -3.5992928
cellsize      0.17996463
NODATA_value  -9999
-9999.0 -9999 -9999 -9999 -9999 -9999 -9999 -9999 -9999 -9999 -9999 -9999 -9999 -9999 -9999 -9999 -9999 -9999 -9999 -9999
-9999 -9999 -9999 -9999 -9999 -9999 -9999 -9999 -9999 -9999 -9999 11.868501663208008 11.840431213378906 -9999 -9999 11.849042892456055 11.691934585571289 -9999 -9999 -9999
-9999 -9999 -9999 -9999 11.814981460571289 11.960661888122559 12.194317817687988 12.31229019165039 12.341636657714844 12.357158660888672 12.170610427856445 12.13176155090332 12.202925682067871 12.267337799072266 12.184808731079102 12.016145706176758 11.841386795043945 11.731035232543945 -9999 -9999
-9999 -9999 -9999 11.85669994354248 11.969106674194336 12.099149703979492 12.25823974609375 12.324786186218262 12.357806205749512 12.356679916381836 12.373583793640137 12.40803337097168 12.489195823669434 12.530043601989746 12.529245376586914 12.400328636169434 12.207590103149414 12.083231925964355 -9999 -9999
-9999 -9999 -9999 11.995452880859375 12.103858947753906 12.2979154586792 12.361462593078613 12.269306182861328 12.112104415893555 11.928449630737305 11.751140594482422 11.702570915222168 11.871045112609863 12.197610855102539 12.517343521118164 12.649714469909668 12.60232925415039 12.670051574707031 -9999 -9999
-9999 -9999 11.990230560302734 12.159646987915039 12.328754425048828 12.399149894714355 12.137883186340332 11.568070411682129 10.980984687805176 10.333881378173828 9.67879581451416 9.412331581115723 9.704080581665039 10.530740737915039 11.492025375366211 12.200164794921875 12.560734748840332 12.734206199645996 12.6334228515625 -9999
-9999 -9999 12.189224243164062 12.35042953491211 12.560148239135742 12.352714538574219 11.408211708068848 9.789139747619629 8.592909812927246 7.547310829162598 6.675365924835205 6.354062557220459 6.8422722816467285 7.951395511627197 9.406221389770508 10.806334495544434 11.750049591064453 12.239645957946777 12.41118335723877 -9999
-9999 -9999 12.641200065612793 12.832647323608398 12.867173194885254 12.106520652770996 10.073846817016602 6.088481903076172 4.719969749450684 3.937645435333252 3.4581923484802246 3.408430576324463 4.446644306182861 5.546261787414551 6.9971771240234375 8.632145881652832 10.023900985717773 10.972225189208984 11.390941619873047 -9999
-9999 12.953275680541992 13.194870948791504 13.33974552154541 13.033193588256836 11.66627311706543 8.932233810424805 4.741884708404541 3.240142345428467 2.5372631549835205 2.21943998336792 2.2496204376220703 2.950551986694336 3.7118992805480957 4.762282848358154 6.1605329513549805 7.659683704376221 8.842376708984375 9.422595977783203 -9999
-9999 13.389869689941406 13.563173294067383 13.542350769042969 12.663103103637695 10.611557006835938 7.501213550567627 3.72393798828125 2.322219133377075 1.7230525016784668 1.5041757822036743 1.5313249826431274 1.9435672760009766 2.359553337097168 2.9967164993286133 3.9343338012695312 5.156065464019775 6.25339937210083 6.823726654052734 -9999
-9999 13.739083290100098 13.668249130249023 13.105585098266602 11.567440032958984 9.057496070861816 5.924895763397217 2.7745845317840576 1.5964123010635376 1.1137888431549072 0.9383968710899353 0.9383730888366699 1.1338918209075928 1.3371034860610962 1.6597636938095093 2.2055575847625732 2.9581663608551025 3.762861490249634 4.1999430656433105 -9999
-9999 13.433356285095215 13.011147499084473 11.803749084472656 9.775166511535645 7.191830635070801 4.421343803405762 2.013190507888794 1.0747427940368652 0.6792347431182861 0.5285419225692749 0.490608274936676 0.5551819801330566 0.621300458908081 0.7438099384307861 0.9959685802459717 1.405710220336914 1.8715239763259888 2.1306989192962646 -9999
-9999 12.02148723602295 11.236091613769531 9.492087364196777 7.366466522216797 5.127447605133057 3.0672240257263184 1.5265824794769287 0.760780930519104 0.4405902028083801 0.29205062985420227 0.23637095093727112 0.22064487636089325 0.2237926870584488 0.2575882375240326 0.33828964829444885 0.5282812118530273 0.7622198462486267 0.9173362255096436 -9999
-9999 9.611699104309082 8.61262321472168 6.674129962921143 4.746854305267334 3.1103127002716064 1.817085862159729 0.9303398132324219 0.44804462790489197 0.24933519959449768 0.15874338150024414 0.11599509418010712 0.09431079030036926 0.0851275622844696 0.0858858972787857 0.10342997312545776 0.1490100771188736 0.24675221741199493 0.3385302722454071 -9999
-9999 7.155636787414551 6.151313781738281 4.3017988204956055 2.7206311225891113 1.6470366716384888 0.9334341287612915 0.4729023873806 0.2483753263950348 0.14257510006427765 0.09150874614715576 0.06353792548179626 0.04791918396949768 0.039694566279649734 0.03556240350008011 0.03716835752129555 0.044640008360147476 0.06832189857959747 -9999 -9999
-9999 5.4575676918029785 4.480877876281738 2.8442680835723877 1.6060112714767456 0.8633520603179932 0.45154815912246704 0.24103501439094543 0.13871608674526215 0.08534983545541763 0.057248618453741074 0.0402262806892395 0.03201534226536751 0.03475124016404152 0.038187235593795776 0.041839029639959335 0.04532264545559883 0.04822505638003349 -9999 -9999
-9999 4.40082311630249 3.360827684402466 2.027442455291748 1.0424537658691406 0.46678856015205383 0.23592287302017212 0.12775252759456635 0.07724087685346603 0.05053553730249405 0.03582370653748512 0.03250472992658615 0.035524968057870865 0.03967719152569771 0.044627606868743896 0.050061341375112534 0.0559677891433239 0.06315434724092484 0.07497625797986984 0.08056486397981644
-9999 -9999 2.337209701538086 1.4877129793167114 0.7276195287704468 0.30005306005477905 0.13894374668598175 0.07370065152645111 0.045150890946388245 0.031445227563381195 0.03249995782971382 0.03519783914089203 0.039378196001052856 0.04479006305336952 0.05101067200303078 0.05766493082046509 0.06459019333124161 0.07170387357473373 0.07880456000566483 0.0825277715921402
-9999 -9999 1.5579205751419067 1.0614374876022339 0.5258229970932007 0.20564617216587067 0.08937423676252365 0.04552488029003143 0.031736988574266434 0.03216824680566788 0.03411513566970825 0.037645455449819565 0.042686451226472855 0.04898832365870476 0.05603541433811188 0.06333403289318085 0.07048064470291138 0.07686420530080795 0.08178262412548065 0.08438777923583984
-9999 -9999 -9999 0.8139756321907043 0.41611242294311523 0.1685325801372528 0.0715116336941719 0.03590604290366173 0.03175671771168709 0.03270567208528519 0.035105232149362564 0.039043813943862915 0.04452946409583092 0.05129034444689751 0.05876435339450836 0.06630181521177292 0.07345268875360489 0.07923620194196701 0.08334635198116302 0.085479237139225
