ncols         20
nrows         20
xllcorner     0
yllcorner     -3.5992928
cellsize      0.17996463
NODATA_value  -9999
-9999.0 -9999 -9999 -9999 -9999 -9999 -9999 -9999 -9999 -9999 -9999 -9999 -9999 -9999 -9999 -9999 -9999 -9999 -9999 -9999
-9999 -9999 -9999 -9999 -9999 -9999 -9999 -9999 -9999 -9999 -9999 2.3551254272460938 2.3499412536621094 -9999 -9999 2.4304659366607666 2.405029535293579 -9999 -9999 -9999
-9999 -9999 -9999 -9999 2.480804681777954 2.4910006523132324 2.5039479732513428 2.4858078956604004 2.451145887374878 2.423037052154541 2.373553991317749 2.374431848526001 2.3887362480163574 2.3984498977661133 2.4087624549865723 2.4228124618530273 2.406601667404175 2.3802826404571533 -9999 -9999
-9999 -9999 -9999 2.5172970294952393 2.5273923873901367 2.5332369804382324 2.5291318893432617 2.497108221054077 2.4561352729797363 2.412510633468628 2.3836655616760254 2.3751943111419678 2.3848636150360107 2.4008965492248535 2.4313924312591553 2.4471232891082764 2.4317288398742676 2.40874981880188 -9999 -9999
-9999 -9999 -9999 2.551842212677002 2.567451000213623 2.5875000953674316 2.5627400875091553 2.494100570678711 2.4060256481170654 2.308462142944336 2.215907335281372 2.164104700088501 2.1766159534454346 2.247074842453003 2.34250807762146 2.4113223552703857 2.4282374382019043 2.444246768951416 -9999 -9999
-9999 -9999 2.560389757156372 2.591660261154175 2.6196558475494385 2.6140215396881104 2.5245537757873535 2.357106924057007 2.185147523880005 2.000868320465088 1.813563346862793 1.7067291736602783 1.7228033542633057 1.859336256980896 2.0567123889923096 2.224821090698242 2.3204047679901123 2.351864814758301 2.296825885772705 -9999
-9999 -9999 2.5880324840545654 2.6227614879608154 2.659935474395752 2.597580909729004 2.366011381149292 1.962415337562561 1.6932158470153809 1.4454572200775146 1.2252997159957886 1.120669960975647 1.1895184516906738 1.3764100074768066 1.6365939378738403 1.8902970552444458 2.082335948944092 2.1767842769622803 2.197521686553955 -9999
-9999 -9999 2.6467809677124023 2.6886115074157715 2.6893417835235596 2.515033006668091 2.038986921310425 0.9020746350288391 0.6621034145355225 0.5551566481590271 0.4908687472343445 0.49622175097465515 0.7432450652122498 0.9419702291488647 1.1945509910583496 1.482830286026001 1.7262178659439087 1.8825582265853882 1.9505033493041992 -9999
-9999 2.628469228744507 2.698108673095703 2.728924512863159 2.6573240756988525 2.3741209506988525 1.7985405921936035 0.6750619411468506 0.4148760735988617 0.3269815444946289 0.29730701446533203 0.3225717842578888 0.48922476172447205 0.6222352981567383 0.7936707735061646 1.0308111906051636 1.2918763160705566 1.4939204454421997 1.5872162580490112 -9999
-9999 2.654611825942993 2.691412925720215 2.6748950481414795 2.485832691192627 2.0865261554718018 1.484692931175232 0.5470459461212158 0.3115759789943695 0.23490719497203827 0.21560433506965637 0.23427921533584595 0.3281429409980774 0.3934531509876251 0.4864230453968048 0.6332060098648071 0.8368371725082397 1.0232417583465576 1.1177449226379395 -9999
-9999 2.6147916316986084 2.594721794128418 2.4677627086639404 2.163271427154541 1.7242155075073242 1.1446706056594849 0.4297582507133484 0.23860549926757812 0.17391088604927063 0.1546015739440918 0.16049323976039886 0.19903284311294556 0.22399841248989105 0.2632347345352173 0.3394971191883087 0.45398157835006714 0.581246018409729 0.6500047445297241 -9999
-9999 2.4220540523529053 2.335653781890869 2.095663547515869 1.7316737174987793 1.3191654682159424 0.8293763399124146 0.33330777287483215 0.18312786519527435 0.12475079298019409 0.1024351492524147 0.09583598375320435 0.10309328138828278 0.10606551915407181 0.1166076585650444 0.1475093513727188 0.2040221244096756 0.27023983001708984 0.3065667450428009 -9999
-9999 2.0374884605407715 1.8938440084457397 1.5880521535873413 1.2520043849945068 0.9001981616020203 0.5570464730262756 0.27993255853652954 0.1463935524225235 0.09073297679424286 0.06192050129175186 0.04929639399051666 0.04246640205383301 0.038430601358413696 0.039336010813713074 0.04760786145925522 0.07417287677526474 0.10463456809520721 0.12354417145252228 -9999
-9999 1.5513919591903687 1.3914519548416138 1.073311686515808 0.7687798738479614 0.5171831846237183 0.3151247501373291 0.16919031739234924 0.0859445184469223 0.05231437832117081 0.03579306975007057 0.026749908924102783 0.020895015448331833 0.01731773279607296 0.01563885807991028 0.01674201898276806 0.021796196699142456 0.032924164086580276 0.04112447798252106 -9999
-9999 1.1401586532592773 0.9744352102279663 0.669493556022644 0.4210428297519684 0.26066944003105164 0.15471521019935608 0.0821337178349495 0.047649212181568146 0.03123680129647255 0.02270267717540264 0.017216874286532402 0.013548415154218674 0.011336348950862885 0.009917818941175938 0.009746307507157326 0.010628247633576393 0.014574650675058365 -9999 -9999
-9999 0.8673361539840698 0.7048937678337097 0.43599143624305725 0.2430545538663864 0.13265401124954224 0.07132500410079956 0.041815828531980515 0.02798653580248356 0.02063005417585373 0.016442302614450455 0.013324808329343796 0.01161681767553091 0.012948759831488132 0.014065123163163662 0.014872586354613304 0.015397736802697182 0.015914354473352432 -9999 -9999
-9999 0.698296308517456 0.5286333560943604 0.3117203116416931 0.15815305709838867 0.0698685348033905 0.037672556936740875 0.023653049021959305 0.017561711370944977 0.014379794709384441 0.01251501776278019 0.012999194674193859 0.015160053968429565 0.01720036007463932 0.019043654203414917 0.02063852548599243 0.022134769707918167 0.024134861305356026 0.02838444709777832 0.03014214336872101
-9999 -9999 0.36906200647354126 0.2320634126663208 0.11290670931339264 0.04617229104042053 0.023668503388762474 0.015403253957629204 0.012234478257596493 0.010981873609125614 0.01339278370141983 0.015947571024298668 0.018556680530309677 0.021122118458151817 0.023436477407813072 0.02539515681564808 0.02711772546172142 0.028743358328938484 0.030467892065644264 0.03116467222571373
-9999 -9999 0.24594776332378387 0.16784346103668213 0.08336371928453445 0.03301752358675003 0.016558848321437836 0.011002271436154842 0.01026635617017746 0.012870470993220806 0.015571090392768383 0.01839127577841282 0.021292302757501602 0.02414516918361187 0.026646392419934273 0.028642546385526657 0.030194448307156563 0.03122575208544731 0.03173109143972397 0.03189991042017937
-9999 -9999 -9999 0.1303543746471405 0.0651971697807312 0.027690446004271507 0.014008896425366402 0.009565305896103382 0.011178494431078434 0.013964020647108555 0.016811061650514603 0.019733663648366928 0.02275724522769451 0.025723500177264214 0.028294846415519714 0.0302196703851223 0.03163038566708565 0.03218207135796547 0.032285723835229874 0.032263536006212234
