ncols         20
nrows         20
xllcorner     0
yllcorner     -3.5992928
cellsize      0.17996463
NODATA_value  -9999
-9999.0 -9999 -9999 -9999 -9999 -9999 -9999 -9999 -9999 -9999 -9999 -9999 -9999 -9999 -9999 -9999 -9999 -9999 -9999 -9999
-9999 -9999 -9999 -9999 -9999 -9999 -9999 -9999 -9999 -9999 -9999 13.188002586364746 13.194268226623535 -9999 -9999 13.048824310302734 13.123156547546387 -9999 -9999 -9999
-9999 -9999 -9999 -9999 13.089862823486328 13.052688598632812 12.981379508972168 12.96397590637207 12.978865623474121 12.988487243652344 13.092279434204102 13.083120346069336 13.025175094604492 12.976987838745117 12.98971176147461 13.014647483825684 13.07381820678711 13.125439643859863 -9999 -9999
-9999 -9999 -9999 13.034188270568848 13.022566795349121 13.020633697509766 13.018949508666992 13.031509399414062 13.027556419372559 13.014935493469238 12.986391067504883 12.941882133483887 12.886401176452637 12.869826316833496 12.860392570495605 12.878554344177246 12.914397239685059 12.945442199707031 -9999 -9999
-9999 -9999 -9999 12.994917869567871 13.019978523254395 13.063067436218262 13.182367324829102 13.252843856811523 13.276538848876953 13.272465705871582 13.25914192199707 13.232913970947266 13.174918174743652 13.104063987731934 13.008428573608398 12.911195755004883 12.767498970031738 12.626935958862305 -9999 -9999
-9999 -9999 12.947291374206543 12.967595100402832 13.072471618652344 13.316266059875488 13.732421875 13.910690307617188 14.001017570495605 14.107878684997559 14.232193946838379 14.2975435256958 14.242849349975586 14.06550407409668 13.808238983154297 13.468206405639648 12.87138557434082 12.533370018005371 12.460843086242676 -9999
-9999 -9999 12.901744842529297 13.012288093566895 13.25360107421875 13.722906112670898 14.065715789794922 14.294262886047363 14.521381378173828 14.800113677978516 15.066893577575684 15.212309837341309 15.175586700439453 14.940000534057617 14.529529571533203 13.996675491333008 13.215411186218262 12.700037956237793 12.474992752075195 -9999
-9999 -9999 12.735896110534668 13.028828620910645 13.525643348693848 13.917543411254883 14.247337341308594 14.59084701538086 14.977995872497559 15.374483108520508 15.68998908996582 15.861115455627441 15.851308822631836 15.646397590637207 15.247589111328125 14.686027526855469 13.988912582397461 13.231940269470215 12.822931289672852 -9999
-9999 12.192190170288086 12.421305656433105 13.111671447753906 13.591193199157715 14.013360023498535 14.480416297912598 14.992091178894043 15.48949909210205 15.901485443115234 16.18018913269043 16.32572364807129 16.335975646972656 16.192981719970703 15.882708549499512 15.389738082885742 14.79863452911377 14.150045394897461 13.593151092529297 -9999
-9999 11.902864456176758 12.113924980163574 12.975034713745117 13.612879753112793 14.241339683532715 14.908978462219238 15.550515174865723 16.063579559326172 16.407726287841797 16.60321807861328 16.699338912963867 16.707073211669922 16.62321662902832 16.41461181640625 16.048460006713867 15.574103355407715 15.022479057312012 14.55406379699707 -9999
-9999 11.549422264099121 11.815518379211426 12.908038139343262 13.789495468139648 14.623310089111328 15.434195518493652 16.121667861938477 16.582786560058594 16.842021942138672 16.96768569946289 17.016395568847656 17.009593963623047 16.96208381652832 16.850141525268555 16.622278213500977 16.287212371826172 15.844230651855469 15.556304931640625 -9999
-9999 11.371317863464355 11.781468391418457 13.096473693847656 14.168299674987793 15.101402282714844 15.932279586791992 16.569252014160156 16.9547119140625 17.153657913208008 17.235652923583984 17.253395080566406 17.21087646484375 17.186912536621094 17.163509368896484 17.042268753051758 16.866058349609375 16.603872299194336 16.449838638305664 -9999
-9999 11.586132049560547 12.22655200958252 13.67156982421875 14.78497314453125 15.668258666992188 16.381765365600586 16.897613525390625 17.19976806640625 17.34507942199707 17.41053009033203 17.419294357299805 17.379844665527344 17.367881774902344 17.363882064819336 17.352703094482422 17.262798309326172 17.1228084564209 17.051429748535156 -9999
-9999 12.386940956115723 13.13808822631836 14.542671203613281 15.570075035095215 16.285043716430664 16.797607421875 17.14603042602539 17.353378295898438 17.451276779174805 17.494709014892578 17.506603240966797 17.490577697753906 17.497661590576172 17.515113830566406 17.53592872619629 17.502187728881836 17.40842056274414 17.394742965698242 -9999
-9999 13.39108943939209 14.105589866638184 15.37930965423584 16.26970863342285 16.800907135009766 17.12521743774414 17.33043670654297 17.441959381103516 17.497379302978516 17.520038604736328 17.539321899414062 17.558446884155273 17.58448600769043 17.60362434387207 17.626331329345703 17.634916305541992 17.561767578125 -9999 -9999
-9999 14.128396034240723 14.804828643798828 15.941949844360352 16.705278396606445 17.12255096435547 17.33138084411621 17.43988037109375 17.488101959228516 17.50458526611328 17.498003005981445 17.516014099121094 17.552112579345703 17.60226058959961 17.63031578063965 17.66538429260254 17.699501037597656 17.74555015563965 -9999 -9999
-9999 14.621992111206055 15.321657180786133 16.2812557220459 16.943706512451172 17.306442260742188 17.44886589050293 17.508346557617188 17.5194149017334 17.507055282592773 17.50406837463379 17.5203857421875 17.554582595825195 17.60312271118164 17.640832901000977 17.676647186279297 17.70737075805664 17.72760581970215 17.68609046936035 17.69841957092285
-9999 -9999 15.892086029052734 16.534439086914062 17.089202880859375 17.398324966430664 17.518083572387695 17.554555892944336 17.54204559326172 17.53232765197754 17.526216506958008 17.53758430480957 17.56224822998047 17.60295867919922 17.636592864990234 17.662912368774414 17.69098663330078 17.708629608154297 17.708534240722656 17.689088821411133
-9999 -9999 16.37567901611328 16.767105102539062 17.1992130279541 17.466018676757812 17.573196411132812 17.60289764404297 17.58563232421875 17.569311141967773 17.554914474487305 17.562685012817383 17.583906173706055 17.616273880004883 17.638797760009766 17.65500259399414 17.674400329589844 17.68425941467285 17.664770126342773 17.65289306640625
-9999 -9999 -9999 16.92504119873047 17.257144927978516 17.491254806518555 17.59490203857422 17.622180938720703 17.59895896911621 17.579992294311523 17.56685447692871 17.56614875793457 17.586034774780273 17.615686416625977 17.638742446899414 17.64573860168457 17.667219161987305 17.653963088989258 17.63943862915039 17.632516860961914
