ncols         20
nrows         20
xllcorner     0
yllcorner     -3.5992928
cellsize      0.17996463
NODATA_value  -9999
-9999.0 -9999 -9999 -9999 -9999 -9999 -9999 -9999 -9999 -9999 -9999 -9999 -9999 -9999 -9999 -9999 -9999 -9999 -9999 -9999
-9999 -9999 -9999 -9999 -9999 -9999 -9999 -9999 -9999 -9999 -9999 26.50057601928711 26.50174331665039 -9999 -9999 26.657135009765625 26.738933563232422 -9999 -9999 -9999
-9999 -9999 -9999 -9999 26.670595169067383 26.546579360961914 26.366073608398438 26.22569465637207 26.143321990966797 26.115211486816406 26.185588836669922 26.277748107910156 26.249000549316406 26.153472900390625 26.225921630859375 26.437740325927734 26.576797485351562 26.614971160888672 -9999 -9999
-9999 -9999 -9999 26.700456619262695 26.62847137451172 26.510780334472656 26.37250328063965 26.276290893554688 26.21308135986328 26.17603302001953 26.160511016845703 26.14015769958496 26.068496704101562 26.00441551208496 26.030282974243164 26.15565299987793 26.279008865356445 26.33155059814453 -9999 -9999
-9999 -9999 -9999 26.6295223236084 26.563434600830078 26.48184585571289 26.455217361450195 26.502988815307617 26.564123153686523 26.60083770751953 26.601051330566406 26.52349281311035 26.344602584838867 26.139747619628906 25.998498916625977 25.962249755859375 25.966909408569336 25.942419052124023 -9999 -9999
-9999 -9999 26.603670120239258 26.54459571838379 26.48990821838379 26.546480178833008 26.81239128112793 27.243967056274414 27.62787628173828 27.903911590576172 28.05805206298828 27.94548988342285 27.53119659423828 26.98554039001465 26.503442764282227 26.144298553466797 25.925989151000977 25.790016174316406 25.719263076782227 -9999
-9999 -9999 26.441682815551758 26.403995513916016 26.436141967773438 26.76856803894043 27.585447311401367 28.852066040039062 29.859704971313477 30.466205596923828 30.672344207763672 30.381027221679688 29.57172966003418 28.606342315673828 27.663124084472656 26.879297256469727 26.349407196044922 26.0340633392334 25.887075424194336 -9999
-9999 -9999 26.13710594177246 26.15300941467285 26.378150939941406 27.150615692138672 28.804805755615234 31.4755859375 32.97417068481445 33.639305114746094 33.70991134643555 33.135169982910156 31.76910400390625 30.43836784362793 29.224454879760742 28.148962020874023 27.28824234008789 26.729530334472656 26.461576461791992 -9999
-9999 25.747608184814453 25.803396224975586 25.91910743713379 26.401535034179688 27.620389938354492 29.939434051513672 33.094173431396484 34.82292175292969 35.530029296875 35.5468635559082 34.875526428222656 33.408058166503906 31.9920654296875 30.734304428100586 29.610549926757812 28.646121978759766 27.935075759887695 27.56203269958496 -9999
-9999 25.557870864868164 25.615982055664062 25.881744384765625 26.678136825561523 28.297332763671875 30.967187881469727 34.086734771728516 35.8085823059082 36.512115478515625 36.524288177490234 35.87499237060547 34.4870491027832 33.13932800292969 31.961999893188477 30.932395935058594 30.042036056518555 29.35725975036621 28.980558395385742 -9999
-9999 25.456321716308594 25.635786056518555 26.165470123291016 27.300928115844727 29.221622467041016 31.87643051147461 34.69907760620117 36.27508544921875 36.93757629394531 36.96991729736328 36.397560119628906 35.141239166259766 33.92131805419922 32.865501403808594 31.96156883239746 31.200149536132812 30.620403289794922 30.295488357543945 -9999
-9999 25.704648971557617 26.04850196838379 26.855785369873047 28.235597610473633 30.194129943847656 32.540157318115234 34.895931243896484 36.255836486816406 36.87263107299805 36.95426940917969 36.51474380493164 35.47467803955078 34.45694351196289 33.55409240722656 32.75743103027344 32.078224182128906 31.567352294921875 31.27577781677246 -9999
-9999 26.44849967956543 26.934654235839844 27.943099975585938 29.371986389160156 31.072296142578125 32.88494873046875 34.56269454956055 35.686920166015625 36.28412628173828 36.45295715332031 36.21156311035156 35.607933044433594 34.91629409790039 34.22011184692383 33.53475570678711 32.876399993896484 32.347084045410156 31.995826721191406 -9999
-9999 27.616724014282227 28.181848526000977 29.205455780029297 30.464126586914062 31.80813217163086 33.14488220214844 34.358272552490234 35.278846740722656 35.832984924316406 36.071407318115234 36.03336715698242 35.774574279785156 35.40134811401367 34.95552062988281 34.426719665527344 33.838218688964844 33.243019104003906 32.57308578491211 -9999
-9999 28.862186431884766 29.39920997619629 30.29448127746582 31.322097778320312 32.3769416809082 33.40959930419922 34.36201858520508 35.10520935058594 35.61795425415039 35.91537094116211 36.03968048095703 36.027610778808594 35.916969299316406 35.72141647338867 35.417625427246094 35.03342056274414 34.6516227722168 -9999 -9999
-9999 29.827905654907227 30.337787628173828 31.08721160888672 31.93499755859375 32.832618713378906 33.72241973876953 34.509422302246094 35.14585876464844 35.62110900878906 35.949485778808594 36.174049377441406 36.31938552856445 36.393157958984375 36.388912200927734 36.302085876464844 36.170555114746094 36.117103576660156 -9999 -9999
-9999 30.391878128051758 31.01287078857422 31.64932632446289 32.39113998413086 33.23944854736328 34.052642822265625 34.77613830566406 35.36050033569336 35.80802917480469 36.1424560546875 36.41281509399414 36.63733673095703 36.809791564941406 36.919029235839844 36.96234893798828 36.97695541381836 37.05817794799805 37.37137985229492 37.50408172607422
-9999 -9999 31.690584182739258 32.106590270996094 32.747344970703125 33.56284713745117 34.38132095336914 35.104217529296875 35.67204284667969 36.096317291259766 36.41635513305664 36.693641662597656 36.945735931396484 37.170589447021484 37.33158874511719 37.42329788208008 37.482391357421875 37.540504455566406 37.63005065917969 37.655723571777344
-9999 -9999 32.01472473144531 32.41774368286133 33.008949279785156 33.82252502441406 34.67661666870117 35.42205047607422 35.98781204223633 36.38774490356445 36.67786407470703 36.944091796875 37.20363235473633 37.444637298583984 37.62065124511719 37.72650909423828 37.789894104003906 37.81279373168945 37.80148696899414 37.79019546508789
-9999 -9999 -9999 32.69268035888672 33.187557220458984 33.97032928466797 34.841697692871094 35.59872817993164 36.15926742553711 36.54304885864258 36.82045364379883 37.0703239440918 37.33081817626953 37.57923126220703 37.76839828491211 37.87784194946289 37.94855499267578 37.9371452331543 37.904197692871094 37.88404846191406
