ncols         20
nrows         20
xllcorner     0
yllcorner     -3.5992928
cellsize      0.17996463
NODATA_value  -9999
-9999.0 -9999 -9999 -9999 -9999 -9999 -9999 -9999 -9999 -9999 -9999 -9999 -9999 -9999 -9999 -9999 -9999 -9999 -9999 -9999
-9999 -9999 -9999 -9999 -9999 -9999 -9999 -9999 -9999 -9999 -9999 0 0 -9999 -9999 0 0 -9999 -9999 -9999
-9999 -9999 -9999 -9999 0 0 0 0 0 0 0 0 0 0 0 0 0 0 -9999 -9999
-9999 -9999 -9999 0 0 0 0 0 0 0 0 0 0 0 0 0 0 0 -9999 -9999
-9999 -9999 -9999 0 0 0 0 0 0 0 0 0 0 0 0 0 0 0 -9999 -9999
-9999 -9999 0 0 0 0 0 0 0 0 0 0 0 0 0 0 0 0 0 -9999
-9999 -9999 0 0 0 0 0 0 0 0 0 0 0 0 0 0 0 0 0 -9999
-9999 -9999 0 0 0 0 0 20.178144454956055 15.658851623535156 13.069428443908691 11.483691215515137 11.312438011169434 0 0 0 0 0 0 0 -9999
-9999 0 0 0 0 0 0 15.940218925476074 10.935697555541992 8.589081764221191 7.526926040649414 7.621880531311035 0 0 0 0 0 0 0 -9999
-9999 0 0 0 0 0 0 12.741090774536133 8.003467559814453 5.9736175537109375 5.228860378265381 5.314161777496338 0 0 0 0 0 0 0 -9999
-9999 0 0 0 0 0 0 9.723158836364746 5.658747673034668 3.983873128890991 3.3672542572021484 3.355774402618408 0 0 0 0 0 0 0 -9999
-9999 0 0 0 0 0 0 7.290105819702148 3.9590697288513184 2.5357842445373535 1.9818071126937866 1.8282175064086914 0 0 0 0 0 0 0 -9999
-9999 0 0 0 0 0 0 0 0 0 0 0 0 0 0 0 0 0 0 -9999
-9999 0 0 0 0 0 0 0 0 0 0 0 0 0 0 0 0 0 0 -9999
-9999 0 0 0 0 0 0 0 0 0 0 0 0 0 0 0 0 0 -9999 -9999
-9999 0 0 0 0 0 0 0 0 0 0 0 0 0 0 0 0 0 -9999 -9999
-9999 0 0 0 0 0 0 0 0 0 0 0 0 0 0 0 0 0 0 0
-9999 -9999 0 0 0 0 0 0 0 0 0 0 0 0 0 0 0 0 0 0
-9999 -9999 0 0 0 0 0 0 0 0 0 0 0 0 0 0 0 0 0 0
-9999 -9999 -9999 0 0 0 0 0 0 0 0 0 0 0 0 0 0 0 0 0
