ncols         20
nrows         20
xllcorner     0
yllcorner     -3.5992928
cellsize      0.17996463
NODATA_value  -9999
-9999.0 -9999 -9999 -9999 -9999 -9999 -9999 -9999 -9999 -9999 -9999 -9999 -9999 -9999 -9999 -9999 -9999 -9999 -9999 -9999
-9999 -9999 -9999 -9999 -9999 -9999 -9999 -9999 -9999 -9999 -9999 3.4564802646636963 3.4761314392089844 -9999 -9999 3.7682714462280273 3.778770685195923 -9999 -9999 -9999
-9999 -9999 -9999 -9999 3.6762211322784424 3.609692096710205 3.5147228240966797 3.4107041358947754 3.322275400161743 3.2704343795776367 3.2678439617156982 3.3386499881744385 3.402475118637085 3.474841594696045 3.5744566917419434 3.683872938156128 3.7378995418548584 3.7617945671081543 -9999 -9999
-9999 -9999 -9999 3.7354156970977783 3.657090663909912 3.534809112548828 3.3934476375579834 3.2516348361968994 3.1378512382507324 3.0710277557373047 3.0614817142486572 3.1109347343444824 3.19923996925354 3.3148386478424072 3.444796085357666 3.5672740936279297 3.661069631576538 3.7202670574188232 -9999 -9999
-9999 -9999 -9999 3.7088372707366943 3.5798282623291016 3.38631534576416 3.1630492210388184 2.9462461471557617 2.782125473022461 2.6877455711364746 2.6674063205718994 2.721755027770996 2.8422231674194336 3.007167100906372 3.1920177936553955 3.3690803050994873 3.517895460128784 3.6149404048919678 -9999 -9999
-9999 -9999 3.801100254058838 3.679759979248047 3.4616005420684814 3.164722442626953 2.818190574645996 2.481698513031006 2.2534072399139404 2.132915496826172 2.107924699783325 2.179943561553955 2.348820447921753 2.5729339122772217 2.821153163909912 3.0622928142547607 3.268799066543579 3.4057421684265137 3.415045976638794 -9999
-9999 -9999 3.7626235485076904 3.596160888671875 3.2950973510742188 2.8765413761138916 2.3637852668762207 1.8284130096435547 1.5498056411743164 1.4331220388412476 1.4277617931365967 1.5384055376052856 1.800073266029358 2.084608554840088 2.3798420429229736 2.6690144538879395 2.9223995208740234 3.1084649562835693 3.1963109970092773 -9999
-9999 -9999 3.706580638885498 3.491940498352051 3.1072030067443848 2.56512188911438 1.853159785270691 0.8763669729232788 0.6553280353546143 0.6087141036987305 0.6401696801185608 0.7800124287605286 1.28859543800354 1.6350395679473877 1.9419398307800293 2.238968849182129 2.509481906890869 2.7227513790130615 2.8407065868377686 -9999
-9999 3.7640860080718994 3.6424331665039062 3.3665645122528076 2.918978214263916 2.3119373321533203 1.5580387115478516 0.6498477458953857 0.4231518507003784 0.3769344091415405 0.41331958770751953 0.555404782295227 0.9842642545700073 1.2979449033737183 1.5685851573944092 1.8304073810577393 2.0804283618927 2.2899537086486816 2.4133501052856445 -9999
-9999 3.6628153324127197 3.5088908672332764 3.197932720184326 2.72126841545105 2.102512836456299 1.3826801776885986 0.5879285931587219 0.369862824678421 0.31934553384780884 0.35024815797805786 0.474934846162796 0.8102282881736755 1.0652825832366943 1.2810722589492798 1.487207055091858 1.6894868612289429 1.8699524402618408 1.9824079275131226 -9999
-9999 3.4831795692443848 3.313776969909668 2.985206127166748 2.5037806034088135 1.913552165031433 1.2677372694015503 0.5866826176643372 0.38885796070098877 0.33745139837265015 0.3592792749404907 0.45968401432037354 0.7176644802093506 0.9139686822891235 1.0758798122406006 1.2277858257293701 1.3764008283615112 1.5165945291519165 1.6099510192871094 -9999
-9999 3.234560012817383 3.057710886001587 2.7229387760162354 2.259817361831665 1.7320711612701416 1.1930028200149536 0.6388487219810486 0.4674098491668701 0.41458991169929504 0.423769474029541 0.4957033395767212 0.6841434240341187 0.8248983025550842 0.9408844113349915 1.049438714981079 1.156744122505188 1.2619349956512451 1.3373180627822876 -9999
-9999 2.927919387817383 2.747103214263916 2.4118776321411133 1.9901138544082642 1.5538543462753296 1.1561864614486694 0.8294702768325806 0.6570693254470825 0.5822776556015015 0.5709748268127441 0.6105049848556519 0.6963561177253723 0.7812663316726685 0.8591616153717041 0.935188353061676 1.0140302181243896 1.0973635911941528 1.1642508506774902 -9999
-9999 2.5816166400909424 2.395975112915039 2.075321912765503 1.7127259969711304 1.375173807144165 1.0928840637207031 0.8787341117858887 0.7458198666572571 0.6766515970230103 0.6551247239112854 0.6698971390724182 0.7108079195022583 0.7601656913757324 0.8112899661064148 0.8650915026664734 0.9276024103164673 0.9994054436683655 1.0759869813919067 -9999
-9999 2.2354800701141357 2.0539369583129883 1.7642916440963745 1.4710571765899658 1.2215352058410645 1.0226105451583862 0.876444935798645 0.7791420221328735 0.723079264163971 0.6997556090354919 0.701493501663208 0.7208414077758789 0.7495243549346924 0.7831276059150696 0.8213583827018738 0.8676044940948486 0.9110508561134338 -9999 -9999
-9999 1.953506588935852 1.7731263637542725 1.5217418670654297 1.2926461696624756 1.1057995557785034 0.9623503088951111 0.8580198884010315 0.7869748473167419 0.743323564529419 0.721935510635376 0.7179309129714966 0.7265917062759399 0.7434700131416321 0.7657914161682129 0.7930929064750671 0.827470064163208 0.8584359884262085 -9999 -9999
-9999 1.77971613407135 1.56087064743042 1.347005844116211 1.1644814014434814 1.022101640701294 0.9149514436721802 0.8379563093185425 0.7848089933395386 0.7507340908050537 0.7322380542755127 0.7261448502540588 0.729439914226532 0.7394168972969055 0.7542366981506348 0.7732346057891846 0.7970659136772156 0.8198549151420593 0.8203334808349609 0.821471631526947
-9999 -9999 1.3374838829040527 1.209377646446228 1.0726667642593384 0.9631497859954834 0.880544126033783 0.821398913860321 0.7799842357635498 0.7526041269302368 0.7367151975631714 0.7300537824630737 0.7305855751037598 0.7364979386329651 0.7463300228118896 0.7591018676757812 0.7739943265914917 0.7889668941497803 0.7963762879371643 0.799079179763794
-9999 -9999 1.2304584980010986 1.1251740455627441 1.0166058540344238 0.9259055256843567 0.8585099577903748 0.8100886344909668 0.7758101224899292 0.7526430487632751 0.7385216355323792 0.7317935228347778 0.7309408187866211 0.7345576286315918 0.7413649559020996 0.7502866387367249 0.7601996064186096 0.7693384289741516 0.775124192237854 0.7777511477470398
-9999 -9999 -9999 1.057100534439087 0.9846207499504089 0.906788170337677 0.8475502133369446 0.80436772108078 0.7735133767127991 0.7523493766784668 0.7391166687011719 0.732417643070221 0.7309847474098206 0.7335693836212158 0.7389761209487915 0.7461066842079163 0.7538734078407288 0.7608055472373962 0.7656140923500061 0.7679901123046875
