ncols         20
nrows         20
xllcorner     0
yllcorner     -3.5992928
cellsize      0.17996463
NODATA_value  -9999
-9999.0 -9999 -9999 -9999 -9999 -9999 -9999 -9999 -9999 -9999 -9999 -9999 -9999 -9999 -9999 -9999 -9999 -9999 -9999 -9999
-9999 -9999 -9999 -9999 -9999 -9999 -9999 -9999 -9999 -9999 -9999 1.2847118377685547 1.2826240062713623 -9999 -9999 1.3630000352859497 1.3344987630844116 -9999 -9999 -9999
-9999 -9999 -9999 -9999 1.2861286401748657 1.3018639087677002 1.3279914855957031 1.3317146301269531 1.3259516954421997 1.329420804977417 1.302081823348999 1.318285346031189 1.3452224731445312 1.366970181465149 1.3745498657226562 1.3763912916183472 1.3548654317855835 1.330944538116455 -9999 -9999
-9999 -9999 -9999 1.3150179386138916 1.3291362524032593 1.3429228067398071 1.3569905757904053 1.3556004762649536 1.3549879789352417 1.347201943397522 1.348132848739624 1.363194227218628 1.390735387802124 1.4139657020568848 1.4384620189666748 1.4438546895980835 1.4188692569732666 1.3917298316955566 -9999 -9999
-9999 -9999 -9999 1.3485443592071533 1.3673487901687622 1.4008710384368896 1.4089045524597168 1.3951572179794312 1.3467774391174316 1.2686610221862793 1.192301869392395 1.1638356447219849 1.2045648097991943 1.3046585321426392 1.4181275367736816 1.4805283546447754 1.485848307609558 1.5012668371200562 -9999 -9999
-9999 -9999 1.3600828647613525 1.3901474475860596 1.4235202074050903 1.4447903633117676 1.4231380224227905 1.3461061716079712 1.1942577362060547 0.986569344997406 0.7922356128692627 0.705470860004425 0.7423475980758667 0.9153703451156616 1.1655592918395996 1.362460732460022 1.476814866065979 1.5149234533309937 1.483679175376892 -9999
-9999 -9999 1.391764760017395 1.4252758026123047 1.4761568307876587 1.4772082567214966 1.3983139991760254 1.2195980548858643 0.9475479125976562 0.6501880884170532 0.4288567006587982 0.3340183198451996 0.352986216545105 0.49932360649108887 0 1.0767912864685059 1.3180460929870605 1.4437536001205444 1.478388786315918 -9999
-9999 -9999 1.4641836881637573 1.503096580505371 1.526158094406128 1.4679453372955322 1.2838435173034668 0.9885866641998291 0.6568728685379028 0.3819301426410675 0.22262981534004211 0.15686464309692383 0.1607300043106079 0.23708723485469818 0.416187047958374 0.6903647780418396 0.9808809161186218 1.2069748640060425 1.3067742586135864 -9999
-9999 1.4982832670211792 1.5529224872589111 1.5703498125076294 1.5284218788146973 1.339765191078186 1.0180524587631226 0.6562268733978271 0.36786192655563354 0.19254757463932037 0.10890001058578491 0.07601787149906158 0.07439008355140686 0.10675030946731567 0.19238977134227753 0 0.5950142741203308 0.8208674788475037 0.9466859698295593 -9999
-9999 1.5758888721466064 1.6068357229232788 1.5762965679168701 1.3991252183914185 1.0473982095718384 0.6474174857139587 0.33307385444641113 0.15641450881958008 0.07714784890413284 0.045799899846315384 0.033611610531806946 0.033032290637493134 0.044097818434238434 0.07731574028730392 0 0.27992483973503113 0.4325822591781616 0.5273651480674744 -9999
-9999 1.6367857456207275 1.6134799718856812 1.4682332277297974 1.1449919939041138 0.720355749130249 0.352613627910614 0.13910000026226044 0.053761377930641174 0.0246705524623394 0.014782290905714035 0.01145218126475811 0.011366704478859901 0.014655310660600662 0.024371938779950142 0.04860283061861992 0.0958045944571495 0.16516341269016266 0.21128307282924652 -9999
-9999 1.5825939178466797 1.4923070669174194 1.2130709886550903 0.8198303580284119 0.44016942381858826 0.17681173980236053 0.05601003021001816 0.017849521711468697 0.007013082504272461 0.0038621840067207813 0.0028433213010430336 0 0 0.0051943049766123295 0 0.022968977689743042 0.043313220143318176 0.057470742613077164 -9999
-9999 1.3403725624084473 1.1734367609024048 0.8193774223327637 0.4792896807193756 0.22489403188228607 0.08022184669971466 0.02212129905819893 0.00587930204346776 0.0020176784601062536 0.0007802792242728174 0.00048601586604490876 0 0 0 0.0012833240907639265 0.0036159877199679613 0.007877587340772152 0.011455170810222626 -9999
-9999 0.9377610683441162 0.7507433295249939 0.43610018491744995 0.21161454916000366 0.08736097812652588 0.029200980439782143 0.007775294594466686 0.0017273675184696913 0.0005636729765683413 0.0002458259114064276 0.00014750885020475835 0 0 0 0.0001779783924575895 0.00036917871329933405 0.0009623363730497658 0.0016255003865808249 -9999
-9999 0.5867277979850769 0.4317992031574249 0.20358461141586304 0.07807719707489014 0.02773430570960045 0.008748968131840229 0.002162281656637788 0.0006294072954915464 0.00024457377730868757 0.00012829015031456947 8.246792276622728E-05 6.25825923634693E-05 5.5432254157494754E-05 0 0 7.96443855506368E-05 0.0001648262987146154 -9999 -9999
-9999 0.39062967896461487 0.2656126320362091 0.10475409775972366 0.032607097178697586 0.009277934208512306 0.0024792973417788744 0.0007513197488151491 0.000295308418571949 0.00014784568338654935 0 0 0 8.238440204877406E-05 0 0 0.00014430844748858362 0 -9999 -9999
-9999 0.28137388825416565 0.17399795353412628 0.06421970576047897 0.01714176870882511 0.0034295048099011183 0.0009394751978106797 0.00032804085640236735 0.00015840660489629954 0 0 0 0 0.00015135423745959997 0.00019282412540633231 0.00023263428010977805 0.0002703819773159921 0.0003170757554471493 0 0
-9999 -9999 0.10173165798187256 0.04223792627453804 0.010543261654675007 0.0018880387069657445 0.0004755363625008613 0.00017678084259387106 0 0 0 0 0 0 0 0 0 0 0 0
-9999 -9999 0.05135011300444603 0.025549542158842087 0.006731345783919096 0.001143683330155909 0.0002741850621532649 0.00010306532931281254 0 0 0 0 0 0 0 0 0 0 0 0
-9999 -9999 -9999 0.01739998534321785 0.00474897213280201 0.0008923787972889841 0.00021232011204119772 8.127144246827811E-05 0 0 0 0 0 0 0 0 0 0 0 0
