ncols         20
nrows         20
xllcorner     0
yllcorner     -3.5992928
cellsize      0.17996463
NODATA_value  -9999
-9999.0 -9999 -9999 -9999 -9999 -9999 -9999 -9999 -9999 -9999 -9999 -9999 -9999 -9999 -9999 -9999 -9999 -9999 -9999 -9999
-9999 -9999 -9999 -9999 -9999 -9999 -9999 -9999 -9999 -9999 -9999 26.55171775817871 26.550922393798828 -9999 -9999 26.641088485717773 26.720199584960938 -9999 -9999 -9999
-9999 -9999 -9999 -9999 26.613433837890625 26.50277328491211 26.343425750732422 26.228683471679688 26.171621322631836 26.163978576660156 26.24533462524414 26.335952758789062 26.301233291625977 26.194583892822266 26.249284744262695 26.438783645629883 26.56865692138672 26.605897903442383 -9999 -9999
-9999 -9999 -9999 26.621965408325195 26.563247680664062 26.463516235351562 26.349218368530273 26.280235290527344 26.24348258972168 26.228395462036133 26.224525451660156 26.20530891418457 26.126483917236328 26.049409866333008 26.05807113647461 26.16700553894043 26.281005859375 26.329696655273438 -9999 -9999
-9999 -9999 -9999 26.544239044189453 26.49081802368164 26.429203033447266 26.428377151489258 26.505840301513672 26.5958194732666 26.657543182373047 26.667753219604492 26.58794593811035 26.399410247802734 26.180194854736328 26.022762298583984 25.974491119384766 25.972654342651367 25.94432830810547 -9999 -9999
-9999 -9999 26.490020751953125 26.4443416595459 26.405290603637695 26.48309898376465 26.77787971496582 27.244747161865234 27.66154670715332 27.980937957763672 28.14257049560547 28.012739181518555 27.578001022338867 27.00790023803711 26.500450134277344 26.134368896484375 25.916406631469727 25.782079696655273 25.714624404907227 -9999
-9999 -9999 26.314247131347656 26.2856388092041 26.331754684448242 26.68585205078125 27.53757095336914 28.856853485107422 29.895750045776367 30.514873504638672 30.710285186767578 30.390567779541016 29.543977737426758 28.55487823486328 27.60576057434082 26.81082534790039 26.290599822998047 25.98534393310547 25.84488296508789 -9999
-9999 -9999 25.979381561279297 26.002458572387695 26.239046096801758 27.03400993347168 28.733211517333984 31.43887710571289 32.969573974609375 33.6510124206543 33.71648406982422 33.1076774597168 31.667287826538086 30.281463623046875 29.048799514770508 27.98443603515625 27.14891815185547 26.59637451171875 26.33894157409668 -9999
-9999 25.511152267456055 25.588438034057617 25.71293830871582 26.20424461364746 27.44437026977539 29.80914306640625 33.019039154052734 34.79499816894531 35.52581787109375 35.538204193115234 34.81883239746094 33.23381042480469 31.71619987487793 30.40472984313965 29.27914047241211 28.34749984741211 27.673404693603516 27.321395874023438 -9999
-9999 25.263999938964844 25.32422637939453 25.588045120239258 26.38588523864746 28.020902633666992 30.733963012695312 33.95915985107422 35.75383377075195 36.48955154418945 36.49507141113281 35.78092575073242 34.23198699951172 32.73679733276367 31.466632843017578 30.40713119506836 29.538616180419922 28.894567489624023 28.543685913085938 -9999
-9999 25.05660057067871 25.224695205688477 25.731203079223633 26.844051361083984 28.759920120239258 31.49120330810547 34.481788635253906 36.15950012207031 36.864295959472656 36.89023971557617 36.24100112915039 34.787384033203125 33.38903045654297 32.21311950683594 31.253307342529297 30.49047088623047 29.93824005126953 29.634822845458984 -9999
-9999 25.143959045410156 25.458799362182617 26.208110809326172 27.527496337890625 29.48458480834961 31.93829917907715 34.5036506652832 35.98762512207031 36.6610221862793 36.745689392089844 36.235286712646484 34.996891021728516 33.80644989013672 32.7830924987793 31.918230056762695 31.216533660888672 30.711427688598633 30.428903579711914 -9999
-9999 25.668350219726562 26.106712341308594 27.020763397216797 28.384525299072266 30.087705612182617 31.995555877685547 33.837684631347656 35.09516143798828 35.77396011352539 35.96944046020508 35.692298889160156 34.98280715942383 34.18375015258789 33.4025993347168 32.65775680541992 31.96455192565918 31.415771484375 31.05120086669922 -9999
-9999 26.58405876159668 27.095890045166016 28.033533096313477 29.229934692382812 30.580036163330078 32.00039291381836 33.34942626953125 34.402530670166016 35.0594596862793 35.35911178588867 35.338531494140625 35.05985641479492 34.65596008300781 34.18024444580078 33.62126922607422 32.99778366088867 32.35856628417969 31.618183135986328 -9999
-9999 27.655317306518555 28.142908096313477 28.959928512573242 29.92487335205078 30.991920471191406 32.10463333129883 33.179222106933594 34.054893493652344 34.683284759521484 35.07038497924805 35.25941467285156 35.292274475097656 35.215110778808594 35.044925689697266 34.752235412597656 34.362266540527344 33.96110534667969 -9999 -9999
-9999 28.511072158813477 28.973873138427734 29.6621036529541 30.469078063964844 31.386600494384766 32.359710693359375 33.26889419555664 34.034080505371094 34.62896728515625 35.06276321411133 35.38276290893555 35.61489486694336 35.76634979248047 35.828163146972656 35.79221725463867 35.69622802734375 35.67247772216797 -9999 -9999
-9999 29.014558792114258 29.580568313598633 30.178037643432617 30.910804748535156 31.801340103149414 32.713523864746094 33.56450653076172 34.27604293823242 34.842376708984375 35.28865051269531 35.667903900146484 35.99814987182617 36.268680572509766 36.46417999267578 36.57927322387695 36.65383529663086 36.79610824584961 37.207542419433594 37.37976837158203
-9999 -9999 30.200098037719727 30.612180709838867 31.2805233001709 32.17308044433594 33.10789489746094 33.96695327758789 34.664588928222656 35.206260681152344 35.63626480102539 36.02284240722656 36.383544921875 36.71222686767578 36.96290588378906 37.127967834472656 37.248416900634766 37.3596305847168 37.495941162109375 37.541839599609375
-9999 -9999 30.508316040039062 30.924922943115234 31.569061279296875 32.488590240478516 33.477928161621094 34.36884689331055 35.06855773925781 35.581851959228516 35.9739875793457 36.34383010864258 36.708621978759766 37.050262451171875 37.311065673828125 37.484886169433594 37.60374450683594 37.66718673706055 37.680755615234375 37.68118667602539
-9999 -9999 -9999 31.211238861083984 31.768503189086914 32.67080307006836 33.689353942871094 34.59690856933594 35.29190444946289 35.78558349609375 36.16066360473633 36.508262634277344 36.870643615722656 37.21653747558594 37.4880485534668 37.661231994628906 37.78293991088867 37.80257034301758 37.787837982177734 37.776424407958984
