ncols         20
nrows         20
xllcorner     0
yllcorner     -3.5992928
cellsize      0.17996463
NODATA_value  -9999
-9999.0 -9999 -9999 -9999 -9999 -9999 -9999 -9999 -9999 -9999 -9999 -9999 -9999 -9999 -9999 -9999 -9999 -9999 -9999 -9999
-9999 -9999 -9999 -9999 -9999 -9999 -9999 -9999 -9999 -9999 -9999 0.0269205030053854 0.025795357301831245 -9999 -9999 0.020271606743335724 0.017779240384697914 -9999 -9999 -9999
-9999 -9999 -9999 -9999 0.031183935701847076 0.03563167154788971 0.044262226670980453 0.051592279225587845 0.05599506199359894 0.05810624733567238 0.04680050164461136 0.03919056057929993 0.038249123841524124 0.03770257532596588 0.03080381453037262 0.023693926632404327 0.019290830940008163 0.01673123612999916 -9999 -9999
-9999 -9999 -9999 0.028178181499242783 0.03275461122393608 0.03908207267522812 0.04890142381191254 0.05918681249022484 0.07078222930431366 0.08043509721755981 0.0857427567243576 0.08253979682922363 0.0778002068400383 0.06496300548315048 0.04952957108616829 0.03499675169587135 0.02559739351272583 0.021186789497733116 -9999 -9999
-9999 -9999 -9999 0.027992960065603256 0.03335266932845116 0.04510916396975517 0.061292726546525955 0.08231475949287415 0.1113317534327507 0.15478189289569855 0.20106405019760132 0.22132565081119537 0.20367993414402008 0.15045829117298126 0.10155431181192398 0.06277832388877869 0.040906574577093124 0.03585221245884895 -9999 -9999
-9999 -9999 0.01924004592001438 0.025639843195676804 0.03503846004605293 0.05141472816467285 0.07495308667421341 0.11015275865793228 0.17450392246246338 0.27512481808662415 0.40175825357437134 0.4655337929725647 0.4409819543361664 0.3228912055492401 0.19947674870491028 0.11603451520204544 0.07105397433042526 0.055612627416849136 0.045473817735910416 -9999
-9999 -9999 0.018958017230033875 0.024479804560542107 0.03826286643743515 0.06178903952240944 0.09568168222904205 0.15233562886714935 0.25367462635040283 0.4119245707988739 0.6013776063919067 0.7160587906837463 0.6929952502250671 0.5408255457878113 0 0.21095292270183563 0.12723103165626526 0.08618458360433578 0.07141362130641937 -9999
-9999 -9999 0.020561611279845238 0.028630109503865242 0.048908308148384094 0.08292422443628311 0.13764424622058868 0.2237401008605957 0.3510543704032898 0.5253010988235474 0.6924974918365479 0.8043476939201355 0.8000475764274597 0.6823274493217468 0.5081642270088196 0.33612024784088135 0.21687540411949158 0.14726044237613678 0.12259290367364883 -9999
-9999 0.015889223664999008 0.023909268900752068 0.03861923888325691 0.07305492460727692 0.13304884731769562 0.22029393911361694 0.34409233927726746 0.4880000948905945 0.6275634765625 0.7278267741203308 0.7893378138542175 0.8011314868927002 0.7392333149909973 0.627981424331665 0 0.33165857195854187 0.23675492405891418 0.20052316784858704 -9999
-9999 0.020972855389118195 0.0308237187564373 0.05930769070982933 0.1190095841884613 0.21793729066848755 0.353004515171051 0.5092658400535583 0.6416325569152832 0.7193340063095093 0.745518684387207 0.7607359886169434 0.7638490200042725 0.7457736730575562 0.6895107626914978 0 0.45388534665107727 0.34905916452407837 0.3067660629749298 -9999
-9999 0.03352537006139755 0.048648420721292496 0.09274116903543472 0.17641538381576538 0.3068249225616455 0.4760890603065491 0.6409136056900024 0.7327860593795776 0.752953052520752 0.7422181963920593 0.735001802444458 0.7395674586296082 0.7360690236091614 0.7107524275779724 0.6559572815895081 0.5601135492324829 0.46738073229789734 0.42641395330429077 -9999
-9999 0.06049008294939995 0.08289557695388794 0.14678910374641418 0.25057452917099 0.38944846391677856 0.5504835844039917 0.675123929977417 0.7114703059196472 0.6930152773857117 0.6680572032928467 0.6644365191459656 0 0 0.6853457093238831 0 0.6138810515403748 0.5532224774360657 0.5231083035469055 -9999
-9999 0.11356262117624283 0.14946649968624115 0.23979835212230682 0.34970709681510925 0.469872385263443 0.5798562169075012 0.638601541519165 0.6218112111091614 0.5740392208099365 0.5386300683021545 0.5287837386131287 0 0 0 0.5605883598327637 0.5630922913551331 0.5558359622955322 0.5413597226142883 -9999
-9999 0.19794043898582458 0.2475382536649704 0.358845591545105 0.46350565552711487 0.5383991003036499 0.5764545798301697 0.5658629536628723 0.5141551494598389 0.45506057143211365 0.41310325264930725 0.39078599214553833 0 0 0 0.3733624517917633 0.4066881835460663 0.4662526547908783 0.4833059012889862 -9999
-9999 0.28164735436439514 0.33414217829704285 0.44749781489372253 0.5260740518569946 0.5444687008857727 0.5219491124153137 0.4731537401676178 0.4125857353210449 0.3607296347618103 0.3245425820350647 0.2933851480484009 0.2664905786514282 0.24237678945064545 0 0 0.22990362346172333 0.29068315029144287 -9999 -9999
-9999 0.3236178755760193 0.36920249462127686 0.4633721709251404 0.5038791298866272 0.48293718695640564 0.4340032637119293 0.37696218490600586 0.3302719295024872 0.29557573795318604 0 0 0 0.16683882474899292 0 0 0.11395924538373947 0 -9999 -9999
-9999 0.3510793149471283 0.3729456067085266 0.43396785855293274 0.446987509727478 0.4045602083206177 0.34514084458351135 0.2934548258781433 0.26078808307647705 0 0 0 0 0.12112180143594742 0.09549100697040558 0.07616087049245834 0.06273002922534943 0.05162753537297249 0 0
-9999 -9999 0.35524100065231323 0.3921191990375519 0.39017224311828613 0.3372334837913513 0.2741060256958008 0.22836242616176605 0 0 0 0 0 0 0 0 0 0 0 0
-9999 -9999 0.3660101890563965 0.3641095459461212 0.34581783413887024 0.28494295477867126 0.2199382781982422 0.1761305183172226 0 0 0 0 0 0 0 0 0 0 0 0
-9999 -9999 -9999 0.33733728528022766 0.32168594002723694 0.26061776280403137 0.19539466500282288 0.15334361791610718 0 0 0 0 0 0 0 0 0 0 0 0
