ncols         20
nrows         20
xllcorner     0
yllcorner     -3.5992928
cellsize      0.17996463
NODATA_value  -9999
-9999.0 -9999 -9999 -9999 -9999 -9999 -9999 -9999 -9999 -9999 -9999 -9999 -9999 -9999 -9999 -9999 -9999 -9999 -9999 -9999
-9999 -9999 -9999 -9999 -9999 -9999 -9999 -9999 -9999 -9999 -9999 0.04442626237869263 0.0425461009144783 -9999 -9999 0.03388445824384689 0.02976238541305065 -9999 -9999 -9999
-9999 -9999 -9999 -9999 0.05405108630657196 0.06139169633388519 0.07547921687364578 0.08693236857652664 0.0932374969124794 0.09578017145395279 0.0766167938709259 0.06404709070920944 0.062394846230745316 0.06135592237114906 0.05033387988805771 0.039106301963329315 0.031969379633665085 0.027684161439538002 -9999 -9999
-9999 -9999 -9999 0.04881201684474945 0.056575652211904526 0.06699305027723312 0.08287201821804047 0.0989799052476883 0.1167687252163887 0.1310397982597351 0.13831038773059845 0.1324070394039154 0.12453586608171463 0.1040959432721138 0.07975084334611893 0.05675680562853813 0.04171965271234512 0.034575045108795166 -9999 -9999
-9999 -9999 -9999 0.04815521091222763 0.05710366740822792 0.07646678388118744 0.10251961648464203 0.13556496798992157 0.18022707104682922 0.24626357853412628 0.3157779574394226 0.3450537323951721 0.3169498145580292 0.23491795361042023 0.1597827523946762 0.09946344792842865 0.06512273102998734 0.05713234096765518 -9999 -9999
-9999 -9999 0.03260639309883118 0.0435238815844059 0.059094078838825226 0.08568353205919266 0.12304165959358215 0.17754574120044708 0.27547910809516907 0.4265440106391907 0.6145851612091064 0.7070025205612183 0.6686383485794067 0.4916203022003174 0.30648094415664673 0.17930307984352112 0.11021211743354797 0.08613422513008118 0.06979047507047653 -9999
-9999 -9999 0.031684860587120056 0.040793076157569885 0.06315377354621887 0.10055886209011078 0.15303996205329895 0.23870587348937988 0.3897685408592224 0.6227222681045532 0.8988317251205444 1.0636926889419556 1.0284868478775024 0.8069060444831848 0 0.3190084397792816 0.19247230887413025 0.13028089702129364 0.10766245424747467 -9999
-9999 -9999 0.033503636717796326 0.04641333967447281 0.07835593074560165 0.1307862102985382 0.21297669410705566 0.3397654891014099 0.5247341990470886 0.7757548093795776 1.0145559310913086 1.173378825187683 1.1664849519729614 0.9983401298522949 0.7492579817771912 0.4982846975326538 0.32098907232284546 0.21737731993198395 0.18056274950504303 -9999
-9999 0.024753596633672714 0.037621818482875824 0.06047199293971062 0.11287105083465576 0.2021835893392563 0.3290920853614807 0.5064790844917297 0.7104398608207703 0.9070034623146057 1.0476354360580444 1.1344408988952637 1.1523932218551636 1.0670770406723022 0.9133721590042114 0 0.48331040143966675 0.3423640727996826 0.28879791498184204 -9999
-9999 0.031946126371622086 0.04693274199962616 0.08952782303094864 0.17728042602539062 0.3198392689228058 0.5109440088272095 0.7295936346054077 0.9134673476219177 1.0211639404296875 1.0584150552749634 1.0826060771942139 1.0914654731750488 1.0698708295822144 0.9947567582130432 0 0.6518393158912659 0.495928555727005 0.4334523677825928 -9999
-9999 0.04949390888214111 0.07156055420637131 0.13528819382190704 0.25447559356689453 0.43742161989212036 0.6723328828811646 0.899903416633606 1.0268038511276245 1.0563892126083374 1.046291708946228 1.0449910163879395 1.06379234790802 1.0636427402496338 1.0245357751846313 0.9443750381469727 0.7948583960533142 0.6556729078292847 0.5944913625717163 -9999
-9999 0.08647141605615616 0.11805497109889984 0.20761904120445251 0.351688414812088 0.5427345037460327 0.7637842297554016 0.935731828212738 0.988254725933075 0.9679725170135498 0.9427381753921509 0.9546794891357422 0 0 1.006213665008545 0 0.871125340461731 0.7724592685699463 0.7246638536453247 -9999
-9999 0.15759703516960144 0.20678243041038513 0.3304883539676666 0.480333536863327 0.6441565155982971 0.795588493347168 0.8793678879737854 0.861793041229248 0.8034219741821289 0.7652251124382019 0.7691441178321838 0 0 0 0.8188623189926147 0.8007377982139587 0.7771183848381042 0.7493820190429688 -9999
-9999 0.2682926058769226 0.3351697027683258 0.48557358980178833 0.6275588274002075 0.7310588955879211 0.7870234847068787 0.7788109183311462 0.7154259085655212 0.6425995826721191 0.5945538282394409 0.5764349699020386 0 0 0 0.5541626811027527 0.5863224864006042 0.6591283082962036 0.6712663769721985 -9999
-9999 0.37628042697906494 0.4466313421726227 0.5993670225143433 0.7074726819992065 0.7370598316192627 0.7132118344306946 0.6547111868858337 0.5807997584342957 0.5190097093582153 0.4788515269756317 0.4423328638076782 0.4092864394187927 0.37542277574539185 0 0 0.342840313911438 0.42617616057395935 -9999 -9999
-9999 0.4292411506175995 0.490469366312027 0.6182056665420532 0.6768288612365723 0.6549122929573059 0.5963357090950012 0.5278744697570801 0.474704384803772 0.4395331144332886 0 0 0 0.26478278636932373 0 0 0.17878825962543488 0 -9999 -9999
-9999 0.4644339382648468 0.494607537984848 0.5790481567382812 0.6017239689826965 0.5511418581008911 0.4788252115249634 0.4182615280151367 0.3863910138607025 0 0 0 0 0.1986464112997055 0.15697775781154633 0.12552441656589508 0.1038244217634201 0.08731938153505325 0 0
-9999 -9999 0.4727156460285187 0.5249086618423462 0.5274179577827454 0.462401419878006 0.3845704197883606 0.3321897089481354 0 0 0 0 0 0 0 0 0 0 0 0
-9999 -9999 0.48886799812316895 0.4894934594631195 0.4694797992706299 0.39301109313964844 0.31139928102493286 0.25994738936424255 0 0 0 0 0 0 0 0 0 0 0 0
-9999 -9999 -9999 0.45580652356147766 0.4380537271499634 0.3607748746871948 0.2780686020851135 0.22802206873893738 0 0 0 0 0 0 0 0 0 0 0 0
