ncols         20
nrows         20
xllcorner     0
yllcorner     -3.5992928
cellsize      0.17996463
NODATA_value  -9999
-9999.0 -9999 -9999 -9999 -9999 -9999 -9999 -9999 -9999 -9999 -9999 -9999 -9999 -9999 -9999 -9999 -9999 -9999 -9999 -9999
-9999 -9999 -9999 -9999 -9999 -9999 -9999 -9999 -9999 -9999 -9999 0.018002953380346298 0.01800626516342163 -9999 -9999 0.01812814734876156 0.01813511922955513 -9999 -9999 -9999
-9999 -9999 -9999 -9999 0.018107369542121887 0.018070252612233162 0.018015505746006966 0.017949551343917847 0.017886241897940636 0.01784098893404007 0.017827829346060753 0.0378442220389843 0.03786460682749748 0.01786882057785988 0.01790616102516651 0.038099173456430435 0.03814305365085602 0.017999699339270592 -9999 -9999
-9999 -9999 -9999 0.018020013347268105 0.03813794255256653 0.07931195199489594 0.07904540002346039 0.07869888097047806 0.07835841178894043 0.07810387015342712 0.07799467444419861 0.09399513900279999 0.09408245980739594 0.07820573449134827 0.07837569713592529 0.09466332197189331 0.07876355946063995 0.017858756706118584 -9999 -9999
-9999 -9999 -9999 0.017895810306072235 0.07889026403427124 0.11392329633235931 0.11344093829393387 0.11280979961156845 0.11219464987516403 0.11173451691865921 0.11152333766222 0.11159461736679077 0.11175614595413208 0.11194461584091187 0.11222784966230392 0.11253024637699127 0.0778733491897583 0.01761925034224987 -9999 -9999
-9999 -9999 0.017659908160567284 0.03745446726679802 0.0940220057964325 0.11268581449985504 0.1120167076587677 0.111156165599823 0.11034128069877625 0.10974926501512527 0.10947579145431519 0.10952378064393997 0.10978439450263977 0.11013706028461456 0.11050128936767578 0.1107655018568039 0.09214029461145401 0.03654155880212784 0.017155449837446213 -9999
-9999 -9999 0.01750132441520691 0.07712845504283905 0.11147776246070862 0.11094465851783752 0.10994278639554977 0.10868004709482193 0.10755831748247147 0.10678577423095703 0.1064639762043953 0.10658083856105804 0.10701864957809448 0.10757140070199966 0.10808800160884857 0.10844253748655319 0.10847868770360947 0.07476039230823517 0.01693538762629032 -9999
-9999 -9999 0.01725418120622635 0.07609615474939346 0.10970965027809143 0.10882952809333801 0.10739009827375412 0.1055915355682373 0.10422616451978683 0.10333957523107529 0.10295623540878296 0.1030765026807785 0.10367296636104584 0.10445212572813034 0.10516394674777985 0.10570557415485382 0.10600709915161133 0.07331103086471558 0.016612574458122253 -9999
-9999 0.01686863973736763 0.03582444414496422 0.08997805416584015 0.10764623433351517 0.1064845621585846 0.10469255596399307 0.10263489931821823 0.10108401626348495 0.10007335245609283 0.09960461407899857 0.09967079758644104 0.10023476183414459 0.10106703639030457 0.10190604627132416 0.10260337591171265 0.10307978093624115 0.07142312079668045 0.01620221883058548 -9999
-9999 0.01669357903301716 0.07348734140396118 0.10616889595985413 0.10546783357858658 0.10404122620820999 0.10198954492807388 0.09983094781637192 0.09816993027925491 0.09705547243356705 0.09648963809013367 0.09646007418632507 0.09692138433456421 0.09766244143247604 0.0985192358493805 0.09929430484771729 0.09987760335206985 0.06929749250411987 0.015738099813461304 -9999
-9999 0.016451360657811165 0.07237158715724945 0.10420208424329758 0.10321331024169922 0.10157227516174316 0.09936757385730743 0.09720544517040253 0.09549687057733536 0.09430553764104843 0.09364092350006104 0.09349115937948227 0.09381300210952759 0.09442227333784103 0.095181904733181 0.0959627628326416 0.09661296010017395 0.06711557507514954 0.015259863808751106 -9999
-9999 0.016154695302248 0.07098592817783356 0.10201791673898697 0.10087338089942932 0.09912627190351486 0.09691300988197327 0.0947996973991394 0.09308724105358124 0.0918411910533905 0.09107881039381027 0.09079116582870483 0.09094087779521942 0.09137766063213348 0.09199528396129608 0.09272952377796173 0.0934634730219841 0.06506616622209549 0.014812248758971691 -9999
-9999 0.015826307237148285 0.06946849822998047 0.0997171625494957 0.09849705547094345 0.09673856943845749 0.09463047981262207 0.09263186156749725 0.09094804525375366 0.08966322243213654 0.0888054221868515 0.08836759626865387 0.0883077085018158 0.08853282779455185 0.08897172659635544 0.08960635960102081 0.09051910042762756 0.06335263699293137 0.014432601630687714 -9999
-9999 0.015491965226829052 0.06793390959501266 0.09741036593914032 0.09614790230989456 0.09443064033985138 0.09246698021888733 0.09060239046812057 0.08897675573825836 0.08767919987440109 0.08674215525388718 0.08615829050540924 0.08589285612106323 0.08588658273220062 0.08608829975128174 0.08647631853818893 0.07223478704690933 0.029376905411481857 0.01414416078478098 -9999
-9999 0.015180771239101887 0.06650706380605698 0.09521826356649399 0.09391281008720398 0.09225550293922424 0.09043221920728683 0.0886986255645752 0.08715427666902542 0.08586536347866058 0.0848679170012474 0.0841565728187561 0.08370480686426163 0.08346964418888092 0.08340620994567871 0.08347372710704803 0.05779789015650749 0.013142208568751812 -9999 -9999
-9999 0.014922944828867912 0.06497819721698761 0.09325715154409409 0.0918356403708458 0.09024213999509811 0.08856204897165298 0.08696018904447556 0.08550150692462921 0.0842372477054596 0.08320125192403793 0.08238953351974487 0.08178103715181351 0.0813409611582756 0.0810285359621048 0.08080532401800156 0.05534958839416504 0.012534081935882568 -9999 -9999
-9999 0.014741146937012672 0.030745169147849083 0.0755705013871193 0.08984716236591339 0.08840904384851456 0.08690472692251205 0.08543582260608673 0.08406394720077515 0.08283476531505585 0.08177996426820755 0.08089607954025269 0.08016574382781982 0.0795573964715004 0.07902583479881287 0.07850992679595947 0.06445500999689102 0.0252843014895916 0.011602986603975296 0.011466776952147484
-9999 -9999 0.014160159975290298 0.06147047132253647 0.0881711021065712 0.08686737716197968 0.0855315700173378 0.0841902568936348 0.08290135115385056 0.08171159029006958 0.08065281808376312 0.07972285896539688 0.07890747487545013 0.07817728072404861 0.07748638838529587 0.0767558366060257 0.07582617551088333 0.06198975443840027 0.05072340369224548 0.05036870390176773
-9999 -9999 0.01378934271633625 0.029178839176893234 0.07185496389865875 0.08564362674951553 0.08451443910598755 0.08329448848962784 0.08207717537879944 0.08092350512742996 0.07986931502819061 0.07891429215669632 0.07804799824953079 0.07724693417549133 0.07647613435983658 0.07568453252315521 0.07481352239847183 0.0738598108291626 0.07310479134321213 0.07271946221590042
-9999 -9999 -9999 0.013412049040198326 0.058968544006347656 0.08495726436376572 0.08397059887647629 0.08282792568206787 0.08165407925844193 0.08052290976047516 0.07947239279747009 0.07850702106952667 0.07761760801076889 0.07678543031215668 0.07598414272069931 0.07518334686756134 0.07436484843492508 0.07357476651668549 0.0729556530714035 0.07262512296438217
