ncols         20
nrows         20
xllcorner     0
yllcorner     -3.5992928
cellsize      0.17996463
NODATA_value  -9999
-9999.0 -9999 -9999 -9999 -9999 -9999 -9999 -9999 -9999 -9999 -9999 -9999 -9999 -9999 -9999 -9999 -9999 -9999 -9999 -9999
-9999 -9999 -9999 -9999 -9999 -9999 -9999 -9999 -9999 -9999 -9999 0 0 -9999 -9999 0 0 -9999 -9999 -9999
-9999 -9999 -9999 -9999 0 0 0 0 0 0 0 0 0 0 0 0 0 0 -9999 -9999
-9999 -9999 -9999 0 0 0 0 0 0 0 0 0 0 0 0 0 0 0 -9999 -9999
-9999 -9999 -9999 0 0 0 0 0 0 0 0 0 0 0 0 0 0 0 -9999 -9999
-9999 -9999 0 0 0 0 3.4379987716674805 3.2872304916381836 3.137777090072632 2.947521686553955 2.744831085205078 2.6480391025543213 2.7039566040039062 2.92364239692688 3.2179648876190186 3.52773118019104 0 0 0 -9999
-9999 -9999 0 0 0 3.489391326904297 3.2424535751342773 3.005251884460449 2.717956066131592 2.372270107269287 2.048501968383789 1.8785157203674316 1.9199353456497192 2.1811680793762207 0.28799524903297424 3.086777448654175 0 0 0 -9999
-9999 -9999 0 0 3.657628059387207 3.375413179397583 3.067739963531494 2.704559087753296 2.289273738861084 1.8639402389526367 1.5313631296157837 1.3495408296585083 1.362977147102356 1.578160047531128 1.9720633029937744 2.49076247215271 3.05295991897583 0 0 -9999
-9999 0 0 3.949209690093994 3.6192080974578857 3.242347002029419 2.7886271476745605 2.281121015548706 1.791586995124817 1.3887864351272583 1.1212937831878662 0.9817739129066467 0.9720150232315063 1.1150411367416382 1.407147765159607 0.4106507897377014 2.378704309463501 2.8889763355255127 0 -9999
-9999 0 0 4.017425537109375 3.529510498046875 2.9597883224487305 2.3348875045776367 1.7316540479660034 1.252589225769043 0.9369187951087952 0.7642934918403625 0.6784533262252808 0.6725406050682068 0.7508748769760132 0.9423472285270691 0.27958905696868896 1.7006802558898926 2.1549630165100098 0 -9999
-9999 0 0 3.986278772354126 3.301201820373535 2.5695440769195557 1.8328555822372437 1.2048336267471313 0.7906947731971741 0.5634463429450989 0.45398929715156555 0.4083360731601715 0.4057130813598633 0.4496106207370758 0.5593688488006592 0.7647296786308289 1.0684254169464111 0 0 -9999
-9999 0 0 3.744086742401123 2.914679765701294 2.117604970932007 1.3799687623977661 0.8141008615493774 0.4811181426048279 0.31266167759895325 0.23876047134399414 0.20707473158836365 0.09038647264242172 0.12215499579906464 0.2688688039779663 0.08350494503974915 0.5578259229660034 0 0 -9999
-9999 0 0 3.2067153453826904 2.3504960536956787 1.605799674987793 0.9833526015281677 0.5357764363288879 0.2860330641269684 0.1717078983783722 0.11319784075021744 0.08989612758159637 0.054283760488033295 0.07444976270198822 0.06751974672079086 0.14135003089904785 0.23021529614925385 0 0 -9999
-9999 0 0 2.462254762649536 1.6657207012176514 1.0670950412750244 0.6249003410339355 0.3303772509098053 0.16457197070121765 0.09373658895492554 0.0602152980864048 0.04421456530690193 0.016134202480316162 0.026421863585710526 0.024219505488872528 0.046862803399562836 0.07180308550596237 0 0 -9999
-9999 0 0 1.7691075801849365 1.0750125646591187 0.6356034874916077 0.3575379550457001 0.18389444053173065 0.09787856787443161 0.056707270443439484 0.03661579266190529 0.0256618894636631 0.019719377160072327 0.016892626881599426 0.010508475825190544 0.009556389413774014 0.02163330279290676 0 -9999 -9999
-9999 0 0 1.310423731803894 0.7202463746070862 0.38096851110458374 0.19980600476264954 0.10653731226921082 0.06104957312345505 0.03728746622800827 0.016561836004257202 0.013589423149824142 0.0015564518980681896 0.015345586463809013 0.007568742148578167 0.008379995822906494 0.020598972216248512 0.0031354804523289204 -9999 -9999
-9999 0 0 1.0374996662139893 0.5277969837188721 0.23942045867443085 0.12080476433038712 0.06456189602613449 0.03819788247346878 0.016236191615462303 0.014997080899775028 0.014971066266298294 0.012490635737776756 0.017681581899523735 0.019639238715171814 0.02176676131784916 0.023976320400834084 0.026411348953843117 0.021448105573654175 0.03171117976307869
-9999 -9999 0 0.8390247225761414 0.41021814942359924 0.1738940328359604 0.08056195080280304 0.04177155718207359 0.013701722957193851 0.01458924263715744 0.01617407612502575 0.016752734780311584 0.016035810112953186 0.015466015785932541 0.014704888686537743 0.01624373346567154 0.01779772713780403 0.022538818418979645 0.027683841064572334 0.03225553780794144
-9999 -9999 0 0 0.32589250802993774 0.1311447024345398 0.05686207488179207 0.02802378125488758 0.01231694221496582 0.017573771998286247 0.017489096149802208 0.018204109743237495 0.019636936485767365 0.02162492647767067 0.023913882672786713 0.026279311627149582 0.02855272963643074 0.03052390180528164 0.031993716955184937 0.032758958637714386
-9999 -9999 -9999 0 0.2780873775482178 0.11404765397310257 0.04786290228366852 0.02299494482576847 0.012691956013441086 0.01823597587645054 0.018228286877274513 0.019005062058568 0.020509356632828712 0.02256753109395504 0.024912752211093903 0.027277998626232147 0.029491515830159187 0.031235916540026665 0.032442886382341385 0.033059362322092056
