ncols         20
nrows         20
xllcorner     0
yllcorner     -3.5992928
cellsize      0.17996463
NODATA_value  -9999
-9999.0 -9999 -9999 -9999 -9999 -9999 -9999 -9999 -9999 -9999 -9999 -9999 -9999 -9999 -9999 -9999 -9999 -9999 -9999 -9999
-9999 -9999 -9999 -9999 -9999 -9999 -9999 -9999 -9999 -9999 -9999 26.927936553955078 26.932147979736328 -9999 -9999 27.04645347595215 27.112085342407227 -9999 -9999 -9999
-9999 -9999 -9999 -9999 27.085956573486328 26.986486434936523 26.831497192382812 26.703460693359375 26.62494659423828 26.600833892822266 26.672767639160156 26.760156631469727 26.745746612548828 26.676517486572266 26.732797622680664 26.887039184570312 26.9798583984375 26.98999786376953 -9999 -9999
-9999 -9999 -9999 27.118696212768555 27.073135375976562 26.994525909423828 26.882320404052734 26.783456802368164 26.7132511138916 26.687183380126953 26.697948455810547 26.715450286865234 26.686813354492188 26.647377014160156 26.65420150756836 26.714956283569336 26.752479553222656 26.744884490966797 -9999 -9999
-9999 -9999 -9999 27.09223747253418 27.077491760253906 27.049793243408203 27.03183364868164 27.016157150268555 27.03178596496582 27.103416442871094 27.18875503540039 27.22918701171875 27.168415069580078 27.021974563598633 26.855287551879883 26.718393325805664 26.558040618896484 26.414915084838867 -9999 -9999
-9999 -9999 27.076702117919922 27.075916290283203 27.10930061340332 27.20949935913086 27.38823699951172 27.55803680419922 27.797229766845703 28.09227180480957 28.366470336914062 28.50617027282715 28.428508758544922 28.1297607421875 27.684099197387695 27.181272506713867 26.673725128173828 26.306896209716797 26.101524353027344 -9999
-9999 -9999 26.98155403137207 27.051477432250977 27.190332412719727 27.453462600708008 27.79570198059082 28.239593505859375 28.764379501342773 29.323514938354492 29.790340423583984 30.029104232788086 29.960630416870117 29.565061569213867 28.88814353942871 28.104354858398438 27.277141571044922 26.656808853149414 26.33734703063965 -9999
-9999 -9999 26.754924774169922 26.953739166259766 27.281408309936523 27.72132110595703 28.330472946166992 29.072101593017578 29.8695011138916 30.615625381469727 31.176515579223633 31.45937156677246 31.418771743774414 31.037012100219727 30.33068084716797 29.410974502563477 28.430063247680664 27.572866439819336 27.08711814880371 -9999
-9999 26.101856231689453 26.408252716064453 26.863285064697266 27.40365219116211 28.14496421813965 29.09107208251953 30.120655059814453 31.094444274902344 31.889080047607422 32.430328369140625 32.69422912597656 32.67329025268555 32.35512924194336 31.733322143554688 30.851299285888672 29.896408081054688 29.008281707763672 28.436851501464844 -9999
-9999 25.84894371032715 26.18097686767578 26.858957290649414 27.731914520263672 28.869182586669922 30.13302230834961 31.348955154418945 32.3548698425293 33.079444885253906 33.52830505371094 33.732269287109375 33.70968246459961 33.46735763549805 32.988887786865234 32.27720642089844 31.465682983398438 30.666231155395508 30.137561798095703 -9999
-9999 25.6328182220459 26.109373092651367 27.10338020324707 28.392045974731445 29.8554630279541 31.3129825592041 32.57076644897461 33.50178909301758 34.11090850830078 34.456459045410156 34.5888786315918 34.54432678222656 34.36442565917969 34.040611267089844 33.543052673339844 32.93438720703125 32.301109313964844 31.892215728759766 -9999
-9999 25.76764488220215 26.43703842163086 27.78116226196289 29.37849235534668 30.996688842773438 32.4698600769043 33.640228271484375 34.45199966430664 34.95714569091797 35.22378158569336 35.29457473754883 35.20672607421875 35.067752838134766 34.876407623291016 34.55278015136719 34.149662017822266 33.708534240722656 33.418601989746094 -9999
-9999 26.500778198242188 27.366395950317383 28.949161529541016 30.65024757385254 32.2210578918457 33.54071807861328 34.53993606567383 35.22321701049805 35.64196014404297 35.87307357788086 35.92041015625 35.834228515625 35.727783203125 35.598854064941406 35.41408920288086 35.11302185058594 34.78296661376953 34.54032516479492 -9999
-9999 27.836294174194336 28.790325164794922 30.42119789123535 32.046993255615234 33.42304992675781 34.50035858154297 35.296630859375 35.855384826660156 36.18207931518555 36.35715866088867 36.4144172668457 36.38197708129883 36.33318328857422 36.2567138671875 36.13251495361328 35.90666198730469 35.606056213378906 35.24357986450195 -9999
-9999 29.334339141845703 30.290298461914062 31.83548355102539 33.298221588134766 34.45133590698242 35.303955078125 35.924617767333984 36.32003402709961 36.55636215209961 36.69114685058594 36.777008056640625 36.831581115722656 36.86200714111328 36.836483001708984 36.759300231933594 36.62118148803711 36.43060302734375 -9999 -9999
-9999 30.564552307128906 31.522247314453125 32.94217300415039 34.23404312133789 35.22554397583008 35.933143615722656 36.387855529785156 36.659610748291016 36.810543060302734 36.89863204956055 37.00120544433594 37.121822357177734 37.236412048339844 37.27824401855469 37.2692985534668 37.22386932373047 37.1927604675293 -9999 -9999
-9999 31.348796844482422 32.498863220214844 33.75642013549805 34.895103454589844 35.79375076293945 36.37815475463867 36.736846923828125 36.92667770385742 37.01786422729492 37.093849182128906 37.20567321777344 37.35468292236328 37.50998306274414 37.60637283325195 37.64442443847656 37.64508056640625 37.65638732910156 37.7608642578125 37.81520462036133
-9999 -9999 33.61865234375 34.44171142578125 35.372413635253906 36.16185760498047 36.69097137451172 37.006866455078125 37.15317153930664 37.228759765625 37.29559326171875 37.403961181640625 37.554161071777344 37.720741271972656 37.841033935546875 37.9007682800293 37.92349624633789 37.928340911865234 37.94205856323242 37.932193756103516
-9999 -9999 34.2567024230957 34.94141387939453 35.70486068725586 36.41009521484375 36.915679931640625 37.22322082519531 37.35991668701172 37.423553466796875 37.47584915161133 37.57616424560547 37.72462844848633 37.89176559448242 38.0175895690918 38.086360931396484 38.11576843261719 38.10553741455078 38.065032958984375 38.03824996948242
-9999 -9999 -9999 35.36491775512695 35.93006134033203 36.545204162597656 37.03309631347656 37.33792495727539 37.468631744384766 37.52573776245117 37.573204040527344 37.662200927734375 37.80951690673828 37.979095458984375 38.114620208740234 38.187469482421875 38.22734832763672 38.19496154785156 38.146297454833984 38.11751174926758
