ncols         20
nrows         20
xllcorner     0
yllcorner     -3.5992928
cellsize      0.17996463
NODATA_value  -9999
-9999.0 -9999 -9999 -9999 -9999 -9999 -9999 -9999 -9999 -9999 -9999 -9999 -9999 -9999 -9999 -9999 -9999 -9999 -9999 -9999
-9999 -9999 -9999 -9999 -9999 -9999 -9999 -9999 -9999 -9999 -9999 19.098962783813477 19.106897354125977 -9999 -9999 19.027328491210938 19.028358459472656 -9999 -9999 -9999
-9999 -9999 -9999 -9999 19.025880813598633 19.04886817932129 19.07036590576172 19.10240936279297 19.131471633911133 19.13352394104004 19.17281150817871 19.144596099853516 19.134767532348633 19.161985397338867 19.154674530029297 19.100799560546875 19.0780086517334 19.08971405029297 -9999 -9999
-9999 -9999 -9999 19.036170959472656 19.028852462768555 19.049619674682617 19.069766998291016 19.09088897705078 19.095947265625 19.097213745117188 19.080970764160156 19.08099937438965 19.09038543701172 19.12765884399414 19.141950607299805 19.14438247680664 19.151912689208984 19.171308517456055 -9999 -9999
-9999 -9999 -9999 19.06570816040039 19.066587448120117 19.049869537353516 19.03040885925293 19.00481414794922 18.968830108642578 18.907011032104492 18.844179153442383 18.826568603515625 18.858440399169922 18.950679779052734 19.039213180541992 19.128299713134766 19.21591567993164 19.23883056640625 -9999 -9999
-9999 -9999 19.148540496826172 19.11376953125 19.089937210083008 19.03514289855957 18.94486427307129 18.8406982421875 18.71298599243164 18.56871795654297 18.448389053344727 18.41070556640625 18.466115951538086 18.614389419555664 18.80427360534668 18.983776092529297 19.175125122070312 19.29511070251465 19.43086814880371 -9999
-9999 -9999 19.21683120727539 19.18647575378418 19.105226516723633 18.978330612182617 18.810632705688477 18.58112144470215 18.328649520874023 18.149351119995117 18.038393020629883 18.01691436767578 18.079837799072266 18.249332427978516 18.483821868896484 18.74958038330078 19.004650115966797 19.213638305664062 19.330480575561523 -9999
-9999 -9999 19.32344627380371 19.235305786132812 19.084392547607422 18.90289306640625 18.614532470703125 18.567359924316406 18.12632179260254 17.924497604370117 17.8782958984375 17.955291748046875 17.795324325561523 17.934053421020508 18.154781341552734 18.42361068725586 18.704450607299805 18.95624351501465 19.10468864440918 -9999
-9999 19.485462188720703 19.426273345947266 19.252689361572266 19.047822952270508 18.77899932861328 18.37322235107422 18.146135330200195 17.7026424407959 17.541311264038086 17.536609649658203 17.640060424804688 17.576440811157227 17.689958572387695 17.860076904296875 18.085620880126953 18.339414596557617 18.577354431152344 18.740345001220703 -9999
-9999 19.499399185180664 19.467947006225586 19.242048263549805 18.963768005371094 18.611295700073242 18.169614791870117 17.916948318481445 17.530296325683594 17.39761734008789 17.398605346679688 17.48809242248535 17.4409236907959 17.51256561279297 17.620203018188477 17.78157615661621 17.979219436645508 18.169452667236328 18.296302795410156 -9999
-9999 19.497577667236328 19.44952392578125 19.180139541625977 18.832000732421875 18.408166885375977 17.991352081298828 17.79533576965332 17.480701446533203 17.366867065429688 17.3621883392334 17.42510986328125 17.350440979003906 17.37848472595215 17.434730529785156 17.530616760253906 17.666521072387695 17.800827026367188 17.887447357177734 -9999
-9999 19.445039749145508 19.366491317749023 19.003726959228516 18.590274810791016 18.1739559173584 17.826021194458008 17.721317291259766 17.4830265045166 17.388778686523438 17.37580108642578 17.410192489624023 17.290761947631836 17.286706924438477 17.308563232421875 17.353679656982422 17.427814483642578 17.51263999938965 17.572933197021484 -9999
-9999 19.319656372070312 19.15663719177246 18.701316833496094 18.281147003173828 17.92411231994629 17.644445419311523 17.463943481445312 17.350730895996094 17.303131103515625 17.286365509033203 17.28033447265625 17.2624568939209 17.258543014526367 17.258705139160156 17.271678924560547 17.29311752319336 17.330862045288086 17.375770568847656 -9999
-9999 19.043834686279297 18.7470760345459 18.326322555541992 17.969867706298828 17.690574645996094 17.49271583557129 17.37177085876465 17.31447982788086 17.29195213317871 17.28338050842285 17.27857208251953 17.277263641357422 17.280635833740234 17.289722442626953 17.29100799560547 17.281267166137695 17.252779006958008 17.32561683654785 -9999
-9999 18.599140167236328 18.336973190307617 18.003644943237305 17.721534729003906 17.515377044677734 17.3867244720459 17.319883346557617 17.293472290039062 17.286989212036133 17.284719467163086 17.289546966552734 17.299335479736328 17.312681198120117 17.333675384521484 17.343917846679688 17.34420394897461 17.26737403869629 -9999 -9999
-9999 18.266326904296875 18.042985916137695 17.780864715576172 17.558542251586914 17.41402244567871 17.332841873168945 17.2999267578125 17.28598976135254 17.282421112060547 17.280818939208984 17.29009246826172 17.309371948242188 17.334753036499023 17.35883140563965 17.38174819946289 17.396093368530273 17.45960807800293 -9999 -9999
-9999 18.091739654541016 17.847225189208984 17.63679313659668 17.466196060180664 17.370607376098633 17.320375442504883 17.305587768554688 17.296663284301758 17.293285369873047 17.293519973754883 17.304574966430664 17.32591438293457 17.349206924438477 17.374929428100586 17.399816513061523 17.420154571533203 17.44039535522461 17.411718368530273 17.434165954589844
-9999 -9999 17.63935089111328 17.52798080444336 17.414587020874023 17.349834442138672 17.32686996459961 17.32152557373047 17.316259384155273 17.314319610595703 17.314193725585938 17.32417106628418 17.33999252319336 17.36783218383789 17.390817642211914 17.40696144104004 17.42630386352539 17.439130783081055 17.450271606445312 17.431575775146484
-9999 -9999 17.575929641723633 17.465356826782227 17.385496139526367 17.35161590576172 17.347183227539062 17.350717544555664 17.34978675842285 17.34539794921875 17.337554931640625 17.34686851501465 17.362451553344727 17.3862247467041 17.401325225830078 17.412654876708984 17.425294876098633 17.436433792114258 17.419689178466797 17.414278030395508
-9999 -9999 -9999 17.400653839111328 17.363584518432617 17.34701156616211 17.354660034179688 17.361438751220703 17.358509063720703 17.352298736572266 17.347843170166016 17.349306106567383 17.365421295166016 17.387718200683594 17.406482696533203 17.410037994384766 17.430295944213867 17.418054580688477 17.410974502563477 17.40845489501953
