ncols         20
nrows         20
xllcorner     0
yllcorner     -3.5992928
cellsize      0.17996463
NODATA_value  -9999
-9999.0 -9999 -9999 -9999 -9999 -9999 -9999 -9999 -9999 -9999 -9999 -9999 -9999 -9999 -9999 -9999 -9999 -9999 -9999 -9999
-9999 -9999 -9999 -9999 -9999 -9999 -9999 -9999 -9999 -9999 -9999 0.011345223523676395 0.010943127796053886 -9999 -9999 0.009176328778266907 0.008076139725744724 -9999 -9999 -9999
-9999 -9999 -9999 -9999 0.01151614636182785 0.013289708644151688 0.01682487688958645 0.020119940862059593 0.022487802430987358 0.024032093584537506 0.01987886242568493 0.016950353980064392 0.016890861093997955 0.01720069907605648 0.014330733567476273 0.01106386911123991 0.009092229418456554 0.00803877878934145 -9999 -9999
-9999 -9999 -9999 0.010739149525761604 0.012427099980413914 0.014991230331361294 0.019163884222507477 0.023873919621109962 0.029516633599996567 0.03468994423747063 0.038206662982702255 0.03780839219689369 0.03651522472500801 0.031234897673130035 0.02429851144552231 0.017391009256243706 0.01285659521818161 0.010742309503257275 -9999 -9999
-9999 -9999 -9999 0.011120996437966824 0.013304388150572777 0.01829785853624344 0.025556810200214386 0.035566296428442 0.05001011863350868 0.07217296957969666 0.09732653200626373 0.11065729707479477 0.10465186089277267 0.07937468588352203 0.05495456978678703 0.03450104594230652 0.022753171622753143 0.020143743604421616 -9999 -9999
-9999 -9999 0.008523638360202312 0.011021035723388195 0.015122996643185616 0.02269069477915764 0.03424941748380661 0.05249318480491638 0.08687134087085724 0.14349496364593506 0.21903155744075775 0.26343628764152527 0.25731131434440613 0.1940196007490158 0.12325997650623322 0.07283473014831543 0.045278485864400864 0.03615305945277214 0.03120165504515171 -9999
-9999 -9999 0.008974178694188595 0.01155021134763956 0.018332162871956825 0.030541369691491127 0.049285486340522766 0.08216831833124161 0.1442975252866745 0.24761028587818146 0.38069087266921997 0.4737327992916107 0.4747657775878906 0.3831794559955597 0 0.156122088432312 0.09452884644269943 0.06439295411109924 0.0540742352604866 -9999
-9999 -9999 0.01091222558170557 0.015295607037842274 0.026764625683426857 0.047164443880319595 0.08198795467615128 0.14093419909477234 0.23513083159923553 0.37456634640693665 0.5232885479927063 0.6394023895263672 0.6619530320167542 0.583672285079956 0.4472871422767639 0.30096760392189026 0.1933138221502304 0.13030339777469635 0.10821203142404556 -9999
-9999 0.010449998080730438 0.014835634268820286 0.02396247535943985 0.04657053202390671 0.08877716958522797 0.1556771844625473 0.26020267605781555 0.3966156840324402 0.5473741292953491 0.6775880455970764 0.7783510684967041 0.8281068801879883 0.7924206256866455 0.6932131052017212 0 0.3660735487937927 0.25521400570869446 0.2133607119321823 -9999
-9999 0.01521309930831194 0.02209654077887535 0.04293936863541603 0.08925049751996994 0.17264343798160553 0.3002786934375763 0.4706040620803833 0.6460390090942383 0.7860679626464844 0.8783910274505615 0.959298312664032 1.0191621780395508 1.0342729091644287 0.9785116910934448 0 0.6306830644607544 0.4686725437641144 0.40374094247817993 -9999
-9999 0.027971992269158363 0.04066724702715874 0.07864364236593246 0.1557576060295105 0.28920188546180725 0.4894806146621704 0.7278703451156616 0.9197679758071899 1.0390855073928833 1.1197304725646973 1.2057175636291504 1.3073383569717407 1.3542137145996094 1.3149526119232178 1.2048919200897217 0.9882099628448486 0.7922893166542053 0.7049878835678101 -9999
-9999 0.05843932926654816 0.08066551387310028 0.14571386575698853 0.2616831064224243 0.43943753838539124 0.6865713596343994 0.9411607980728149 1.1070072650909424 1.1969661712646484 1.2751003503799438 1.4041739702224731 0 0 1.6580276489257812 0 1.3740205764770508 1.1787148714065552 1.0801661014556885 -9999
-9999 0.12548407912254333 0.16725154221057892 0.2786683738231659 0.4342368245124817 0.638768196105957 0.8793790340423584 1.088491678237915 1.1868054866790771 1.2201353311538696 1.2711155414581299 1.3892717361450195 0 0 0 1.6066324710845947 1.5263067483901978 1.435420274734497 1.3407344818115234 -9999
-9999 0.2458188235759735 0.31595438718795776 0.4871859550476074 0.6856354475021362 0.8829555511474609 1.059814214706421 1.1691696643829346 1.1902273893356323 1.1830111742019653 1.1976168155670166 1.2520310878753662 0 0 0 1.2838618755340576 1.3090368509292603 1.4093668460845947 1.3387287855148315 -9999
-9999 0.3918956518173218 0.48605814576148987 0.707474410533905 0.921684980392456 1.0667572021484375 1.1481291055679321 1.1706551313400269 1.1578726768493652 1.1467127799987793 1.1538035869598389 1.1324280500411987 1.0875786542892456 1.0133496522903442 0 0 0.8838393688201904 1.0663203001022339 -9999 -9999
-9999 0.5008326172828674 0.609965980052948 0.8474737405776978 1.032717227935791 1.1108336448669434 1.1230086088180542 1.1112277507781982 1.117160439491272 1.1468994617462158 0 0 0 0.7974126935005188 0 0 0.5160197615623474 0 -9999 -9999
-9999 0.5877112746238708 0.6994128823280334 0.9123857021331787 1.0569689273834229 1.0718281269073486 1.0385305881500244 1.0160564184188843 1.050065517425537 0 0 0 0 0.6491999626159668 0.504952073097229 0.3966832458972931 0.32227814197540283 0.26993823051452637 0 0
-9999 -9999 0.7870441675186157 0.9458112120628357 1.0475010871887207 1.012447476387024 0.9369082450866699 0.9049716591835022 0 0 0 0 0 0 0 0 0 0 0 0
-9999 -9999 0.8972090482711792 0.9788098335266113 1.0236546993255615 0.9393905401229858 0.8235586285591125 0.7644937038421631 0 0 0 0 0 0 0 0 0 0 0 0
-9999 -9999 -9999 0.9909067749977112 1.0074127912521362 0.9036493301391602 0.7669433951377869 0.6962977051734924 0 0 0 0 0 0 0 0 0 0 0 0
