ncols         20
nrows         20
xllcorner     0
yllcorner     -3.5992928
cellsize      0.17996463
NODATA_value  -9999
-9999.0 -9999 -9999 -9999 -9999 -9999 -9999 -9999 -9999 -9999 -9999 -9999 -9999 -9999 -9999 -9999 -9999 -9999 -9999 -9999
-9999 -9999 -9999 -9999 -9999 -9999 -9999 -9999 -9999 -9999 -9999 0.2154933512210846 0.21211779117584229 -9999 -9999 0.19049441814422607 0.1782437115907669 -9999 -9999 -9999
-9999 -9999 -9999 -9999 0.19011515378952026 0.20777396857738495 0.24067442119121552 0.27211257815361023 0.2972533702850342 0.31592488288879395 0.29278627038002014 0.2717006504535675 0.2731970250606537 0.2790175676345825 0.2534187436103821 0.2177431732416153 0.19606135785579681 0.18607300519943237 -9999 -9999
-9999 -9999 -9999 0.18739886581897736 0.2021610289812088 0.22652903199195862 0.2642599940299988 0.3057851791381836 0.35259729623794556 0.39486971497535706 0.4250611364841461 0.4293726086616516 0.42547178268432617 0.39441466331481934 0.34585922956466675 0.28908440470695496 0.24659915268421173 0.2252986878156662 -9999 -9999
-9999 -9999 -9999 0.19788415729999542 0.2187967151403427 0.26339277625083923 0.32261747121810913 0.396327942609787 0.4902666509151459 0.6128861904144287 0.7335231304168701 0.7966665029525757 0.7806416153907776 0.6788663864135742 0.5599309802055359 0.43913739919662476 0.35398778319358826 0.3329092562198639 -9999 -9999
-9999 -9999 0.18798288702964783 0.21015922725200653 0.2494751662015915 0.31498539447784424 0.4024128317832947 0.5209847688674927 0.7025215029716492 0.9404634237289429 1.1978057622909546 1.3372344970703125 1.3306609392166138 1.152410626411438 0.9091159105300903 0.692205548286438 0.5425167083740234 0.4868733584880829 0.4640049338340759 -9999
-9999 -9999 0.20323002338409424 0.23153534531593323 0.29839420318603516 0.39891570806503296 0.5285038948059082 0.7149397730827332 0.9903748631477356 1.3466734886169434 1.7157745361328125 1.9450780153274536 1.9578059911727905 1.7516639232635498 1.4448939561843872 1.0959681272506714 0.8477161526679993 0.6981414556503296 0.6426562666893005 -9999
-9999 -9999 0.2434634417295456 0.2918175756931305 0.39714884757995605 0.5473053455352783 0.7535393238067627 1.0311672687530518 1.3831558227539062 1.799799919128418 2.173370361328125 2.433483839035034 2.4863927364349365 2.3266258239746094 2.016420841217041 1.6368536949157715 1.3042347431182861 1.0672022104263306 0.9720489382743835 -9999
-9999 0.26896631717681885 0.3127564787864685 0.4025580585002899 0.5790444016456604 0.8307052254676819 1.1447705030441284 1.5361413955688477 1.9557751417160034 2.350843906402588 2.6550843715667725 2.8686165809631348 2.9639735221862793 2.8876984119415283 2.6745567321777344 2.3515450954437256 1.9138977527618408 1.596587061882019 1.459113597869873 -9999
-9999 0.3408695459365845 0.4124695360660553 0.5889100432395935 0.8772814273834229 1.2655208110809326 1.7305526733398438 2.236360549926758 2.68503999710083 3.010267496109009 3.2094614505767822 3.3616695404052734 3.4560494422912598 3.4640047550201416 3.3422014713287354 3.11710524559021 2.6584458351135254 2.295060634613037 2.13128399848938 -9999
-9999 0.4931618869304657 0.6020030975341797 0.860497236251831 1.2499178647994995 1.760419487953186 2.3639957904815674 2.9597668647766113 3.388646364212036 3.6376142501831055 3.7836716175079346 3.907031297683716 4.028791427612305 4.074696063995361 4.006916522979736 3.8232407569885254 3.479475259780884 3.1266839504241943 2.954963445663452 -9999
-9999 0.7619853615760803 0.9079611301422119 1.254589557647705 1.728632926940918 2.30281138420105 2.951873302459717 3.523566722869873 3.864514112472534 4.029908657073975 4.136507511138916 4.279717445373535 4.518982410430908 4.609311103820801 4.534081935882568 4.48989200592041 4.201411247253418 3.9266891479492188 3.7768170833587646 -9999
-9999 1.1909477710723877 1.3956040143966675 1.8431071043014526 2.352620840072632 2.913792610168457 3.478062629699707 3.9118642807006836 4.096711158752441 4.133549690246582 4.166238784790039 4.267020225524902 4.486111640930176 4.572422981262207 4.58320951461792 4.501676082611084 4.462806224822998 4.380201816558838 4.271636009216309 -9999
-9999 1.7668278217315674 2.026697874069214 2.5602915287017822 3.089721918106079 3.555267095565796 3.9284443855285645 4.132422924041748 4.143887519836426 4.077251434326172 4.024052143096924 4.016781330108643 4.084529876708984 4.061917304992676 4.0115532875061035 3.961301565170288 4.075702667236328 4.2952752113342285 4.2735137939453125 -9999
-9999 2.3291735649108887 2.617800712585449 3.2020599842071533 3.700061559677124 4.008649826049805 4.158446311950684 4.165318965911865 4.076258659362793 3.962829828262329 3.8668646812438965 3.735968589782715 3.58259916305542 3.4094364643096924 3.279388666152954 3.1973812580108643 3.2097644805908203 3.565608263015747 -9999 -9999
-9999 2.7106995582580566 3.019935131072998 3.6003003120422363 4.004366397857666 4.15435791015625 4.141540050506592 4.0454888343811035 3.944028615951538 3.853257179260254 3.791426181793213 3.5871386528015137 3.2864224910736084 2.9208567142486572 2.668837547302246 2.444314479827881 2.2948591709136963 2.0469536781311035 -9999 -9999
-9999 2.9868736267089844 3.306565284729004 3.8104658126831055 4.112165451049805 4.114880084991455 3.981945276260376 3.82422137260437 3.7289438247680664 3.677797794342041 3.5453827381134033 3.2861783504486084 2.925339460372925 2.5265402793884277 2.1916348934173584 1.9089401960372925 1.6858494281768799 1.485333800315857 1.3548967838287354 1.1909464597702026
-9999 -9999 3.584354877471924 3.9393179416656494 4.135228633880615 4.015332221984863 3.7658116817474365 3.5535073280334473 3.470658779144287 3.3581247329711914 3.194195508956909 2.9304392337799072 2.5926671028137207 2.1900196075439453 1.853047490119934 1.597638487815857 1.3686529397964478 1.2072046995162964 1.0915449857711792 1.1238479614257812
-9999 -9999 3.869044065475464 4.04528284072876 4.112822532653809 3.873701810836792 3.514512538909912 3.2274489402770996 3.0924205780029297 2.9655344486236572 2.847158908843994 2.598944664001465 2.2714614868164062 1.8983064889907837 1.606692910194397 1.3901616334915161 1.2095532417297363 1.0953034162521362 1.1283334493637085 1.1480333805084229
-9999 -9999 -9999 4.088339328765869 4.090328216552734 3.8004491329193115 3.382075309753418 3.0606682300567627 2.9114747047424316 2.7965269088745117 2.6711063385009766 2.4688072204589844 2.14674711227417 1.7854444980621338 1.4872008562088013 1.3139384984970093 1.1243478059768677 1.1247931718826294 1.149390459060669 1.1638896465301514
