ncols         20
nrows         20
xllcorner     0
yllcorner     -3.5992928
cellsize      0.17996463
NODATA_value  -9999
-9999.0 -9999 -9999 -9999 -9999 -9999 -9999 -9999 -9999 -9999 -9999 -9999 -9999 -9999 -9999 -9999 -9999 -9999 -9999 -9999
-9999 -9999 -9999 -9999 -9999 -9999 -9999 -9999 -9999 -9999 -9999 0.017849836498498917 0.01784723997116089 -9999 -9999 0.01790628209710121 0.017912331968545914 -9999 -9999 -9999
-9999 -9999 -9999 -9999 0.01801898702979088 0.017981240525841713 0.0179247185587883 0.0178546030074358 0.01778281480073929 0.01772306300699711 0.01768864132463932 0.037495777010917664 0.03747978061437607 0.017654690891504288 0.01767166331410408 0.03758525848388672 0.03762471303343773 0.017751481384038925 -9999 -9999
-9999 -9999 -9999 0.01791687123477459 0.03792444244027138 0.07886594533920288 0.07859808206558228 0.07824245095252991 0.07787104696035385 0.07755029946565628 0.07733361423015594 0.09303532540798187 0.09296417981386185 0.07712996751070023 0.07720360159873962 0.09320496767759323 0.07754623889923096 0.017586948350071907 -9999 -9999
-9999 -9999 -9999 0.01777784526348114 0.07837040722370148 0.11318767070770264 0.11271896213293076 0.11210069805383682 0.11146103590726852 0.11090563237667084 0.1105140745639801 0.11034233123064041 0.11023665964603424 0.11017678678035736 0.11030086129903793 0.11054517328739166 0.07649967074394226 0.017308227717876434 -9999 -9999
-9999 -9999 0.01750899665057659 0.037147220224142075 0.09328313916921616 0.11182920634746552 0.11120379716157913 0.11041679978370667 0.10962363332509995 0.10894449800252914 0.10845042020082474 0.10816824436187744 0.10805238783359528 0.10808062553405762 0.10824805498123169 0.10844682902097702 0.0902063250541687 0.035758983343839645 0.0167782474309206 -9999
-9999 -9999 0.017332643270492554 0.07636894285678864 0.11041151732206345 0.10993675142526627 0.10908155888319016 0.10806165635585785 0.10707402229309082 0.10624776780605316 0.10565537959337234 0.10530824214220047 0.10517385601997375 0.1052340492606163 0.1054639145731926 0.1057424396276474 0.10579684376716614 0.07291432470083237 0.016529671847820282 -9999
-9999 -9999 0.01705959439277649 0.07521776854991913 0.10844996571540833 0.10767675936222076 0.10655229538679123 0.10530350357294083 0.10417613387107849 0.10328344255685806 0.10263563692569733 0.10222874581813812 0.10204100608825684 0.10205714404582977 0.10226745903491974 0.10265081375837326 0.10298281908035278 0.07127819210290909 0.01616888865828514 -9999
-9999 0.016643594950437546 0.0353415347635746 0.08873868733644485 0.10617242008447647 0.10515759885311127 0.10379791259765625 0.10242483764886856 0.10125218331813812 0.10031798481941223 0.09962528944015503 0.09916740655899048 0.09892776608467102 0.09889069944620132 0.09904225170612335 0.0993545651435852 0.09975871443748474 0.06918244063854218 0.015715867280960083 -9999
-9999 0.016453897580504417 0.07236586511135101 0.10448407381772995 0.1037755012512207 0.10249859094619751 0.1009662076830864 0.09956634044647217 0.09837566316127777 0.09741789847612381 0.09669018536806107 0.09618832916021347 0.09589990228414536 0.09580965340137482 0.09589936584234238 0.09613770991563797 0.09645704180002213 0.06691466271877289 0.015214595943689346 -9999
-9999 0.01619255170226097 0.07115361094474792 0.10232917964458466 0.10128416121006012 0.09977035969495773 0.09819065779447556 0.09678605198860168 0.09559448808431625 0.09462396055459976 0.09386978298425674 0.09333144873380661 0.0930001512169838 0.09286145120859146 0.09289935976266861 0.09308789670467377 0.09336677938699722 0.06474339962005615 0.014718105085194111 -9999
-9999 0.015873150900006294 0.0696454867720604 0.09992383420467377 0.09867413341999054 0.09704446792602539 0.09549464285373688 0.09411663562059402 0.09293757379055023 0.0919625535607338 0.09118883311748505 0.09062022715806961 0.09025102853775024 0.09006781876087189 0.09006435424089432 0.09023712575435638 0.0905519425868988 0.06285332143306732 0.014283121563494205 -9999
-9999 0.015519745647907257 0.06798650324344635 0.0973665788769722 0.09599863737821579 0.09441045671701431 0.09292177110910416 0.09158955514431 0.09043367952108383 0.0894622877240181 0.08867274224758148 0.08807478845119476 0.08766287565231323 0.0874284952878952 0.08737926930189133 0.08754722028970718 0.08802821487188339 0.06135372444987297 0.013939613476395607 -9999
-9999 0.015158571302890778 0.06629788875579834 0.09478515386581421 0.0933825820684433 0.09191126376390457 0.09051156044006348 0.08923941850662231 0.08811675757169724 0.08716074377298355 0.08636634051799774 0.0857379212975502 0.08527293056249619 0.08496713638305664 0.08483009040355682 0.08488942682743073 0.07064425945281982 0.028581814840435982 0.013691721484065056 -9999
-9999 0.014820101670920849 0.06472499668598175 0.09235194325447083 0.09099580347537994 0.08961883932352066 0.08830872178077698 0.08710476011037827 0.08603410422801971 0.08510274440050125 0.08430697023868561 0.08364781737327576 0.08312201499938965 0.08272711932659149 0.08246655017137527 0.082344651222229 0.05689259245991707 0.012902842834591866 -9999 -9999
-9999 0.014539499767124653 0.06309613585472107 0.09022723138332367 0.08885148167610168 0.08756343275308609 0.08634878695011139 0.08523023128509521 0.08421875536441803 0.08332004398107529 0.08252900838851929 0.08184345066547394 0.081258624792099 0.08076976239681244 0.08037492632865906 0.08007004112005234 0.054799579083919525 0.012403622269630432 -9999 -9999
-9999 0.014341311529278755 0.02979288250207901 0.0729985162615776 0.08687493205070496 0.08575860410928726 0.08467346429824829 0.08364894241094589 0.08270207792520523 0.08184012025594711 0.0810568556189537 0.08035125583410263 0.07971631735563278 0.07914245128631592 0.07861551642417908 0.07810452580451965 0.06415673345327377 0.02522241696715355 0.011621472425758839 0.011504088528454304
-9999 -9999 0.013674664311110973 0.059332799166440964 0.08526556193828583 0.08428211510181427 0.08332756906747818 0.08239901810884476 0.08151619136333466 0.08068964630365372 0.07991743087768555 0.07919975370168686 0.07852880656719208 0.07789153605699539 0.077265664935112 0.07659956812858582 0.07576942443847656 0.06208083778619766 0.05090026557445526 0.05058932304382324
-9999 -9999 0.013298554345965385 0.028166336938738823 0.06954041123390198 0.083145871758461 0.08235570788383484 0.08152074366807938 0.0806933268904686 0.07989730685949326 0.07913689315319061 0.07841399312019348 0.07772183418273926 0.07704896479845047 0.07637783139944077 0.07567756623029709 0.0749085322022438 0.07407420128583908 0.07341528683900833 0.07307421416044235
-9999 -9999 -9999 0.012954453006386757 0.05710823833942413 0.08251571655273438 0.08183732628822327 0.08106183260679245 0.08026763051748276 0.07948903739452362 0.07873635739088058 0.07801248878240585 0.07731125503778458 0.07662371546030045 0.07593773305416107 0.07523836195468903 0.07451986521482468 0.07382739335298538 0.07328525185585022 0.0729929655790329
