ncols         20
nrows         20
xllcorner     0
yllcorner     -3.5992928
cellsize      0.17996463
NODATA_value  -9999
-9999.0 -9999 -9999 -9999 -9999 -9999 -9999 -9999 -9999 -9999 -9999 -9999 -9999 -9999 -9999 -9999 -9999 -9999 -9999 -9999
-9999 -9999 -9999 -9999 -9999 -9999 -9999 -9999 -9999 -9999 -9999 1.2929534912109375 1.290878176689148 -9999 -9999 1.3750455379486084 1.3465720415115356 -9999 -9999 -9999
-9999 -9999 -9999 -9999 1.305351972579956 1.320344090461731 1.3449128866195679 1.345704197883606 1.3356975317001343 1.3345438241958618 1.3064115047454834 1.3239880800247192 1.3512358665466309 1.3729809522628784 1.3821008205413818 1.386080026626587 1.3654024600982666 1.3414262533187866 -9999 -9999
-9999 -9999 -9999 1.3342393636703491 1.348044514656067 1.3603918552398682 1.371840476989746 1.3666713237762451 1.3603127002716064 1.3495469093322754 1.3491430282592773 1.3636765480041504 1.3909467458724976 1.4147192239761353 1.4422802925109863 1.4498647451400757 1.4267252683639526 1.4004968404769897 -9999 -9999
-9999 -9999 -9999 1.366899013519287 1.384729027748108 1.4158567190170288 1.418822169303894 1.4004497528076172 1.3491430282592773 1.2690519094467163 1.1909700632095337 1.1610453128814697 1.200691819190979 1.3004369735717773 1.4149258136749268 1.479470133781433 1.48886239528656 1.5063618421554565 -9999 -9999
-9999 -9999 1.3763266801834106 1.4067041873931885 1.4385244846343994 1.455824613571167 1.4275907278060913 1.3476009368896484 1.1938657760620117 0.9844074845314026 0.7883901000022888 0.7002443075180054 0.7357967495918274 0.9074146151542664 1.156955599784851 1.3552017211914062 1.4726951122283936 1.5134307146072388 1.482913613319397 -9999
-9999 -9999 1.4066050052642822 1.4393523931503296 1.4875813722610474 1.4819563627243042 1.3992384672164917 1.2184258699417114 0.9446963667869568 0.6460323333740234 0.4240274429321289 0.32875940203666687 0.3467172682285309 0.4909200966358185 0 1.0653049945831299 1.3083263635635376 1.43655264377594 1.4728153944015503 -9999
-9999 -9999 1.4768335819244385 1.5142730474472046 1.5335370302200317 1.4689900875091553 1.281802773475647 0.984758734703064 0.652023196220398 0.37700146436691284 0.21812796592712402 0.15267252922058105 0.15601004660129547 0.2305586338043213 0.4066150188446045 0.6779470443725586 0.9676849842071533 1.1948531866073608 1.2960031032562256 -9999
-9999 1.5071343183517456 1.562136173248291 1.5768369436264038 1.5292474031448364 1.336668610572815 1.0128865242004395 0.6504750847816467 0.3626052141189575 0.18831272423267365 0.10550493001937866 0.07305832207202911 0.07125972956418991 0.10249809175729752 0.1858147531747818 0 0.5820077657699585 0.806518018245697 0.9323944449424744 -9999
-9999 1.5821962356567383 1.6114771366119385 1.5760002136230469 1.3945457935333252 1.0405292510986328 0.6405003070831299 0.32761257886886597 0.15264561772346497 0.07456837594509125 0.043816596269607544 0.03189387172460556 0.03124157525599003 0.04180162027478218 0.07373971492052078 0 0.2707766890525818 0.42059752345085144 0.5141758918762207 -9999
-9999 1.6383178234100342 1.6124016046524048 1.4622304439544678 1.1359469890594482 0.7113404273986816 0.34607186913490295 0.13542120158672333 0.0518326573073864 0.02353832498192787 0.013963610865175724 0.010740162804722786 0.010632095858454704 0.013735249638557434 0.022963277995586395 0.04610350728034973 0.09145820885896683 0.1584702730178833 0.20326165854930878 -9999
-9999 1.57731294631958 1.4842954874038696 1.202064871788025 0.8083612322807312 0.43128687143325806 0.1718609482049942 0.053914595395326614 0.017000066116452217 0.006609906908124685 0.0036066321190446615 0.0026398813351988792 0 0 0.004842347465455532 0 0.02162933722138405 0.04094648361206055 0.05443568527698517 -9999
-9999 1.328473448753357 1.160169243812561 0.8064150810241699 0.46876388788223267 0.2182694375514984 0.07715298980474472 0.02105713076889515 0.0055358195677399635 0.0018803862622007728 0.0007186276488937438 0.0004453766450751573 0 0 0 0.0011852823663502932 0.003362106392160058 0.0073417779058218 0.010681026615202427 -9999
-9999 0.9224728345870972 0.7363025546073914 0.42531171441078186 0.20485132932662964 0.08385453373193741 0.02777017094194889 0.007318555377423763 0.0016041254857555032 0.0005184561596252024 0.00022464815992861986 0.000134736648760736 0 0 0 0.00016407246585004032 0.0003401636204216629 0.0008849114528857172 0.0014877207577228546 -9999
-9999 0.5718448162078857 0.4193556010723114 0.19642043113708496 0.0747130885720253 0.0263099055737257 0.008223152719438076 0.0020075752399861813 0.0005788168055005372 0.00022398520377464592 0.00011753074795706198 7.60011316742748E-05 5.8184221416013315E-05 5.196746496949345E-05 0 0 7.520487997680902E-05 0.00015532661927863955 -9999 -9999
-9999 0.37725332379341125 0.25540778040885925 0.10000070929527283 0.030863618478178978 0.008701936341822147 0.002298914361745119 0.0006909335497766733 0.00027085491456091404 0.00013615877833217382 0 0 0 7.875490700826049E-05 0 0 0.0001396895240759477 0 -9999 -9999
-9999 0.2699719965457916 0.16581207513809204 0.060740869492292404 0.01607697829604149 0.0031781629659235477 0.0008633427787572145 0.00030071576475165784 0.00014595218817703426 0 0 0 0 0.00014672265388071537 0.0001878267794381827 0.00022764825553167611 0.00026589789194986224 0.00031389069044962525 0 0
-9999 -9999 0.09587781131267548 0.03961079940199852 0.009816860780119896 0.0017380829667672515 0.0004354795964900404 0.00016234831127803773 0 0 0 0 0 0 0 0 0 0 0 0
-9999 -9999 0.048065099865198135 0.023796575143933296 0.006229687947779894 0.001048622652888298 0.000250982993748039 9.516269346931949E-05 0 0 0 0 0 0 0 0 0 0 0 0
-9999 -9999 -9999 0.016103938221931458 0.00436458270996809 0.0008156028343364596 0.0001942350500030443 7.531583833042532E-05 0 0 0 0 0 0 0 0 0 0 0 0
