ncols         20
nrows         20
xllcorner     0
yllcorner     -3.5992928
cellsize      0.17996463
NODATA_value  -9999
-9999.0 -9999 -9999 -9999 -9999 -9999 -9999 -9999 -9999 -9999 -9999 -9999 -9999 -9999 -9999 -9999 -9999 -9999 -9999 -9999
-9999 -9999 -9999 -9999 -9999 -9999 -9999 -9999 -9999 -9999 -9999 26.52420425415039 26.52358055114746 -9999 -9999 26.61901092529297 26.69863510131836 -9999 -9999 -9999
-9999 -9999 -9999 -9999 26.582128524780273 26.471284866333008 26.311748504638672 26.197067260742188 26.140186309814453 26.1328182220459 26.214723587036133 26.30628204345703 26.271875381469727 26.165498733520508 26.22183609008789 26.413949966430664 26.545120239257812 26.582544326782227 -9999 -9999
-9999 -9999 -9999 26.590654373168945 26.531734466552734 26.431718826293945 26.317310333251953 26.24862289428711 26.2119083404541 26.196760177612305 26.192649841308594 26.17263412475586 26.093217849731445 26.01654624938965 26.026792526245117 26.1379337310791 26.253679275512695 26.3032169342041 -9999 -9999
-9999 -9999 -9999 26.512866973876953 26.459033966064453 26.397066116333008 26.396181106567383 26.4733829498291 26.56301498413086 26.624082565307617 26.633289337158203 26.55198097229004 26.36058807373047 26.14076042175293 25.984691619873047 25.93876838684082 25.939128875732422 25.911827087402344 -9999 -9999
-9999 -9999 26.459308624267578 26.412973403930664 26.373231887817383 26.450645446777344 26.7448673248291 27.211421966552734 27.62807273864746 27.945951461791992 28.105051040649414 27.971851348876953 27.5327091217041 26.960081100463867 26.453662872314453 26.089740753173828 25.874311447143555 25.741031646728516 25.67160987854004 -9999
-9999 -9999 26.28330421447754 26.253864288330078 26.299381256103516 26.65245819091797 27.503652572631836 28.823007583618164 29.863622665405273 30.483959197998047 30.679166793823242 30.355220794677734 29.499000549316406 28.501605987548828 27.548995971679688 26.754989624023438 26.23825454711914 25.935338973999023 25.795433044433594 -9999
-9999 -9999 25.947633743286133 25.969425201416016 26.205219268798828 26.999183654785156 28.698078155517578 31.409975051879883 32.948081970214844 33.634979248046875 33.70245361328125 33.08851623535156 31.629995346069336 30.228364944458008 28.986160278320312 27.918739318847656 27.08470916748047 26.5360050201416 26.280000686645508 -9999
-9999 25.47903060913086 25.554988861083984 25.677339553833008 26.167871475219727 27.40789794921875 29.774169921875 32.99678421020508 34.78347396850586 35.5207633972168 35.534969329833984 34.809452056884766 33.20361328125 31.666271209716797 30.34084129333496 29.207889556884766 28.274520874023438 27.601726531982422 27.2509765625 -9999
-9999 25.22874641418457 25.286930084228516 25.54787254333496 26.344846725463867 27.98194122314453 30.700103759765625 33.943077087402344 35.749916076660156 36.4916877746582 36.498165130615234 35.77742004394531 34.20731735229492 32.69131088256836 31.40524673461914 30.33586311340332 29.46297836303711 28.818214416503906 28.467920303344727 -9999
-9999 25.015869140625 25.18165397644043 25.684856414794922 26.796091079711914 28.714031219482422 31.45752716064453 34.47013473510742 36.160621643066406 36.870948791503906 36.89747619628906 36.241783142089844 34.76725769042969 33.348419189453125 32.15676498413086 31.186687469482422 30.418581008911133 29.864635467529297 29.561323165893555 -9999
-9999 25.0963077545166 25.408885955810547 26.154741287231445 27.471595764160156 29.433263778686523 31.90225601196289 34.49126052856445 35.98801040649414 36.66684341430664 36.75224304199219 36.23624038696289 34.97852325439453 33.77009582519531 32.733245849609375 31.85961151123047 31.153249740600586 30.646400451660156 30.363733291625977 -9999
-9999 25.613454818725586 26.049680709838867 26.959640502929688 28.321924209594727 30.030467987060547 31.952171325683594 33.812461853027344 35.082130432128906 35.7668342590332 35.9633903503418 35.681922912597656 34.96116638183594 34.150516510009766 33.36031723022461 32.609527587890625 31.912940979003906 31.36243438720703 30.996732711791992 -9999
-9999 26.52338218688965 27.033933639526367 27.97138786315918 29.165847778320312 30.519569396972656 31.950952529907227 33.31355285644531 34.377071380615234 35.0399169921875 35.341590881347656 35.319297790527344 35.03569412231445 34.6263427734375 34.146644592285156 33.584991455078125 32.95970153808594 32.31842803955078 31.572742462158203 -9999
-9999 27.59984588623047 28.088390350341797 28.907886505126953 29.873273849487305 30.933557510375977 32.05310821533203 33.13788986206055 34.02233123779297 34.65647888183594 35.04668045043945 35.23637390136719 35.268653869628906 35.190670013427734 35.02016830444336 34.72750473022461 34.3376350402832 33.93654251098633 -9999 -9999
-9999 28.456172943115234 28.921262741088867 29.61411476135254 30.42430877685547 31.333898544311523 32.310523986816406 33.227760314941406 34.00048065185547 34.6009521484375 35.03863525390625 35.36096954345703 35.594993591308594 35.748085021972656 35.81158447265625 35.777320861816406 35.682918548583984 35.66071319580078 -9999 -9999
-9999 28.9595947265625 29.52877426147461 30.13205337524414 30.87129020690918 31.765159606933594 32.67252731323242 33.528533935546875 34.246463775634766 34.818092346191406 35.26848220825195 35.650779724121094 35.9837532043457 36.2567024230957 36.454341888427734 36.57155990600586 36.6485595703125 36.79496765136719 37.21062088012695 37.38362503051758
-9999 -9999 30.150083541870117 30.567609786987305 31.243759155273438 32.14360427856445 33.080387115478516 33.93923568725586 34.641502380371094 35.18788146972656 35.62165451049805 36.011295318603516 36.374671936035156 36.705745697021484 36.958587646484375 37.125633239746094 37.249324798583984 37.36187744140625 37.49919509887695 37.54551696777344
-9999 -9999 30.460100173950195 30.88217544555664 31.534198760986328 32.462684631347656 33.458892822265625 34.350704193115234 35.05157470703125 35.5685920715332 35.964111328125 36.33681869506836 36.70415115356445 37.04816818237305 37.31184005737305 37.487464904785156 37.60675048828125 37.67035675048828 37.684295654296875 37.684932708740234
-9999 -9999 -9999 31.171180725097656 31.735137939453125 32.64653396606445 33.67338943481445 34.58489227294922 35.27976989746094 35.77555465698242 36.153564453125 36.50434875488281 36.8699836730957 37.21863555908203 37.491825103759766 37.66511535644531 37.78646469116211 37.806087493896484 37.791561126708984 37.780277252197266
