ncols         20
nrows         20
xllcorner     0
yllcorner     -3.5992928
cellsize      0.17996463
NODATA_value  -9999
-9999.0 -9999 -9999 -9999 -9999 -9999 -9999 -9999 -9999 -9999 -9999 -9999 -9999 -9999 -9999 -9999 -9999 -9999 -9999 -9999
-9999 -9999 -9999 -9999 -9999 -9999 -9999 -9999 -9999 -9999 -9999 0.1382887363433838 0.13842634856700897 -9999 -9999 0.14093002676963806 0.14111384749412537 -9999 -9999 -9999
-9999 -9999 -9999 -9999 0.13782072067260742 0.1377299427986145 0.13765540719032288 0.13764572143554688 0.13773953914642334 0.13794668018817902 0.1382213830947876 0.12807095050811768 0.12849262356758118 0.1398196667432785 0.14051012694835663 0.13049674034118652 0.13105036318302155 0.14241862297058105 -9999 -9999
-9999 -9999 -9999 0.1382843255996704 0.12765660881996155 0.10853491723537445 0.108476921916008 0.10850343853235245 0.10863617062568665 0.10887203365564346 0.1091848611831665 0.10125219821929932 0.10167855024337769 0.11061298847198486 0.11120957136154175 0.10341902077198029 0.11262282729148865 0.14367102086544037 -9999 -9999
-9999 -9999 -9999 0.1386193186044693 0.10898570716381073 0.07922948896884918 0.07300680875778198 0.07308163493871689 0.0732581615447998 0.07352311909198761 0.07384634763002396 0.06865546107292175 0.0690307542681694 0.07509318739175797 0.07562481611967087 0.07632245123386383 0.11458224058151245 0.14619669318199158 -9999 -9999
-9999 -9999 0.13951539993286133 0.12872318923473358 0.10117954760789871 0.06792217493057251 0.041997961699962616 0.042085912078619 0.04226638376712799 0.04251595959067345 0.04280470684170723 0.03976697474718094 0.040085043758153915 0.04387390986084938 0.044368959963321686 0.07251668721437454 0.10871455818414688 0.1392604559659958 0.15293492376804352 -9999
-9999 -9999 0.14007318019866943 0.11018545925617218 0.0802028626203537 0.053944628685712814 0.030759619548916817 0.020764648914337158 0.020902641117572784 0.021087946370244026 0.02130170539021492 0.019880220293998718 0.02013924904167652 0.022176366299390793 0.03352082520723343 0.05945824459195137 0.08894076943397522 0.12274681776762009 0.15673041343688965 -9999
-9999 -9999 0.141065314412117 0.11106027662754059 0.07463887333869934 0.042841363698244095 0.02101152017712593 0.010306943207979202 0.008883250877261162 0.00899646058678627 0.009130885824561119 0.008581051602959633 0.008778444491326809 0.011471942998468876 0.023948000743985176 0.04923471808433533 0.08598677814006805 0.12805117666721344 0.162795290350914 -9999
-9999 0.1432134360074997 0.1319281905889511 0.10383179783821106 0.0699889287352562 0.040156424045562744 0.01977248303592205 0.008330721408128738 0.0032671785447746515 0.003333905478939414 0.0034110932610929012 0.0032261661253869534 0.0036416086368262768 0.010527181439101696 0.025460554286837578 0.052079685032367706 0.09060894697904587 0.1345050185918808 0.17061415314674377 -9999
-9999 0.14494352042675018 0.11414451152086258 0.08331657946109772 0.05631881207227707 0.03251408040523529 0.016016021370887756 0.006766323000192642 0.0024962355382740498 0.001663645263761282 0.0017217504791915417 0.0017764552030712366 0.003927205689251423 0.011225704103708267 0.02699955366551876 0.0550820454955101 0.09566765278577805 0.1418198049068451 0.17971575260162354 -9999
-9999 0.1480191946029663 0.11680352687835693 0.07885752618312836 0.04556512087583542 0.022520022466778755 0.011126278899610043 0.0047408659011125565 0.0017639555735513568 0.0017701935721561313 0.001839511445723474 0.0019011187832802534 0.004190214443951845 0.01190536841750145 0.028539219871163368 0.058138079941272736 0.10089097917079926 0.14944423735141754 0.18923474848270416 -9999
-9999 0.15229488909244537 0.12036244571208954 0.08147040009498596 0.047223545610904694 0.023412233218550682 0.009927172213792801 0.0036265654489398003 0.0017834629397839308 0.0018684860551729798 0.001945944968611002 0.002127954503521323 0.006184061523526907 0.014844894409179688 0.030062703415751457 0.06116963550448418 0.10604296624660492 0.15685781836509705 0.19831819832324982 -9999
-9999 0.1576375514268875 0.12475169450044632 0.08459796756505966 0.049127742648124695 0.024561312049627304 0.01044999249279499 0.003831393551081419 0.0018663379596546292 0.0019547392148524523 0.0020384492818266153 0.00333230197429657 0.009633603505790234 0.02308419905602932 0.047239720821380615 0.08180152624845505 0.12044984102249146 0.16374826431274414 0.20611487329006195 -9999
-9999 0.16377699375152588 0.12973643839359283 0.08844998478889465 0.05148780345916748 0.025622637942433357 0.010907309129834175 0.003994286991655827 0.001938901375979185 0.00202628574334085 0.0021101043093949556 0.004371029324829578 0.012596174143254757 0.03036087565124035 0.06202498823404312 0.10764499753713608 0.1591120958328247 0.1999509483575821 0.2114792913198471 -9999
-9999 0.17008091509342194 0.13493070006370544 0.09213168919086456 0.05368565768003464 0.026738030835986137 0.013330106623470783 0.005716043524444103 0.002108752727508545 0.002082924358546734 0.002163686789572239 0.004860124550759792 0.01393078826367855 0.03362196683883667 0.06886681914329529 0.12000703811645508 0.177639439702034 0.22506454586982727 -9999 -9999
-9999 0.17577284574508667 0.14037463068962097 0.10359000414609909 0.07096780091524124 0.04144306853413582 0.020707501098513603 0.00879172794520855 0.0034953260328620672 0.0021237668115645647 0.002202295232564211 0.004935622680932283 0.014149835333228111 0.03419257700443268 0.07016584277153015 0.12257423251867294 0.18251743912696838 0.23149171471595764 -9999 -9999
-9999 0.17982806265354156 0.1701468825340271 0.13620470464229584 0.09300226718187332 0.05420931428670883 0.029195649549365044 0.014485019259154797 0.006175902206450701 0.0022654193453490734 0.0022277093958109617 0.004585623741149902 0.013219638727605343 0.031983427703380585 0.06570999324321747 0.11491918563842773 0.17167413234710693 0.21961164474487305 0.24128872156143188 0.2427675575017929
-9999 -9999 0.19037508964538574 0.15181350708007812 0.11169664561748505 0.07614747434854507 0.044205449521541595 0.021975837647914886 0.009290792047977448 0.0034162038937211037 0.00224137376062572 0.0036330788861960173 0.010504549369215965 0.025515437126159668 0.052326492965221405 0.09175874292850494 0.13709285855293274 0.17504912614822388 0.19079262018203735 0.1915397047996521
-9999 -9999 0.19393020868301392 0.1813061386346817 0.14420440793037415 0.09791622310876846 0.056773778051137924 0.02807329222559929 0.011868267320096493 0.004343927837908268 0.002247287891805172 0.0024471411015838385 0.007094295229762793 0.017196496948599815 0.03551236167550087 0.06198008358478546 0.09298449009656906 0.1185004785656929 0.12862317264080048 0.12892942130565643
-9999 -9999 -9999 0.19900929927825928 0.15777158737182617 0.10692081600427628 0.0618501715362072 0.03053862974047661 0.012894404120743275 0.004729720298200846 0.00224989652633667 0.002323252847418189 0.004077618941664696 0.009851131588220596 0.020398730412125587 0.03560465946793556 0.053478140383958817 0.06783480197191238 0.07377415150403976 0.07389303296804428
