ncols         20
nrows         20
xllcorner     0
yllcorner     -3.5992928
cellsize      0.17996463
NODATA_value  -9999
-9999.0 -9999 -9999 -9999 -9999 -9999 -9999 -9999 -9999 -9999 -9999 -9999 -9999 -9999 -9999 -9999 -9999 -9999 -9999 -9999
-9999 -9999 -9999 -9999 -9999 -9999 -9999 -9999 -9999 -9999 -9999 1.0580294132232666 1.0342998504638672 -9999 -9999 0.9139354825019836 0.8561205863952637 -9999 -9999 -9999
-9999 -9999 -9999 -9999 1.1868542432785034 1.2632626295089722 1.397038221359253 1.4935446977615356 1.539553165435791 1.5528266429901123 1.382882833480835 1.2614620923995972 1.2406009435653687 1.2222453355789185 1.1033381223678589 0.9732522964477539 0.878714919090271 0.814089834690094 -9999 -9999
-9999 -9999 -9999 1.1186017990112305 1.206365704536438 1.3110464811325073 1.453500747680664 1.5810599327087402 1.7074658870697021 1.7978570461273193 1.8360673189163208 1.7872933149337769 1.7253085374832153 1.5700056552886963 1.3691290616989136 1.1527962684631348 0.9866539835929871 0.8965235948562622 -9999 -9999
-9999 -9999 -9999 1.100045084953308 1.1975706815719604 1.382077932357788 1.5924994945526123 1.819044828414917 2.0812935829162598 2.4139068126678467 2.711682081222534 2.8148562908172607 2.682263135910034 2.2966980934143066 1.8845289945602417 1.4828598499298096 1.1974308490753174 1.119235634803772 -9999 -9999
-9999 -9999 0.8805023431777954 1.0254838466644287 1.1945899724960327 1.4320974349975586 1.7034752368927002 2.0270400047302246 2.4984006881713867 3.0726284980773926 3.6469509601593018 3.8753111362457275 3.7417047023773193 3.188037872314453 2.5027761459350586 1.9102994203567505 1.493985652923584 1.3143458366394043 1.1639052629470825 -9999
-9999 -9999 0.8530244827270508 0.9688653945922852 1.2010937929153442 1.5038985013961792 1.8354867696762085 2.263054609298706 2.8477799892425537 3.5410757064819336 4.189483165740967 4.500564098358154 4.385917663574219 3.8551158905029297 3.1531622409820557 2.408247232437134 1.8740843534469604 1.5421862602233887 1.3970434665679932 -9999
-9999 -9999 0.8498768210411072 0.9979539513587952 1.2870967388153076 1.6434308290481567 2.0660905838012695 2.561929941177368 3.1187446117401123 3.712578773498535 4.165132999420166 4.408980369567871 4.3476080894470215 3.991858959197998 3.4407365322113037 2.803719997406006 2.26263427734375 1.8715267181396484 1.709277868270874 -9999
-9999 0.6860400438308716 0.8598734140396118 1.0879247188568115 1.4704008102416992 1.9351239204406738 2.4165198802948 2.9221296310424805 3.367953300476074 3.707335948944092 3.893909454345703 3.976486921310425 3.9530787467956543 3.7709617614746094 3.4702036380767822 3.056941509246826 2.549687623977661 2.1707658767700195 2.005960702896118 -9999
-9999 0.7557263970375061 0.917081892490387 1.2562617063522339 1.7394225597381592 2.282860040664673 2.801060676574707 3.234471082687378 3.49538516998291 3.5798943042755127 3.546452522277832 3.506666660308838 3.462055206298828 3.394440174102783 3.261042833328247 3.057997226715088 2.6852681636810303 2.3795716762542725 2.244473695755005 -9999
-9999 0.8968456387519836 1.0733951330184937 1.4568421840667725 1.9561347961425781 2.4887428283691406 2.9686150550842285 3.289041519165039 3.3688085079193115 3.2913107872009277 3.171152353286743 3.0821917057037354 3.0392632484436035 3.00799298286438 2.9575541019439697 2.857801675796509 2.6704704761505127 2.468233823776245 2.375204563140869 -9999
-9999 1.119969129562378 1.298417091369629 1.6918683052062988 2.1431901454925537 2.565924644470215 2.907463788986206 3.063403367996216 3.0061450004577637 2.8566629886627197 2.7210960388183594 2.6480603218078613 2.653977155685425 2.649444580078125 2.620777130126953 2.6176116466522217 2.521070957183838 2.4208924770355225 2.3728444576263428 -9999
-9999 1.42299485206604 1.6115909814834595 1.9891691207885742 2.318031072616577 2.570462465286255 2.716996192932129 2.7144272327423096 2.5664761066436768 2.3812177181243896 2.243483304977417 2.173444986343384 2.180328607559204 2.1832082271575928 2.1978936195373535 2.2096505165100098 2.2324814796447754 2.2380764484405518 2.2278103828430176 -9999
-9999 1.7468786239624023 1.9210206270217896 2.2393109798431396 2.440753221511841 2.5098156929016113 2.4749257564544678 2.3456974029541016 2.154062509536743 1.9616293907165527 1.8233354091644287 1.7429254055023193 1.7151520252227783 1.6906743049621582 1.6815712451934814 1.7030173540115356 1.7965168952941895 1.9461159706115723 2.0142123699188232 -9999
-9999 1.9490336179733276 2.0766546726226807 2.3095953464508057 2.3890140056610107 2.317816734313965 2.171937942504883 1.9904392957687378 1.7952814102172852 1.632432460784912 1.5189526081085205 1.43044114112854 1.3605873584747314 1.302817940711975 1.264512300491333 1.2613215446472168 1.306819200515747 1.4828526973724365 -9999 -9999
-9999 1.971331000328064 2.041311264038086 2.182399272918701 2.1656482219696045 2.026787042617798 1.8484222888946533 1.6628215312957764 1.5111534595489502 1.3984622955322266 1.3267078399658203 1.2451975345611572 1.154990315437317 1.0568902492523193 0.9896096587181091 0.9365280270576477 0.9136582016944885 0.8363059759140015 -9999 -9999
-9999 1.9701855182647705 1.9231317043304443 1.9704399108886719 1.9050012826919556 1.7417200803756714 1.552165150642395 1.3890774250030518 1.2794835567474365 1.2109249830245972 1.1515636444091797 1.0781830549240112 0.988031804561615 0.8928965330123901 0.8098119497299194 0.7393664717674255 0.6869364976882935 0.6392174363136292 0.6222102642059326 0.5649034380912781
-9999 -9999 1.7277660369873047 1.750891923904419 1.6764618158340454 1.506208062171936 1.3182032108306885 1.1757128238677979 1.0971834659576416 1.041318655014038 0.9948577284812927 0.9355003833770752 0.8621184825897217 0.7680532336235046 0.6884351968765259 0.6295561790466309 0.5727461576461792 0.5356560945510864 0.5096309781074524 0.5381112098693848
-9999 -9999 1.6681238412857056 1.6010874509811401 1.5079666376113892 1.3301390409469604 1.1417590379714966 1.0051509141921997 0.9331977367401123 0.8906882405281067 0.8693880438804626 0.8215558528900146 0.7544108629226685 0.6701374053955078 0.6059066653251648 0.5601451396942139 0.51991868019104 0.49852317571640015 0.5349639654159546 0.5557986497879028
-9999 -9999 -9999 1.4796526432037354 1.4174453020095825 1.2452356815338135 1.0579328536987305 0.9257941246032715 0.8605574369430542 0.8287983536720276 0.8098325133323669 0.7785387635231018 0.714411199092865 0.6341610550880432 0.5669471025466919 0.5367217063903809 0.49123361706733704 0.5186172127723694 0.5501195788383484 0.56779545545578
