ncols         20
nrows         20
xllcorner     0
yllcorner     -3.5992928
cellsize      0.17996463
NODATA_value  -9999
-9999.0 -9999 -9999 -9999 -9999 -9999 -9999 -9999 -9999 -9999 -9999 -9999 -9999 -9999 -9999 -9999 -9999 -9999 -9999 -9999
-9999 -9999 -9999 -9999 -9999 -9999 -9999 -9999 -9999 -9999 -9999 0.011020381934940815 0.010631758719682693 -9999 -9999 0.008736081421375275 0.007674978114664555 -9999 -9999 -9999
-9999 -9999 -9999 -9999 0.01066084485501051 0.012391164898872375 0.01587323285639286 0.019232813268899918 0.021766649559140205 0.023495052009820938 0.019548112526535988 0.016666168347001076 0.016618836671113968 0.01694706827402115 0.014039415866136551 0.010705231688916683 0.008755124174058437 0.007757735438644886 -9999 -9999
-9999 -9999 -9999 0.009997461922466755 0.011591623537242413 0.014100594446063042 0.018254753202199936 0.02306898683309555 0.02893097698688507 0.034416116774082184 0.038231369107961655 0.037990372627973557 0.036726322025060654 0.03134029358625412 0.02422318048775196 0.01718868501484394 0.012632183730602264 0.01053754985332489 -9999 -9999
-9999 -9999 -9999 0.01047886535525322 0.01259575504809618 0.017510462552309036 0.02481396310031414 0.03509923443198204 0.05019320920109749 0.07362052798271179 0.10041018575429916 0.11481689661741257 0.10863061994314194 0.08201219886541367 0.056289248168468475 0.035050924867391586 0.022969622164964676 0.020293986424803734 -9999 -9999
-9999 -9999 0.008234146982431412 0.010601092129945755 0.01463834848254919 0.022244824096560478 0.03412309288978577 0.05325891822576523 0.08990602195262909 0.15099383890628815 0.2331644892692566 0.2819845974445343 0.2754448652267456 0.20657987892627716 0.12995530664920807 0.07617562264204025 0.04707059636712074 0.03754909709095955 0.032662104815244675 -9999
-9999 -9999 0.008811100386083126 0.011374619789421558 0.018240969628095627 0.030855249613523483 0.05067773535847664 0.0862005427479744 0.1542133241891861 0.2686096131801605 0.41712307929992676 0.5214573740959167 0.5222449898719788 0.41884100437164307 0 0.1676718294620514 0.10102424025535583 0.06861747801303864 0.05767099931836128 -9999
-9999 -9999 0.010988373309373856 0.01551312580704689 0.02752293460071087 0.049329280853271484 0.08743743598461151 0.15310856699943542 0.25943994522094727 0.41812342405319214 0.5883264541625977 0.720952033996582 0.7454016208648682 0.6536833643913269 0.49635908007621765 0.3311759829521179 0.2118922621011734 0.14249493181705475 0.11826009303331375 -9999
-9999 0.010847888886928558 0.015363040380179882 0.025092415511608124 0.049632009118795395 0.09639592468738556 0.17214824259281158 0.29234978556632996 0.45098522305488586 0.627246081829071 0.7793925404548645 0.8955374956130981 0.9501311182975769 0.9040986895561218 0.7839466333389282 0 0.409620076417923 0.28577473759651184 0.23898325860500336 -9999
-9999 0.015964163467288017 0.023375248536467552 0.04634365439414978 0.0983097180724144 0.19384606182575226 0.342856764793396 0.5443660020828247 0.7536675930023193 0.9207088351249695 1.0288466215133667 1.1198909282684326 1.1831343173980713 1.193469524383545 1.121169924736023 0 0.7188072800636292 0.5357148051261902 0.46217525005340576 -9999
-9999 0.02984144166111946 0.04393141344189644 0.08720047771930695 0.17659276723861694 0.333874374628067 0.5733038187026978 0.8610347509384155 1.0934725999832153 1.2355425357818604 1.3257228136062622 1.4156267642974854 1.5181430578231812 1.5622546672821045 1.514198899269104 1.3845837116241455 1.1416780948638916 0.919395923614502 0.8202476501464844 -9999
-9999 0.06396620720624924 0.08949925750494003 0.16627585887908936 0.3046267330646515 0.5192470550537109 0.8199660181999207 1.130702257156372 1.3310312032699585 1.4330886602401733 1.5124446153640747 1.6404463052749634 0 0 1.889923095703125 0 1.5906758308410645 1.3762750625610352 1.2675156593322754 -9999
-9999 0.1420823335647583 0.19236432015895844 0.32735899090766907 0.5176517367362976 0.7692343592643738 1.0650386810302734 1.3194589614868164 1.432512640953064 1.4591838121414185 1.498763918876648 1.6062840223312378 0 0 0 1.8236114978790283 1.756963849067688 1.6699209213256836 1.5738495588302612 -9999
-9999 0.28964242339134216 0.3761753737926483 0.5870218873023987 0.8335054516792297 1.0784339904785156 1.2944636344909668 1.4207667112350464 1.431424617767334 1.4010597467422485 1.391592264175415 1.4235378503799438 0 0 0 1.4245699644088745 1.4752709865570068 1.610557198524475 1.5626816749572754 -9999
-9999 0.4752868115901947 0.5925877094268799 0.8683249354362488 1.135905385017395 1.3140859603881836 1.4060075283050537 1.416695475578308 1.3761050701141357 1.3315837383270264 1.3061838150024414 1.2539997100830078 1.182312250137329 1.0883227586746216 0 0 0.9525822401046753 1.1597185134887695 -9999 -9999
-9999 0.6177871823310852 0.7551825642585754 1.0530041456222534 1.2833490371704102 1.373099446296692 1.3714643716812134 1.3304176330566406 1.3013287782669067 1.2919613122940063 0 0 0 0.826606035232544 0 0 0.5211790800094604 0 -9999 -9999
-9999 0.7314978837966919 0.8748611211776733 1.1427768468856812 1.3194217681884766 1.3246222734451294 1.2595845460891724 1.1974464654922485 1.1911447048187256 0 0 0 0 0.6463293433189392 0.4948050379753113 0.3818162977695465 0.30346885323524475 0.24442939460277557 0 0
-9999 -9999 0.9928796291351318 1.1910228729248047 1.3104995489120483 1.2485239505767822 1.126651406288147 1.0481539964675903 0 0 0 0 0 0 0 0 0 0 0 0
-9999 -9999 1.13650643825531 1.235962152481079 1.281704068183899 1.1556452512741089 0.983412504196167 0.8743118047714233 0 0 0 0 0 0 0 0 0 0 0 0
-9999 -9999 -9999 1.251307725906372 1.261238694190979 1.1100126504898071 0.9123387336730957 0.7911636233329773 0 0 0 0 0 0 0 0 0 0 0 0
