ncols         20
nrows         20
xllcorner     0
yllcorner     -3.5992928
cellsize      0.17996463
NODATA_value  -9999
-9999.0 -9999 -9999 -9999 -9999 -9999 -9999 -9999 -9999 -9999 -9999 -9999 -9999 -9999 -9999 -9999 -9999 -9999 -9999 -9999
-9999 -9999 -9999 -9999 -9999 -9999 -9999 -9999 -9999 -9999 -9999 0 0 -9999 -9999 0 0 -9999 -9999 -9999
-9999 -9999 -9999 -9999 0 0 0 0 0 0 0 0 0 0 0 0 0 0 -9999 -9999
-9999 -9999 -9999 0 0 0 0 0 0 0 0 0 0 0 0 0 0 0 -9999 -9999
-9999 -9999 -9999 0 0 0 0 0 0 0 0 0 0 0 0 0 0 0 -9999 -9999
-9999 -9999 0 0 0 0 3.9996440410614014 3.702265501022339 3.4823386669158936 3.279921054840088 3.1046195030212402 3.037203550338745 3.1087019443511963 3.33158540725708 3.6559369564056396 4.068985939025879 0 0 0 -9999
-9999 -9999 0 0 0 3.941985845565796 3.5001513957977295 3.1697137355804443 2.8673462867736816 2.5663695335388184 2.313622236251831 2.1956117153167725 2.2488343715667725 2.4849843978881836 0.31914177536964417 3.3971872329711914 0 0 0 -9999
-9999 -9999 0 0 4.047662258148193 3.5504558086395264 3.131188154220581 2.744731903076172 2.372098207473755 2.0303027629852295 1.781147837638855 1.6577664613723755 1.6861153841018677 1.8748003244400024 2.2215020656585693 2.7091596126556396 3.305081367492676 0 0 -9999
-9999 0 0 4.318324089050293 3.7509095668792725 3.2509055137634277 2.7720518112182617 2.3129072189331055 1.9098011255264282 1.5986913442611694 1.4023611545562744 1.3095475435256958 1.3183642625808716 1.4458268880844116 1.698020577430725 0.46361392736434937 2.580580949783325 3.105724334716797 0 -9999
-9999 0 0 4.179304599761963 3.5253195762634277 2.920987606048584 2.3517160415649414 1.8511720895767212 1.4748284816741943 1.2353132963180542 1.108321189880371 1.0519410371780396 1.0597189664840698 1.135655164718628 1.3030084371566772 0.3503870964050293 1.9659453630447388 2.400808334350586 0 -9999
-9999 0 0 4.03485107421875 3.2607531547546387 2.565812349319458 1.9418467283248901 1.4448515176773071 1.1273106336593628 0.9553884863853455 0.8740118145942688 0.8441587686538696 0.8513816595077515 0.8986560106277466 1.0012980699539185 1.184068202972412 1.4580782651901245 0 0 -9999
-9999 0 0 3.7660701274871826 2.91664457321167 2.198902130126953 1.5940098762512207 1.1542162895202637 0.9001612663269043 0.7719650268554688 0.7159382700920105 0.6952607035636902 0.3110584318637848 0.40306150913238525 0.7820093631744385 0.19774506986141205 1.0675768852233887 0 0 -9999
-9999 0 0 3.2996926307678223 2.466299295425415 1.8097705841064453 1.3010356426239014 0.9513875842094421 0.7579116821289062 0.6676108241081238 0.6226121187210083 0.6071221828460693 0.4048744738101959 0.55207359790802 0.435275673866272 0.7108729481697083 0.8177250623703003 0 0 -9999
-9999 0 0 2.696589946746826 1.9449973106384277 1.4145042896270752 1.0431500673294067 0.8034461736679077 0.6687259078025818 0.6082976460456848 0.5798097848892212 0.5685190558433533 0.25235339999198914 0.4483400583267212 0.39689111709594727 0.6296486258506775 0.6893067955970764 0 0 -9999
-9999 0 0 2.141772508621216 1.499667763710022 1.100226640701294 0.8514406085014343 0.697982132434845 0.6183954477310181 0.5781018733978271 0.5582900047302246 0.5497004985809326 0.5490990281105042 0.555467426776886 0.37927305698394775 0.32894226908683777 0.629327118396759 0 -9999 -9999
-9999 0 0 1.7646955251693726 1.225011944770813 0.9106671214103699 0.7359402179718018 0.6403865814208984 0.589266836643219 0.560936450958252 0.3640301823616028 0.4194246232509613 0.059909164905548096 0.5462824106216431 0.24811100959777832 0.2560594975948334 0.6017871499061584 0.0895911306142807 -9999 -9999
-9999 0 0 1.5300676822662354 1.0682058334350586 0.8012403249740601 0.675243079662323 0.6075636744499207 0.5705506205558777 0.36618271470069885 0.47789815068244934 0.533909261226654 0.416699081659317 0.5413333773612976 0.550568163394928 0.5637175440788269 0.5812687873840332 0.5983626246452332 0.427481472492218 0.5992547869682312
-9999 -9999 0 1.352561116218567 0.9684891104698181 0.7465279698371887 0.6423147916793823 0.5886955261230469 0.31056126952171326 0.48170045018196106 0.5350003838539124 0.5325256586074829 0.4744114875793457 0.4184718728065491 0.3633725643157959 0.3696292042732239 0.3770797848701477 0.4485931396484375 0.5174347758293152 0.5840270519256592
-9999 -9999 0 0 0.9028642177581787 0.7116245031356812 0.6226193308830261 0.5771567821502686 0.36885812878608704 0.5413475632667542 0.5345752239227295 0.5319420695304871 0.5326626896858215 0.5360978841781616 0.5416130423545837 0.5486088395118713 0.5562977194786072 0.5632550716400146 0.5675274133682251 0.5694194436073303
-9999 -9999 -9999 0 0.8617244362831116 0.6961542367935181 0.6144812703132629 0.5725568532943726 0.368541955947876 0.5411435961723328 0.5344486236572266 0.5317172408103943 0.5321958065032959 0.5351826548576355 0.5399641990661621 0.545829176902771 0.5520284175872803 0.5573697090148926 0.5609591603279114 0.562690019607544
