ncols         20
nrows         20
xllcorner     0
yllcorner     -3.5992928
cellsize      0.17996463
NODATA_value  -9999
-9999.0 -9999 -9999 -9999 -9999 -9999 -9999 -9999 -9999 -9999 -9999 -9999 -9999 -9999 -9999 -9999 -9999 -9999 -9999 -9999
-9999 -9999 -9999 -9999 -9999 -9999 -9999 -9999 -9999 -9999 -9999 0.15339425206184387 0.15099366009235382 -9999 -9999 0.14029017090797424 0.13167443871498108 -9999 -9999 -9999
-9999 -9999 -9999 -9999 0.1451593041419983 0.15685296058654785 0.17836959660053253 0.19767159223556519 0.21198730170726776 0.22209137678146362 0.20422063767910004 0.1897508203983307 0.19075772166252136 0.1945820152759552 0.17836232483386993 0.1562785506248474 0.14184235036373138 0.134222149848938 -9999 -9999
-9999 -9999 -9999 0.1416936069726944 0.15237878262996674 0.16850407421588898 0.1927650421857834 0.21834254264831543 0.2466963231563568 0.27158939838409424 0.28896450996398926 0.2904503047466278 0.287741482257843 0.2679026424884796 0.2372351735830307 0.20090574026107788 0.17295238375663757 0.15845045447349548 -9999 -9999
-9999 -9999 -9999 0.14659281075000763 0.16086196899414062 0.19044044613838196 0.22827506065368652 0.2739798128604889 0.33095359802246094 0.40468713641166687 0.4773778021335602 0.5151181221008301 0.5051446557044983 0.4426417350769043 0.3698897957801819 0.29361239075660706 0.23882275819778442 0.22525165975093842 -9999 -9999
-9999 -9999 0.13366307318210602 0.1504615843296051 0.17692966759204865 0.21925058960914612 0.2738327383995056 0.3456364870071411 0.4537469744682312 0.5946652293205261 0.7470747828483582 0.8295210599899292 0.8268994092941284 0.7225584387779236 0.578370213508606 0.44558587670326233 0.3522675931453705 0.31650814414024353 0.29882824420928955 -9999
-9999 -9999 0.1407012790441513 0.1596457064151764 0.2027803212404251 0.26553329825401306 0.34347450733184814 0.45247882604599 0.6123182773590088 0.8179954886436462 1.0312069654464722 1.1649985313415527 1.1764369010925293 1.0637062788009644 0.8949700593948364 0.6833714842796326 0.5322522521018982 0.43998587131500244 0.40475794672966003 -9999
-9999 -9999 0.16190455853939056 0.19240453839302063 0.25730273127555847 0.3470398187637329 0.466140478849411 0.6236522197723389 0.8216936588287354 1.0561541318893433 1.2676459550857544 1.4185746908187866 1.456080675125122 1.3757609128952026 1.2092407941818237 0.9942319393157959 0.7965686917304993 0.6535360813140869 0.5956381559371948 -9999
-9999 0.1702410727739334 0.19925802946090698 0.25368809700012207 0.35768094658851624 0.5020439624786377 0.6774075031280518 0.8931285738945007 1.1233408451080322 1.3415861129760742 1.5136024951934814 1.6408421993255615 1.7071253061294556 1.679839015007019 1.5769598484039307 1.4134907722473145 1.1459025144577026 0.9545785784721375 0.871631383895874 -9999
-9999 0.21169155836105347 0.25451552867889404 0.35666388273239136 0.5204461812973022 0.7357393503189087 0.9885914325714111 1.2614092826843262 1.5042091608047485 1.684720754623413 1.8038322925567627 1.9051460027694702 1.9796684980392456 2.0047154426574707 1.9547983407974243 1.8524070978164673 1.5662883520126343 1.3461793661117554 1.2470529079437256 -9999
-9999 0.298662006855011 0.3606974184513092 0.5045302510261536 0.7181195616722107 0.9940557479858398 1.3171035051345825 1.6360766887664795 1.8699766397476196 2.0159881114959717 2.1178953647613525 2.219689130783081 2.329540729522705 2.3812508583068848 2.349149465560913 2.247427463531494 2.0299699306488037 1.8119893074035645 1.7055624723434448 -9999
-9999 0.4482521116733551 0.5279285311698914 0.7137293219566345 0.9671697616577148 1.2721524238586426 1.617484211921692 1.9260306358337402 2.1202585697174072 2.232807159423828 2.3290252685546875 2.4663214683532715 2.692944049835205 2.780926465988159 2.711392641067505 2.6825013160705566 2.459709405899048 2.2713379859924316 2.169342517852783 -9999
-9999 0.6775925159454346 0.7846420407295227 1.020268440246582 1.2881131172180176 1.5843254327774048 1.8873337507247925 2.130560874938965 2.2529306411743164 2.3087961673736572 2.3776967525482178 2.504756450653076 2.7360856533050537 2.8315131664276123 2.8276243209838867 2.714305877685547 2.6404271125793457 2.554324150085449 2.4618606567382812 -9999
-9999 0.9714240431785583 1.1062487363815308 1.386552333831787 1.6646595001220703 1.9138824939727783 2.1243767738342285 2.2582108974456787 2.3023297786712646 2.317110300064087 2.3493261337280273 2.4162633419036865 2.5485994815826416 2.5767626762390137 2.5482523441314697 2.459620714187622 2.477830171585083 2.5630099773406982 2.484086513519287 -9999
-9999 1.2505807876586914 1.4012670516967773 1.7087538242340088 1.9741212129592896 2.14925479888916 2.254570484161377 2.2995660305023193 2.308861494064331 2.3166306018829346 2.3385488986968994 2.3264052867889404 2.285381555557251 2.208289623260498 2.160569906234741 2.0946903228759766 2.05737042427063 2.2555243968963623 -9999 -9999
-9999 1.435797929763794 1.597315788269043 1.9045395851135254 2.1270337104797363 2.229464054107666 2.2632503509521484 2.2724177837371826 2.297776699066162 2.3446707725524902 2.4196994304656982 2.362651824951172 2.207824945449829 1.9727462530136108 1.8384660482406616 1.6941468715667725 1.5832102298736572 1.4298127889633179 -9999 -9999
-9999 1.5712800025939941 1.7363814115524292 2.006120443344116 2.1821959018707275 2.2175662517547607 2.2023768424987793 2.196692705154419 2.2497739791870117 2.3488540649414062 2.3665895462036133 2.265085220336914 2.0584166049957275 1.7883155345916748 1.5758118629455566 1.3952378034591675 1.2561343908309937 1.1488823890686035 1.130484700202942 1.0239986181259155
-9999 -9999 1.8735240697860718 2.0691916942596436 2.196305513381958 2.176382303237915 2.1101813316345215 2.0893003940582275 2.175386905670166 2.2227468490600586 2.208900213241577 2.0963540077209473 1.9021884202957153 1.6374808549880981 1.4132490158081055 1.2444920539855957 1.0927926301956177 0.9946337938308716 0.9327388405799866 0.9774795174598694
-9999 -9999 2.0186123847961426 2.124257802963257 2.187725067138672 2.1103036403656006 1.9896739721298218 1.92953360080719 1.9825528860092163 2.010605812072754 2.0182509422302246 1.90920090675354 1.7172508239746094 1.4706441164016724 1.2738779783248901 1.1281577348709106 1.0058690309524536 0.9338695406913757 0.9818968772888184 1.0097057819366455
-9999 -9999 -9999 2.1518917083740234 2.179173469543457 2.0766730308532715 1.9253523349761963 1.8456007242202759 1.8869746923446655 1.9186087846755981 1.917554259300232 1.8382415771484375 1.6476407051086426 1.4072120189666748 1.201642394065857 1.0870270729064941 0.9524511098861694 0.9725770950317383 1.009027123451233 1.0297926664352417
