ncols         20
nrows         20
xllcorner     0
yllcorner     -3.5992928
cellsize      0.17996463
NODATA_value  -9999
-9999.0 -9999 -9999 -9999 -9999 -9999 -9999 -9999 -9999 -9999 -9999 -9999 -9999 -9999 -9999 -9999 -9999 -9999 -9999 -9999
-9999 -9999 -9999 -9999 -9999 -9999 -9999 -9999 -9999 -9999 -9999 0.14028042554855347 0.1399206817150116 -9999 -9999 0.15009112656116486 0.14187990128993988 -9999 -9999 -9999
-9999 -9999 -9999 -9999 0.11984682083129883 0.12845802307128906 0.14490854740142822 0.1603180468082428 0.17345407605171204 0.18561241030693054 0.17644283175468445 0.17153441905975342 0.1797913908958435 0.19282065331935883 0.18469767272472382 0.1676182597875595 0.1555815488100052 0.14998377859592438 -9999 -9999
-9999 -9999 -9999 0.11870329082012177 0.12604674696922302 0.13705883920192719 0.1542074978351593 0.1730094999074936 0.1964493840932846 0.2213587760925293 0.24518656730651855 0.2596485912799835 0.27214115858078003 0.2682347595691681 0.24999555945396423 0.22089317440986633 0.19606554508209229 0.18286600708961487 -9999 -9999
-9999 -9999 -9999 0.12393895536661148 0.1331571340560913 0.15253996849060059 0.17606958746910095 0.20484161376953125 0.24554258584976196 0.3076069951057434 0.3832956552505493 0.44544580578804016 0.47356119751930237 0.44917112588882446 0.4014734923839569 0.33690404891967773 0.28570106625556946 0.2763359546661377 -9999 -9999
-9999 -9999 0.12030737102031708 0.130933478474617 0.14749327301979065 0.17172643542289734 0.19810447096824646 0.23091627657413483 0.29157155752182007 0.3900279402732849 0.528601348400116 0.6590052843093872 0.7496928572654724 0.7387319803237915 0.6482883095741272 0.5387977957725525 0.450658917427063 0.42179471254348755 0.41447025537490845 -9999
-9999 -9999 0.1318376511335373 0.144698828458786 0.17239145934581757 0.2033921778202057 0.22571955621242523 0.2454012632369995 0.29851970076560974 0.4013890027999878 0.565246045589447 0.7745853662490845 1.002689003944397 1.0913413763046265 1.029172658920288 0.8738444447517395 0.7293184399604797 0.6296249628067017 0.5935512185096741 -9999
-9999 -9999 0.16446737945079803 0.18746566772460938 0.2299627661705017 0.2665086090564728 0.27565819025039673 0.22968058288097382 0.23697635531425476 0.289297878742218 0.39216628670692444 0.6000651121139526 1.1430009603500366 1.4339323043823242 1.4817070960998535 1.351698875427246 1.1720603704452515 1.0107147693634033 0.9432471394538879 -9999
-9999 0.20651070773601532 0.22828485071659088 0.2746502459049225 0.3505155146121979 0.4117576479911804 0.40296652913093567 0.29071950912475586 0.2620128095149994 0.28952717781066895 0.38321825861930847 0.6268311142921448 1.3392374515533447 1.8189946413040161 2.0381689071655273 1.9988871812820435 1.7973915338516235 1.5893489122390747 1.4910575151443481 -9999
-9999 0.2775421142578125 0.3255850672721863 0.43650180101394653 0.5795668959617615 0.6855888366699219 0.6612040996551514 0.43467000126838684 0.3641655445098877 0.3727991282939911 0.46395573019981384 0.7439119815826416 1.6195207834243774 2.2780752182006836 2.665668249130249 2.7710025310516357 2.6177282333374023 2.3982300758361816 2.2876975536346436 -9999
-9999 0.43841901421546936 0.5226554870605469 0.7079623937606812 0.9297919869422913 1.097076416015625 1.0727934837341309 0.6794871091842651 0.5684362053871155 0.5604485273361206 0.6456606388092041 0.9492617845535278 2.02135968208313 2.813606023788452 3.343975782394409 3.5929818153381348 3.5832417011260986 3.4088592529296875 3.308999538421631 -9999
-9999 0.745523989200592 0.8733996748924255 1.1590192317962646 1.477198839187622 1.714428186416626 1.7117316722869873 1.141557216644287 1.0070985555648804 0.9776848554611206 1.036198377609253 1.3174915313720703 2.486705780029297 3.2918996810913086 3.885585308074951 4.2841877937316895 4.447376251220703 4.409905433654785 4.361131191253662 -9999
-9999 1.2753713130950928 1.479578971862793 1.903072476387024 2.302635669708252 2.603727102279663 2.702362060546875 2.514887571334839 2.310232639312744 2.1658947467803955 2.1749894618988037 2.408872365951538 2.9513168334960938 3.483058452606201 3.9820048809051514 4.437716960906982 4.811506748199463 4.993177890777588 5.013962268829346 -9999
-9999 2.037224531173706 2.324791431427002 2.892200231552124 3.3716673851013184 3.6544134616851807 3.703704357147217 3.51116681098938 3.214195966720581 2.9711360931396484 2.862752914428711 2.908475160598755 3.08671498298645 3.3153679370880127 3.5738940238952637 3.9282283782958984 4.381970405578613 4.872447490692139 5.0323004722595215 -9999
-9999 2.8353796005249023 3.1832845211029053 3.86381196975708 4.362339019775391 4.5279107093811035 4.413654327392578 4.1021409034729 3.729933023452759 3.41041898727417 3.1989433765411377 3.067617654800415 2.999911308288574 2.9764273166656494 2.977193593978882 3.096407651901245 3.3472461700439453 3.8744940757751465 -9999 -9999
-9999 3.4273929595947266 3.831209182739258 4.5530195236206055 4.97634744644165 4.986331939697266 4.719140529632568 4.318136215209961 3.9200613498687744 3.5719971656799316 3.3019564151763916 3.0589375495910645 2.828958034515381 2.6138317584991455 2.441995620727539 2.328598737716675 2.2943315505981445 2.0750527381896973 -9999 -9999
-9999 3.8638863563537598 4.330152988433838 4.985182762145996 5.298337936401367 5.134881019592285 4.726104736328125 4.246254920959473 3.8256876468658447 3.4670140743255615 3.167886257171631 2.866947889328003 2.55857515335083 2.2780094146728516 2.0215346813201904 1.8062257766723633 1.6329379081726074 1.4466145038604736 1.2913931608200073 1.126382827758789
-9999 -9999 4.828706741333008 5.28432559967041 5.459874629974365 5.131306171417236 4.566083908081055 4.0044074058532715 3.5524494647979736 3.1927709579467773 2.8934316635131836 2.5889718532562256 2.2799339294433594 1.949066162109375 1.6772856712341309 1.4739307165145874 1.284349799156189 1.142256736755371 1.0301555395126343 1.058205008506775
-9999 -9999 5.2924723625183105 5.510786056518555 5.512174606323242 5.01787805557251 4.308376789093018 3.6620635986328125 3.1755259037017822 2.8355040550231934 2.599306583404541 2.3128585815429688 2.0043551921844482 1.6831988096237183 1.4423296451568604 1.2674379348754883 1.119137167930603 1.0228699445724487 1.056842565536499 1.0758463144302368
-9999 -9999 -9999 5.604583263397217 5.51976203918457 4.9539899826049805 4.166070938110352 3.4832069873809814 2.9967520236968994 2.6822714805603027 2.447625160217285 2.2047359943389893 1.8980472087860107 1.5821492671966553 1.3315359354019165 1.1926766633987427 1.0346424579620361 1.0446364879608154 1.0722472667694092 1.087449550628662
