ncols         20
nrows         20
xllcorner     0
yllcorner     -3.5992928
cellsize      0.17996463
NODATA_value  -9999
-9999.0 -9999 -9999 -9999 -9999 -9999 -9999 -9999 -9999 -9999 -9999 -9999 -9999 -9999 -9999 -9999 -9999 -9999 -9999 -9999
-9999 -9999 -9999 -9999 -9999 -9999 -9999 -9999 -9999 -9999 -9999 0.04888525977730751 0.046812545508146286 -9999 -9999 0.03751093149185181 0.03296618536114693 -9999 -9999 -9999
-9999 -9999 -9999 -9999 0.06037256866693497 0.06843270361423492 0.08385135978460312 0.09620735049247742 0.10280432552099228 0.10528608411550522 0.08406687527894974 0.07026119530200958 0.06842901557683945 0.06726846098899841 0.055283743888139725 0.0431097075343132 0.035295143723487854 0.030550634488463402 -9999 -9999
-9999 -9999 -9999 0.054507892578840256 0.06312023848295212 0.07456202059984207 0.09190161526203156 0.10931060463190079 0.1284087747335434 0.14355243742465973 0.1511012613773346 0.14444780349731445 0.1358046680688858 0.11360044032335281 0.0872134417295456 0.06223153695464134 0.045824747532606125 0.037995029240846634 -9999 -9999
-9999 -9999 -9999 0.053659167140722275 0.06354022026062012 0.08482948690652847 0.11326849460601807 0.14907878637313843 0.19720140099525452 0.2680239975452423 0.34240853786468506 0.3734247088432312 0.3429137170314789 0.2545279264450073 0.17362919449806213 0.10832694172859192 0.07104040682315826 0.06234705075621605 -9999 -9999
-9999 -9999 0.036180030554533005 0.048313822597265244 0.06547212600708008 0.09459838271141052 0.13524173200130463 0.1941734105348587 0.2994668781757355 0.4613884389400482 0.6625175476074219 0.7608228921890259 0.719362735748291 0.5296871066093445 0.3312274217605591 0.19405929744243622 0.11938688158988953 0.09327499568462372 0.0754084587097168 -9999
-9999 -9999 0.03503447771072388 0.04505933076143265 0.06955791264772415 0.11030831187963486 0.16710272431373596 0.2591867446899414 0.4211355447769165 0.6703795790672302 0.9654310345649719 1.1412445306777954 1.1034494638442993 0.8672071695327759 0 0.3439331352710724 0.20733918249607086 0.14026875793933868 0.11583846807479858 -9999
-9999 -9999 0.03682992234826088 0.05091452598571777 0.08562935888767242 0.14231042563915253 0.2305675745010376 0.3661976158618927 0.5637843608856201 0.8320112824440002 1.0872693061828613 1.2570912837982178 1.2498689889907837 1.0706346035003662 0.8050961494445801 0.5358075499534607 0.34452128410339355 0.23292681574821472 0.19329704344272614 -9999
-9999 0.02704714797437191 0.04109261557459831 0.06581126898527145 0.12221378087997437 0.2179247885942459 0.35332223773002625 0.5423166155815125 0.7599339485168457 0.9702587127685547 1.1213515996932983 1.2150903940200806 1.2352204322814941 1.1449053287506104 0.9819820523262024 0 0.5186750888824463 0.3659730553627014 0.30812349915504456 -9999
-9999 0.034819990396499634 0.05102080851793289 0.09671550989151001 0.1903856098651886 0.3420211672782898 0.5449628233909607 0.7777119874954224 0.9745476245880127 1.0911829471588135 1.1332378387451172 1.1616134643554688 1.1735411882400513 1.151978611946106 1.0727964639663696 0 0.7002623081207275 0.5301012992858887 0.4621407389640808 -9999
-9999 0.05371527001261711 0.07740774750709534 0.14523063600063324 0.2714874744415283 0.46517542004585266 0.7143967151641846 0.9574019908905029 1.0950216054916382 1.129991888999939 1.1234034299850464 1.1271589994430542 1.1533912420272827 1.1555272340774536 1.1117570400238037 1.0237061977386475 0.8562827110290527 0.7027794122695923 0.6354776620864868 -9999
-9999 0.09322807192802429 0.12686137855052948 0.22135087847709656 0.37328875064849854 0.5752871036529541 0.8106013536453247 0.9960156083106995 1.055943250656128 1.0390188694000244 1.0179165601730347 1.039416790008545 0 0 1.1063108444213867 0 0.9452704191207886 0.8328514695167542 0.778798520565033 -9999
-9999 0.16859769821166992 0.2203853726387024 0.3503568172454834 0.5083448886871338 0.6823636293411255 0.8454456925392151 0.9386522173881531 0.9246896505355835 0.867304801940918 0.832454264163971 0.8454755544662476 0 0 0 0.9035358428955078 0.8748980760574341 0.8437570333480835 0.8103047609329224 -9999
-9999 0.2846772372722626 0.3547210097312927 0.5132740139961243 0.6640322208404541 0.7759997844696045 0.8393956422805786 0.8354735970497131 0.7726278305053711 0.6995009779930115 0.6531460881233215 0.6399904489517212 0 0 0 0.6182661652565002 0.6472777724266052 0.7223736643791199 0.7295495271682739 -9999
-9999 0.39737972617149353 0.4716745913028717 0.63389652967453 0.7505923509597778 0.7857158184051514 0.7648943662643433 0.7072840929031372 0.6331507563591003 0.5718135237693787 0.5335951447486877 0.49743402004241943 0.4636485278606415 0.42677339911460876 0 0 0.38536685705184937 0.4763891100883484 -9999 -9999
-9999 0.45323750376701355 0.5186144709587097 0.6557437777519226 0.7212950587272644 0.7020632028579712 0.6439725756645203 0.5756133794784546 0.5240949392318726 0.4926574230194092 0 0 0 0.3050360679626465 0 0 0.2062860131263733 0 -9999 -9999
-9999 0.4910627007484436 0.5246993899345398 0.6170154809951782 0.6447743773460388 0.5945079922676086 0.5212863087654114 0.46116626262664795 0.43335092067718506 0 0 0 0 0.2326877862215042 0.18437127768993378 0.14806412160396576 0.1233009397983551 0.10545622557401657 0 0
-9999 -9999 0.5047383904457092 0.5626264810562134 0.5684900283813477 0.5020439624786377 0.4220738112926483 0.37043556571006775 0 0 0 0 0 0 0 0 0 0 0 0
-9999 -9999 0.5245519876480103 0.5275280475616455 0.508641242980957 0.42901042103767395 0.34392133355140686 0.29220426082611084 0 0 0 0 0 0 0 0 0 0 0 0
-9999 -9999 -9999 0.4935711920261383 0.47611838579177856 0.3950616717338562 0.30817681550979614 0.25738048553466797 0 0 0 0 0 0 0 0 0 0 0 0
