ncols         20
nrows         20
xllcorner     0
yllcorner     -3.5992928
cellsize      0.17996463
NODATA_value  -9999
-9999.0 -9999 -9999 -9999 -9999 -9999 -9999 -9999 -9999 -9999 -9999 -9999 -9999 -9999 -9999 -9999 -9999 -9999 -9999 -9999
-9999 -9999 -9999 -9999 -9999 -9999 -9999 -9999 -9999 -9999 -9999 1.2765069007873535 1.274449110031128 -9999 -9999 1.3516900539398193 1.3231087923049927 -9999 -9999 -9999
-9999 -9999 -9999 -9999 1.2749648094177246 1.291229486465454 1.3181804418563843 1.322988510131836 1.3180032968521118 1.3212896585464478 1.2946985960006714 1.3116214275360107 1.3385266065597534 1.360091209411621 1.3666726350784302 1.3667105436325073 1.344382405281067 1.3203234672546387 -9999 -9999
-9999 -9999 -9999 1.3036384582519531 1.318161129951477 1.3329073190689087 1.3481981754302979 1.3483858108520508 1.3488998413085938 1.3426263332366943 1.344944715499878 1.3606934547424316 1.3878053426742554 1.4097226858139038 1.4331445693969727 1.4364233016967773 1.4099788665771484 1.382043480873108 -9999 -9999
-9999 -9999 -9999 1.3375881910324097 1.3572602272033691 1.3922063112258911 1.401828646659851 1.3910118341445923 1.3460737466812134 1.2714347839355469 1.1975793838500977 1.170230507850647 1.210548758506775 1.3085628747940063 1.4184865951538086 1.4766861200332642 1.4797449111938477 1.4933687448501587 -9999 -9999
-9999 -9999 1.349463939666748 1.3799525499343872 1.4148218631744385 1.438515305519104 1.420015811920166 1.347639799118042 1.2006924152374268 0.9964206218719482 0.8034657835960388 0.717020571231842 0.7539724111557007 0.9265872240066528 1.1743439435958862 1.366170048713684 1.475150465965271 1.509669303894043 1.479274034500122 -9999
-9999 -9999 1.3819096088409424 1.4164918661117554 1.4696564674377441 1.4740736484527588 1.4005218744277954 1.22762131690979 0.9595996141433716 0.6630518436431885 0.44026365876197815 0.3442194163799286 0.36349719762802124 0.5116448998451233 0 1.0882360935211182 1.3245387077331543 1.4452482461929321 1.477413535118103 -9999
-9999 -9999 1.4555752277374268 1.4962751865386963 1.5229804515838623 1.4698868989944458 1.292181134223938 1.0015662908554077 0.6708828210830688 0.39370569586753845 0.2315608561038971 0.16406193375587463 0.16801607608795166 0.24631504714488983 0.4285706579685211 0.7047694325447083 0.9940379858016968 1.2168936729431152 1.314103603363037 -9999
-9999 1.4907766580581665 1.546107530593872 1.5664616823196411 1.529495120048523 1.347543478012085 1.0308713912963867 0.6700650453567505 0.3793698847293854 0.20077089965343475 0.11473970115184784 0.08061905950307846 0.07887805998325348 0.11245205998420715 0.20069776475429535 0 0.6094633340835571 0.8357369899749756 0.9609125852584839 -9999
-9999 1.5700525045394897 1.6029515266418457 1.576143741607666 1.4057596921920776 1.0595028400421143 0.6604889631271362 0.3432585299015045 0.16305358707904816 0.08139204978942871 0.048841215670108795 0.036078717559576035 0.03545336425304413 0.04703417047858238 0.08167216181755066 0 0.2902534604072571 0.4457680881023407 0.5417345762252808 -9999
-9999 1.6341118812561035 1.6140891313552856 1.4738194942474365 1.1565532684326172 0.7337174415588379 0.36281055212020874 0.14478828012943268 0.05665535107254982 0.026317058131098747 0.015931986272335052 0.012414482422173023 0.012316920794546604 0.0157893355935812 0.026029927656054497 0.051441337913274765 0.10062220692634583 0.172507643699646 0.22005361318588257 -9999
-9999 1.5838539600372314 1.497868537902832 1.2240182161331177 0.8335956335067749 0.4518823027610779 0.18355989456176758 0.05886181816458702 0.018994459882378578 0.007552430033683777 0.004199877381324768 0.003106820397078991 0 0 0.005598176270723343 0 0.02441406063735485 0.04584486782550812 0.06070749834179878 -9999
-9999 1.3490878343582153 1.1850146055221558 0.8327072858810425 0.49133163690567017 0.2329304963350296 0.08403728902339935 0.02345319092273712 0.006311395205557346 0.0021913812961429358 0.0008576901745982468 0.0005364387179724872 0 0 0 0.0013888017274439335 0.0038830696139484644 0.008436215110123158 0.01226012036204338 -9999
-9999 0.9513980746269226 0.7644845843315125 0.4472324848175049 0.21903103590011597 0.09135652333498001 0.030868424102663994 0.00831590685993433 0.001875052461400628 0.0006182997021824121 0.0002713030844461173 0.0001626598386792466 0 0 0 0.00019236712250858545 0.0003986502706538886 0.001040973118506372 0.0017664497718214989 -9999
-9999 0.600843071937561 0.4439406394958496 0.21087391674518585 0.08162613958120346 0.029281010851264 0.009334174916148186 0.0023383141960948706 0.0006878527346998453 0.0002685351937543601 0.00014063554408494383 8.96826823009178E-05 6.730583845637739E-05 5.897744631511159E-05 0 0 8.375197649002075E-05 0.00017383012163918465 -9999 -9999
-9999 0.403511106967926 0.27556464076042175 0.10949314385652542 0.03438621386885643 0.009881117381155491 0.002673504874110222 0.00081774836871773 0.0003226502158213407 0.0001610211475053802 0 0 0 8.584929310018197E-05 0 0 0.00014819460920989513 0 -9999 -9999
-9999 0.29235875606536865 0.18190717697143555 0.0676184892654419 0.01819889061152935 0.003685616422444582 0.0010188400046899915 0.0003570533590391278 0.00017182494048029184 0 0 0 0 0.00015555837308056653 0.0001970758312381804 0.00023660871374886483 0.00027369990129955113 0.0003191027499269694 0 0
-9999 -9999 0.1073206290602684 0.04475973919034004 0.011248433962464333 0.002036714693531394 0.0005159656284376979 0.00019146742124576122 0 0 0 0 0 0 0 0 0 0 0 0
-9999 -9999 0.054456911981105804 0.02721077762544155 0.007210893556475639 0.0012359615648165345 0.00029698119033128023 0.00011086103768320754 0 0 0 0 0 0 0 0 0 0 0 0
-9999 -9999 -9999 0.01862124353647232 0.005114422179758549 0.0009661069489084184 0.00022976138279773295 8.704197534825653E-05 0 0 0 0 0 0 0 0 0 0 0 0
