ncols         20
nrows         20
xllcorner     0
yllcorner     -3.5992928
cellsize      0.17996463
NODATA_value  -9999
-9999.0 -9999 -9999 -9999 -9999 -9999 -9999 -9999 -9999 -9999 -9999 -9999 -9999 -9999 -9999 -9999 -9999 -9999 -9999 -9999
-9999 -9999 -9999 -9999 -9999 -9999 -9999 -9999 -9999 -9999 -9999 0 0 -9999 -9999 0 0 -9999 -9999 -9999
-9999 -9999 -9999 -9999 0 0 0 0 0 0 0 0 0 0 0 0 0 0 -9999 -9999
-9999 -9999 -9999 0 0 0 0 0 0 0 0 0 0 0 0 0 0 0 -9999 -9999
-9999 -9999 -9999 0 0 0 0 0 0 0 0 0 0 0 0 0 0 0 -9999 -9999
-9999 -9999 0 0 0 0 3.9907689094543457 3.6935553550720215 3.473911762237549 3.272191286087036 3.0981178283691406 3.032135009765625 3.105055093765259 3.3293042182922363 3.654707193374634 4.068045616149902 0 0 0 -9999
-9999 -9999 0 0 0 3.93491268157959 3.4933083057403564 3.162961483001709 2.8610541820526123 2.560755968093872 2.3088767528533936 2.191850423812866 2.2459990978240967 2.4830427169799805 0.31900185346603394 3.3960630893707275 0 0 0 -9999
-9999 -9999 0 0 4.042715072631836 3.545257091522217 3.1257550716400146 2.7394158840179443 2.367225170135498 2.026142120361328 1.7778401374816895 1.6552056074142456 1.6841683387756348 1.8733997344970703 2.220503568649292 2.708146572113037 3.3035831451416016 0 0 -9999
-9999 0 0 4.316442012786865 3.748047113418579 3.2472243309020996 2.768017053604126 2.308936357498169 1.906280279159546 1.595802664756775 1.400144100189209 1.3078681230545044 1.3170764446258545 1.444860577583313 1.6972846984863281 0.4634675681591034 2.5797359943389893 3.104485511779785 0 -9999
-9999 0 0 4.179692268371582 3.5241897106170654 2.9187815189361572 2.3491175174713135 1.8486378192901611 1.472646713256836 1.2335578203201294 1.1069921255111694 1.0509467124938965 1.0589665174484253 1.1350773572921753 1.3025838136672974 0.3503207266330719 1.9657881259918213 2.400547981262207 0 -9999
-9999 0 0 4.037243843078613 3.26126766204834 2.565197706222534 1.9407100677490234 1.4436438083648682 1.1262558698654175 0.9545407891273499 0.8733779788017273 0.843694269657135 0.8510363101959229 0.898402750492096 1.0011487007141113 1.1840848922729492 1.4583388566970825 0 0 -9999
-9999 0 0 3.770260810852051 2.9186742305755615 2.199695348739624 1.594109296798706 1.154028058052063 0.899929404258728 0.7717865705490112 0.7158477306365967 0.6952333450317383 0.3110629618167877 0.4030829966068268 0.7820990085601807 0.1977921426296234 1.0680408477783203 0 0 -9999
-9999 0 0 3.305230140686035 2.4694924354553223 1.8116035461425781 1.3020122051239014 0.9519011974334717 0.7582529187202454 0.667926549911499 0.6229554414749146 0.6074790358543396 0.4051111936569214 0.5523895025253296 0.43552711606025696 0.7113183736801147 0.8183243274688721 0 0 -9999
-9999 0 0 2.702785015106201 1.9488009214401245 1.416838526725769 1.0445895195007324 0.8043980598449707 0.6694718599319458 0.6089724898338318 0.5804678797721863 0.5691695213317871 0.2526383697986603 0.4488356113433838 0.3973187804222107 0.6303211450576782 0.6900513172149658 0 0 -9999
-9999 0 0 2.1480422019958496 1.5034806728363037 1.1026251316070557 0.8530519008636475 0.6991776823997498 0.6193963289260864 0.5790188312530518 0.5591773986816406 0.550571620464325 0.5499612092971802 0.5563280582427979 0.37984901666641235 0.32943180203437805 0.6302394270896912 0 -9999 -9999
-9999 0 0 1.7709790468215942 1.228764533996582 0.9130386114120483 0.7376286387443542 0.6417207717895508 0.5904317498207092 0.5620167255401611 0.36472541093826294 0.42022040486335754 0.06002232804894447 0.5473180413246155 0.2485809028148651 0.2565416097640991 0.6028990149497986 0.08975300192832947 -9999 -9999
-9999 0 0 1.5363354682922363 1.0719395875930786 0.8035883903503418 0.6769694685935974 0.6089779734611511 0.5718109607696533 0.3669693171977997 0.47891178727149963 0.5350413918495178 0.41758885979652405 0.5424986481666565 0.5517612099647522 0.5649451613426208 0.5825365781784058 0.5996833443641663 0.428505539894104 0.600737988948822
-9999 -9999 0 1.3586229085922241 0.9721604585647583 0.7488790154457092 0.6440620422363281 0.590156078338623 0.3112913966178894 0.48280078172683716 0.5362195372581482 0.5337428450584412 0.4755033254623413 0.41944459080696106 0.36422693729400635 0.3705088198184967 0.3779884874820709 0.4496919512748718 0.5187419056892395 0.5855305790901184
-9999 -9999 0 0 0.9064230918884277 0.7139323949813843 0.6243605613708496 0.5786300301551819 0.3697569668292999 0.5426459312438965 0.5358504056930542 0.5332128405570984 0.5339441299438477 0.5374020338058472 0.5429493188858032 0.5499837398529053 0.5577146410942078 0.5647144913673401 0.5690250992774963 0.5709401369094849
-9999 -9999 -9999 0 0.8651846051216125 0.6984508633613586 0.6162281036376953 0.5740415453910828 0.3694641590118408 0.542473554611206 0.5357525944709778 0.5330156087875366 0.5335044264793396 0.5365143418312073 0.5413284301757812 0.5472315549850464 0.5534709692001343 0.5588502883911133 0.5624706745147705 0.5642197728157043
