ncols         20
nrows         20
xllcorner     0
yllcorner     -3.5992928
cellsize      0.17996463
NODATA_value  -9999
-9999.0 -9999 -9999 -9999 -9999 -9999 -9999 -9999 -9999 -9999 -9999 -9999 -9999 -9999 -9999 -9999 -9999 -9999 -9999 -9999
-9999 -9999 -9999 -9999 -9999 -9999 -9999 -9999 -9999 -9999 -9999 26.483118057250977 26.48451805114746 -9999 -9999 26.597463607788086 26.67743682861328 -9999 -9999 -9999
-9999 -9999 -9999 -9999 26.521194458007812 26.41080093383789 26.2519474029541 26.13814926147461 26.083480834960938 26.08015251159668 26.16815185546875 26.266624450683594 26.238872528076172 26.140796661376953 26.202220916748047 26.39642906188965 26.52908706665039 26.568740844726562 -9999 -9999
-9999 -9999 -9999 26.529924392700195 26.471538543701172 26.372339248657227 26.25863265991211 26.191349029541016 26.15774917602539 26.14729881286621 26.150135040283203 26.139516830444336 26.07059669494629 26.002779006958008 26.018447875976562 26.13207244873047 26.248998641967773 26.299453735351562 -9999 -9999
-9999 -9999 -9999 26.453678131103516 26.400846481323242 26.340017318725586 26.34150505065918 26.422422409057617 26.516855239868164 26.58394432067871 26.602914810180664 26.534278869628906 26.358043670654297 26.14993667602539 25.999958038330078 25.955495834350586 25.955902099609375 25.929523468017578 -9999 -9999
-9999 -9999 26.403440475463867 26.35753059387207 26.31922149658203 26.39983367919922 26.699357986450195 27.171581268310547 27.59417724609375 27.91567039489746 28.090011596679688 27.979082107543945 27.560901641845703 27.002639770507812 26.50547981262207 26.14181137084961 25.924930572509766 25.793514251708984 25.73516845703125 -9999
-9999 -9999 26.234207153320312 26.20644760131836 26.254398345947266 26.61402702331543 27.473068237304688 28.79752540588379 29.84458351135254 30.47489356994629 30.685108184814453 30.385135650634766 29.561603546142578 28.589479446411133 27.64834976196289 26.854326248168945 26.33399200439453 26.02776527404785 25.888410568237305 -9999
-9999 -9999 25.91331672668457 25.937280654907227 26.177692413330078 26.980976104736328 28.689552307128906 31.4088077545166 32.94572448730469 33.63304138183594 33.70803451538086 33.118289947509766 31.713294982910156 30.35641860961914 29.139049530029297 28.077220916748047 27.23765754699707 26.680500030517578 26.420570373535156 -9999
-9999 25.47613525390625 25.547103881835938 25.672290802001953 26.169523239135742 27.420150756835938 29.79529571533203 33.01054000854492 34.786529541015625 35.51920700073242 35.53922653198242 34.84134292602539 33.3028450012207 31.826936721801758 30.541826248168945 29.42550277709961 28.490751266479492 27.80941390991211 27.452577590942383 -9999
-9999 25.254180908203125 25.317224502563477 25.58751678466797 26.39422607421875 28.04099464416504 30.762245178222656 33.97319030761719 35.758140563964844 36.49193572998047 36.5045280456543 35.814796447753906 34.321563720703125 32.87807083129883 31.643482208251953 30.600849151611328 29.73358917236328 29.083446502685547 28.727323532104492 -9999
-9999 25.092044830322266 25.268795013427734 25.791034698486328 26.92230987548828 28.851428985595703 31.572460174560547 34.526405334472656 36.18357849121094 36.88189697265625 36.91324234008789 36.28952407836914 34.89789962768555 33.55606460571289 32.419761657714844 31.481081008911133 30.7238826751709 30.168413162231445 29.860824584960938 -9999
-9999 25.242366790771484 25.570058822631836 26.342409133911133 27.68687629699707 29.652982711791992 32.08517837524414 34.59872055053711 36.053401947021484 36.71461486816406 36.80056381225586 36.31199645996094 35.1325798034668 33.99344253540039 33.00584411621094 32.161346435546875 31.46733856201172 30.962190628051758 30.677745819091797 -9999
-9999 25.841575622558594 26.295448303222656 27.238847732543945 28.62649917602539 30.335121154785156 32.221046447753906 34.0208625793457 35.24470138549805 35.90388107299805 36.09375 35.82817459106445 35.149845123291016 34.38134765625 33.62296676635742 32.89248275756836 32.207027435302734 31.66238021850586 31.301305770874023 -9999
-9999 26.8308162689209 27.356809616088867 28.318008422851562 29.535762786865234 30.88730239868164 32.286556243896484 33.60033416748047 34.62015914916992 35.25276184082031 35.538597106933594 35.515506744384766 35.243865966796875 34.848388671875 34.37869644165039 33.82398986816406 33.205902099609375 32.57572555541992 31.855716705322266 -9999
-9999 27.932844161987305 28.428213119506836 29.26198959350586 30.25395393371582 31.322175979614258 32.416385650634766 33.46174240112305 34.30693817138672 34.90980911254883 35.27723693847656 35.452232360839844 35.474430084228516 35.38798904418945 35.20908737182617 34.91029357910156 34.51819610595703 34.11844253540039 -9999 -9999
-9999 28.797975540161133 29.26163101196289 29.955524444580078 30.780658721923828 31.705291748046875 32.66398239135742 33.54867172241211 34.28794860839844 34.858978271484375 35.2712287902832 35.569976806640625 35.78113555908203 35.912532806396484 35.95604705810547 35.904991149902344 35.79775619506836 35.76515579223633 -9999 -9999
-9999 29.30099868774414 29.859134674072266 30.451940536499023 31.19031524658203 32.086387634277344 32.988555908203125 33.81884002685547 34.50837707519531 35.053993225097656 35.478702545166016 35.8345947265625 36.14036560058594 36.38682174682617 36.5601921081543 36.656253814697266 36.71454620361328 36.83962631225586 37.220977783203125 37.38272476196289
-9999 -9999 30.458951950073242 30.861934661865234 31.525543212890625 32.41612243652344 33.34593200683594 34.18730926513672 34.86637496948242 35.38957214355469 35.79932403564453 36.16341781616211 36.49998474121094 36.80458450317383 37.0335807800293 37.18024826049805 37.28486251831055 37.38047790527344 37.502655029296875 37.5433464050293
-9999 -9999 30.745927810668945 31.149215698242188 31.783737182617188 32.696502685546875 33.68074035644531 34.55934143066406 35.2420539855957 35.73871994018555 36.11278533935547 36.462059020996094 36.80445861816406 37.1238899230957 37.36503219604492 37.521968841552734 37.625892639160156 37.67766189575195 37.68359375 37.681610107421875
-9999 -9999 -9999 31.41576385498047 31.962560653686523 32.858951568603516 33.87148666381836 34.7700080871582 35.44932174682617 35.9276123046875 36.285892486572266 36.614479064941406 36.956024169921875 37.28099822998047 37.53355026245117 37.69048309326172 37.79878616333008 37.80921936035156 37.78934097290039 37.77644348144531
