ncols         20
nrows         20
xllcorner     0
yllcorner     -3.5992928
cellsize      0.17996463
NODATA_value  -9999
-9999.0 -9999 -9999 -9999 -9999 -9999 -9999 -9999 -9999 -9999 -9999 -9999 -9999 -9999 -9999 -9999 -9999 -9999 -9999 -9999
-9999 -9999 -9999 -9999 -9999 -9999 -9999 -9999 -9999 -9999 -9999 0.042196910828351974 0.040412262082099915 -9999 -9999 0.03212184086441994 0.02820870652794838 -9999 -9999 -9999
-9999 -9999 -9999 -9999 0.05109890550374985 0.05807693302631378 0.07148295640945435 0.08243268728256226 0.0885191261768341 0.09102348238229752 0.07285601645708084 0.06090463325381279 0.059338994324207306 0.058360058814287186 0.04784748703241348 0.037127356976270676 0.0303355660289526 0.02627338096499443 -9999 -9999
-9999 -9999 -9999 0.04615262150764465 0.053508587181568146 0.06341235339641571 0.07853719592094421 0.09393300116062164 0.11097472906112671 0.12469412386417389 0.13174159824848175 0.1261810064315796 0.11869487911462784 0.09919127076864243 0.07593818753957748 0.05399206280708313 0.039661332964897156 0.03286311402916908 -9999 -9999
-9999 -9999 -9999 0.04556729644536972 0.0540609285235405 0.07246727496385574 0.09729336202144623 0.12886278331279755 0.17163056135177612 0.23495423793792725 0.3016887307167053 0.329899400472641 0.30305999517440796 0.22450464963912964 0.15253901481628418 0.09486707299947739 0.06207061558961868 0.054444797337055206 -9999 -9999
-9999 -9999 0.03090459108352661 0.04124385118484497 0.05603516101837158 0.08134888857603073 0.11699937283992767 0.16915194690227509 0.2630421221256256 0.4080702066421509 0.5887967944145203 0.6778282523155212 0.6411046385765076 0.4710918366909027 0.2933259904384613 0.1714773327112198 0.10534315556287766 0.08233390003442764 0.06677145510911942 -9999
-9999 -9999 0.030073245987296104 0.038729939609766006 0.06001969426870346 0.09571122378110886 0.1459202915430069 0.2280915081501007 0.37319397926330566 0.5972371101379395 0.8630340695381165 1.0219289064407349 0.9881272912025452 0.7746794819831848 0 0.3057413101196289 0.18445472419261932 0.124854177236557 0.10320160537958145 -9999
-9999 -9999 0.03187914565205574 0.04418860748410225 0.0746951550245285 0.12488223612308502 0.20376849174499512 0.3256987929344177 0.5037903785705566 0.745637059211731 0.9758733510971069 1.1290526390075684 1.1224077939987183 0.9601753354072571 0.7199154496192932 0.4784572124481201 0.308285117149353 0.2088332325220108 0.17350444197654724 -9999
-9999 0.02364977076649666 0.03591687232255936 0.05777233839035034 0.10799594223499298 0.19379585981369019 0.31599217653274536 0.48700961470603943 0.6837804913520813 0.8734467625617981 1.0091404914855957 1.0927977561950684 1.1098904609680176 1.027254581451416 0.8784497380256653 0 0.46474993228912354 0.3295412063598633 0.2781184911727905 -9999
-9999 0.030579948797822 0.044942259788513184 0.08583768457174301 0.1702445149421692 0.3076431155204773 0.4921291172504425 0.7033262848854065 0.8809084892272949 0.9847851395606995 1.020470380783081 1.0433281660079956 1.0512433052062988 1.0298993587493896 0.9569051861763 0 0.6274415850639343 0.47802814841270447 0.4180994927883148 -9999
-9999 0.04748954251408577 0.06873252987861633 0.13013257086277008 0.2451385110616684 0.4219096899032593 0.6490270495414734 0.868965208530426 0.9913643598556519 1.0194377899169922 1.0088632106781006 1.0063581466674805 1.0228334665298462 1.0220386981964111 0.9847667813301086 0.9078587293624878 0.7655475735664368 0.63242506980896 0.5738677978515625 -9999
-9999 0.0832003727555275 0.11371015012264252 0.200284942984581 0.3396420180797577 0.524528980255127 0.7383221983909607 0.9042972326278687 0.9544448852539062 0.9339161515235901 0.9081848859786987 0.9174104332923889 0 0 0.9640158414840698 0 0.8381767272949219 0.7447641491889954 0.6993889212608337 -9999
-9999 0.15209878981113434 0.19978584349155426 0.319597065448761 0.4647347927093506 0.6232864856719971 0.7694953680038452 0.8498401641845703 0.831909716129303 0.7743881344795227 0.7360162734985352 0.7374340295791626 0 0 0 0.784386932849884 0.7695919871330261 0.7484638094902039 0.7226858735084534 -9999
-9999 0.2597082257270813 0.32455894351005554 0.4703157842159271 0.607771098613739 0.7076112627983093 0.7610430121421814 0.7521134614944458 0.6897575855255127 0.6182278394699097 0.5705155730247498 0.5513222813606262 0 0 0 0.529374897480011 0.5621269345283508 0.633481502532959 0.6467397212982178 -9999
-9999 0.36477744579315186 0.43296730518341064 0.580871045589447 0.6851991415023804 0.7131015062332153 0.6890424489974976 0.631361722946167 0.5587198734283447 0.49777644872665405 0.45772019028663635 0.42162421345710754 0.38920074701309204 0.35659754276275635 0 0 0.3270517587661743 0.4073793292045593 -9999 -9999
-9999 0.4163171947002411 0.47556617856025696 0.5990214347839355 0.6551259756088257 0.6330029368400574 0.5752989053726196 0.5079035758972168 0.45512160658836365 0.4194863736629486 0 0 0 0.2506045401096344 0 0 0.16931577026844025 0 -9999 -9999
-9999 0.45044922828674316 0.47940972447395325 0.5606940984725952 0.5818590521812439 0.5320289731025696 0.4610499143600464 0.40126144886016846 0.3687792122364044 0 0 0 0 0.18713630735874176 0.14780546724796295 0.11809860914945602 0.0975634902715683 0.08173558861017227 0 0
-9999 -9999 0.4576717019081116 0.5077235698699951 0.5094113349914551 0.4457232356071472 0.36954447627067566 0.3176797032356262 0 0 0 0 0 0 0 0 0 0 0 0
-9999 -9999 0.472871869802475 0.4729640483856201 0.45297500491142273 0.37837308645248413 0.29875463247299194 0.2480384111404419 0 0 0 0 0 0 0 0 0 0 0 0
-9999 -9999 -9999 0.43997153639793396 0.42238113284111023 0.34709566831588745 0.26654741168022156 0.21732978522777557 0 0 0 0 0 0 0 0 0 0 0 0
