ncols         20
nrows         20
xllcorner     0
yllcorner     -3.5992928
cellsize      0.17996463
NODATA_value  -9999
-9999.0 -9999 -9999 -9999 -9999 -9999 -9999 -9999 -9999 -9999 -9999 -9999 -9999 -9999 -9999 -9999 -9999 -9999 -9999 -9999
-9999 -9999 -9999 -9999 -9999 -9999 -9999 -9999 -9999 -9999 -9999 11.77263355255127 11.745391845703125 -9999 -9999 11.747934341430664 11.591397285461426 -9999 -9999 -9999
-9999 -9999 -9999 -9999 11.655667304992676 11.804824829101562 12.044501304626465 12.173173904418945 12.216034889221191 12.244791030883789 12.070327758789062 12.037310600280762 12.109987258911133 12.17403507232666 12.08868408203125 11.91653823852539 11.740080833435059 11.628350257873535 -9999 -9999
-9999 -9999 -9999 11.678152084350586 11.79789924621582 11.935713768005371 12.104945182800293 12.185998916625977 12.235715866088867 12.2510986328125 12.281249046325684 12.3237943649292 12.40734577178955 12.445952415466309 12.43943977355957 12.304498672485352 12.107328414916992 11.980171203613281 -9999 -9999
-9999 -9999 -9999 11.801843643188477 11.917458534240723 12.121702194213867 12.201716423034668 12.131814956665039 11.99893569946289 11.838547706604004 11.680086135864258 11.643294334411621 11.815275192260742 12.137227058410645 12.44653034210205 12.567124366760254 12.510236740112305 12.571442604064941 -9999 -9999
-9999 -9999 11.758450508117676 11.939939498901367 12.12038516998291 12.20792007446289 11.97399616241455 11.438919067382812 10.885451316833496 10.268562316894531 9.637463569641113 9.385811805725098 9.683097839355469 10.504705429077148 11.452596664428711 12.144420623779297 12.490531921386719 12.65520191192627 12.557082176208496 -9999
-9999 -9999 11.938159942626953 12.106388092041016 12.328178405761719 12.146984100341797 11.245606422424316 9.680344581604004 8.524137496948242 7.5085768699646 6.657681465148926 6.349457740783691 6.845741271972656 7.955346584320068 9.401068687438965 10.784866333007812 11.712678909301758 12.190773963928223 12.357732772827148 -9999
-9999 -9999 12.357169151306152 12.555996894836426 12.609397888183594 11.88901424407959 9.92006778717041 6.025464057922363 4.689012050628662 3.9234459400177 3.453930377960205 3.410938024520874 4.458535194396973 5.564550399780273 7.014841079711914 8.640948295593262 10.021358489990234 10.959004402160645 11.372129440307617 -9999
-9999 12.617262840270996 12.870696067810059 13.031192779541016 12.75537395477295 11.442705154418945 8.78441333770752 4.685572624206543 3.216336250305176 2.5284359455108643 2.218503952026367 2.254092216491699 2.963247060775757 3.7313146591186523 4.785552978515625 6.184361457824707 7.680059909820557 8.858792304992676 9.436326026916504 -9999
-9999 13.037030220031738 13.218300819396973 13.21843433380127 12.38353157043457 10.398690223693848 7.367527008056641 3.6712608337402344 2.300076961517334 1.714985728263855 1.5033758878707886 1.5352784395217896 1.953586220741272 2.3739328384399414 3.015162706375122 3.956420421600342 5.181865692138672 6.282004356384277 6.853325843811035 -9999
-9999 13.379936218261719 13.322456359863281 12.79247760772705 11.309662818908691 8.870633125305176 5.812020778656006 2.7283947467803955 1.5765845775604248 1.1060993671417236 0.9368530511856079 0.9405697584152222 1.1397708654403687 1.3453298807144165 1.670350193977356 2.219012498855591 2.9754886627197266 3.784499406814575 4.22383451461792 -9999
-9999 13.098419189453125 12.695242881774902 11.529144287109375 9.558737754821777 7.0400919914245605 4.331859588623047 1.974855899810791 1.0581055879592896 0.67253577709198 0.5264714360237122 0.49111077189445496 0.5575962662696838 0.6247257590293884 0.7481099367141724 1.0015312433242798 1.4134633541107178 1.8818260431289673 2.1423652172088623 -9999
-9999 11.743290901184082 10.979138374328613 9.27859878540039 7.204750061035156 5.017759323120117 3.0022919178009033 1.4953408241271973 0.7472599148750305 0.4349251389503479 0.2897587716579437 0.23581786453723907 0.22098995745182037 0.2245255410671234 0.25854456424713135 0.3395552337169647 0.5307860374450684 0.7657294273376465 0.9212744832038879 -9999
-9999 9.405698776245117 8.426525115966797 6.528833866119385 4.640748023986816 3.039578914642334 1.7755502462387085 0.9092657566070557 0.43821921944618225 0.24504335224628448 0.15706130862236023 0.11558488011360168 0.09449590742588043 0.08557121455669403 0.08644048124551773 0.10407411307096481 0.14978927373886108 0.2476305067539215 0.3389818072319031 -9999
-9999 7.0140886306762695 6.024930000305176 4.206656455993652 2.655790090560913 1.6058599948883057 0.9093930721282959 0.4600590467453003 0.24214498698711395 0.1398696005344391 0.09056763350963593 0.0635206550359726 0.048354148864746094 0.040354855358600616 0.036331262439489365 0.038042813539505005 0.04565651714801788 0.06969442218542099 -9999 -9999
-9999 5.353216648101807 4.390055179595947 2.779935598373413 1.5655725002288818 0.8395352959632874 0.43766266107559204 0.2337164282798767 0.13511860370635986 0.08387906849384308 0.05695866793394089 0.0405966117978096 0.03274324908852577 0.03585183247923851 0.039612896740436554 0.04354061186313629 0.04725700616836548 0.05035656318068504 -9999 -9999
-9999 4.317287921905518 3.2924964427948 1.9811674356460571 1.015394926071167 0.4520491063594818 0.22802074253559113 0.12381987273693085 0.0754537358880043 0.05000780522823334 0.03605126962065697 0.033238258212804794 0.036767877638339996 0.04140117019414902 0.046810444444417953 0.0526883564889431 0.0590616874396801 0.06685709208250046 0.07979922741651535 0.0858980044722557
-9999 -9999 2.2879345417022705 1.453546166419983 0.708675742149353 0.290339857339859 0.13432995975017548 0.07165595889091492 0.04442809149622917 0.031493786722421646 0.03310209512710571 0.03636445477604866 0.041115652769804 0.04710150510072708 0.05388766899704933 0.061093769967556 0.06857439875602722 0.07627435773611069 0.0839984267950058 0.088048055768013
-9999 -9999 1.5239970684051514 1.0366127490997314 0.5118740797042847 0.1990307718515396 0.08659787476062775 0.04451059177517891 0.03152579069137573 0.03251311928033829 0.03503112122416496 0.03915673866868019 0.044818952679634094 0.05176066607236862 0.05944157391786575 0.06734538823366165 0.07506095618009567 0.08195207267999649 0.08727237582206726 0.09009188413619995
-9999 -9999 -9999 0.7939068675041199 0.40372413396835327 0.16300363838672638 0.0693909302353859 0.035256240516901016 0.031701941043138504 0.033210571855306625 0.0361924022436142 0.04074302688241005 0.04687695577740669 0.05431220680475235 0.062452856451272964 0.07061316072940826 0.078328937292099 0.08456151932477951 0.08899231255054474 0.09129233658313751
