ncols         20
nrows         20
xllcorner     0
yllcorner     -3.5992928
cellsize      0.17996463
NODATA_value  -9999
-9999.0 -9999 -9999 -9999 -9999 -9999 -9999 -9999 -9999 -9999 -9999 -9999 -9999 -9999 -9999 -9999 -9999 -9999 -9999 -9999
-9999 -9999 -9999 -9999 -9999 -9999 -9999 -9999 -9999 -9999 -9999 2.4692625999450684 2.4684903621673584 -9999 -9999 2.553504467010498 2.5235302448272705 -9999 -9999 -9999
-9999 -9999 -9999 -9999 2.4827377796173096 2.500518321990967 2.5277202129364014 2.5292391777038574 2.5183651447296143 2.5159285068511963 2.487954616546631 2.5051589012145996 2.536141872406006 2.565544843673706 2.575493812561035 2.572749137878418 2.547658920288086 2.522284746170044 -9999 -9999
-9999 -9999 -9999 2.509948492050171 2.5251588821411133 2.5391573905944824 2.5487658977508545 2.5371387004852295 2.5233163833618164 2.5115180015563965 2.515716791152954 2.5376336574554443 2.5735273361206055 2.606710433959961 2.638906955718994 2.643798351287842 2.6167564392089844 2.588134288787842 -9999 -9999
-9999 -9999 -9999 2.542548656463623 2.5605602264404297 2.586132049560547 2.572672128677368 2.5246026515960693 2.4677674770355225 2.410187244415283 2.3599212169647217 2.3510866165161133 2.403611898422241 2.5038890838623047 2.609772205352783 2.674973964691162 2.6823277473449707 2.696122169494629 -9999 -9999
-9999 -9999 2.550583839416504 2.581022024154663 2.6075851917266846 2.601999282836914 2.5186381340026855 2.3699400424957275 2.2310357093811035 2.090402603149414 1.9415266513824463 1.8813602924346924 1.9513596296310425 2.1424014568328857 2.370004177093506 2.5563032627105713 2.6567747592926025 2.6950507164001465 2.6655807495117188 -9999
-9999 -9999 2.5849051475524902 2.6156959533691406 2.645820140838623 2.577057123184204 2.3479459285736084 1.9602723121643066 1.7121481895446777 1.4933021068572998 1.3042242527008057 1.239997386932373 1.3701049089431763 1.6298258304595947 1.9588274955749512 2.2678112983703613 2.4888503551483154 2.5976274013519287 2.628065586090088 -9999
-9999 -9999 2.662472724914551 2.696068048477173 2.6837875843048096 2.4984312057495117 2.0231809616088867 0.9138051271438599 0.6779437065124512 0.5754439234733582 0.5195082426071167 0.5455940961837769 0.8711401224136353 1.1490364074707031 1.4899910688400269 1.8611273765563965 2.1611547470092773 2.3584163188934326 2.4416964054107666 -9999
-9999 2.700645923614502 2.7544286251068115 2.7705774307250977 2.6818299293518066 2.380985736846924 1.7876369953155518 0.6841559410095215 0.42499226331710815 0.3382507860660553 0.31385916471481323 0.3559686243534088 0.5809447765350342 0.7800931930541992 1.0349009037017822 1.3680449724197388 1.716200351715088 1.975865125656128 2.0924875736236572 -9999
-9999 2.7722558975219727 2.8055081367492676 2.7773189544677734 2.5689032077789307 2.154219627380371 1.4961857795715332 0.554551362991333 0.3163829743862152 0.24024049937725067 0.22563675045967102 0.25782230496406555 0.3913162350654602 0.5034355521202087 0.66135573387146 0.8937349915504456 1.1969544887542725 1.4642226696014404 1.5970797538757324 -9999
-9999 2.8150908946990967 2.795574903488159 2.655144453048706 2.3220443725585938 1.8369362354278564 1.1781439781188965 0.43698617815971375 0.23933357000350952 0.17440165579319 0.15875326097011566 0.17423465847969055 0.2358677089214325 0.2898469567298889 0.37020519375801086 0.5076231956481934 0.7014718651771545 0.9097194671630859 1.020911693572998 -9999
-9999 2.7281479835510254 2.639423131942749 2.3773691654205322 1.976966381072998 1.4649406671524048 0.8817415833473206 0.34274420142173767 0.18221426010131836 0.12235422432422638 0.10215366631746292 0.10140258818864822 0.12017463147640228 0.13749217987060547 0.1680208295583725 0.23142530024051666 0.33743876218795776 0.4595034718513489 0.5272051095962524 -9999
-9999 2.4409968852996826 2.2840819358825684 1.933432936668396 1.5132458209991455 1.053224802017212 0.6196821331977844 0.2954138517379761 0.1462504267692566 0.08749203383922577 0.058990541845560074 0.049681656062603 0.04771525785326958 0.04926140233874321 0.057758837938308716 0.07827139645814896 0.1296924501657486 0.19043001532554626 0.22978174686431885 -9999
-9999 1.9968912601470947 1.807620882987976 1.4038097858428955 0.995515763759613 0.6468271017074585 0.37295249104499817 0.18759490549564362 0.08809060603380203 0.05092356353998184 0.03452150896191597 0.027037352323532104 0.023237943649291992 0.02176349051296711 0.02233300544321537 0.026926279067993164 0.038508959114551544 0.06257957220077515 0.08322051167488098 -9999
-9999 1.5886180400848389 1.3735942840576172 0.9509545564651489 0.5919149518013 0.3535211384296417 0.1982247531414032 0.09767954051494598 0.052474312484264374 0.03260447829961777 0.023367535322904587 0.018244359642267227 0.015293879434466362 0.013791583478450775 0.01292451936751604 0.013468196615576744 0.015531010925769806 0.02244514599442482 -9999 -9999
-9999 1.304518699645996 1.0766422748565674 0.6736915707588196 0.372894287109375 0.19727635383605957 0.10068198293447495 0.05482408404350281 0.033985499292612076 0.023623663932085037 0.018325960263609886 0.014945602975785732 0.013402583077549934 0.015420274809002876 0.017249440774321556 0.01865195855498314 0.019560154527425766 0.02024836838245392 -9999 -9999
-9999 1.1066069602966309 0.865883469581604 0.5197033882141113 0.2637641727924347 0.11493343114852905 0.05900859460234642 0.03431091085076332 0.023386089131236076 0.01780557818710804 0.014808078296482563 0.01508624479174614 0.017566494643688202 0.02005890943109989 0.02237537130713463 0.024339105933904648 0.0260036438703537 0.027893628925085068 0.0315762460231781 0.033041033893823624
-9999 -9999 0.6522172093391418 0.414109468460083 0.20221544802188873 0.0824747309088707 0.04035184904932976 0.024053014814853668 0.017241407185792923 0.014142291620373726 0.01625784859061241 0.018700750544667244 0.021391715854406357 0.024168841540813446 0.026703933253884315 0.028794867917895317 0.030514156445860863 0.031972676515579224 0.03339109197258949 0.03390379995107651
-9999 -9999 0.4546680450439453 0.3155028820037842 0.15809856355190277 0.06257603317499161 0.029783323407173157 0.017748720943927765 0.01468762569129467 0.016800787299871445 0.01904883235692978 0.021576998755335808 0.02436714991927147 0.027225518599152565 0.02973865158855915 0.03169360011816025 0.03314647451043129 0.034035902470350266 0.03439211845397949 0.034480635076761246
-9999 -9999 -9999 0.25544676184654236 0.12953999638557434 0.054357804358005524 0.02579793892800808 0.015499578788876534 0.016051853075623512 0.018282277509570122 0.02058400586247444 0.023106209933757782 0.0259095411747694 0.028768453747034073 0.031248632818460464 0.03305228054523468 0.03433988243341446 0.034782204777002335 0.034816425293684006 0.0347643606364727
