ncols         20
nrows         20
xllcorner     0
yllcorner     -3.5992928
cellsize      0.17996463
NODATA_value  -9999
-9999.0 -9999 -9999 -9999 -9999 -9999 -9999 -9999 -9999 -9999 -9999 -9999 -9999 -9999 -9999 -9999 -9999 -9999 -9999 -9999
-9999 -9999 -9999 -9999 -9999 -9999 -9999 -9999 -9999 -9999 -9999 0.018714994192123413 0.01871945895254612 -9999 -9999 0.01888037845492363 0.018888887017965317 -9999 -9999 -9999
-9999 -9999 -9999 -9999 0.01888369582593441 0.018838120624423027 0.018771495670080185 0.018691841512918472 0.018615378066897392 0.018559826537966728 0.018541185185313225 0.039353881031274796 0.03938048332929611 0.018594499677419662 0.018643001094460487 0.03968475013971329 0.03973773121833801 0.018756426870822906 -9999 -9999
-9999 -9999 -9999 0.01882115565240383 0.03980672359466553 0.08273595571517944 0.08241143822669983 0.08199451863765717 0.08158592134714127 0.08127816021442413 0.08114134520292282 0.0977819561958313 0.09789297729730606 0.08141155540943146 0.08162862807512283 0.09863272309303284 0.08208763599395752 0.018616866320371628 -9999 -9999
-9999 -9999 -9999 0.01871267519891262 0.08243594318628311 0.11895499378442764 0.11836449056863785 0.11760883778333664 0.11687462031841278 0.11632192134857178 0.1160631850361824 0.11613249033689499 0.11632996797561646 0.11658229678869247 0.11693963408470154 0.11730730533599854 0.08120911568403244 0.018382307142019272 -9999 -9999
-9999 -9999 0.018533766269683838 0.039254434406757355 0.098409004509449 0.11782911419868469 0.11701755970716476 0.11599843204021454 0.11503258347511292 0.11432384699583054 0.11399161070585251 0.1140383780002594 0.11434363573789597 0.1147729679942131 0.11522559076547623 0.11557084321975708 0.09619513154029846 0.03818183392286301 0.017940474674105644 -9999
-9999 -9999 0.018400250002741814 0.08101915568113327 0.1169508695602417 0.11625440418720245 0.11506377905607224 0.11359263211488724 0.11227192729711533 0.11134587228298187 0.11095136404037476 0.11107118427753448 0.11156337708234787 0.11221332848072052 0.11284015327692032 0.11329817026853561 0.11342007666826248 0.07822659611701965 0.017728405073285103 -9999
-9999 -9999 0.01819712109863758 0.08014746010303497 0.11541429907083511 0.11434973776340485 0.11267898976802826 0.11062854528427124 0.10905196517705917 0.10800812393426895 0.1075339987874031 0.10762298107147217 0.10822759568691254 0.1091243177652359 0.10996854305267334 0.11063330620527267 0.11103060096502304 0.07683324813842773 0.0174196045845747 -9999
-9999 0.01792001537978649 0.0379708893597126 0.09515298902988434 0.11366415023803711 0.1122760996222496 0.11020530760288239 0.10786288976669312 0.10608159750699997 0.10490036010742188 0.10432517528533936 0.10434448719024658 0.10491875559091568 0.1058216392993927 0.10680467635393143 0.10764282941818237 0.10822603851556778 0.07503477483987808 0.017030615359544754 -9999
-9999 0.017780380323529243 0.07820378243923187 0.1127820834517479 0.11185730248689651 0.11016271263360977 0.10778234153985977 0.10531292855739594 0.10339982807636261 0.10209662467241287 0.10140720009803772 0.10131573677062988 0.10177820175886154 0.1025816798210144 0.10355845838785172 0.10448696464300156 0.10519475489854813 0.07303353399038315 0.016595814377069473 -9999
-9999 0.017589734867215157 0.07731819152832031 0.11120419949293137 0.11001043766736984 0.10808195173740387 0.10550805926322937 0.1030084565281868 0.1010216474533081 0.09961774945259094 0.09880769997835159 0.09857692569494247 0.09888432919979095 0.0995418056845665 0.10040320456027985 0.10134268552064896 0.10212936997413635 0.07099776715040207 0.01615248993039131 -9999
-9999 0.017358919605612755 0.07623361796140671 0.10947995632886887 0.10813923925161362 0.1060931533575058 0.10348723828792572 0.10099808126688004 0.09897252172231674 0.09748207032680511 0.09654550999403 0.0961516723036766 0.0962655320763588 0.09673279523849487 0.0974421575665474 0.09831690043210983 0.09918445348739624 0.06909066438674927 0.015738608315587044 -9999
-9999 0.017106257379055023 0.07506360858678818 0.10770131647586823 0.10629698634147644 0.10423573106527328 0.10170921683311462 0.09929924458265305 0.09725935757160187 0.0956893116235733 0.0946204662322998 0.09404364973306656 0.09391650557518005 0.09414175897836685 0.09464195370674133 0.0953836664557457 0.09641321003437042 0.0674871876835823 0.015386155806481838 -9999
-9999 0.01685149595141411 0.07389725744724274 0.10595742613077164 0.10453639179468155 0.10252410918474197 0.10013066232204437 0.0977974459528923 0.09576345980167389 0.09413308650255203 0.09294120967388153 0.09217709302902222 0.09180297702550888 0.09175358712673187 0.09196920692920685 0.0924115926027298 0.07722130417823792 0.0314038060605526 0.01511581614613533 -9999
-9999 0.01661529578268528 0.07281806319952011 0.1043064296245575 0.10287755727767944 0.10095354914665222 0.09869799017906189 0.09644106030464172 0.09443628042936325 0.09276501834392548 0.09146478027105331 0.09052570164203644 0.0899159237742424 0.08958546817302704 0.08948026597499847 0.08954674005508423 0.0620090514421463 0.014101137407124043 -9999 -9999
-9999 0.016419630497694016 0.07152734696865082 0.10280945897102356 0.10131412744522095 0.09949107468128204 0.09738018363714218 0.09521707892417908 0.09325669705867767 0.09156598150730133 0.0901806503534317 0.08909212052822113 0.08827351033687592 0.08768330514431 0.08727310597896576 0.08699625730514526 0.05958423390984535 0.013494769111275673 -9999 -9999
-9999 0.01628042757511139 0.03403528407216072 0.08383134007453918 0.09975206106901169 0.0980999618768692 0.09616704285144806 0.09412312507629395 0.09222595393657684 0.09053817391395569 0.0890948623418808 0.08788985013961792 0.08690086752176285 0.08609098941087723 0.08540952950716019 0.08479031175374985 0.06960006058216095 0.02731560543179512 0.01254679262638092 0.012402785010635853
-9999 -9999 0.01577764004468918 0.06853915750980377 0.09838223457336426 0.09685499221086502 0.09507998824119568 0.09318597614765167 0.09136950969696045 0.08970420807600021 0.08822990208864212 0.086944580078125 0.08583108335733414 0.08485622704029083 0.08397063612937927 0.08308912068605423 0.0820431113243103 0.0670725628733635 0.05488360673189163 0.054497815668582916
-9999 -9999 0.015421065501868725 0.03266823664307594 0.08047713339328766 0.09578628093004227 0.09421312808990479 0.09247042238712311 0.09073838591575623 0.0891050472855568 0.08762091398239136 0.08628863841295242 0.0850968286395073 0.08401978760957718 0.08302158117294312 0.08204704523086548 0.08103033900260925 0.07996024191379547 0.07912154495716095 0.07869284600019455
-9999 -9999 -9999 0.015059273689985275 0.06618109345436096 0.09515906125307083 0.09372851252555847 0.0920826867222786 0.09040280431509018 0.08879377692937851 0.08730792254209518 0.08595467358827591 0.08472540974617004 0.08360182493925095 0.08255760371685028 0.08155950158834457 0.0805833712220192 0.07967282831668854 0.07897022366523743 0.07859668880701065
