ncols         20
nrows         20
xllcorner     0
yllcorner     -3.5992928
cellsize      0.17996463
NODATA_value  -9999
-9999.0 -9999 -9999 -9999 -9999 -9999 -9999 -9999 -9999 -9999 -9999 -9999 -9999 -9999 -9999 -9999 -9999 -9999 -9999 -9999
-9999 -9999 -9999 -9999 -9999 -9999 -9999 -9999 -9999 -9999 -9999 2.350153923034668 2.344790458679199 -9999 -9999 2.4237778186798096 2.3984079360961914 -9999 -9999 -9999
-9999 -9999 -9999 -9999 2.478111982345581 2.4882311820983887 2.501117706298828 2.4829905033111572 2.4482922554016113 2.4199135303497314 2.3699278831481934 2.3699328899383545 2.383558988571167 2.3926408290863037 2.4024693965911865 2.416205644607544 2.3999574184417725 2.3737034797668457 -9999 -9999
-9999 -9999 -9999 2.5152602195739746 2.525141954421997 2.53096342086792 2.526998519897461 2.495288610458374 2.454531669616699 2.410778284072876 2.381321907043457 2.3717563152313232 2.380326271057129 2.395460844039917 2.4252521991729736 2.4405391216278076 2.4250106811523438 2.4020590782165527 -9999 -9999
-9999 -9999 -9999 2.5503056049346924 2.565950393676758 2.586291790008545 2.5621588230133057 2.4941647052764893 2.406620979309082 2.3092293739318848 2.2162654399871826 2.1634209156036377 2.174171209335327 2.2431399822235107 2.337332248687744 2.405211925506592 2.421696662902832 2.437537908554077 -9999 -9999
-9999 -9999 2.5598361492156982 2.590947151184082 2.6192712783813477 2.614504337310791 2.526074171066284 2.3597304821014404 2.1887168884277344 2.0047202110290527 1.8169453144073486 1.709364891052246 1.7238621711730957 1.8582249879837036 2.0537045001983643 2.220012903213501 2.314678430557251 2.3457772731781006 2.290848731994629 -9999
-9999 -9999 2.5877676010131836 2.6227948665618896 2.6609699726104736 2.600025177001953 2.3699610233306885 1.9678585529327393 1.699844479560852 1.4525096416473389 1.232181429862976 1.1269131898880005 1.194643259048462 1.3792695999145508 1.6363604068756104 1.887068271636963 2.0780417919158936 2.1718807220458984 2.192384719848633 -9999
-9999 -9999 2.6467273235321045 2.6892731189727783 2.691781997680664 2.519500255584717 2.04508113861084 0.9097964763641357 0.6690810322761536 0.5616455674171448 0.49707698822021484 0.5024807453155518 0.7505506277084351 0.9480128884315491 1.1979584693908691 1.4829180240631104 1.7236720323562622 1.8794716596603394 1.9469205141067505 -9999
-9999 2.6276636123657227 2.6979103088378906 2.729969024658203 2.6609230041503906 2.380401611328125 1.8065937757492065 0.6823659539222717 0.42106232047080994 0.332685649394989 0.30293506383895874 0.3286116123199463 0.49716511368751526 0.629702091217041 0.7994860410690308 1.0342979431152344 1.2928048372268677 1.4929020404815674 1.5851185321807861 -9999
-9999 2.6535396575927734 2.6909871101379395 2.676003932952881 2.4897079467773438 2.0935750007629395 1.4938324689865112 0.5538880825042725 0.3172217011451721 0.24016612768173218 0.22092856466770172 0.24007998406887054 0.3357482850551605 0.4007573425769806 0.49277040362358093 0.6383908987045288 0.8407490849494934 1.0259028673171997 1.1196048259735107 -9999
-9999 2.613440752029419 2.5940778255462646 2.4686524868011475 2.166400671005249 1.7297241687774658 1.1535736322402954 0.43602925539016724 0.24380257725715637 0.17877106368541718 0.15947741270065308 0.16566279530525208 0.20526129007339478 0.22990183532238007 0.2685253918170929 0.34439367055892944 0.45866212248802185 0.5857919454574585 0.6543610692024231 -9999
-9999 2.420701503753662 2.3349716663360596 2.0959818363189697 1.732614517211914 1.3247405290603638 0.8378114104270935 0.339322030544281 0.18815840780735016 0.1292843073606491 0.10675670206546783 0.10002908110618591 0.10747803002595901 0.1099783182144165 0.1200600117444992 0.15086348354816437 0.2076408863067627 0.2742540240287781 0.31072840094566345 -9999
-9999 2.036395311355591 1.8933788537979126 1.5872546434402466 1.2543169260025024 0.9062024354934692 0.5647590160369873 0.2866549491882324 0.15180820226669312 0.0952751487493515 0.06577204167842865 0.052561111748218536 0.04516422376036644 0.04060545936226845 0.0412021204829216 0.0494055449962616 0.07627543807029724 0.10717962682247162 0.1263251155614853 -9999
-9999 1.5498675107955933 1.3913593292236328 1.0751949548721313 0.772796630859375 0.5227118730545044 0.32100212574005127 0.1743605136871338 0.09014517813920975 0.055753715336322784 0.0386066772043705 0.028994925320148468 0.022609684616327286 0.01861766166985035 0.016670947894454002 0.017675481736660004 0.022802148014307022 0.03425844758749008 0.04261523857712746 -9999
-9999 1.142607569694519 0.9776818156242371 0.6733670830726624 0.4251919984817505 0.26489001512527466 0.1586722731590271 0.08559401333332062 0.05058230459690094 0.03371065855026245 0.024757906794548035 0.018817856907844543 0.014747303910553455 0.012236090376973152 0.010599852539598942 0.010327126830816269 0.011189890094101429 0.015314841642975807 -9999 -9999
-9999 0.8723297715187073 0.7099696397781372 0.4403218626976013 0.2465139478445053 0.13564489781856537 0.07395172864198685 0.044110506772994995 0.030060069635510445 0.02246764488518238 0.018009256571531296 0.01454875897616148 0.012574880383908749 0.013882833532989025 0.014937009662389755 0.015664415434002876 0.016113130375742912 0.016584541648626328 -9999 -9999
-9999 0.7041427493095398 0.5342732071876526 0.31596413254737854 0.16105438768863678 0.07194273173809052 0.03944053873419762 0.025218870490789413 0.0190208051353693 0.01570890098810196 0.013662971556186676 0.014094565995037556 0.016287263482809067 0.01829873025417328 0.020070767030119896 0.021578431129455566 0.022995498031377792 0.02494477480649948 0.029195351526141167 0.03093193657696247
-9999 -9999 0.37453919649124146 0.23604992032051086 0.11539631336927414 0.04775667190551758 0.02492671273648739 0.016527796164155006 0.013285284861922264 0.011960159987211227 0.014536243863403797 0.017175940796732903 0.019794849678874016 0.022310875356197357 0.024536490440368652 0.026392735540866852 0.02802128717303276 0.029577814042568207 0.03126291185617447 0.031939100474119186
-9999 -9999 0.2502518594264984 0.17127034068107605 0.08550208806991577 0.03427578881382942 0.0174992885440588 0.011831577867269516 0.01112882886081934 0.013961797580122948 0.01681322231888771 0.019693393260240555 0.02257552370429039 0.025349624454975128 0.02773631550371647 0.029613148421049118 0.031065572053194046 0.03203188255429268 0.03250601887702942 0.03266309201717377
-9999 -9999 -9999 0.1335006058216095 0.06714976578950882 0.0288301520049572 0.014832023531198502 0.010287522338330746 0.012098945677280426 0.015111242420971394 0.018095962703227997 0.02105901576578617 0.024043453857302666 0.026912430301308632 0.029355742037296295 0.031155014410614967 0.0324687585234642 0.03296670317649841 0.033050090074539185 0.033022716641426086
