ncols         20
nrows         20
xllcorner     0
yllcorner     -3.5992928
cellsize      0.17996463
NODATA_value  -9999
-9999.0 -9999 -9999 -9999 -9999 -9999 -9999 -9999 -9999 -9999 -9999 -9999 -9999 -9999 -9999 -9999 -9999 -9999 -9999 -9999
-9999 -9999 -9999 -9999 -9999 -9999 -9999 -9999 -9999 -9999 -9999 0 0 -9999 -9999 0 0 -9999 -9999 -9999
-9999 -9999 -9999 -9999 0 0 0 0 0 0 0 0 0 0 0 0 0 0 -9999 -9999
-9999 -9999 -9999 0 0 0 0 0 0 0 0 0 0 0 0 0 0 0 -9999 -9999
-9999 -9999 -9999 0 0 0 0 0 0 0 0 0 0 0 0 0 0 0 -9999 -9999
-9999 -9999 0 0 0 0 3.4196479320526123 3.2759830951690674 3.1328141689300537 2.9475293159484863 2.7478630542755127 2.651571035385132 2.705611228942871 2.9210469722747803 3.2092573642730713 3.5121023654937744 0 0 0 -9999
-9999 -9999 0 0 0 3.4692139625549316 3.23099684715271 3.0016186237335205 2.7210257053375244 2.3802435398101807 2.058926820755005 1.8891617059707642 1.9292359352111816 2.18740177154541 0.2881135046482086 3.081040143966675 0 0 0 -9999
-9999 -9999 0 0 3.6334898471832275 3.360812187194824 3.062103509902954 2.7067718505859375 2.2976150512695312 1.8759044408798218 1.544525146484375 1.3622843027114868 1.3747049570083618 1.5881937742233276 1.9789592027664185 2.4928271770477295 3.049201250076294 0 0 -9999
-9999 0 0 3.919011354446411 3.5992813110351562 3.2323474884033203 2.7875773906707764 2.2870898246765137 1.801969289779663 1.4010396003723145 1.1337612867355347 0.9935868978500366 0.9829536080360413 1.125138282775879 1.4158321619033813 0.4120408594608307 2.381664514541626 2.888577699661255 0 -9999
-9999 0 0 3.9895360469818115 3.5129754543304443 2.9535396099090576 2.336740732192993 1.738627552986145 1.26178777217865 0.9466122388839722 0.7738563418388367 0.6875081658363342 0.6810449361801147 0.7589060068130493 0.9499801397323608 0.2811410427093506 1.7067381143569946 2.1598920822143555 0 -9999
-9999 0 0 3.960946798324585 3.287795066833496 2.5658438205718994 1.8356635570526123 1.2105830907821655 0.7970035672187805 0.5695289969444275 0.4597954750061035 0.413864403963089 0.41095849871635437 0.45469045639038086 0.564500093460083 0.7701601386070251 1.0743093490600586 0 0 -9999
-9999 0 0 3.722421169281006 2.9043102264404297 2.115407943725586 1.382432460784912 0.8179702162742615 0.4848001003265381 0.3158648610115051 0.2416662573814392 0.20974718034267426 0.09150446206331253 0.12350627779960632 0.2714163064956665 0.08416832238435745 0.5616392493247986 0 0 -9999
-9999 0 0 3.1900973320007324 2.3431739807128906 1.6045012474060059 0.9849920868873596 0.5380297303199768 0.2879719138145447 0.17328086495399475 0.11448382586240768 0.09098903834819794 0.054916758090257645 0.07524143904447556 0.06816762685775757 0.14258205890655518 0.2319909632205963 0 0 -9999
-9999 0 0 2.4509592056274414 1.6611049175262451 1.0662657022476196 0.6257041096687317 0.3315196931362152 0.1655600666999817 0.09448794275522232 0.06078781560063362 0.044660743325948715 0.01629098691046238 0.02665824070572853 0.02442353218793869 0.04725588113069534 0.07240057736635208 0 0 -9999
-9999 0 0 1.7617745399475098 1.0721651315689087 0.6349470019340515 0.35778623819351196 0.18440289795398712 0.09832455962896347 0.057044174522161484 0.0368642620742321 0.02584105171263218 0.019851909950375557 0.016997357830405235 0.010569990612566471 0.009613518603146076 0.02177106775343418 0 -9999 -9999
-9999 0 0 1.3052220344543457 0.7181994915008545 0.380380243062973 0.19981789588928223 0.10669542849063873 0.061210524290800095 0.03741375356912613 0.01662171445786953 0.0136380260810256 0.0015617884928360581 0.015399158000946045 0.007595675531774759 0.008411236107349396 0.020679166540503502 0.0031476139556616545 -9999 -9999
-9999 0 0 1.0333470106124878 0.5260916948318481 0.2389165163040161 0.1206759661436081 0.06455030292272568 0.03821380436420441 0.016246141865849495 0.0150064118206501 0.01498261746019125 0.01250449288636446 0.017708752304315567 0.019675537943840027 0.021811112761497498 0.024025090038776398 0.02645542100071907 0.021462425589561462 0.03172009065747261
-9999 -9999 0 0.8355498313903809 0.4087015986442566 0.1733778715133667 0.08037315309047699 0.0416925884783268 0.01367729902267456 0.01456411276012659 0.016150249168276787 0.01673559471964836 0.016028644517064095 0.015468001365661621 0.014713170006871223 0.016256896778941154 0.01781282015144825 0.022553576156497 0.02769147790968418 0.03225729987025261
-9999 -9999 0 0 0.3245522677898407 0.13065671920776367 0.056668203324079514 0.02793092466890812 0.012276645749807358 0.017519745975732803 0.01744244061410427 0.018166404217481613 0.01960957609117031 0.02160882018506527 0.023907823488116264 0.026280343532562256 0.02855668216943741 0.03052610158920288 0.0319908931851387 0.032752297818660736
-9999 -9999 -9999 0 0.27689823508262634 0.11357945203781128 0.04767325893044472 0.022903181612491608 0.012641876935958862 0.018168596550822258 0.018169574439525604 0.01895606890320778 0.02047141268849373 0.022541102021932602 0.024896450340747833 0.027268728241324425 0.029485458508133888 0.031229132786393166 0.03243325278162956 0.0330473892390728
