ncols         20
nrows         20
xllcorner     0
yllcorner     -3.5992928
cellsize      0.17996463
NODATA_value  -9999
-9999.0 -9999 -9999 -9999 -9999 -9999 -9999 -9999 -9999 -9999 -9999 -9999 -9999 -9999 -9999 -9999 -9999 -9999 -9999 -9999
-9999 -9999 -9999 -9999 -9999 -9999 -9999 -9999 -9999 -9999 -9999 2.351985454559326 2.3467423915863037 -9999 -9999 2.426953077316284 2.40159273147583 -9999 -9999 -9999
-9999 -9999 -9999 -9999 2.4794137477874756 2.4894111156463623 2.5020670890808105 2.4836525917053223 2.4487266540527344 2.4203319549560547 2.3706164360046387 2.3712191581726074 2.3852689266204834 2.3947343826293945 2.4049994945526123 2.4191508293151855 2.403050422668457 2.3768036365509033 -9999 -9999
-9999 -9999 -9999 2.5163075923919678 2.5261785984039307 2.531794309616089 2.527461051940918 2.495272159576416 2.4540865421295166 2.4102096557617188 2.3810150623321533 2.3720476627349854 2.3812766075134277 2.3970532417297363 2.4274351596832275 2.44321346282959 2.4279403686523438 2.4050629138946533 -9999 -9999
-9999 -9999 -9999 2.5510220527648926 2.5664830207824707 2.5864012241363525 2.561579704284668 2.4928982257843018 2.404770612716675 2.307154417037964 2.214240550994873 2.1619157791137695 2.173694372177124 2.2436647415161133 2.3386662006378174 2.4073123931884766 2.4242355823516846 2.440258026123047 -9999 -9999
-9999 -9999 2.5600767135620117 2.591139316558838 2.6190500259399414 2.613508939743042 2.5242385864257812 2.357071876525879 2.1853482723236084 2.001636266708374 1.8138376474380493 1.7065296173095703 1.7219716310501099 1.8577251434326172 2.0538041591644287 2.2212579250335693 2.3165035247802734 2.347837209701538 2.2928078174591064 -9999
-9999 -9999 2.5877161026000977 2.6224048137664795 2.6597676277160645 2.597803831100464 2.366888999938965 1.9640452861785889 1.6949766874313354 1.4473127126693726 1.2270234823226929 1.122053623199463 1.1902670860290527 1.3761608600616455 1.635124683380127 1.8878673315048218 2.0790061950683594 2.1730661392211914 2.1936888694763184 -9999
-9999 -9999 2.6462926864624023 2.6882164478302 2.689464569091797 2.5159738063812256 2.0411081314086914 0.9047436714172363 0.6644886136054993 0.5573751330375671 0.49298492074012756 0.4982626736164093 0.7451426386833191 0.9430155158042908 1.19439697265625 1.481411099433899 1.7237566709518433 1.8795583248138428 1.9472599029541016 -9999
-9999 2.62740159034729 2.6971819400787354 2.728226661682129 2.6574771404266357 2.3754444122314453 1.8010395765304565 0.6776054501533508 0.4170949161052704 0.3290523588657379 0.2993466556072235 0.32466402649879456 0.4916088283061981 0.6240861415863037 0.7946375608444214 1.0307214260101318 1.2907003164291382 1.491927981376648 1.5848370790481567 -9999
-9999 2.6530609130859375 2.68989634513855 2.673668622970581 2.485684633255005 2.087930679321289 1.4874258041381836 0.5494379997253418 0.31364744901657104 0.23686376214027405 0.2175753116607666 0.23634366691112518 0.3306048512458801 0.395565390586853 0.4879772961139679 0.6341400146484375 0.8370989561080933 1.0228939056396484 1.1170620918273926 -9999
-9999 2.612574815750122 2.592564344406128 2.46601939201355 2.162609815597534 1.7252216339111328 1.147343635559082 0.43197208642959595 0.24054047465324402 0.17574484646320343 0.15643464028835297 0.16238197684288025 0.20116811990737915 0.2258831262588501 0.2647850811481476 0.3407871127128601 0.45505788922309875 0.5821386575698853 0.6507717370986938 -9999
-9999 2.419374704360962 2.3331332206726074 2.0936503410339355 1.7305631637573242 1.3200936317443848 0.8318697214126587 0.33542242646217346 0.18500177562236786 0.12646999955177307 0.10408073663711548 0.09740768373012543 0.10467083752155304 0.1074131429195404 0.11774525791406631 0.1485675871372223 0.2051180601119995 0.27141860127449036 0.30777162313461304 -9999
-9999 2.0348639488220215 1.891474962234497 1.5860083103179932 1.2513556480407715 0.9012956023216248 0.5592958331108093 0.28223609924316406 0.14838102459907532 0.09244868159294128 0.06340617686510086 0.05055249109864235 0.04348580539226532 0.03923565521836281 0.04001497104763985 0.048251911997795105 0.07490450143814087 0.1055113673210144 0.1244979128241539 -9999
-9999 1.5491899251937866 1.3897206783294678 1.0725018978118896 0.769069492816925 0.5184156894683838 0.31687086820602417 0.1709555983543396 0.08749472349882126 0.05362364277243614 0.036880772560834885 0.027620861306786537 0.02155715972185135 0.01781580224633217 0.01603393256664276 0.017098763957619667 0.022179117426276207 0.03343173488974571 0.04168754816055298 -9999
-9999 1.1395773887634277 0.9742127656936646 0.6698054075241089 0.4218553304672241 0.2617763578891754 0.15595044195652008 0.08334773033857346 0.04874088615179062 0.03218495845794678 0.023502759635448456 0.017845168709754944 0.014020463451743126 0.011691207066178322 0.010187109000980854 0.009975365363061428 0.010849219746887684 0.014867037534713745 -9999 -9999
-9999 0.8678123950958252 0.7055583596229553 0.43675318360328674 0.24383395910263062 0.1335146278142929 0.07219519466161728 0.042641881853342056 0.02876971662044525 0.021342800930142403 0.01705889031291008 0.013811418786644936 0.011999954469501972 0.013322846032679081 0.014414086006581783 0.015188501216471195 0.015681615099310875 0.01617901213467121 -9999 -9999
-9999 0.6992215514183044 0.5296801328659058 0.3126128911972046 0.15886086225509644 0.07049620151519775 0.038277287036180496 0.02422862872481346 0.018121512606739998 0.014902375638484955 0.012972325086593628 0.013439737260341644 0.01561485044658184 0.017643379047513008 0.019457776099443436 0.021016186103224754 0.022477831691503525 0.024454448372125626 0.028702152892947197 0.030451467260718346
-9999 -9999 0.3702402412891388 0.23297229409217834 0.11353848874568939 0.04664766043424606 0.0241096094250679 0.015823090448975563 0.012642545625567436 0.01137063279747963 0.013856539502739906 0.016450952738523483 0.019065700471401215 0.021609915420413017 0.023885518312454224 0.025799117982387543 0.027480032294988632 0.02907361090183258 0.03078068234026432 0.031468715518713
-9999 -9999 0.24691566824913025 0.16866183280944824 0.08392246812582016 0.033396244049072266 0.016885831952095032 0.0113148745149374 0.01060306467115879 0.01330649945884943 0.01607951708137989 0.01893041282892227 0.02182546816766262 0.02464466542005539 0.027095593512058258 0.029037898406386375 0.030544662848114967 0.03154643997550011 0.03203696385025978 0.032199885696172714
-9999 -9999 -9999 0.13114206492900848 0.06572236865758896 0.028035493567585945 0.014293200336396694 0.009836818091571331 0.011539158411324024 0.014425115659832954 0.017339764162898064 0.020285746082663536 0.023295339196920395 0.02621977962553501 0.028733287006616592 0.0306011363863945 0.031968530267477036 0.03249511122703552 0.032587818801403046 0.03256196528673172
