ncols         20
nrows         20
xllcorner     0
yllcorner     -3.5992928
cellsize      0.17996463
NODATA_value  -9999
-9999.0 -9999 -9999 -9999 -9999 -9999 -9999 -9999 -9999 -9999 -9999 -9999 -9999 -9999 -9999 -9999 -9999 -9999 -9999 -9999
-9999 -9999 -9999 -9999 -9999 -9999 -9999 -9999 -9999 -9999 -9999 0.13361291587352753 0.1337684690952301 -9999 -9999 0.13630302250385284 0.13648876547813416 -9999 -9999 -9999
-9999 -9999 -9999 -9999 0.13239909708499908 0.1323775053024292 0.1324131041765213 0.13252981007099152 0.13274337351322174 0.1330474317073822 0.13341499865055084 0.12369813024997711 0.12415457516908646 0.13514594733715057 0.13584396243095398 0.12618106603622437 0.1267215758562088 0.13771866261959076 -9999 -9999
-9999 -9999 -9999 0.1327153891324997 0.1225678026676178 0.10427948087453842 0.10431766510009766 0.10444486886262894 0.10466688871383667 0.10497024655342102 0.10534344613552094 0.09774283319711685 0.09819487482309341 0.10685987770557404 0.10745573043823242 0.09992895275354385 0.10881274193525314 0.13881832361221313 -9999 -9999
-9999 -9999 -9999 0.132964089512825 0.10456721484661102 0.07606799155473709 0.07016544789075851 0.0703062191605568 0.07053375989198685 0.07083255052566528 0.0711832121014595 0.06620708107948303 0.06658962368965149 0.07245249301195145 0.07296586036682129 0.07361987978219986 0.1105145737528801 0.14098286628723145 -9999 -9999
-9999 -9999 0.1336563676595688 0.12335610389709473 0.09698635339736938 0.06513915210962296 0.04031502082943916 0.04044031351804733 0.04064163565635681 0.04089709371328354 0.04118736833333969 0.03827054798603058 0.03857859596610069 0.04221993312239647 0.042675964534282684 0.06973661482334137 0.10452248156070709 0.1337483525276184 0.1464724838733673 -9999
-9999 -9999 0.1340840607881546 0.10546737909317017 0.07676950842142105 0.051645904779434204 0.029461486265063286 0.019903136417269707 0.020045071840286255 0.020223554223775864 0.020426545292139053 0.01905711367726326 0.019294528290629387 0.021226339042186737 0.032058656215667725 0.056869056075811386 0.08506845682859421 0.11733289808034897 0.14964580535888672 -9999
-9999 -9999 0.13483768701553345 0.10613279789686203 0.07129942625761032 0.0409010611474514 0.02004779502749443 0.009831825271248817 0.008477316237986088 0.008581888861954212 0.008703794330358505 0.008169717155396938 0.008341891691088676 0.010871042497456074 0.022686423733830452 0.04670121520757675 0.08166781812906265 0.12169729173183441 0.1546803116798401 -9999
-9999 0.13648568093776703 0.1257949322462082 0.0989772230386734 0.06665617972612381 0.038195349276065826 0.018777307122945786 0.007897424511611462 0.003090714570134878 0.0031494838185608387 0.003216732060536742 0.0030348740983754396 0.003413631347939372 0.00986037589609623 0.023878835141658783 0.048944324254989624 0.0853235125541687 0.12684039771556854 0.16099360585212708 -9999
-9999 0.13773679733276367 0.10842534899711609 0.07906968891620636 0.05337010324001312 0.03075477108359337 0.01511308178305626 0.006365933921188116 0.002337521407753229 0.0015494630206376314 0.0015987976221367717 0.0016464474610984325 0.0036360048688948154 0.01040342915803194 0.025072628632187843 0.05127061530947685 0.0892421156167984 0.13251352310180664 0.16807429492473602 -9999
-9999 0.13993000984191895 0.11034537851810455 0.07436561584472656 0.04285586625337601 0.021113168448209763 0.010399198159575462 0.0044146208092570305 0.0016310162609443069 0.0016284843441098928 0.001687539042904973 0.0017418377101421356 0.003839698387309909 0.010929310694336891 0.026261115446686745 0.05362434685230255 0.09325655549764633 0.1383606344461441 0.17537015676498413 -9999
-9999 0.14300762116909027 0.11289453506469727 0.07623021304607391 0.0440329872071743 0.02174292504787445 0.009180466644465923 0.0033367923460900784 0.0016304954187944531 0.0017011603340506554 0.0017680386081337929 0.0019320165738463402 0.005618048366159201 0.01351763866841793 0.027446528896689415 0.055977962911129 0.0972423106431961 0.14407126605510712 0.18233594298362732 -9999
-9999 0.1468469798564911 0.11601468175649643 0.07844189554452896 0.04537355154752731 0.02258405089378357 0.009563933126628399 0.0034881355240941048 0.0016900142654776573 0.0017648499924689531 0.0018386933952569962 0.0030060126446187496 0.0087051996961236 0.02090279571712017 0.042866602540016174 0.07439407706260681 0.10976861417293549 0.14948484301567078 0.18838852643966675 -9999
-9999 0.15117445588111877 0.11951729655265808 0.08121992647647858 0.04708355665206909 0.02332412824034691 0.009881746955215931 0.003601221600547433 0.0017413899768143892 0.0018174386350437999 0.0018938485300168395 0.003930380567908287 0.01135327573865652 0.027420487254858017 0.05612115561962128 0.09756777435541153 0.1444484442472458 0.18181151151657104 0.19265815615653992 -9999
-9999 0.1555706113576889 0.12313811480998993 0.08378493040800095 0.04861265793442726 0.02409866638481617 0.011956823989748955 0.005105724558234215 0.0018802054692059755 0.0018584722420200706 0.0019352835370227695 0.004363079089671373 0.012543244287371635 0.03033629059791565 0.06224352866411209 0.10862800478935242 0.16100174188613892 0.20418135821819305 -9999 -9999
-9999 0.15952140092849731 0.12699384987354279 0.09333483129739761 0.06365253031253815 0.03700408339500427 0.018417906016111374 0.007796074729412794 0.0030964172910898924 0.0018869552295655012 0.0019650491885840893 0.00442726444453001 0.012737808749079704 0.030848173424601555 0.06340993940830231 0.11093136668205261 0.16538134217262268 0.20994409918785095 -9999 -9999
-9999 0.16234083473682404 0.1527353823184967 0.12175989896059036 0.08282198011875153 0.04810091853141785 0.025823470205068588 0.01278206892311573 0.005447193048894405 0.002006182447075844 0.001984148286283016 0.004111188463866711 0.011902889236807823 0.028865743428468704 0.05940651521086693 0.10404685139656067 0.1556393951177597 0.19935977458953857 0.21938073635101318 0.22092461585998535
-9999 -9999 0.16958628594875336 0.1349007785320282 0.09895682334899902 0.0672670230269432 0.038956597447395325 0.01933623105287552 0.00817453395575285 0.003016554517671466 0.001993317622691393 0.003254974726587534 0.009461336769163609 0.023041270673274994 0.047335367649793625 0.08312703669071198 0.12436150014400482 0.1589922457933426 0.17349129915237427 0.1742987334728241
-9999 -9999 0.17211312055587769 0.1604611575603485 0.12732751667499542 0.08627527207136154 0.04993606358766556 0.024664802476763725 0.010429399088025093 0.0038299073930829763 0.001996422652155161 0.00219004787504673 0.006391087546944618 0.015537838451564312 0.03214506804943085 0.056182343512773514 0.08439148217439651 0.1076676994562149 0.11696793138980865 0.11731617152690887
-9999 -9999 -9999 0.17565974593162537 0.13908861577510834 0.09411218017339706 0.054362986236810684 0.026817962527275085 0.011327018961310387 0.004168154671788216 0.0019980338402092457 0.0020783650688827038 0.0036726361140608788 0.00890506524592638 0.01847480982542038 0.032290950417518616 0.04855717346072197 0.061651796102523804 0.06709830462932587 0.067238450050354
