ncols         20
nrows         20
xllcorner     0
yllcorner     -3.5992928
cellsize      0.17996463
NODATA_value  -9999
-9999.0 -9999 -9999 -9999 -9999 -9999 -9999 -9999 -9999 -9999 -9999 -9999 -9999 -9999 -9999 -9999 -9999 -9999 -9999 -9999
-9999 -9999 -9999 -9999 -9999 -9999 -9999 -9999 -9999 -9999 -9999 0.010419119149446487 0.010048228316009045 -9999 -9999 0.008489402942359447 0.00747694680467248 -9999 -9999 -9999
-9999 -9999 -9999 -9999 0.010842127725481987 0.012471926398575306 0.015705902129411697 0.018668124452233315 0.020741188898682594 0.022054336965084076 0.018183235079050064 0.015494665130972862 0.01543219480663538 0.015705136582255363 0.013114212080836296 0.010174797847867012 0.00837931502610445 0.007404927629977465 -9999 -9999
-9999 -9999 -9999 0.01009594276547432 0.011668865568935871 0.014022340066730976 0.017821326851844788 0.022053861990571022 0.02708294987678528 0.03163587301969528 0.03468362241983414 0.034244973212480545 0.03305944427847862 0.02831028774380684 0.022086109966039658 0.01586892083287239 0.01176734920591116 0.009844905696809292 -9999 -9999
-9999 -9999 -9999 0.010412096045911312 0.012425324879586697 0.017000751569867134 0.023582154884934425 0.032564546912908554 0.04543072357773781 0.0650491937994957 0.08723333477973938 0.09889768064022064 0.09349996596574783 0.07106484472751617 0.04941200837492943 0.03115699626505375 0.02064073644578457 0.018323300406336784 -9999 -9999
-9999 -9999 0.007928814738988876 0.010252577252686024 0.01401244942098856 0.020884107798337936 0.03126733377575874 0.04750274866819382 0.07785528898239136 0.12756440043449402 0.19361567497253418 0.23222091794013977 0.22677960991859436 0.17141877114772797 0.10944214463233948 0.0650162622332573 0.040712468326091766 0.03269677236676216 0.028281675651669502 -9999
-9999 -9999 0.00832043681293726 0.010674313642084599 0.01682646945118904 0.02778593637049198 0.044412534683942795 0.07327823340892792 0.12748271226882935 0.21713033318519592 0.33216723799705505 0.4123608469963074 0.41331207752227783 0.3345410227775574 0 0.13769058883190155 0.08392312377691269 0.05765322223305702 0.04864354059100151 -9999
-9999 -9999 0.01009021420031786 0.01404485385864973 0.02431628480553627 0.04235994443297386 0.07275398820638657 0.12376820296049118 0.20476539433002472 0.32419684529304504 0.45119935274124146 0.5503814220428467 0.5700101852416992 0.5038435459136963 0.3878575563430786 0.2622586786746979 0.16921508312225342 0.11472611129283905 0.09577321261167526 -9999
-9999 0.009786807931959629 0.013765264302492142 0.02191869355738163 0.04192092642188072 0.0785892903804779 0.13601593673229218 0.2250892072916031 0.3406813144683838 0.4680401682853699 0.5779799818992615 0.6635170578956604 0.7066263556480408 0.6778820753097534 0.5955294966697693 0 0.31677713990211487 0.22131307423114777 0.18534603714942932 -9999
-9999 0.014209945686161518 0.020461954176425934 0.03906206041574478 0.07945584505796432 0.150673046708107 0.25861403346061707 0.4016878604888916 0.5483159422874451 0.665149986743927 0.7426358461380005 0.811732292175293 0.8642179369926453 0.8794305920600891 0.8349894881248474 0 0.5406714677810669 0.4019295871257782 0.346372127532959 -9999
-9999 0.025923296809196472 0.0373443104326725 0.07077756524085999 0.13664470613002777 0.24905827641487122 0.4164874255657196 0.6146568059921265 0.773507833480835 0.8726678490638733 0.9413179755210876 1.0165507793426514 1.106829047203064 1.1500238180160522 1.1186776161193848 1.0271211862564087 0.8418972492218018 0.6746385097503662 0.6000645160675049 -9999
-9999 0.05340569466352463 0.07296264171600342 0.1288825273513794 0.22599713504314423 0.3737962245941162 0.5784353613853455 0.7886015772819519 0.925606906414032 1.0015349388122559 1.0703403949737549 1.185304045677185 0 0 1.415527105331421 0 1.1698893308639526 1.001457929611206 0.9162890911102295 -9999
-9999 0.11241935193538666 0.14803394675254822 0.24094174802303314 0.3692988157272339 0.5374274253845215 0.7351992726325989 0.9075854420661926 0.9900423884391785 1.0210864543914795 1.0696567296981812 1.1780011653900146 0 0 0 1.378495216369629 1.3050012588500977 1.223463535308838 1.1383488178253174 -9999
-9999 0.21461540460586548 0.2724452614784241 0.4133264720439911 0.5754411220550537 0.736299455165863 0.8813852667808533 0.9729434251785278 0.9941025376319885 0.9942088723182678 1.0145586729049683 1.0702840089797974 0 0 0 1.115764856338501 1.1334234476089478 1.214673399925232 1.1410491466522217 -9999
-9999 0.3328377306461334 0.4098101854324341 0.591395914554596 0.7658390998840332 0.8840891122817993 0.9523585438728333 0.9751822352409363 0.97169429063797 0.9719025492668152 0.9888252019882202 0.9803869724273682 0.9500612020492554 0.8916565179824829 0 0 0.7850533723831177 0.9458127021789551 -9999 -9999
-9999 0.4181726574897766 0.5071415901184082 0.7012487053871155 0.8523082137107849 0.9173818230628967 0.9314752817153931 0.9292382597923279 0.9451623558998108 0.9843381643295288 0 0 0 0.7154367566108704 0 0 0.4761790335178375 0 -9999 -9999
-9999 0.48666390776634216 0.5763459801673889 0.7498186826705933 0.8685670495033264 0.8838478922843933 0.8630058169364929 0.8547068238258362 0.897741973400116 0 0 0 0 0.5951953530311584 0.4692937135696411 0.3746204972267151 0.31036683917045593 0.267685204744339 0 0
-9999 -9999 0.643833577632904 0.7735945582389832 0.8584830164909363 0.8346218466758728 0.7807056307792664 0.7662870287895203 0 0 0 0 0 0 0 0 0 0 0 0
-9999 -9999 0.731425404548645 0.7984675168991089 0.8377233147621155 0.7745488286018372 0.6878949999809265 0.650523841381073 0 0 0 0 0 0 0 0 0 0 0 0
-9999 -9999 -9999 0.8076394200325012 0.8240575790405273 0.7452681064605713 0.6414697170257568 0.5940307974815369 0 0 0 0 0 0 0 0 0 0 0 0
