ncols         20
nrows         20
xllcorner     0
yllcorner     -3.5992928
cellsize      0.17996463
NODATA_value  -9999
-9999.0 -9999 -9999 -9999 -9999 -9999 -9999 -9999 -9999 -9999 -9999 -9999 -9999 -9999 -9999 -9999 -9999 -9999 -9999 -9999
-9999 -9999 -9999 -9999 -9999 -9999 -9999 -9999 -9999 -9999 -9999 13.253423690795898 13.264641761779785 -9999 -9999 13.196088790893555 13.282872200012207 -9999 -9999 -9999
-9999 -9999 -9999 -9999 13.22018814086914 13.144700050354004 13.022626876831055 12.963592529296875 12.950922966003418 12.947320938110352 13.0590238571167 13.079605102539062 13.033025741577148 12.988174438476562 13.03359317779541 13.115296363830566 13.217403411865234 13.296154975891113 -9999 -9999
-9999 -9999 -9999 13.190671920776367 13.129658699035645 13.049290657043457 12.962611198425293 12.923232078552246 12.892168998718262 12.866385459899902 12.836482048034668 12.797284126281738 12.744656562805176 12.740185737609863 12.769301414489746 12.864646911621094 12.999029159545898 13.091750144958496 -9999 -9999
-9999 -9999 -9999 13.119518280029297 13.042739868164062 12.925414085388184 12.877206802368164 12.900609970092773 12.925987243652344 12.928360939025879 12.912940979003906 12.868021965026855 12.774686813354492 12.67375659942627 12.594076156616211 12.617700576782227 12.71192455291748 12.714112281799316 -9999 -9999
-9999 -9999 13.137819290161133 13.03525161743164 12.917945861816406 12.858827590942383 12.975878715515137 13.22806167602539 13.408490180969238 13.561302185058594 13.68087100982666 13.680678367614746 13.497783660888672 13.187165260314941 12.867202758789062 12.6586275100708 12.58643913269043 12.555825233459473 12.630870819091797 -9999
-9999 -9999 13.02512264251709 12.913641929626465 12.775097846984863 12.860432624816895 13.337807655334473 14.122711181640625 14.520605087280273 14.797760009765625 14.998687744140625 14.983575820922852 14.605666160583496 14.110782623291016 13.5746431350708 13.096158027648926 12.782022476196289 12.634712219238281 12.60059928894043 -9999
-9999 -9999 12.751517295837402 12.616315841674805 12.555322647094727 12.926919937133789 13.978025436401367 15.885391235351562 16.383760452270508 16.57231903076172 16.677579879760742 16.559476852416992 15.702520370483398 15.064133644104004 14.458093643188477 13.861335754394531 13.368820190429688 13.0386962890625 12.892602920532227 -9999
-9999 12.578272819519043 12.41751766204834 12.256587982177734 12.344436645507812 12.997576713562012 14.337784767150879 16.363004684448242 16.926633834838867 17.108224868774414 17.176801681518555 17.055423736572266 16.3460693359375 15.814859390258789 15.314658164978027 14.767980575561523 14.225184440612793 13.808830261230469 13.60453987121582 -9999
-9999 12.300851821899414 12.136188507080078 12.020012855529785 12.356766700744629 13.306802749633789 14.772079467773438 16.632596969604492 17.177814483642578 17.342796325683594 17.388591766357422 17.29177474975586 16.760879516601562 16.379674911499023 16.027544021606445 15.627802848815918 15.1736478805542 14.783730506896973 14.581480979919434 -9999
-9999 12.003835678100586 11.943470001220703 12.067301750183105 12.717700004577637 13.839385986328125 15.291193008422852 16.910478591918945 17.389440536499023 17.527095794677734 17.56414031982422 17.492738723754883 17.078704833984375 16.803543090820312 16.576242446899414 16.31963539123535 16.02381134033203 15.742316246032715 15.593107223510742 -9999
-9999 11.954221725463867 12.069048881530762 12.522223472595215 13.394487380981445 14.507009506225586 15.783987045288086 17.093183517456055 17.49582862854004 17.618812561035156 17.656625747680664 17.61333465576172 17.288619995117188 17.100452423095703 16.96480369567871 16.81356430053711 16.635175704956055 16.471967697143555 16.39473533630371 -9999
-9999 12.393401145935059 12.701642990112305 13.42406940460205 14.31112003326416 15.251328468322754 16.164901733398438 16.928499221801758 17.29113006591797 17.436838150024414 17.489303588867188 17.472272872924805 17.370227813720703 17.292312622070312 17.222219467163086 17.137649536132812 17.018177032470703 16.915746688842773 16.890108108520508 -9999
-9999 13.33188247680664 13.743844985961914 14.520636558532715 15.307462692260742 15.993804931640625 16.5684871673584 17.003828048706055 17.25777816772461 17.375946044921875 17.42572593688965 17.43642807006836 17.424219131469727 17.414169311523438 17.405359268188477 17.36863136291504 17.28938865661621 17.17858123779297 17.187685012817383 -9999
-9999 14.312458038330078 14.721892356872559 15.446702003479004 16.09253692626953 16.56069564819336 16.899263381958008 17.143308639526367 17.289533615112305 17.371274948120117 17.41277503967285 17.43933868408203 17.461284637451172 17.48590850830078 17.51715850830078 17.526025772094727 17.49773406982422 17.386024475097656 -9999 -9999
-9999 15.0032377243042 15.40040397644043 16.03963279724121 16.560213088989258 16.905254364013672 17.118602752685547 17.25432014465332 17.333477020263672 17.383188247680664 17.41293716430664 17.442434310913086 17.477378845214844 17.517297744750977 17.560888290405273 17.600278854370117 17.628616333007812 17.69169807434082 -9999 -9999
-9999 15.422337532043457 15.873156547546387 16.398216247558594 16.822193145751953 17.109901428222656 17.257827758789062 17.344318389892578 17.389354705810547 17.41781997680664 17.437511444091797 17.46209716796875 17.494781494140625 17.531925201416016 17.575138092041016 17.618213653564453 17.654537200927734 17.68206024169922 17.636512756347656 17.647472381591797
-9999 -9999 16.336509704589844 16.656517028808594 16.984525680541992 17.222820281982422 17.352094650268555 17.419422149658203 17.449363708496094 17.4647274017334 17.471900939941406 17.48839569091797 17.51314926147461 17.5515193939209 17.586767196655273 17.615747451782227 17.646495819091797 17.66486167907715 17.661495208740234 17.639142990112305
-9999 -9999 16.652177810668945 16.861738204956055 17.102344512939453 17.307802200317383 17.430988311767578 17.493331909179688 17.516321182250977 17.51704216003418 17.508045196533203 17.517967224121094 17.539302825927734 17.570892333984375 17.593246459960938 17.60960578918457 17.629100799560547 17.638093948364258 17.61593246459961 17.60249900817871
-9999 -9999 -9999 16.9906063079834 17.166135787963867 17.344146728515625 17.46575164794922 17.52530860900879 17.540205001831055 17.533504486083984 17.523099899291992 17.52301597595215 17.542673110961914 17.571334838867188 17.59347915649414 17.599716186523438 17.620559692382812 17.605749130249023 17.589487075805664 17.581647872924805
