ncols         20
nrows         20
xllcorner     0
yllcorner     -3.5992928
cellsize      0.17996463
NODATA_value  -9999
-9999.0 -9999 -9999 -9999 -9999 -9999 -9999 -9999 -9999 -9999 -9999 -9999 -9999 -9999 -9999 -9999 -9999 -9999 -9999 -9999
-9999 -9999 -9999 -9999 -9999 -9999 -9999 -9999 -9999 -9999 -9999 26.96367645263672 26.966882705688477 -9999 -9999 27.061540603637695 27.12636375427246 -9999 -9999 -9999
-9999 -9999 -9999 -9999 27.105180740356445 27.009014129638672 26.859106063842773 26.737062454223633 26.664138793945312 26.6435604095459 26.716312408447266 26.80033302307129 26.782949447631836 26.7104434967041 26.761232376098633 26.908491134643555 26.99860382080078 27.009004592895508 -9999 -9999
-9999 -9999 -9999 27.13589096069336 27.092782974243164 27.01856231689453 26.9122314453125 26.820194244384766 26.756607055664062 26.734201431274414 26.745222091674805 26.760313034057617 26.72852325439453 26.685466766357422 26.68641471862793 26.742454528808594 26.777347564697266 26.76889991760254 -9999 -9999
-9999 -9999 -9999 27.11115074157715 27.099552154541016 27.077009201049805 27.065898895263672 27.05904197692871 27.086212158203125 27.16144371032715 27.242568969726562 27.277496337890625 27.213600158691406 27.06660270690918 26.891389846801758 26.752897262573242 26.59103775024414 26.447290420532227 -9999 -9999
-9999 -9999 27.09634017944336 27.097261428833008 27.134838104248047 27.241052627563477 27.42852020263672 27.61251449584961 27.852970123291016 28.13948631286621 28.398849487304688 28.526798248291016 28.445947647094727 28.15318489074707 27.715993881225586 27.222217559814453 26.713706970214844 26.34775161743164 26.146888732910156 -9999
-9999 -9999 27.003477096557617 27.076152801513672 27.219741821289062 27.489730834960938 27.84728240966797 28.292884826660156 28.80783462524414 29.34629249572754 29.787675857543945 30.007863998413086 29.935359954833984 29.550586700439453 28.8922176361084 28.12787628173828 27.3173828125 26.698705673217773 26.382938385009766 -9999
-9999 -9999 26.77980613708496 26.981801986694336 27.313989639282227 27.759492874145508 28.376176834106445 29.10875129699707 29.885866165161133 30.60308265686035 31.134389877319336 31.395919799804688 31.34943962097168 30.97797966003418 30.29292106628418 29.398984909057617 28.44295310974121 27.607208251953125 27.131296157836914 -9999
-9999 26.12441635131836 26.433507919311523 26.892454147338867 27.43686294555664 28.181873321533203 29.114627838134766 30.1215763092041 31.06630516052246 31.83025550842285 32.34501266479492 32.590293884277344 32.5621452331543 32.25028991699219 31.646257400512695 30.790245056152344 29.864442825317383 29.00165557861328 28.445819854736328 -9999
-9999 25.869653701782227 26.20406723022461 26.884485244750977 27.761587142944336 28.880647659301758 30.115962982177734 31.297866821289062 32.27074432373047 32.96832275390625 33.39771270751953 33.5881233215332 33.5587272644043 33.31831741333008 32.85179901123047 32.161399841308594 31.378406524658203 30.605289459228516 30.092287063598633 -9999
-9999 25.649372100830078 26.12653160095215 27.118263244628906 28.399694442749023 29.82988739013672 31.247970581054688 32.466033935546875 33.36554718017578 33.95354461669922 34.2855339050293 34.40815734863281 34.35688400268555 34.17604064941406 33.85912322998047 33.376773834228516 32.7909049987793 32.18094253540039 31.785694122314453 -9999
-9999 25.776782989501953 26.443708419799805 27.78097152709961 29.348526000976562 30.92833709716797 32.35984802246094 33.49325180053711 34.279781341552734 34.77013397216797 35.02748489379883 35.09024429321289 34.994693756103516 34.852806091308594 34.664955139160156 34.3500862121582 33.962493896484375 33.53758239746094 33.25729751586914 -9999
-9999 26.501155853271484 27.357276916503906 28.914398193359375 30.575923919677734 32.10879135131836 33.3930549621582 34.36465835571289 35.031742095947266 35.44261932373047 35.6683349609375 35.71046829223633 35.61819839477539 35.5092658996582 35.381927490234375 35.202308654785156 34.90851974487305 34.58519744873047 34.3461799621582 -9999
-9999 27.81188201904297 28.747774124145508 30.336978912353516 31.925525665283203 33.27088165283203 34.32437515258789 35.10513687133789 35.65648651123047 35.98158645629883 36.1564826965332 36.21337127685547 36.1800537109375 36.132808685302734 36.05973434448242 35.93930435180664 35.7144775390625 35.41108322143555 35.040260314941406 -9999
-9999 29.27530288696289 30.20075035095215 31.708114624023438 33.139686584472656 34.27201461791992 35.11245346069336 35.72734069824219 36.122432708740234 36.36088562011719 36.49883270263672 36.58985900878906 36.65062713623047 36.68866729736328 36.67066192626953 36.59967041015625 36.46432876586914 36.271419525146484 -9999 -9999
-9999 30.463319778442383 31.397672653198242 32.786251068115234 34.05490493774414 35.034637451171875 35.738304138183594 36.193992614746094 36.468284606933594 36.62232971191406 36.71489334106445 36.8262825012207 36.95893096923828 37.087608337402344 37.14236831665039 37.144859313964844 37.10847091674805 37.084861755371094 -9999 -9999
-9999 31.224849700927734 32.350894927978516 33.58431625366211 34.70752716064453 35.601436614990234 36.188655853271484 36.551998138427734 36.745426177978516 36.84010314941406 36.92243957519531 37.04528045654297 37.20954895019531 37.38226318359375 37.49516296386719 37.54806137084961 37.5619010925293 37.586631774902344 37.71123504638672 37.77412796020508
-9999 -9999 33.448890686035156 34.25956726074219 35.18271255493164 35.97391891479492 36.51066207885742 36.83380126953125 36.984683990478516 37.064762115478516 37.138824462890625 37.259098052978516 37.42538070678711 37.61056137084961 37.748382568359375 37.8233757019043 37.85957336425781 37.87590408325195 37.899574279785156 37.89398193359375
-9999 -9999 34.07536697387695 34.75385665893555 35.51587677001953 36.22802734375 36.745052337646484 37.06249237060547 37.20478057861328 37.27342987060547 37.33270263671875 37.44475555419922 37.609375 37.79484939575195 37.937522888183594 38.020538330078125 38.06199645996094 38.06071090698242 38.025604248046875 38.00139617919922
-9999 -9999 -9999 35.17469787597656 35.741397857666016 36.36664581298828 36.86811828613281 37.18412399291992 37.32101821899414 37.38321304321289 37.43758773803711 37.537715911865234 37.700958251953125 37.888580322265625 38.040618896484375 38.12675094604492 38.17786407470703 38.152313232421875 38.10775375366211 38.0810432434082
