ncols         20
nrows         20
xllcorner     0
yllcorner     -3.5992928
cellsize      0.17996463
NODATA_value  -9999
-9999.0 -9999 -9999 -9999 -9999 -9999 -9999 -9999 -9999 -9999 -9999 -9999 -9999 -9999 -9999 -9999 -9999 -9999 -9999 -9999
-9999 -9999 -9999 -9999 -9999 -9999 -9999 -9999 -9999 -9999 -9999 0.8641912341117859 0.8445761203765869 -9999 -9999 0.7493124604225159 0.7022349834442139 -9999 -9999 -9999
-9999 -9999 -9999 -9999 0.9912257790565491 1.0525071620941162 1.159274697303772 1.2337127923965454 1.2660470008850098 1.2721257209777832 1.1297800540924072 1.029111385345459 1.0113288164138794 0.9961013793945312 0.9005049467086792 0.7964304089546204 0.7200263738632202 0.667198121547699 -9999 -9999
-9999 -9999 -9999 0.9371058940887451 1.0085957050323486 1.0927048921585083 1.20622718334198 1.3057348728179932 1.4031645059585571 1.4708106517791748 1.4967542886734009 1.4540148973464966 1.4025028944015503 1.2769755125045776 1.1157091856002808 0.9416428804397583 0.8072550296783447 0.7338864207267761 -9999 -9999
-9999 -9999 -9999 0.9223387241363525 1.002085566520691 1.1523691415786743 1.3217724561691284 1.502030372619629 1.7089101076126099 1.9704346656799316 2.2041099071502686 2.282667636871338 2.1740479469299316 1.8641860485076904 1.5343599319458008 1.2099957466125488 0.9784722328186035 0.9148415923118591 -9999 -9999
-9999 -9999 0.7410711050033569 0.8612736463546753 1.0005884170532227 1.1950178146362305 1.415207862854004 1.6754827499389648 2.052889347076416 2.512807846069336 2.972710609436035 3.1535873413085938 3.043872833251953 2.597174644470215 2.0455284118652344 1.5620815753936768 1.221906065940857 1.0743582248687744 0.9509137272834778 -9999
-9999 -9999 0.7182189226150513 0.8145418167114258 1.0070372819900513 1.2566066980361938 1.5278501510620117 1.8754044771194458 2.351679801940918 2.918128728866577 3.449223279953003 3.7040019035339355 3.609588623046875 3.1777172088623047 2.617861747741699 1.9860119819641113 1.5398547649383545 1.263972520828247 1.1433558464050293 -9999
-9999 -9999 0.7156355381011963 0.8393616676330566 1.080165147781372 1.3758951425552368 1.7252126932144165 2.1360044479370117 2.600691795349121 3.1003599166870117 3.483811378479004 3.6911461353302 3.639632225036621 3.3406970500946045 2.8804385662078857 2.3416566848754883 1.8778269290924072 1.5450738668441772 1.4070518016815186 -9999
-9999 0.5774641633033752 0.7238394618034363 0.9151903390884399 1.2353256940841675 1.6248046159744263 2.0304830074310303 2.4623119831085205 2.850839614868164 3.1529736518859863 3.323561429977417 3.4003491401672363 3.380964517593384 3.2223620414733887 2.9648072719573975 2.623638868331909 2.1536245346069336 1.815694808959961 1.6695994138717651 -9999
-9999 0.6355887651443481 0.7716819047927856 1.057389259338379 1.465440034866333 1.9282349348068237 2.3779773712158203 2.7672290802001953 3.0158588886260986 3.1110846996307373 3.097562074661255 3.071524143218994 3.0351850986480713 2.9726345539093018 2.8521766662597656 2.6858394145965576 2.3133134841918945 2.02543306350708 1.8988004922866821 -9999
-9999 0.7537509799003601 0.9034010171890259 1.2292814254760742 1.657239317893982 2.122105836868286 2.556222438812256 2.866023063659668 2.9682652950286865 2.9251508712768555 2.8359947204589844 2.7695162296295166 2.742220401763916 2.7104127407073975 2.6489686965942383 2.5459814071655273 2.3455288410186768 2.1433582305908203 2.050222873687744 -9999
-9999 0.9424739480018616 1.0958858728408813 1.435865879058838 1.8327966928482056 2.217374801635742 2.547001838684082 2.7221109867095947 2.7033088207244873 2.591728687286377 2.4860997200012207 2.4399495124816895 2.48806095123291 2.483330011367798 2.4149200916290283 2.3995492458343506 2.259705066680908 2.143693685531616 2.0895824432373047 -9999
-9999 1.2043027877807617 1.370156168937683 1.705670714378357 2.0100107192993164 2.2600743770599365 2.426378011703491 2.4590904712677 2.350450277328491 2.197438955307007 2.0839169025421143 2.0381288528442383 2.086791515350342 2.0926198959350586 2.0797927379608154 2.0378928184509277 2.021740674972534 2.0065150260925293 1.989397406578064 -9999
-9999 1.4950114488601685 1.6540656089782715 1.949799656867981 2.1557469367980957 2.2521040439605713 2.2547152042388916 2.1632080078125 2.0031538009643555 1.835228681564331 1.7145226001739502 1.6506469249725342 1.6517086029052734 1.6289851665496826 1.6032896041870117 1.5789892673492432 1.6342567205429077 1.753440260887146 1.809800148010254 -9999
-9999 1.6933763027191162 1.817903995513916 2.0499095916748047 2.155252456665039 2.1239571571350098 2.0158257484436035 1.86405611038208 1.6924948692321777 1.546526312828064 1.4454389810562134 1.3635950088500977 1.298130989074707 1.2376381158828735 1.201662302017212 1.1792644262313843 1.191794753074646 1.3390629291534424 -9999 -9999
-9999 1.7402582168579102 1.8206232786178589 1.9778374433517456 1.9956084489822388 1.8933743238449097 1.7433384656906128 1.57960844039917 1.4441412687301636 1.346256136894226 1.2927316427230835 1.21243417263031 1.1151299476623535 1.0010074377059937 0.9349067807197571 0.8734419345855713 0.8353850245475769 0.764003574848175 -9999 -9999
-9999 1.7612860202789307 1.7499010562896729 1.8242353200912476 1.790863037109375 1.6544575691223145 1.4855698347091675 1.3374598026275635 1.2422398328781128 1.192631721496582 1.139101266860962 1.0614596605300903 0.9603150486946106 0.8469749689102173 0.7584246397018433 0.6845130920410156 0.6294993162155151 0.5848489999771118 0.5742546319961548 0.5228402018547058
-9999 -9999 1.6173967123031616 1.6576262712478638 1.6053669452667236 1.4526009559631348 1.2775870561599731 1.146428108215332 1.0868699550628662 1.0391533374786377 0.9925618767738342 0.9269656538963318 0.8438739776611328 0.7395603656768799 0.6538398265838623 0.5911296606063843 0.5331374406814575 0.4966675043106079 0.47281330823898315 0.4995320737361908
-9999 -9999 1.590432047843933 1.543346881866455 1.4651774168014526 1.297742247581482 1.116621732711792 0.9880472421646118 0.9324171543121338 0.8944248557090759 0.8710719347000122 0.8168906569480896 0.7415376305580139 0.6496420502662659 0.5797310471534729 0.5300573706626892 0.48783475160598755 0.46543681621551514 0.49848678708076477 0.5176006555557251
-9999 -9999 -9999 1.4457556009292603 1.3886359930038452 1.2227338552474976 1.0396289825439453 0.9136576652526855 0.862846314907074 0.8344458341598511 0.8128625750541687 0.775331974029541 0.7035679221153259 0.6164824962615967 0.544170618057251 0.5096411108970642 0.462471067905426 0.485676646232605 0.5138099193572998 0.5297774076461792
