ncols         20
nrows         20
xllcorner     0
yllcorner     -3.5992928
cellsize      0.17996463
NODATA_value  -9999
-9999.0 -9999 -9999 -9999 -9999 -9999 -9999 -9999 -9999 -9999 -9999 -9999 -9999 -9999 -9999 -9999 -9999 -9999 -9999 -9999
-9999 -9999 -9999 -9999 -9999 -9999 -9999 -9999 -9999 -9999 -9999 11.817581176757812 11.79053783416748 -9999 -9999 11.798736572265625 11.644373893737793 -9999 -9999 -9999
-9999 -9999 -9999 -9999 11.732269287109375 11.880711555480957 12.118661880493164 12.242024421691895 12.2759370803833 12.294418334960938 12.111795425415039 12.076325416564941 12.149972915649414 12.21863842010498 12.141558647155762 11.975594520568848 11.807507514953613 11.707696914672852 -9999 -9999
-9999 -9999 -9999 11.785292625427246 11.896307945251465 12.029851913452148 12.194225311279297 12.265445709228516 12.300387382507324 12.298601150512695 12.31412124633789 12.34878921508789 12.433380126953125 12.482491493225098 12.49271297454834 12.375173568725586 12.19446849822998 12.079933166503906 -9999 -9999
-9999 -9999 -9999 11.943718910217285 12.055240631103516 12.25606632232666 12.327008247375488 12.238419532775879 12.079434394836426 11.889533996582031 11.705499649047852 11.65394401550293 11.825725555419922 12.163705825805664 12.5014009475708 12.653924942016602 12.626204490661621 12.709007263183594 -9999 -9999
-9999 -9999 11.984920501708984 12.14741039276123 12.324809074401855 12.40953540802002 12.159366607666016 11.590658187866211 10.996929168701172 10.338435173034668 9.673661231994629 9.402708053588867 9.69659423828125 10.534668922424316 11.518003463745117 12.253111839294434 12.641820907592773 12.844390869140625 12.78447151184082 -9999
-9999 -9999 12.223105430603027 12.393722534179688 12.626473426818848 12.445284843444824 11.512870788574219 9.882688522338867 8.672134399414062 7.612578868865967 6.730572700500488 6.405346393585205 6.895598888397217 8.015564918518066 9.492456436157227 10.923369407653809 11.898791313171387 12.417268753051758 12.611917495727539 -9999
-9999 -9999 12.748031616210938 12.962514877319336 13.038241386413574 12.313426971435547 10.280179977416992 6.240095138549805 4.846257209777832 4.047770023345947 3.559234857559204 3.5085182189941406 4.554459571838379 5.667617321014404 7.144135475158691 8.815040588378906 10.243741035461426 11.223709106445312 11.661429405212402 -9999
-9999 13.18050765991211 13.413068771362305 13.594985961914062 13.345684051513672 12.011760711669922 9.245796203613281 4.934187412261963 3.388767957687378 2.6643881797790527 2.3372435569763184 2.3687877655029297 3.08858323097229 3.867872714996338 4.945457458496094 6.385042190551758 7.933122634887695 9.156027793884277 9.75760269165039 -9999
-9999 13.723165512084961 13.922708511352539 13.961365699768066 13.140442848205566 11.099920272827148 7.909052848815918 3.948362350463867 2.4837284088134766 1.8565665483474731 1.6272650957107544 1.6555112600326538 2.088291883468628 2.519622564315796 3.1819188594818115 4.160587787628174 5.437541961669922 6.585179328918457 7.1819610595703125 -9999
-9999 14.259007453918457 14.224014282226562 13.715963363647461 12.213861465454102 9.670960426330566 6.398282051086426 3.0179226398468018 1.7595956325531006 1.2412666082382202 1.050918698310852 1.0485076904296875 1.2569940090179443 1.4698214530944824 1.8102948665618896 2.391572952270508 3.194547176361084 4.053064346313477 4.518630027770996 -9999
-9999 14.189176559448242 13.78994083404541 12.603032112121582 10.557560920715332 7.88022518157959 4.920310974121094 2.2679102420806885 1.2346059083938599 0.7928725481033325 0.6210127472877502 0.5735958218574524 0.6406367421150208 0.7079182863235474 0.8382017612457275 1.1130198240280151 1.561940312385559 2.073033094406128 2.3571341037750244 -9999
-9999 13.005257606506348 12.20800495147705 10.408880233764648 8.189652442932129 5.799612522125244 3.539323329925537 1.8026776313781738 0.9215279817581177 0.5450969934463501 0.36698466539382935 0.29563167691230774 0.2710281312465668 0.2695903480052948 0.3049168884754181 0.39464786648750305 0.6071497797966003 0.8719719648361206 1.047930121421814 -9999
-9999 10.73808479309082 9.672357559204102 7.575444221496582 5.473517417907715 3.6561155319213867 2.184511184692383 1.1505297422409058 0.5756815075874329 0.3294559717178345 0.21301914751529694 0.1550857275724411 0.12366997450590134 0.10882191359996796 0.10712191462516785 0.1263893097639084 0.17917825281620026 0.2946331202983856 0.4024094045162201 -9999
-9999 8.305487632751465 7.184396743774414 5.090744495391846 3.278012990951538 2.0263943672180176 1.1783307790756226 0.6208796501159668 0.3387835621833801 0.20025543868541718 0.13039347529411316 0.09008432179689407 0.06649692356586456 0.0534883588552475 0.04641963541507721 0.04718414694070816 0.05549205094575882 0.08420166373252869 -9999 -9999
-9999 6.582122802734375 5.456417560577393 3.5196080207824707 2.0278007984161377 1.117767572402954 0.6067547798156738 0.3363913297653198 0.200525164604187 0.12652581930160522 0.08558303862810135 0.059428002685308456 0.04584033042192459 0.04786435887217522 0.05057227984070778 0.05352216958999634 0.056419737637043 0.05900748074054718 -9999 -9999
-9999 5.462401866912842 4.259457111358643 2.6213443279266357 1.3792942762374878 0.6409794092178345 0.3363369405269623 0.18870487809181213 0.11748464405536652 0.07816620171070099 0.055276136845350266 0.04890325292944908 0.051353685557842255 0.05480240657925606 0.058959316462278366 0.06358727812767029 0.06880949437618256 0.07562841475009918 0.0877298042178154 0.09331434220075607
-9999 -9999 3.1107184886932373 2.0105457305908203 1.0064359903335571 0.43229708075523376 0.20790928602218628 0.11386038362979889 0.07136937230825424 0.05000719055533409 0.0508793406188488 0.05323042348027229 0.05687801167368889 0.061573296785354614 0.06692113727331161 0.07262910902500153 0.0786697268486023 0.08511657267808914 0.09186394512653351 0.09538222849369049
-9999 -9999 2.1456713676452637 1.491794466972351 0.7571371793746948 0.30807727575302124 0.13858410716056824 0.07257988303899765 0.05137273669242859 0.0518391951918602 0.053666967898607254 0.056885894387960434 0.061400290578603745 0.0669487789273262 0.0730317011475563 0.0792413204908371 0.08531971275806427 0.09079332649707794 0.09506717324256897 0.0973384901881218
-9999 -9999 -9999 1.1847655773162842 0.6205530166625977 0.2591901421546936 0.11318498849868774 0.058201827108860016 0.051947418600320816 0.05297994241118431 0.055288165807724 0.058922842144966125 0.063876673579216 0.0698564276099205 0.0763077586889267 0.08267214894294739 0.08865582197904587 0.09340490400791168 0.09675823152065277 0.0984976664185524
