ncols         20
nrows         20
xllcorner     0
yllcorner     -3.5992928
cellsize      0.17996463
NODATA_value  -9999
-9999.0 -9999 -9999 -9999 -9999 -9999 -9999 -9999 -9999 -9999 -9999 -9999 -9999 -9999 -9999 -9999 -9999 -9999 -9999 -9999
-9999 -9999 -9999 -9999 -9999 -9999 -9999 -9999 -9999 -9999 -9999 12.306856155395508 12.283589363098145 -9999 -9999 12.30147647857666 12.144898414611816 -9999 -9999 -9999
-9999 -9999 -9999 -9999 12.189940452575684 12.314360618591309 12.531134605407715 12.647366523742676 12.687234878540039 12.7203950881958 12.549320220947266 12.539827346801758 12.633222579956055 12.716754913330078 12.649378776550293 12.493017196655273 12.347594261169434 12.280569076538086 -9999 -9999
-9999 -9999 -9999 12.311002731323242 12.359196662902832 12.411924362182617 12.501916885375977 12.548105239868164 12.58897876739502 12.604928970336914 12.644691467285156 12.704338073730469 12.80899429321289 12.874992370605469 12.915143013000488 12.858904838562012 12.775215148925781 12.728202819824219 -9999 -9999
-9999 -9999 -9999 12.485824584960938 12.462636947631836 12.462541580200195 12.319673538208008 12.195699691772461 12.05859375 11.891740798950195 11.730504035949707 11.68964672088623 11.853349685668945 12.183515548706055 12.565449714660645 12.8887357711792 13.194957733154297 13.490510940551758 -9999 -9999
-9999 -9999 12.768669128417969 12.71699047088623 12.566645622253418 12.199420928955078 11.368910789489746 10.913886070251465 10.4573335647583 9.85498046875 9.19735050201416 8.876551628112793 9.050281524658203 9.755576133728027 10.697717666625977 11.68568229675293 13.061779022216797 13.785238265991211 14.035323143005371 -9999
-9999 -9999 13.012953758239746 12.83663558959961 12.46837329864502 11.528340339660645 10.763177871704102 10.02403736114502 9.109243392944336 7.986526966094971 6.919989109039307 6.352520942687988 6.4814229011535645 7.3337321281433105 8.671834945678711 10.279372215270996 12.198310852050781 13.380608558654785 13.930865287780762 -9999
-9999 -9999 13.555292129516602 13.07182502746582 12.063251495361328 11.185907363891602 10.219216346740723 9.058897018432617 7.711972236633301 6.314129829406738 5.209662437438965 4.5983381271362305 4.6359429359436035 5.343574523925781 6.638996601104736 8.33999252319336 10.179326057434082 12.043615341186523 12.973398208618164 -9999
-9999 14.887815475463867 14.377721786499023 12.995875358581543 11.9636812210083 10.772391319274902 9.316984176635742 7.668075084686279 6.061235427856445 4.72696590423584 3.8336687088012695 3.362363576889038 3.3234572410583496 3.7956206798553467 4.762378215789795 6.219285011291504 7.970798969268799 9.653240203857422 10.976560592651367 -9999
-9999 15.596933364868164 15.01787281036377 13.239606857299805 11.68673038482666 9.852608680725098 7.818657875061035 5.836667060852051 4.250109672546387 3.1980931758880615 2.619948625564575 2.3293495178222656 2.305633544921875 2.5640530586242676 3.2011866569519043 4.2522501945495605 5.724734306335449 7.2351274490356445 8.381550788879395 -9999
-9999 16.372291564941406 15.52153491973877 13.15234375 10.943958282470703 8.56415843963623 6.145495891571045 4.065989971160889 2.685486078262329 1.9244569540023804 1.5567331314086914 1.4022343158721924 1.3914806842803955 1.5369312763214111 1.9039006233215332 2.5920157432556152 3.6096692085266113 4.855757236480713 5.602269649505615 -9999
-9999 16.538192749023438 15.331196784973145 12.366720199584961 9.671244621276855 7.062226295471191 4.628119945526123 2.7463767528533936 1.6324193477630615 1.0663719177246094 0.8174554109573364 0.7100457549095154 0.6966359615325928 0.751186728477478 0.9155120253562927 1.2754707336425781 1.8890461921691895 2.6628754138946533 3.111917018890381 -9999
-9999 15.507078170776367 13.955026626586914 10.603254318237305 7.804612636566162 5.35640287399292 3.2961249351501465 1.8048207759857178 0.9684200286865234 0.584116518497467 0.3866901397705078 0.3076034486293793 0.2783966362476349 0.28578120470046997 0.34479185938835144 0.4802579879760742 0.7806728482246399 1.1897445917129517 1.4681110382080078 -9999
-9999 13.231348991394043 11.502864837646484 8.149677276611328 5.533096790313721 3.5584661960601807 2.092230796813965 1.1107690334320068 0.5559574365615845 0.31792470812797546 0.20484374463558197 0.15061190724372864 0.12359940260648727 0.1155029833316803 0.1233702227473259 0.15906669199466705 0.24363254010677338 0.42932355403900146 0.6060838103294373 -9999
-9999 10.673542022705078 8.983658790588379 5.859050750732422 3.5705316066741943 2.117626667022705 1.1951160430908203 0.617022693157196 0.3295395076274872 0.19146502017974854 0.1238546073436737 0.08684813976287842 0.06671485304832458 0.05709775909781456 0.05324004590511322 0.05810339376330376 0.07311254739761353 0.11755691468715668 -9999 -9999
-9999 8.827033042907715 7.180944442749023 4.340229511260986 2.3904666900634766 1.267425775527954 0.6666128635406494 0.35638880729675293 0.20469744503498077 0.12523376941680908 0.08349036425352097 0.058725226670503616 0.04707514867186546 0.0515805184841156 0.057252511382102966 0.06340969353914261 0.06929365545511246 0.07382797449827194 -9999 -9999
-9999 7.549973487854004 5.854898452758789 3.4351677894592285 1.7498383522033691 0.7951957583427429 0.401967316865921 0.2151997685432434 0.12749406695365906 0.08133946359157562 0.056362446397542953 0.05003666877746582 0.053717195987701416 0.05919930338859558 0.06580127030611038 0.07296259701251984 0.08037286251783371 0.08847753703594208 0.1004040390253067 0.10595716536045074
-9999 -9999 4.439607620239258 2.7765445709228516 1.358414888381958 0.5763964653015137 0.26732030510902405 0.13874293863773346 0.08195490390062332 0.0545622818171978 0.05380624160170555 0.05579059198498726 0.060156285762786865 0.06639231741428375 0.07371874153614044 0.08148172497749329 0.08929069340229034 0.09689177572727203 0.10406070947647095 0.10772797465324402
-9999 -9999 3.155681610107422 2.1748948097229004 1.0780054330825806 0.4339544177055359 0.18825359642505646 0.09280960261821747 0.06121191382408142 0.05826415494084358 0.058041900396347046 0.06049703061580658 0.06535758078098297 0.07207803428173065 0.07979609072208405 0.08774975687265396 0.09536769986152649 0.10194355994462967 0.10682154446840286 0.10935243964195251
-9999 -9999 -9999 1.7744157314300537 0.9192273020744324 0.377014696598053 0.15826691687107086 0.07604825496673584 0.06298874318599701 0.06038285791873932 0.06042691320180893 0.06309430301189423 0.06819851696491241 0.07515575736761093 0.08306287229061127 0.09101605415344238 0.09843617677688599 0.10426127910614014 0.10827525705099106 0.11031906306743622
