ncols         20
nrows         20
xllcorner     0
yllcorner     -3.5992928
cellsize      0.17996463
NODATA_value  -9999
-9999.0 -9999 -9999 -9999 -9999 -9999 -9999 -9999 -9999 -9999 -9999 -9999 -9999 -9999 -9999 -9999 -9999 -9999 -9999 -9999
-9999 -9999 -9999 -9999 -9999 -9999 -9999 -9999 -9999 -9999 -9999 1.7612566947937012 1.759501338005066 -9999 -9999 1.8056964874267578 1.7856454849243164 -9999 -9999 -9999
-9999 -9999 -9999 -9999 1.7565025091171265 1.7695411443710327 1.79056715965271 1.7960915565490723 1.7938899993896484 1.7972332239151 1.7806036472320557 1.7905781269073486 1.8077737092971802 1.821740984916687 1.8239498138427734 1.8195288181304932 1.8021398782730103 1.7850306034088135 -9999 -9999
-9999 -9999 -9999 1.774983525276184 1.7866244316101074 1.799472689628601 1.8129340410232544 1.8154798746109009 1.8157111406326294 1.8156620264053345 1.8217158317565918 1.8331661224365234 1.8490089178085327 1.8602781295776367 1.8744505643844604 1.87125563621521 1.8500962257385254 1.829593300819397 -9999 -9999
-9999 -9999 -9999 1.7987533807754517 1.8146897554397583 1.842065453529358 1.8523987531661987 1.8488142490386963 1.8298691511154175 1.7922420501708984 1.7500824928283691 1.7337063550949097 1.7590852975845337 1.8179627656936646 1.878787636756897 1.9052934646606445 1.9022934436798096 1.9079993963241577 -9999 -9999
-9999 -9999 1.8050477504730225 1.8279591798782349 1.8554527759552002 1.8763904571533203 1.8694452047348022 1.8371764421463013 1.7561663389205933 1.6216717958450317 1.473047137260437 1.3983808755874634 1.4288700819015503 1.567030906677246 1.7401328086853027 1.8530460596084595 1.9082072973251343 1.9257234334945679 1.9057049751281738 -9999
-9999 -9999 1.828389286994934 1.8547594547271729 1.8954436779022217 1.9040122032165527 1.8725733757019043 1.7791168689727783 1.6020376682281494 1.3588708639144897 1.1273651123046875 1.0056039094924927 1.0288461446762085 1.2015620470046997 1.4850009679794312 1.6852779388427734 1.8323241472244263 1.8966329097747803 1.9091949462890625 -9999
-9999 -9999 1.8798798322677612 1.9113203287124634 1.9373422861099243 1.9152226448059082 1.8216098546981812 1.6352102756500244 1.3701297044754028 1.0770100355148315 0.8452897071838379 0.7202642560005188 0.7256945371627808 0.8622342348098755 1.109208106994629 1.3894593715667725 1.6190687417984009 1.768646478652954 1.8262465000152588 -9999
-9999 1.9029649496078491 1.9417697191238403 1.96250319480896 1.9490524530410767 1.8535703420639038 1.6524380445480347 1.36447012424469 1.0554237365722656 0.7904870510101318 0.612999439239502 0.520946741104126 0.5133041143417358 0.6010733246803284 0.7818877100944519 1.0535789728164673 1.2997173070907593 1.499528408050537 1.5962380170822144 -9999
-9999 1.9577383995056152 1.984397053718567 1.9782922267913818 1.8858217000961304 1.666438341140747 1.3468215465545654 0.9980703592300415 0.70893394947052 0.5161570906639099 0.4099358916282654 0.35694754123687744 0.3525562882423401 0.39876899123191833 0.5122563242912292 0.70116126537323 0.9218759536743164 1.1256208419799805 1.2318131923675537 -9999
-9999 2.006429672241211 2.0016818046569824 1.9243792295455933 1.7305935621261597 1.4085782766342163 1.0171571969985962 0.661969006061554 0.4270268678665161 0.29963210225105286 0.23853829503059387 0.21289141476154327 0.2112104296684265 0.2352903038263321 0.2954103350639343 0.40614134073257446 0.5577132701873779 0.7209660410881042 0.8090915083885193 -9999
-9999 1.9870765209197998 1.9394298791885376 1.7730348110198975 1.4906554222106934 1.124143362045288 0.7366332411766052 0.42967426776885986 0.2514079213142395 0.1629156768321991 0.12406884133815765 0.10764796286821365 0.10592371225357056 0.11436466872692108 0.13910722732543945 0.1934518665075302 0.28122296929359436 0.38182884454727173 0.43748971819877625 -9999
-9999 1.8514587879180908 1.7471448183059692 1.485325574874878 1.164415955543518 0.8215489387512207 0.5067773461341858 0.2751961350440979 0.14680807292461395 0.08873255550861359 0.05686971917748451 0.0452735461294651 0.041177280247211456 0.042150501161813736 0.050281792879104614 0.06934749335050583 0.11417342722415924 0.16738073527812958 0.2015903890132904 -9999
-9999 1.5807867050170898 1.4282890558242798 1.1094602346420288 0.7926588654518127 0.5238717794418335 0.31191471219062805 0.16605649888515472 0.08131331205368042 0.047663260251283646 0.031888656318187714 0.024584626778960228 0.02095738984644413 0.01984795369207859 0.02078302577137947 0.025539271533489227 0.036751482635736465 0.05969499424099922 0.07862803339958191 -9999
-9999 1.2806332111358643 1.1099834442138672 0.7770528197288513 0.49304085969924927 0.3014986217021942 0.17399191856384277 0.08946666121482849 0.04949278384447098 0.031132137402892113 0.022358248010277748 0.017525602132081985 0.014820370823144913 0.013557148166000843 0.012870089150965214 0.01357603631913662 0.015813596546649933 0.022964030504226685 -9999 -9999
-9999 1.0677000284194946 0.8900433778762817 0.5694131255149841 0.3247714340686798 0.17750464379787445 0.09453215450048447 0.053163331001996994 0.03356068208813667 0.023473866283893585 0.018251091241836548 0.014958267100155354 0.01350246649235487 0.015622331760823727 0.0175224170088768 0.019010307267308235 0.02000114694237709 0.020691007375717163 -9999 -9999
-9999 0.918972373008728 0.7333595752716064 0.4531005322933197 0.23866453766822815 0.1097482368350029 0.05859436094760895 0.03483518958091736 0.023919740691781044 0.01819656975567341 0.01509885210543871 0.015357417985796928 0.01788030005991459 0.020430630072951317 0.02276615798473358 0.024737287312746048 0.0263955257833004 0.028218979015946388 0.031778592616319656 0.03317171707749367
-9999 -9999 0.5721473097801208 0.37238186597824097 0.18880832195281982 0.0817723274230957 0.041471268981695175 0.025070983916521072 0.017956417053937912 0.014616668224334717 0.016684671863913536 0.019089873880147934 0.02175755798816681 0.02452082186937332 0.027027269825339317 0.02908548340201378 0.03076394647359848 0.03216321021318436 0.03351199999451637 0.03399023413658142
-9999 -9999 0.4109210968017578 0.2924242615699768 0.15188221633434296 0.06365469843149185 0.03120545670390129 0.01874576322734356 0.015371203422546387 0.01739080809056759 0.019549597054719925 0.02199619449675083 0.02471785806119442 0.027511149644851685 0.029964163899421692 0.031870000064373016 0.033278774470090866 0.03412824124097824 0.03445474058389664 0.03452572599053383
-9999 -9999 -9999 0.24355806410312653 0.12879197299480438 0.05630447715520859 0.027294350787997246 0.016436273232102394 0.016816310584545135 0.018923604860901833 0.02111225388944149 0.02353380247950554 0.026244627311825752 0.02901359274983406 0.03141676262021065 0.03316722437739372 0.034410394728183746 0.03483006730675697 0.034847013652324677 0.034783653914928436
