ncols         20
nrows         20
xllcorner     0
yllcorner     -3.5992928
cellsize      0.17996463
NODATA_value  -9999
-9999.0 -9999 -9999 -9999 -9999 -9999 -9999 -9999 -9999 -9999 -9999 -9999 -9999 -9999 -9999 -9999 -9999 -9999 -9999 -9999
-9999 -9999 -9999 -9999 -9999 -9999 -9999 -9999 -9999 -9999 -9999 13.163061141967773 13.169892311096191 -9999 -9999 13.037782669067383 13.113056182861328 -9999 -9999 -9999
-9999 -9999 -9999 -9999 13.075092315673828 13.034865379333496 12.958830833435059 12.936209678649902 12.946608543395996 12.953598022460938 13.057699203491211 13.051910400390625 12.995550155639648 12.948863983154297 12.966225624084473 12.997749328613281 13.05999755859375 13.112144470214844 -9999 -9999
-9999 -9999 -9999 13.021060943603516 13.007023811340332 13.000739097595215 12.99349594116211 13.000309944152832 12.991601943969727 12.97584342956543 12.947691917419434 12.904032707214355 12.849064826965332 12.835451126098633 12.830964088439941 12.85433578491211 12.89399242401123 12.9268798828125 -9999 -9999
-9999 -9999 -9999 12.980217933654785 13.00169563293457 13.039204597473145 13.152403831481934 13.217367172241211 13.237489700317383 13.23041820526123 13.21666145324707 13.191163063049316 13.134316444396973 13.065510749816895 12.973334312438965 12.878626823425293 12.73757266998291 12.598969459533691 -9999 -9999
-9999 -9999 12.933310508728027 12.950789451599121 13.050271034240723 13.287800788879395 13.6991548538208 13.8739652633667 13.96125316619873 14.067418098449707 14.194075584411621 14.261520385742188 14.20755672454834 14.029136657714844 13.771245956420898 13.431035995483398 12.832046508789062 12.493846893310547 12.416996955871582 -9999
-9999 -9999 12.885300636291504 12.991708755493164 13.22661018371582 13.690397262573242 14.029293060302734 14.25398063659668 14.479608535766602 14.760819435119629 15.033077239990234 15.182684898376465 15.146415710449219 14.907602310180664 14.493075370788574 13.956511497497559 13.171003341674805 12.653353691101074 12.425249099731445 -9999
-9999 -9999 12.715940475463867 13.003509521484375 13.493959426879883 13.88160228729248 14.207167625427246 14.54835033416748 14.936504364013672 15.337777137756348 15.659282684326172 15.835235595703125 15.826367378234863 15.618420600891113 15.21442985534668 14.647053718566895 13.944531440734863 13.181618690490723 12.769309043884277 -9999
-9999 12.182442665100098 12.399409294128418 13.08199691772461 13.555256843566895 13.97452163696289 14.439661979675293 14.952567100524902 15.453865051269531 15.871065139770508 16.15428924560547 16.303285598754883 16.31498908996582 16.170257568359375 15.855917930603027 15.35675048828125 14.758026123046875 14.102238655090332 13.5393648147583 -9999
-9999 11.89209270477295 12.088720321655273 12.94225788116455 13.57641887664795 14.203797340393066 14.873620986938477 15.520350456237793 16.039199829101562 16.387557983398438 16.58518409729004 16.682910919189453 16.69148063659668 16.60715675354004 16.395816802978516 16.024545669555664 15.541592597961426 14.981243133544922 14.506402969360352 -9999
-9999 11.537101745605469 11.787302017211914 12.874801635742188 13.753891944885254 14.589556694030762 15.406752586364746 16.10262107849121 16.570066452026367 16.83240509033203 16.959156036376953 17.00841522216797 17.00216293334961 16.954463958740234 16.840782165527344 16.608850479125977 16.266620635986328 15.8146333694458 15.521576881408691 -9999
-9999 11.35832405090332 11.752474784851074 13.063631057739258 14.1357421875 15.073381423950195 15.91263198852539 16.55853271484375 16.949525833129883 17.150848388671875 17.233694076538086 17.252254486083984 17.211143493652344 17.18755340576172 17.1630859375 17.039934158325195 16.858409881591797 16.589502334594727 16.431570053100586 -9999
-9999 11.573369026184082 12.19853687286377 13.642889976501465 14.759079933166504 15.64811897277832 16.36944007873535 16.892518997192383 17.198484420776367 17.344972610473633 17.411087036132812 17.42070960998535 17.38290786743164 17.371631622314453 17.367660522460938 17.355552673339844 17.263809204101562 17.12030792236328 17.045568466186523 -9999
-9999 12.362056732177734 13.111608505249023 14.521162986755371 15.553934097290039 16.274320602416992 16.792285919189453 17.144760131835938 17.35385513305664 17.45208740234375 17.49578094482422 17.508163452148438 17.493066787719727 17.500425338745117 17.517961502075195 17.53874397277832 17.505596160888672 17.411741256713867 17.394502639770508 -9999
-9999 13.365998268127441 14.083206176757812 15.365118980407715 16.262046813964844 16.797407150268555 17.124479293823242 17.331266403198242 17.443246841430664 17.498764038085938 17.521703720092773 17.541053771972656 17.56001091003418 17.58572006225586 17.60468864440918 17.62751007080078 17.636821746826172 17.566162109375 -9999 -9999
-9999 14.105246543884277 14.785932540893555 15.932323455810547 16.70192527770996 17.12224578857422 17.33234405517578 17.441364288330078 17.489938735961914 17.506860733032227 17.5009822845459 17.51875114440918 17.554018020629883 17.603002548217773 17.630380630493164 17.664901733398438 17.698741912841797 17.743518829345703 -9999 -9999
-9999 14.601816177368164 15.305948257446289 16.274059295654297 16.942256927490234 17.307228088378906 17.450136184692383 17.50981330871582 17.521442413330078 17.509857177734375 17.507110595703125 17.522897720336914 17.556116104125977 17.6036434173584 17.640565872192383 17.67574691772461 17.706037521362305 17.725975036621094 17.685815811157227 17.698213577270508
-9999 -9999 15.8801908493042 16.529056549072266 17.088878631591797 17.399503707885742 17.519201278686523 17.555709838867188 17.54395294189453 17.534564971923828 17.528419494628906 17.5393009185791 17.563251495361328 17.602981567382812 17.635974884033203 17.661977767944336 17.689729690551758 17.70733642578125 17.707672119140625 17.68878173828125
-9999 -9999 16.3688907623291 16.763954162597656 17.199636459350586 17.467180252075195 17.573699951171875 17.60310935974121 17.58622932434082 17.57012176513672 17.556045532226562 17.563488006591797 17.584102630615234 17.615711212158203 17.637914657592773 17.65404510498047 17.673330307006836 17.683259963989258 17.664352416992188 17.65279197692871
-9999 -9999 -9999 16.923194885253906 17.257976531982422 17.492504119873047 17.595211029052734 17.622034072875977 17.59909439086914 17.58043670654297 17.56758689880371 17.566837310791016 17.58614158630371 17.615081787109375 17.63777732849121 17.644882202148438 17.66617202758789 17.653358459472656 17.63923454284668 17.63250160217285
