ncols         20
nrows         20
xllcorner     0
yllcorner     -3.5992928
cellsize      0.17996463
NODATA_value  -9999
-9999.0 -9999 -9999 -9999 -9999 -9999 -9999 -9999 -9999 -9999 -9999 -9999 -9999 -9999 -9999 -9999 -9999 -9999 -9999 -9999
-9999 -9999 -9999 -9999 -9999 -9999 -9999 -9999 -9999 -9999 -9999 13.344612121582031 13.347135543823242 -9999 -9999 13.116958618164062 13.185256958007812 -9999 -9999 -9999
-9999 -9999 -9999 -9999 13.175714492797852 13.157685279846191 13.115639686584473 13.129981994628906 13.172005653381348 13.198742866516113 13.306450843811035 13.278675079345703 13.209892272949219 13.154470443725586 13.140576362609863 13.123481750488281 13.163483619689941 13.213275909423828 -9999 -9999
-9999 -9999 -9999 13.114246368408203 13.116538047790527 13.14088249206543 13.172353744506836 13.21750545501709 13.239786148071289 13.245359420776367 13.226083755493164 13.178417205810547 13.113333702087402 13.084659576416016 13.051918029785156 13.038783073425293 13.051813125610352 13.072521209716797 -9999 -9999
-9999 -9999 -9999 13.089913368225098 13.136107444763184 13.212077140808105 13.365118026733398 13.46347713470459 13.516504287719727 13.532416343688965 13.524602890014648 13.495260238647461 13.431203842163086 13.353730201721191 13.241950988769531 13.128630638122559 12.972081184387207 12.823470115661621 -9999 -9999
-9999 -9999 13.051562309265137 13.085065841674805 13.22071647644043 13.4993257522583 13.93889045715332 14.14320182800293 14.25355339050293 14.360787391662598 14.465384483337402 14.515833854675293 14.459792137145996 14.299036026000977 14.056272506713867 13.72253131866455 13.139581680297852 12.814534187316895 12.777217864990234 -9999
-9999 -9999 13.029645919799805 13.163227081298828 13.440764427185059 13.938817977905273 14.306715965270996 14.558189392089844 14.788755416870117 15.041807174682617 15.263511657714844 15.37711238861084 15.340845108032227 15.138638496398926 14.771665573120117 14.273643493652344 13.528910636901855 13.03609848022461 12.827467918395996 -9999
-9999 -9999 12.900348663330078 13.222169876098633 13.75241756439209 14.168603897094727 14.521112442016602 14.872029304504395 15.242905616760254 15.595925331115723 15.862123489379883 15.996041297912598 15.98197078704834 15.80711841583252 15.458168029785156 14.950855255126953 14.30232048034668 13.596627235412598 13.213836669921875 -9999
-9999 12.32546329498291 12.619081497192383 13.345608711242676 13.849532127380371 14.289360046386719 14.760153770446777 15.252036094665527 15.710949897766113 16.07697296142578 16.318687438964844 16.43766975402832 16.438627243041992 16.31345558166504 16.042585372924805 15.60983657836914 15.08076286315918 14.493083953857422 13.985431671142578 -9999
-9999 12.016258239746094 12.35090446472168 13.246257781982422 13.89249324798584 14.51428508758545 15.151092529296875 15.740829467773438 16.201051712036133 16.508337020874023 16.686744689941406 16.771114349365234 16.773799896240234 16.695598602294922 16.51286506652832 16.197128295898438 15.789953231811523 15.310169219970703 14.894947052001953 -9999
-9999 11.681907653808594 12.092867851257324 13.199639320373535 14.0735445022583 14.872488021850586 15.618393898010254 16.228179931640625 16.63321304321289 16.865835189819336 16.98392105102539 17.030105590820312 17.022008895874023 16.976116180419922 16.876262664794922 16.682844161987305 16.40388298034668 16.034847259521484 15.790000915527344 -9999
-9999 11.527507781982422 12.083240509033203 13.392605781555176 14.43387508392334 15.31047534942627 16.058687210083008 16.613882064819336 16.951082229614258 17.131023406982422 17.208690643310547 17.224367141723633 17.18267250061035 17.1558780670166 17.129377365112305 17.021554946899414 16.877344131469727 16.667469024658203 16.546066284179688 -9999
-9999 11.830266952514648 12.536886215209961 13.936132431030273 14.997577667236328 15.815469741821289 16.451915740966797 16.901430130004883 17.171518325805664 17.309162139892578 17.372840881347656 17.380107879638672 17.341279983520508 17.325380325317383 17.31244659423828 17.29115867614746 17.204254150390625 17.088088989257812 17.04440689086914 -9999
-9999 12.693923950195312 13.41878890991211 14.739398956298828 15.697110176086426 16.352245330810547 16.811241149902344 17.12308120727539 17.31755828857422 17.41575813293457 17.46110725402832 17.474153518676758 17.461362838745117 17.467546463012695 17.479644775390625 17.48448944091797 17.433252334594727 17.331769943237305 17.345252990722656 -9999
-9999 13.667108535766602 14.334883689880371 15.504415512084961 16.31859016418457 16.804662704467773 17.102249145507812 17.295045852661133 17.4057674407959 17.46450424194336 17.490070343017578 17.512649536132812 17.53546142578125 17.563806533813477 17.586944580078125 17.602317810058594 17.59332847595215 17.492033004760742 -9999 -9999
-9999 14.374682426452637 14.99654769897461 16.02324104309082 16.714561462402344 17.09943389892578 17.297616958618164 17.40460968017578 17.45431900024414 17.473983764648438 17.472017288208008 17.494735717773438 17.535581588745117 17.588897705078125 17.62354850769043 17.659759521484375 17.690162658691406 17.7463321685791 -9999 -9999
-9999 14.835984230041504 15.482407569885254 16.340730667114258 16.936847686767578 17.276060104370117 17.41663932800293 17.479183197021484 17.49274253845215 17.48472785949707 17.48530387878418 17.50636863708496 17.545120239257812 17.594547271728516 17.63611602783203 17.674516677856445 17.705928802490234 17.726972579956055 17.67296600341797 17.681692123413086
-9999 -9999 16.014596939086914 16.578153610229492 17.07343864440918 17.366729736328125 17.49108123779297 17.533979415893555 17.526580810546875 17.520231246948242 17.516748428344727 17.531360626220703 17.558942794799805 17.603124618530273 17.638635635375977 17.66458511352539 17.692062377929688 17.706951141357422 17.70001983642578 17.67410659790039
-9999 -9999 16.442453384399414 16.7894287109375 17.177505493164062 17.436532974243164 17.55463981628418 17.59441566467285 17.58431625366211 17.570011138916016 17.55390739440918 17.56296157836914 17.58656883239746 17.621809005737305 17.644256591796875 17.65835189819336 17.675384521484375 17.68103790283203 17.6541748046875 17.638134002685547
-9999 -9999 -9999 16.935474395751953 17.23351287841797 17.462888717651367 17.580114364624023 17.61876678466797 17.60270118713379 17.5839786529541 17.56867218017578 17.56710433959961 17.58930015563965 17.621702194213867 17.64507293701172 17.648876190185547 17.66824722290039 17.648483276367188 17.62833023071289 17.618555068969727
