ncols         20
nrows         20
xllcorner     0
yllcorner     -3.5992928
cellsize      0.17996463
NODATA_value  -9999
-9999.0 -9999 -9999 -9999 -9999 -9999 -9999 -9999 -9999 -9999 -9999 -9999 -9999 -9999 -9999 -9999 -9999 -9999 -9999 -9999
-9999 -9999 -9999 -9999 -9999 -9999 -9999 -9999 -9999 -9999 -9999 0.11227992177009583 0.11240396648645401 -9999 -9999 0.1145128607749939 0.11467817425727844 -9999 -9999 -9999
-9999 -9999 -9999 -9999 0.11140879988670349 0.11137760430574417 0.1113920658826828 0.11147525906562805 0.11163568496704102 0.11186478286981583 0.11213717609643936 0.10393909364938736 0.1043102964758873 0.11355031281709671 0.11415086686611176 0.10604101419448853 0.10652878880500793 0.11583025753498077 -9999 -9999
-9999 -9999 -9999 0.11176587641239166 0.10318003594875336 0.08775024861097336 0.08775214105844498 0.08783132582902908 0.08798752725124359 0.0882093757390976 0.08848270028829575 0.08207092434167862 0.08244398236274719 0.08973666280508041 0.09026870876550674 0.0839867815375328 0.09151371568441391 0.11680683493614197 -9999 -9999
-9999 -9999 -9999 0.11205986142158508 0.08808793127536774 0.06403391063213348 0.05901869758963585 0.05909452214837074 0.059243228286504745 0.05945210158824921 0.059705257415771484 0.055507294833660126 0.0558263435959816 0.06076609343290329 0.06123984232544899 0.06184704229235649 0.09295336157083511 0.11866672337055206 -9999 -9999
-9999 -9999 0.11292136460542679 0.10411301255226135 0.08178265392780304 0.0548698827624321 0.033912479877471924 0.03397078067064285 0.03409421443939209 0.03426666557788849 0.03447328507900238 0.0320107638835907 0.03226552531123161 0.03532906249165535 0.03574410825967789 0.0585084930062294 0.08783544600009918 0.11254211515188217 0.12335506081581116 -9999
-9999 -9999 0.11340274661779404 0.08913956582546234 0.06481091678142548 0.04353675991296768 0.02478526160120964 0.01670350693166256 0.01678655855357647 0.01690448634326458 0.01704755611717701 0.015887491405010223 0.016078472137451172 0.017692076042294502 0.02675030007958412 0.04755055904388428 0.07126855105161667 0.09846688061952591 0.12571126222610474 -9999
-9999 -9999 0.11420881003141403 0.08982162922620773 0.06025607883930206 0.03449687361717224 0.016863372176885605 0.008241632021963596 0.007083832286298275 0.007152236066758633 0.007237724959850311 0.006781419739127159 0.006915218196809292 0.00900354329496622 0.018813570961356163 0.03882879391312599 0.06807514280080795 0.10164234787225723 0.12931974232196808 -9999
-9999 0.1159709095954895 0.10672631859779358 0.08385041356086731 0.056354179978370667 0.032207753509283066 0.01578334905207157 0.006612591445446014 0.0025751423090696335 0.0026142974384129047 0.002661551348865032 0.0025037385057657957 0.0028085217345505953 0.008109478279948235 0.019672932103276253 0.04042816907167435 0.07066293060779572 0.10525858402252197 0.13372190296649933 -9999
-9999 0.11699936538934708 0.09199821203947067 0.06696973741054535 0.0450882688164711 0.02590109594166279 0.012681985273957253 0.005319277290254831 0.0019416476134210825 0.0012795357033610344 0.0013144640251994133 0.001348881982266903 0.002971021458506584 0.0085009029135108 0.020520972087979317 0.04205872491002083 0.07337944209575653 0.10915780812501907 0.13856372237205505 -9999
-9999 0.11869018524885178 0.09349371492862701 0.06287840753793716 0.03612472116947174 0.01773049682378769 0.008699164725840092 0.0036762082017958164 0.0013484724331647158 0.0013385401107370853 0.001380380941554904 0.0014191126683726907 0.0031190107110887766 0.008877160027623177 0.021358340978622437 0.0436936616897583 0.07613401114940643 0.11313328146934509 0.14350253343582153 -9999
-9999 0.12094322592020035 0.09536506235599518 0.06424695998430252 0.03698713332414627 0.018192339688539505 0.007649339269846678 0.002766144461929798 0.0013422425836324692 0.0013925116509199142 0.0014399035135284066 0.0015661749057471752 0.004538087639957666 0.010917183943092823 0.022189628332853317 0.04532138630747795 0.0788584053516388 0.11700321733951569 0.1482013612985611 -9999
-9999 0.12365657836198807 0.0975743979215622 0.06581622362136841 0.03794119879603386 0.01881164312362671 0.007933870889246464 0.00287935184314847 0.001385945943184197 0.0014394625322893262 0.0014917956432327628 0.002425598446279764 0.007001877296715975 0.016799936071038246 0.034462351351976395 0.05987207591533661 0.08846831321716309 0.12066778540611267 0.15228140354156494 -9999
-9999 0.12665008008480072 0.10000260919332504 0.06779308617115021 0.03916947916150093 0.01933216117322445 0.008159205317497253 0.002960365731269121 0.0014232347020879388 0.0014778829645365477 0.0015319677768275142 0.003161540487781167 0.009103936143219471 0.021961897611618042 0.044936440885066986 0.07814821600914001 0.11578920483589172 0.14594952762126923 0.1551567167043686 -9999
-9999 0.12965039908885956 0.10247833281755447 0.0695529505610466 0.040224771946668625 0.019870523363351822 0.009824072942137718 0.004179950803518295 0.0015321692917495966 0.001507516484707594 0.0015618550824001431 0.003501488361507654 0.010033603757619858 0.024228859692811966 0.04967435821890831 0.0866692066192627 0.12846116721630096 0.16292864084243774 -9999 -9999
-9999 0.132319375872612 0.10513707995414734 0.0770590528845787 0.05238448455929756 0.030356014147400856 0.015066293999552727 0.0063602514564991 0.002517774933949113 0.001527763088233769 0.0015830567572265863 0.0035465555265545845 0.010167727246880531 0.024576876312494278 0.05045951157808304 0.08820966631174088 0.13143594563007355 0.16677020490169525 -9999 -9999
-9999 0.1342073678970337 0.12583021819591522 0.10004520416259766 0.06787140667438507 0.03931685537099838 0.021058082580566406 0.010401362553238869 0.00442263251170516 0.0016223291167989373 0.0015964286867529154 0.00328881130553782 0.009483740665018559 0.022946687415242195 0.04715237021446228 0.08248787373304367 0.12325113266706467 0.1576215922832489 0.17288830876350403 0.17384228110313416
-9999 -9999 0.13901835680007935 0.11041639745235443 0.08082997053861618 0.054830800741910934 0.03169580549001694 0.015707656741142273 0.006629323121160269 0.002438310533761978 0.0016026177909225225 0.002601688727736473 0.0075267404317855835 0.01828143000602722 0.037488143891096115 0.06573948264122009 0.09821899980306625 0.1253848373889923 0.1365790069103241 0.1370651125907898
-9999 -9999 0.14072708785533905 0.1309697926044464 0.10376541316509247 0.07020018249750137 0.04057290405035019 0.020014723762869835 0.008451404981315136 0.0030949481297284365 0.0016044945223256946 0.0017501410329714417 0.005078555084764957 0.012309007346630096 0.025412358343601227 0.04434400796890259 0.06651710718870163 0.08475399762392044 0.09196724742650986 0.09216847270727158
-9999 -9999 -9999 0.14307738840579987 0.11319606751203537 0.07649726420640945 0.04413245618343353 0.021746501326560974 0.009173408150672913 0.003366973949596286 0.0016051501734182239 0.0016603731783106923 0.002917105332016945 0.00704686064273119 0.014586316421627998 0.02545095980167389 0.038218509405851364 0.04846855252981186 0.052702147513628006 0.05278043821454048
