ncols         20
nrows         20
xllcorner     0
yllcorner     -3.5992928
cellsize      0.17996463
NODATA_value  -9999
-9999.0 -9999 -9999 -9999 -9999 -9999 -9999 -9999 -9999 -9999 -9999 -9999 -9999 -9999 -9999 -9999 -9999 -9999 -9999 -9999
-9999 -9999 -9999 -9999 -9999 -9999 -9999 -9999 -9999 -9999 -9999 26.523462295532227 26.522727966308594 -9999 -9999 26.618806838989258 26.698537826538086 -9999 -9999 -9999
-9999 -9999 -9999 -9999 26.586299896240234 26.47500991821289 26.314720153808594 26.19905662536621 26.14111328125 26.13261604309082 26.213565826416016 26.304645538330078 26.269813537597656 26.162952423095703 26.21953010559082 26.412433624267578 26.543912887573242 26.5811824798584 -9999 -9999
-9999 -9999 -9999 26.59487533569336 26.535673141479492 26.435073852539062 26.319868087768555 26.250173568725586 26.212480545043945 26.19599723815918 26.190343856811523 26.16918182373047 26.0889949798584 26.01204490661621 26.022573471069336 26.134279251098633 26.25046157836914 26.300186157226562 -9999 -9999
-9999 -9999 -9999 26.51660919189453 26.462358474731445 26.399744033813477 26.398117065429688 26.474058151245117 26.562227249145508 26.621551513671875 26.628999710083008 26.545915603637695 26.353069305419922 26.132797241210938 25.977081298828125 25.931804656982422 25.932741165161133 25.905670166015625 -9999 -9999
-9999 -9999 26.462162017822266 26.415794372558594 26.375568389892578 26.452348709106445 26.745325088500977 27.210220336914062 27.625099182128906 27.940292358398438 28.096904754638672 27.961544036865234 27.520645141601562 26.94727325439453 26.44162940979004 26.07843589782715 25.863679885864258 25.73039436340332 25.659488677978516 -9999
-9999 -9999 26.285112380981445 26.255298614501953 26.30023765563965 26.652320861816406 27.501773834228516 28.818695068359375 29.857818603515625 30.476322174072266 30.669635772705078 30.3433780670166 29.484439849853516 28.485061645507812 27.531835556030273 26.738306045532227 26.22286605834961 25.92049217224121 25.78046989440918 -9999
-9999 -9999 25.947547912597656 25.96883773803711 26.203990936279297 26.996517181396484 28.692787170410156 31.403566360473633 32.94139862060547 33.62771987915039 33.694000244140625 33.07770919799805 31.615201950073242 30.210208892822266 28.965957641601562 27.89788246154785 27.06419563293457 26.516788482666016 26.2611083984375 -9999
-9999 25.47566795349121 25.55211067199707 25.673891067504883 26.163663864135742 27.402259826660156 29.766145706176758 32.989295959472656 34.776729583740234 35.51408004760742 35.52740478515625 34.79957962036133 33.18949508666992 31.648258209228516 30.319955825805664 29.18524742126465 28.251079559326172 27.578218460083008 27.227636337280273 -9999
-9999 25.223033905029297 25.280773162841797 25.54072380065918 26.3365421295166 27.97268295288086 30.689491271972656 33.93459701538086 35.743019104003906 36.48526382446289 36.4911003112793 35.768333435058594 34.19438171386719 32.674774169921875 31.38583755493164 30.31431007385254 29.439895629882812 28.79424285888672 28.44369125366211 -9999
-9999 25.00628662109375 25.171327590942383 25.673261642456055 26.783050537109375 28.69964027404785 31.44420623779297 34.46043395996094 36.15324020385742 36.864479064941406 36.890769958496094 36.23359680175781 34.756011962890625 33.3343391418457 32.14043045043945 31.168550491333008 30.398914337158203 29.843833923339844 29.540048599243164 -9999
-9999 25.08176612854004 25.39360237121582 26.138134002685547 27.45330810546875 29.414928436279297 31.886438369750977 34.47991180419922 35.97958755493164 36.65988540649414 36.74564743041992 36.22891616821289 34.96923828125 33.759002685546875 32.7208137512207 31.84610366821289 31.13870620727539 30.63095474243164 30.347827911376953 -9999
-9999 25.59332275390625 26.029184341430664 26.937946319580078 28.299610137939453 30.009410858154297 31.934431076049805 33.799076080322266 35.07209777832031 35.75885772705078 35.956485748291016 35.67516326904297 34.95382308959961 34.14251708984375 33.35187530517578 32.60074996948242 31.903684616088867 31.352577209472656 30.98630142211914 -9999
-9999 26.49764060974121 27.009552001953125 27.948566436767578 29.14232635498047 30.49800682067871 31.933059692382812 33.29975509643555 34.36664962768555 35.031829833984375 35.33500289916992 35.313507080078125 35.0302619934082 34.62111282348633 34.14164352416992 33.580196380615234 32.95493698120117 32.313262939453125 31.56606674194336 -9999
-9999 27.572940826416016 28.06324005126953 28.885940551757812 29.8539981842041 30.914295196533203 32.03683090209961 33.1252326965332 34.012779235839844 34.64927673339844 35.04114532470703 35.2319450378418 35.26506042480469 35.18772506713867 35.01778030395508 34.72556686401367 34.336021423339844 33.93516540527344 -9999 -9999
-9999 28.428388595581055 28.896038055419922 29.593469619750977 30.408138275146484 31.319995880126953 32.29703140258789 33.217185974121094 33.992679595947266 34.59536361694336 35.03474807739258 35.358280181884766 35.59325408935547 35.74700927734375 35.811012268066406 35.77713394165039 35.68307113647461 35.66114807128906 -9999 -9999
-9999 28.931869506835938 29.50444984436035 30.112783432006836 30.857311248779297 31.75495147705078 32.662166595458984 33.52045440673828 34.240821838378906 34.814491271972656 35.26644515991211 35.64985656738281 35.98358917236328 36.257083892822266 36.45506286621094 36.57244110107422 36.6496696472168 36.79692459106445 37.213314056396484 37.386356353759766
-9999 -9999 30.12827491760254 30.549978256225586 31.231426239013672 32.13582992553711 33.07505416870117 33.9340934753418 34.638057708740234 35.18613815307617 35.62115478515625 36.011661529541016 36.3755989074707 36.70708465576172 36.960140228271484 37.12777328491211 37.251441955566406 37.36407470703125 37.50154113769531 37.547996520996094
-9999 -9999 30.440387725830078 30.866413116455078 31.523252487182617 32.45634460449219 33.45573043823242 34.34920120239258 35.05017852783203 35.56835174560547 35.96484375 36.338191986083984 36.705936431884766 37.05077362060547 37.31438446044922 37.48991012573242 37.60899353027344 37.67254638671875 37.68663787841797 37.68741226196289
-9999 -9999 -9999 31.157573699951172 31.725284576416016 32.64091491699219 33.67105484008789 34.5845832824707 35.28057098388672 35.77726745605469 36.156036376953125 36.50730895996094 36.873023986816406 37.221614837646484 37.494529724121094 37.66758346557617 37.788692474365234 37.80837631225586 37.79400634765625 37.782867431640625
