ncols         20
nrows         20
xllcorner     0
yllcorner     -3.5992928
cellsize      0.17996463
NODATA_value  -9999
-9999.0 -9999 -9999 -9999 -9999 -9999 -9999 -9999 -9999 -9999 -9999 -9999 -9999 -9999 -9999 -9999 -9999 -9999 -9999 -9999
-9999 -9999 -9999 -9999 -9999 -9999 -9999 -9999 -9999 -9999 -9999 11.819178581237793 11.792089462280273 -9999 -9999 11.802095413208008 11.647843360900879 -9999 -9999 -9999
-9999 -9999 -9999 -9999 11.741450309753418 11.8892822265625 12.125923156738281 12.247276306152344 12.278855323791504 12.295207977294922 12.111294746398926 12.075926780700684 12.149450302124023 12.217704772949219 12.141526222229004 11.977263450622559 11.809738159179688 11.709622383117676 -9999 -9999
-9999 -9999 -9999 11.795123100280762 11.905806541442871 12.038490295410156 12.201010704040527 12.269583702087402 12.301499366760254 12.296854972839355 12.310312271118164 12.344059944152832 12.428393363952637 12.477913856506348 12.489500999450684 12.373712539672852 12.193941116333008 12.079422950744629 -9999 -9999
-9999 -9999 -9999 11.953588485717773 12.064592361450195 12.263838768005371 12.331806182861328 12.239359855651855 12.076168060302734 11.882261276245117 11.695226669311523 11.641879081726074 11.812997817993164 12.151544570922852 12.491007804870605 12.645788192749023 12.619586944580078 12.70263385772705 -9999 -9999
-9999 -9999 11.995285034179688 12.157191276550293 12.333145141601562 12.414779663085938 12.160111427307129 11.586366653442383 10.987683296203613 10.324798583984375 9.656837463378906 9.383597373962402 9.675884246826172 10.513416290283203 11.497806549072266 12.234880447387695 12.625381469726562 12.828001022338867 12.76506233215332 -9999
-9999 -9999 12.232949256896973 12.402538299560547 12.632413864135742 12.446197509765625 11.507979393005371 9.872699737548828 8.658172607421875 7.595580577850342 6.711489200592041 6.384053707122803 6.870918273925781 7.987834453582764 9.463107109069824 10.894112586975098 11.87071418762207 12.389748573303223 12.58376693725586 -9999
-9999 -9999 12.756595611572266 12.96893310546875 13.039709091186523 12.308032035827637 10.268837928771973 6.226433277130127 4.83198881149292 4.033016204833984 3.5437371730804443 3.4909298419952393 4.529950141906738 5.637764930725098 7.109773635864258 8.777515411376953 10.204812049865723 11.184170722961426 11.62142276763916 -9999
-9999 13.18802261352539 13.419219017028809 13.596874237060547 13.340096473693848 11.998273849487305 9.227924346923828 4.918918609619141 3.374688148498535 2.650603771209717 2.322870969772339 2.3522093296051025 3.0654239654541016 3.839362621307373 4.911582946777344 6.345436096191406 7.888463497161865 9.107868194580078 9.707855224609375 -9999
-9999 13.72636604309082 13.923199653625488 13.95528793334961 13.125259399414062 11.07715892791748 7.885059356689453 3.9318766593933105 2.469949722290039 1.8435871601104736 1.6137864589691162 1.640141248703003 2.0677223205566406 2.495145559310913 3.152836799621582 4.12551736831665 5.395236968994141 6.536691665649414 7.130532741546631 -9999
-9999 14.252495765686035 14.213793754577637 13.698262214660645 12.187202453613281 9.639044761657715 6.369471549987793 3.0006937980651855 1.7464540004730225 1.2296034097671509 1.039327621459961 1.0358035564422607 1.2411614656448364 1.4516606330871582 1.7891364097595215 2.3654754161834717 3.161848306655884 4.01343297958374 4.475471496582031 -9999
-9999 14.16779899597168 13.765057563781738 12.571764945983887 10.520090103149414 7.8417253494262695 4.888950347900391 2.249955892562866 1.2219772338867188 0.7827326059341431 0.6117666959762573 0.5643673539161682 0.6302112340927124 0.696753203868866 0.8257336020469666 1.0975724458694458 1.5415284633636475 2.047006130218506 2.3281545639038086 -9999
-9999 12.966957092285156 12.167890548706055 10.366569519042969 8.146349906921387 5.759988784790039 3.5087413787841797 1.7830369472503662 0.9087973833084106 0.5357723236083984 0.3595312535762787 0.28907567262649536 0.2649342119693756 0.26372140645980835 0.298699289560318 0.3872518539428711 0.5968262553215027 0.8579165935516357 1.031626582145691 -9999
-9999 10.686497688293457 9.622247695922852 7.529861927032471 5.4331135749816895 3.622866153717041 2.160141706466675 1.134509801864624 0.5653523802757263 0.3220972716808319 0.20733734965324402 0.15042971074581146 0.11973091214895248 0.10532190650701523 0.10380219668149948 0.12277425080537796 0.17459417879581451 0.2878513038158417 0.39439672231674194 -9999
-9999 8.248339653015137 7.1320085525512695 5.049113750457764 3.24655818939209 2.0028979778289795 1.1617519855499268 0.609795093536377 0.33112144470214844 0.19458816945552826 0.12590928375720978 0.08646000921726227 0.06347163021564484 0.0508175827562809 0.043981797993183136 0.04470713809132576 0.05270697921514511 0.08026398718357086 -9999 -9999
-9999 6.523923873901367 5.405313491821289 3.483180284500122 2.0038211345672607 1.1019718647003174 0.5960217118263245 0.32894381880760193 0.19492045044898987 0.12206564098596573 0.08184946328401566 0.056293487548828125 0.04302529618144035 0.04466361179947853 0.04703064262866974 0.04969475045800209 0.05234815925359726 0.05471079796552658 -9999 -9999
-9999 5.406637668609619 4.211362361907959 2.5888140201568604 1.3600414991378784 0.6301823854446411 0.3292499780654907 0.18368712067604065 0.11349128186702728 0.07476475834846497 0.05224590003490448 0.04571225866675377 0.04759911820292473 0.050510846078395844 0.05415879562497139 0.0582943931221962 0.06297369301319122 0.06902420520782471 0.0795966163277626 0.08451366424560547
-9999 -9999 3.0683891773223877 1.9814810752868652 0.9903636574745178 0.4240518808364868 0.20296946167945862 0.1103447750210762 0.06847155839204788 0.047358714044094086 0.047614216804504395 0.049311839044094086 0.052291661500930786 0.05632244795560837 0.06102672964334488 0.06611231714487076 0.07151496410369873 0.07725632935762405 0.08321615308523178 0.0863310918211937
-9999 -9999 2.113162040710449 1.4675447940826416 0.7436617016792297 0.30162209272384644 0.13495834171772003 0.07004573941230774 0.04896533116698265 0.04878397658467293 0.04992660880088806 0.05242261290550232 0.05618973821401596 0.0609879195690155 0.06634734570980072 0.0718768835067749 0.07731630653142929 0.08221136033535004 0.08601772040128708 0.08804601430892944
-9999 -9999 -9999 1.163550615310669 0.6085392236709595 0.25343406200408936 0.11005526036024094 0.0560111366212368 0.04936695843935013 0.04971718043088913 0.051303885877132416 0.05418096482753754 0.05834704637527466 0.06353217363357544 0.06922119855880737 0.07488914579153061 0.08024810254573822 0.08450459688901901 0.08750680834054947 0.08906793594360352
