ncols         20
nrows         20
xllcorner     0
yllcorner     -3.5992928
cellsize      0.17996463
NODATA_value  -9999
-9999.0 -9999 -9999 -9999 -9999 -9999 -9999 -9999 -9999 -9999 -9999 -9999 -9999 -9999 -9999 -9999 -9999 -9999 -9999 -9999
-9999 -9999 -9999 -9999 -9999 -9999 -9999 -9999 -9999 -9999 -9999 2.3531742095947266 2.3479676246643066 -9999 -9999 2.4284229278564453 2.4030423164367676 -9999 -9999 -9999
-9999 -9999 -9999 -9999 2.4798619747161865 2.4899091720581055 2.502634048461914 2.484280824661255 2.4494268894195557 2.421135425567627 2.3715434074401855 2.372331380844116 2.3865256309509277 2.396120071411133 2.4064598083496094 2.420635938644409 2.4045231342315674 2.378256320953369 -9999 -9999
-9999 -9999 -9999 2.516580104827881 2.5265231132507324 2.532186269760132 2.5278778076171875 2.495678424835205 2.4545154571533203 2.410706043243408 2.3816580772399902 2.3729496002197266 2.3824234008789062 2.3983829021453857 2.4288952350616455 2.4447343349456787 2.4294650554656982 2.406569480895996 -9999 -9999
-9999 -9999 -9999 2.551187038421631 2.566667318344116 2.586561679840088 2.5616555213928223 2.4928784370422363 2.4046711921691895 2.3070154190063477 2.214231491088867 2.1621673107147217 2.1743521690368652 2.244647264480591 2.339942455291748 2.408773422241211 2.425773859024048 2.4418277740478516 -9999 -9999
-9999 -9999 2.560009002685547 2.591127395629883 2.618997812271118 2.613297462463379 2.5238089561462402 2.3563952445983887 2.1844515800476074 2.0005016326904297 1.8128889799118042 1.705822467803955 1.7216448783874512 1.8578799962997437 2.054572820663452 2.2224364280700684 2.317915678024292 2.349353075027466 2.294328451156616 -9999
-9999 -9999 2.5876083374023438 2.622256278991699 2.659421682357788 2.5971438884735107 2.365825891494751 1.9625859260559082 1.6933262348175049 1.4455734491348267 1.2253687381744385 1.1206061840057373 1.1891454458236694 1.375582218170166 1.6352272033691406 1.8885606527328491 2.0801212787628174 2.1743922233581543 2.1950876712799072 -9999
-9999 -9999 2.646188974380493 2.6879892349243164 2.6888656616210938 2.514869213104248 2.0394515991210938 0.9029519557952881 0.6628813743591309 0.555869460105896 0.4915442168712616 0.49684199690818787 0.7436022758483887 0.9418617486953735 1.1938674449920654 1.481575608253479 1.7244871854782104 1.8805426359176636 1.9483739137649536 -9999
-9999 2.62752103805542 2.697190284729004 2.7280192375183105 2.6567299365997314 2.3740315437316895 1.7990920543670654 0.6759369969367981 0.4156806468963623 0.327743262052536 0.2980608344078064 0.32332372665405273 0.48997318744659424 0.6226774454116821 0.793677031993866 1.0303057432174683 1.290840744972229 1.492483377456665 1.5855976343154907 -9999
-9999 2.653330087661743 2.690075635910034 2.6735830307006836 2.484987735748291 2.0864174365997314 1.4853447675704956 0.5478904247283936 0.31236711144447327 0.23567619919776917 0.21638703346252441 0.23508968949317932 0.32906728982925415 0.3941916823387146 0.4868931472301483 0.6333739757537842 0.8366613388061523 1.0227502584457397 1.1170843839645386 -9999
-9999 2.6130523681640625 2.5929388999938965 2.466085910797119 2.1620888710021973 1.723930835723877 1.145376443862915 0.43057483434677124 0.23938623070716858 0.17467789351940155 0.1553792655467987 0.16129368543624878 0.1999274492263794 0.22477270662784576 0.2638565003871918 0.3399973213672638 0.4543735682964325 0.5815363526344299 0.650227963924408 -9999
-9999 2.4199941158294678 2.3336267471313477 2.093846082687378 1.7303297519683838 1.3189377784729004 0.830130398273468 0.3341416120529175 0.18393439054489136 0.12551884353160858 0.10318196564912796 0.09655161947011948 0.10381054133176804 0.10667688399553299 0.11712532490491867 0.14799493551254272 0.20452933013439178 0.2707880139350891 0.30712786316871643 -9999
-9999 2.035461187362671 1.8919376134872437 1.5863178968429565 1.2510452270507812 0.9002472162246704 0.5578458905220032 0.28092142939567566 0.14730802178382874 0.09154728800058365 0.06263788789510727 0.049906641244888306 0.04296278953552246 0.03882453963160515 0.0396713949739933 0.04792984947562218 0.07454019039869308 0.10507757216691971 0.12402704358100891 -9999
-9999 1.5496747493743896 1.3900072574615479 1.0724198818206787 0.7685496807098389 0.5175370573997498 0.3158426284790039 0.17000210285186768 0.08669722080230713 0.0529649592936039 0.036340244114398956 0.027191177010536194 0.02123222127556801 0.017573192715644836 0.015843141824007034 0.016927998512983322 0.021996967494487762 0.03319140523672104 0.04142046347260475 -9999
-9999 1.1394697427749634 0.9739760160446167 0.669396162033081 0.4212968051433563 0.2611272633075714 0.15528710186481476 0.0827326849102974 0.048203762620687485 0.03172580152750015 0.023118723183870316 0.017545629292726517 0.013796871528029442 0.011524318717420101 0.010061176493763924 0.00986858457326889 0.010746349580585957 0.014731219969689846 -9999 -9999
-9999 0.867350697517395 0.7050510048866272 0.43626028299331665 0.24338270723819733 0.13306444883346558 0.07176343351602554 0.042244020849466324 0.028398819267749786 0.021008213981986046 0.016770461574196815 0.013585316017270088 0.011822834610939026 0.013150302693247795 0.014253217726945877 0.015042738988995552 0.015550401993095875 0.016056479886174202 -9999 -9999
-9999 0.6986361742019653 0.5290897488594055 0.3121316730976105 0.15849488973617554 0.07020049542188644 0.03799288347363472 0.02396150305867195 0.017863765358924866 0.014662454836070538 0.01276249997317791 0.013238653540611267 0.01540753711014986 0.017441287636756897 0.019268469884991646 0.020843008533120155 0.022319937124848366 0.024306800216436386 0.02855517715215683 0.030308395624160767
-9999 -9999 0.3696592152118683 0.23252707719802856 0.1132330372929573 0.04642578214406967 0.023908039554953575 0.01563263311982155 0.012457769364118576 0.011193960905075073 0.013646899722516537 0.016223831102252007 0.018835870549082756 0.021389147266745567 0.023681577295064926 0.02561490796506405 0.027314171195030212 0.02892148122191429 0.030636288225650787 0.031328268349170685
-9999 -9999 0.24645909667015076 0.16828098893165588 0.08366389572620392 0.033223461359739304 0.016740523278713226 0.011174928396940231 0.010451887734234333 0.013110125437378883 0.015851430594921112 0.018688738346099854 0.02158612385392189 0.024419793859124184 0.026892654597759247 0.02885875292122364 0.030384594574570656 0.03139912709593773 0.03189602494239807 0.03206144645810127
-9999 -9999 -9999 0.13078591227531433 0.06548447906970978 0.027879880741238594 0.014166898094117641 0.009715620428323746 0.01137755811214447 0.014217465184628963 0.017103161662817 0.020038986578583717 0.02305450290441513 0.025997105985879898 0.028536269441246986 0.03042818233370781 0.031814176589250565 0.0323515348136425 0.03244874253869057 0.032424282282590866
