ncols         20
nrows         20
xllcorner     0
yllcorner     -3.5992928
cellsize      0.17996463
NODATA_value  -9999
-9999.0 -9999 -9999 -9999 -9999 -9999 -9999 -9999 -9999 -9999 -9999 -9999 -9999 -9999 -9999 -9999 -9999 -9999 -9999 -9999
-9999 -9999 -9999 -9999 -9999 -9999 -9999 -9999 -9999 -9999 -9999 0.018656721338629723 0.01866123080253601 -9999 -9999 0.018822181969881058 0.018830666318535805 -9999 -9999 -9999
-9999 -9999 -9999 -9999 0.01882060058414936 0.018775515258312225 0.018709614872932434 0.018630849197506905 0.018555328249931335 0.018500640988349915 0.018482685089111328 0.03923090547323227 0.039257802069187164 0.018536755815148354 0.01858524978160858 0.03956209495663643 0.0396149642765522 0.018698466941714287 -9999 -9999
-9999 -9999 -9999 0.018757414072752 0.03967291861772537 0.08245997875928879 0.08213885873556137 0.08172636479139328 0.08132240176200867 0.08101874589920044 0.08088502287864685 0.097475565969944 0.09758760035037994 0.08115836977958679 0.08137524127960205 0.09832696616649628 0.08183327317237854 0.01855919323861599 -9999 -9999
-9999 -9999 -9999 0.01864880509674549 0.08215682208538055 0.11855575442314148 0.11797130107879639 0.11722317337989807 0.11649664491415024 0.11595059186220169 0.11569654941558838 0.11576829105615616 0.1159667894244194 0.11621925234794617 0.11657595634460449 0.11694268137216568 0.08095668256282806 0.01832512766122818 -9999 -9999
-9999 -9999 0.018468765541911125 0.039118360728025436 0.09807217121124268 0.11743021011352539 0.11662644147872925 0.11561662703752518 0.11466009169816971 0.11395906656980515 0.11363174766302109 0.11368069052696228 0.11398626118898392 0.11441496014595032 0.11486636102199554 0.1152103990316391 0.09589473903179169 0.03806230053305626 0.017884137108922005 -9999
-9999 -9999 0.018335040658712387 0.0807344987988472 0.11654484272003174 0.11585592478513718 0.1146756038069725 0.11321640014648438 0.11190741509199142 0.11099060624837875 0.11060108244419098 0.11072205752134323 0.11121353507041931 0.11186213791370392 0.11248703300952911 0.11294320225715637 0.11306405812501907 0.07798044383525848 0.017672544345259666 -9999
-9999 -9999 0.018131501972675323 0.07986167818307877 0.11500734835863113 0.11395201832056046 0.11229391396045685 0.11025608330965042 0.10869035869836807 0.10765506327152252 0.10718666017055511 0.10727863013744354 0.10788430273532867 0.10878065228462219 0.1096225306391716 0.11028479039669037 0.11068014800548553 0.07659026235342026 0.017364423722028732 -9999
-9999 0.017852727323770523 0.037830378860235214 0.09480642527341843 0.1132555603981018 0.11187874525785446 0.1098228245973587 0.10749255865812302 0.10572165995836258 0.10454883426427841 0.10397990047931671 0.10400339215993881 0.10458019375801086 0.10548486560583115 0.10646575689315796 0.10730109363794327 0.10788185894489288 0.07479573041200638 0.016976267099380493 -9999
-9999 0.01771293766796589 0.07790941745042801 0.11236273497343063 0.11144690215587616 0.1097651869058609 0.10740124434232712 0.10494320839643478 0.10304031521081924 0.1017455905675888 0.10106286406517029 0.10097633302211761 0.10144217312335968 0.10224784910678864 0.10322529077529907 0.10415144264698029 0.10485666245222092 0.07279852777719498 0.0165423396974802 -9999
-9999 0.01752214878797531 0.07702315598726273 0.11078356206417084 0.10959893465042114 0.10768362879753113 0.10512498766183853 0.10263781249523163 0.10066142678260803 0.09926619380712509 0.09846322983503342 0.09823793172836304 0.09854940325021744 0.09920994192361832 0.1000739261507988 0.10101205110549927 0.10179651528596878 0.07076632231473923 0.01609981432557106 -9999
-9999 0.017291273921728134 0.07593831419944763 0.1090589091181755 0.10772743821144104 0.10569455474615097 0.10310306400060654 0.1006261333823204 0.09861095249652863 0.09712923318147659 0.09620000422000885 0.09581203758716583 0.09593045711517334 0.09640117734670639 0.09711305052042007 0.0979890376329422 0.09885526448488235 0.06886199116706848 0.015686582773923874 -9999
-9999 0.017038678750395775 0.07476864010095596 0.10728073865175247 0.10588560253381729 0.1038372665643692 0.10132449120283127 0.09892600774765015 0.09689610451459885 0.09533469378948212 0.09427329897880554 0.09370262920856476 0.09358039498329163 0.09380953013896942 0.09431272000074387 0.0950571596622467 0.09608624875545502 0.06726028025150299 0.015334589406847954 -9999
-9999 0.016784116625785828 0.07360319793224335 0.10553806275129318 0.10412587225437164 0.10212603211402893 0.09974653273820877 0.09742310643196106 0.09539845585823059 0.09377644211053848 0.09259200096130371 0.09183419495820999 0.09146526455879211 0.09142005443572998 0.09163887053728104 0.092083640396595 0.07695116102695465 0.03129563853144646 0.015064525417983532 -9999
-9999 0.016548240557312965 0.07252543419599533 0.10388917475938797 0.10246871411800385 0.1005558967590332 0.09831292182207108 0.09606533497571945 0.09406942129135132 0.09240628033876419 0.09111342579126358 0.09018076956272125 0.08957637846469879 0.08925031870603561 0.08914851397275925 0.08921732753515244 0.06178273260593414 0.01405029185116291 -9999 -9999
-9999 0.016352936625480652 0.07123804092407227 0.10239510238170624 0.10090785473585129 0.09909479320049286 0.09699465334415436 0.09484030306339264 0.09288832545280457 0.0912054106593132 0.08982732892036438 0.08874522149562836 0.08793217688798904 0.08734658360481262 0.08694003522396088 0.08666574954986572 0.059358514845371246 0.013443712145090103 -9999 -9999
-9999 0.016214048489928246 0.033896930515766144 0.08349188417196274 0.09934983402490616 0.0977063849568367 0.0957823395729065 0.09374622255563736 0.0918567106127739 0.09017623960971832 0.08873996138572693 0.08754132688045502 0.0865580290555954 0.08575299382209778 0.08507546037435532 0.08445915579795837 0.06932753324508667 0.027207400649785995 0.012496029026806355 0.01235218159854412
-9999 -9999 0.015713341534137726 0.06826096773147583 0.09798448532819748 0.0964650884270668 0.09469813108444214 0.0928100198507309 0.09100013226270676 0.08934152871370316 0.08787394315004349 0.08659494668245316 0.08548718690872192 0.08451738208532333 0.08363598585128784 0.08275790512561798 0.08171452581882477 0.06680117547512054 0.054659463465213776 0.05427433177828789
-9999 -9999 0.015358155593276024 0.03253548592329025 0.08015166968107224 0.09540053457021713 0.09383435547351837 0.09209603071212769 0.09036946296691895 0.08874224126338959 0.0872645154595375 0.08593843132257462 0.08475237339735031 0.08368053287267685 0.08268672227859497 0.08171584457159042 0.08070205897092819 0.07963427156209946 0.07879723608493805 0.07836945354938507
-9999 -9999 -9999 0.014998143538832664 0.06591373682022095 0.09477618336677551 0.09335194528102875 0.09170956909656525 0.09003462642431259 0.08843135088682175 0.08695169538259506 0.08560451865196228 0.08438096195459366 0.08326254040002823 0.08222278952598572 0.08122842758893967 0.08025531470775604 0.07934706658124924 0.07864607870578766 0.07827343046665192
