ncols         20
nrows         20
xllcorner     0
yllcorner     -3.5992928
cellsize      0.17996463
NODATA_value  -9999
-9999.0 -9999 -9999 -9999 -9999 -9999 -9999 -9999 -9999 -9999 -9999 -9999 -9999 -9999 -9999 -9999 -9999 -9999 -9999 -9999
-9999 -9999 -9999 -9999 -9999 -9999 -9999 -9999 -9999 -9999 -9999 18.97148895263672 18.980188369750977 -9999 -9999 18.911575317382812 18.916114807128906 -9999 -9999 -9999
-9999 -9999 -9999 -9999 18.917675018310547 18.939361572265625 18.95623016357422 18.981229782104492 19.00234603881836 18.996902465820312 19.03595542907715 19.00894546508789 18.997880935668945 19.022554397583008 19.0201473236084 18.973892211914062 18.9534912109375 18.962749481201172 -9999 -9999
-9999 -9999 -9999 18.91996955871582 18.917823791503906 18.942354202270508 18.963045120239258 18.978416442871094 18.973981857299805 18.965503692626953 18.94150161743164 18.937524795532227 18.945194244384766 18.982975006103516 18.9999942779541 19.003835678100586 19.006629943847656 19.0213680267334 -9999 -9999
-9999 -9999 -9999 18.943559646606445 18.95656967163086 18.955137252807617 18.947145462036133 18.915794372558594 18.867761611938477 18.79156494140625 18.71234893798828 18.678857803344727 18.709197998046875 18.806358337402344 18.899633407592773 18.98483657836914 19.046327590942383 19.043128967285156 -9999 -9999
-9999 -9999 18.987810134887695 18.9807186126709 18.99018096923828 18.97119903564453 18.906387329101562 18.792953491210938 18.653654098510742 18.499847412109375 18.351947784423828 18.285947799682617 18.32111930847168 18.471511840820312 18.673969268798828 18.853851318359375 18.985727310180664 19.042163848876953 19.126169204711914 -9999
-9999 -9999 19.044475555419922 19.055545806884766 19.034507751464844 18.95375633239746 18.784250259399414 18.555763244628906 18.326984405517578 18.15239143371582 18.017253875732422 17.94353485107422 17.94181251525879 18.076126098632812 18.30547523498535 18.574756622314453 18.784738540649414 18.93246078491211 19.00023651123047 -9999
-9999 -9999 19.13321876525879 19.127809524536133 19.063899993896484 18.897062301635742 18.605825424194336 18.623477935791016 18.2897891998291 18.113468170166016 18.038471221923828 18.038166046142578 17.729494094848633 17.773252487182617 17.952316284179688 18.206369400024414 18.457786560058594 18.660921096801758 18.756572723388672 -9999
-9999 19.267404556274414 19.21480369567871 19.188968658447266 19.05577278137207 18.781774520874023 18.397985458374023 18.314123153686523 17.995563507080078 17.85192108154297 17.80693244934082 17.819211959838867 17.56958770751953 17.558401107788086 17.656070709228516 17.843652725219727 18.073291778564453 18.27777862548828 18.388750076293945 -9999
-9999 19.32384490966797 19.294042587280273 19.186307907104492 18.959758758544922 18.610103607177734 18.207706451416016 18.119064331054688 17.83950424194336 17.71833610534668 17.683345794677734 17.69268035888672 17.458295822143555 17.402097702026367 17.430221557617188 17.53835105895996 17.70970344543457 17.87908935546875 17.974943161010742 -9999
-9999 19.35472297668457 19.280282974243164 19.086118698120117 18.774328231811523 18.37335205078125 18.013690948486328 17.989078521728516 17.755584716796875 17.650999069213867 17.62165069580078 17.62526512145996 17.364749908447266 17.273712158203125 17.252748489379883 17.296361923217773 17.397621154785156 17.52079200744629 17.594173431396484 -9999
-9999 19.249385833740234 19.116947174072266 18.839366912841797 18.480953216552734 18.089475631713867 17.805240631103516 17.886905670166016 17.698131561279297 17.60826873779297 17.582218170166016 17.58359146118164 17.282556533813477 17.178544998168945 17.131786346435547 17.12303924560547 17.162349700927734 17.2367000579834 17.29020881652832 -9999
-9999 18.94819450378418 18.768827438354492 18.449430465698242 18.09600257873535 17.77544403076172 17.541561126708984 17.434467315673828 17.365476608276367 17.33556365966797 17.315242767333984 17.28289031982422 17.20395278930664 17.14950180053711 17.103116989135742 17.06749153137207 17.043920516967773 17.062942504882812 17.110000610351562 -9999
-9999 18.521127700805664 18.324155807495117 18.007007598876953 17.705738067626953 17.469961166381836 17.314800262451172 17.24163055419922 17.222501754760742 17.221588134765625 17.2198429107666 17.209596633911133 17.193819046020508 17.180850982666016 17.171611785888672 17.141447067260742 17.088258743286133 17.014720916748047 17.098114013671875 -9999
-9999 18.108558654785156 17.924489974975586 17.63649559020996 17.399898529052734 17.24735450744629 17.168188095092773 17.147403717041016 17.15611457824707 17.173616409301758 17.1848087310791 17.196958541870117 17.209896087646484 17.22391700744629 17.24732208251953 17.248781204223633 17.22890853881836 17.09239959716797 -9999 -9999
-9999 17.826637268066406 17.65382957458496 17.40412712097168 17.22437858581543 17.13936996459961 17.110424041748047 17.119272232055664 17.13547706604004 17.15576171875 17.170955657958984 17.193653106689453 17.223739624023438 17.259119033813477 17.292831420898438 17.322425842285156 17.336257934570312 17.42686653137207 -9999 -9999
-9999 17.66109848022461 17.482290267944336 17.273679733276367 17.13776206970215 17.104597091674805 17.109952926635742 17.13573455810547 17.15458869934082 17.173891067504883 17.19123649597168 17.21795082092285 17.25310707092285 17.285871505737305 17.32254409790039 17.357460021972656 17.385438919067383 17.41453742980957 17.37738037109375 17.407835006713867
-9999 -9999 17.324554443359375 17.189420700073242 17.09528160095215 17.09404945373535 17.132781982421875 17.17041778564453 17.192882537841797 17.211559295654297 17.226905822753906 17.251131057739258 17.278718948364258 17.320068359375 17.352855682373047 17.374996185302734 17.401243209838867 17.418031692504883 17.432191848754883 17.407819747924805
-9999 -9999 17.228530883789062 17.13742446899414 17.07902717590332 17.111865997314453 17.17556381225586 17.22665023803711 17.254772186279297 17.26715850830078 17.26586151123047 17.287864685058594 17.315292358398438 17.351205825805664 17.372331619262695 17.387046813964844 17.403282165527344 17.417572021484375 17.395606994628906 17.388723373413086
-9999 -9999 -9999 17.099308013916016 17.069570541381836 17.11489486694336 17.193248748779297 17.2476806640625 17.27274513244629 17.279539108276367 17.282939910888672 17.292430877685547 17.320880889892578 17.354581832885742 17.380794525146484 17.384845733642578 17.411338806152344 17.394746780395508 17.38564682006836 17.382579803466797
