ncols         20
nrows         20
xllcorner     0
yllcorner     -3.5992928
cellsize      0.17996463
NODATA_value  -9999
-9999.0 -9999 -9999 -9999 -9999 -9999 -9999 -9999 -9999 -9999 -9999 -9999 -9999 -9999 -9999 -9999 -9999 -9999 -9999 -9999
-9999 -9999 -9999 -9999 -9999 -9999 -9999 -9999 -9999 -9999 -9999 18.989492416381836 18.997615814208984 -9999 -9999 18.92482566833496 18.928451538085938 -9999 -9999 -9999
-9999 -9999 -9999 -9999 18.940319061279297 18.962738037109375 18.98076820373535 19.00662612915039 19.027957916259766 19.022062301635742 19.058856964111328 19.029447555541992 19.017162322998047 19.040729522705078 19.03611183166504 18.98753547668457 18.965272903442383 18.973005294799805 -9999 -9999
-9999 -9999 -9999 18.9421443939209 18.94061279296875 18.966094970703125 18.987886428833008 19.00404930114746 19.000043869018555 18.991497039794922 18.96669578552246 18.961105346679688 18.967069625854492 19.00257110595703 19.0168514251709 19.017623901367188 19.017690658569336 19.03053092956543 -9999 -9999
-9999 -9999 -9999 18.96529769897461 18.979007720947266 18.97857666015625 18.97125816345215 18.94021224975586 18.892379760742188 18.816768646240234 18.737716674804688 18.70374298095703 18.732328414916992 18.8262996673584 18.9161319732666 18.997270584106445 19.054929733276367 19.049776077270508 -9999 -9999
-9999 -9999 19.007083892822266 19.00074577331543 19.010799407958984 18.99191665649414 18.926591873168945 18.812292098999023 18.672603607177734 18.520957946777344 18.37305450439453 18.30615234375 18.341033935546875 18.489599227905273 18.68657875061035 18.861974716186523 18.98927879333496 19.042125701904297 19.120586395263672 -9999
-9999 -9999 19.061477661132812 19.072391510009766 19.050617218017578 18.968461990356445 18.797332763671875 18.567588806152344 18.33673858642578 18.160598754882812 18.024751663208008 17.951311111450195 17.9521484375 18.08682632446289 18.31352996826172 18.577768325805664 18.78213119506836 18.92531394958496 18.99007797241211 -9999
-9999 -9999 19.144411087036133 19.137365341186523 19.07100486755371 18.90228271484375 18.609819412231445 18.6247615814209 18.287477493286133 18.107967376708984 18.028738021850586 18.02267837524414 17.729045867919922 17.77688980102539 17.954586029052734 18.203819274902344 18.449691772460938 18.6477108001709 18.740589141845703 -9999
-9999 19.266416549682617 19.213729858398438 19.18453598022461 19.048473358154297 18.774730682373047 18.391944885253906 18.30447769165039 17.985727310180664 17.841190338134766 17.79370880126953 17.80076026916504 17.56515121459961 17.558658599853516 17.65599822998047 17.83918571472168 18.062063217163086 18.260385513305664 18.368234634399414 -9999
-9999 19.30718231201172 19.273605346679688 19.1611270904541 18.935020446777344 18.59113311767578 18.192686080932617 18.100601196289062 17.824939727783203 17.705005645751953 17.668893814086914 17.673416137695312 17.453571319580078 17.40271759033203 17.43126106262207 17.535722732543945 17.700014114379883 17.862817764282227 17.955188751220703 -9999
-9999 19.310232162475586 19.23269271850586 19.037797927856445 18.732484817504883 18.341835021972656 17.992647171020508 17.961612701416016 17.736101150512695 17.634801864624023 17.60504722595215 17.603979110717773 17.362106323242188 17.277748107910156 17.25802230834961 17.298742294311523 17.393936157226562 17.510265350341797 17.57981300354004 -9999
-9999 19.174972534179688 19.04464340209961 18.77582359313965 18.429384231567383 18.054935455322266 17.78250503540039 17.848491668701172 17.671483993530273 17.58704376220703 17.561386108398438 17.558012008666992 17.283689498901367 17.187137603759766 17.14190673828125 17.131471633911133 17.166027069091797 17.234344482421875 17.283946990966797 -9999
-9999 18.857500076293945 18.687179565429688 18.382841110229492 18.048492431640625 17.74631118774414 17.526506423950195 17.425399780273438 17.36180877685547 17.334867477416992 17.316457748413086 17.285966873168945 17.212890625 17.161142349243164 17.115314483642578 17.07853126525879 17.052621841430664 17.06744384765625 17.110166549682617 -9999
-9999 18.429241180419922 18.24575424194336 17.95108413696289 17.671369552612305 17.452482223510742 17.309770584106445 17.243255615234375 17.228439331054688 17.22994613647461 17.229690551757812 17.22045135498047 17.205312728881836 17.191877365112305 17.18121337890625 17.15006446838379 17.096357345581055 17.02292251586914 17.099395751953125 -9999
-9999 18.034038543701172 17.865631103515625 17.60159683227539 17.37975311279297 17.238571166992188 17.168909072875977 17.1536922454834 17.165714263916016 17.18496322631836 17.197006225585938 17.208688735961914 17.220457077026367 17.23267936706543 17.253429412841797 17.253114700317383 17.232357025146484 17.100624084472656 -9999 -9999
-9999 17.76811408996582 17.612276077270508 17.383817672729492 17.215478897094727 17.135242462158203 17.112661361694336 17.125625610351562 17.144786834716797 17.166746139526367 17.182451248168945 17.20421600341797 17.232376098632812 17.265419006347656 17.2967529296875 17.324283599853516 17.336872100830078 17.424135208129883 -9999 -9999
-9999 17.6140193939209 17.454389572143555 17.263256072998047 17.136796951293945 17.105770111083984 17.1119384765625 17.13971710205078 17.160852432250977 17.181509017944336 17.199310302734375 17.2253475189209 17.25889778137207 17.289892196655273 17.324642181396484 17.357990264892578 17.385074615478516 17.41402816772461 17.38013458251953 17.4112491607666
-9999 -9999 17.313486099243164 17.187744140625 17.0998477935791 17.099206924438477 17.134891510009766 17.171815872192383 17.195398330688477 17.215187072753906 17.23157501220703 17.25551986694336 17.28219985961914 17.32188606262207 17.3535099029541 17.375141143798828 17.401535034179688 17.419292449951172 17.434707641601562 17.41145896911621
-9999 -9999 17.225025177001953 17.142311096191406 17.087495803833008 17.118732452392578 17.17781639099121 17.2251033782959 17.253681182861328 17.2675838470459 17.267765045166016 17.289663314819336 17.316516876220703 17.351539611816406 17.372529983520508 17.387622833251953 17.40447425842285 17.41956329345703 17.398880004882812 17.39264678955078
-9999 -9999 -9999 17.110326766967773 17.081424713134766 17.123327255249023 17.195873260498047 17.246227264404297 17.271326065063477 17.279399871826172 17.283845901489258 17.29374885559082 17.321735382080078 17.3551082611084 17.381328582763672 17.385986328125 17.412826538085938 17.397315979003906 17.389122009277344 17.38655662536621
