ncols         20
nrows         20
xllcorner     0
yllcorner     -3.5992928
cellsize      0.17996463
NODATA_value  -9999
-9999.0 -9999 -9999 -9999 -9999 -9999 -9999 -9999 -9999 -9999 -9999 -9999 -9999 -9999 -9999 -9999 -9999 -9999 -9999 -9999
-9999 -9999 -9999 -9999 -9999 -9999 -9999 -9999 -9999 -9999 -9999 0.13472683727741241 0.13484278321266174 -9999 -9999 0.1373380869626999 0.13752709329128265 -9999 -9999 -9999
-9999 -9999 -9999 -9999 0.13433879613876343 0.13427726924419403 0.1342397928237915 0.13425889611244202 0.1343579888343811 0.1345379799604416 0.13475461304187775 0.12479214370250702 0.12515035271644592 0.13613128662109375 0.13680334389209747 0.12710519134998322 0.1276683807373047 0.13873982429504395 -9999 -9999
-9999 -9999 -9999 0.13473191857337952 0.12441781163215637 0.10582820326089859 0.10582157969474792 0.1058882549405098 0.10603351891040802 0.1062450259923935 0.10650024563074112 0.09869320690631866 0.09903940558433533 0.10768193006515503 0.10824306309223175 0.10067282617092133 0.10964888334274292 0.139897421002388 -9999 -9999
-9999 -9999 -9999 0.13502980768680573 0.10621674358844757 0.07728832215070724 0.07129069417715073 0.07142192870378494 0.07162106037139893 0.07186800241470337 0.07213667035102844 0.0669950544834137 0.06728307902812958 0.07311692088842392 0.07359087467193604 0.07425297796726227 0.11147665977478027 0.1422702968120575 -9999 -9999
-9999 -9999 0.13574716448783875 0.1253320574760437 0.09861218929290771 0.0663100928068161 0.0410967692732811 0.041246868669986725 0.04145529121160507 0.04169052839279175 0.04193171486258507 0.03889428824186325 0.03913544863462448 0.04276221990585327 0.04319208115339279 0.07053139805793762 0.10569614171981812 0.13545352220535278 0.14875395596027374 -9999
-9999 -9999 0.13624712824821472 0.10725277662277222 0.07818963378667831 0.05272559076547623 0.030163979157805443 0.02041991800069809 0.020583463832736015 0.020761853083968163 0.020943157374858856 0.019502324983477592 0.01970757730305195 0.021645426750183105 0.03264199569821358 0.05781175568699837 0.08641334623098373 0.11931587755680084 0.15236712992191315 -9999
-9999 -9999 0.1371634602546692 0.10808489471673965 0.07278469949960709 0.041905246675014496 0.02063690684735775 0.010164158418774605 0.008779335767030716 0.008890047669410706 0.009006653912365437 0.008440319448709488 0.008609442971646786 0.011213661171495914 0.02333470992743969 0.04787104204297066 0.08351489901542664 0.12438060343265533 0.1581282615661621 -9999
-9999 0.13917851448059082 0.1282327026128769 0.10103525221347809 0.06823498010635376 0.03927695006132126 0.019425170496106148 0.008222125470638275 0.003235539887100458 0.00330271921120584 0.00337313674390316 0.003180062398314476 0.0035764439962804317 0.010294459760189056 0.02481861598789692 0.05064763128757477 0.08798852562904358 0.13051839172840118 0.16553375124931335 -9999
-9999 0.14086145162582397 0.11089830845594406 0.08100566267967224 0.05484559386968613 0.03176281228661537 0.015715261921286583 0.006670230068266392 0.002470390871167183 0.0016478047473356128 0.0017029251903295517 0.001751520438119769 0.003855627030134201 0.010976460762321949 0.02631961926817894 0.05357225611805916 0.09290187060832977 0.13757681846618652 0.1742364764213562 -9999
-9999 0.14378084242343903 0.11340472847223282 0.07655902951955795 0.04428310692310333 0.021944843232631683 0.010887032374739647 0.004659625701606274 0.0017409062711521983 0.0017496513901278377 0.0018165420042350888 0.0018721488304436207 0.004109775181859732 0.011634095571935177 0.027811715379357338 0.056539010256528854 0.09797651320695877 0.1449769139289856 0.18347330391407013 -9999
-9999 0.147809237241745 0.11672554910182953 0.07897678017616272 0.045809756964445114 0.02276034466922283 0.009683508425951004 0.0035515606869012117 0.0017540694680064917 0.0018412735080346465 0.0019169053994119167 0.0020912771578878164 0.00605615833774209 0.014495369978249073 0.029286304488778114 0.05948123335838318 0.10299067199230194 0.15219591557979584 0.19230052828788757 -9999
-9999 0.15286432206630707 0.12086555361747742 0.08195525407791138 0.04762157425284386 0.02384495921432972 0.010170276276767254 0.0037414098624140024 0.0018298410577699542 0.001920702401548624 0.0020033372566103935 0.0032691052183508873 0.009425642900168896 0.02253272384405136 0.04602285474538803 0.0795830488204956 0.11705762147903442 0.15896965563297272 0.1998799741268158 -9999
-9999 0.15881241858005524 0.1257961243391037 0.08579506725072861 0.0499524362385273 0.024871686473488808 0.010600892826914787 0.00389104220084846 0.0018953772960230708 0.001985462848097086 0.002069257665425539 0.004283242393285036 0.012322762981057167 0.02965294010937214 0.06049242243170738 0.10487719625234604 0.15489397943019867 0.1944437026977539 0.2051541805267334 -9999
-9999 0.16534356772899628 0.1311701238155365 0.08956989645957947 0.05216507613658905 0.025966525077819824 0.012946072965860367 0.0055570174008607864 0.0020560617558658123 0.0020362860523164272 0.002118512988090515 0.004760872106999159 0.013638375326991081 0.03288782015442848 0.06730504333972931 0.11721700429916382 0.17345936596393585 0.21974441409111023 -9999 -9999
-9999 0.1712314337491989 0.13671624660491943 0.10086528956890106 0.06902940571308136 0.040261127054691315 0.020102307200431824 0.008537567220628262 0.003400839865207672 0.0020730639807879925 0.002154736779630184 0.0048366729170084 0.013871460221707821 0.03351643308997154 0.0687626525759697 0.12011756747961044 0.17890052497386932 0.2269788533449173 -9999 -9999
-9999 0.17534708976745605 0.16580146551132202 0.13266435265541077 0.09047791361808777 0.05266202986240387 0.028335614129900932 0.014059340581297874 0.006002937443554401 0.0022096619941294193 0.002179639646783471 0.004497863817960024 0.012982564978301525 0.0314265713095665 0.06458894163370132 0.11301706731319427 0.1689911037683487 0.2165699452161789 0.2389066517353058 0.24075275659561157
-9999 -9999 0.18538333475589752 0.14778129756450653 0.10862214118242264 0.07395459711551666 0.04289516806602478 0.021326802670955658 0.009028559550642967 0.0033306314144283533 0.0021938220597803593 0.003567327978089452 0.010335425846278667 0.025129640474915504 0.051575079560279846 0.09051906317472458 0.1353960782289505 0.17316004633903503 0.18911591172218323 0.1900588423013687
-9999 -9999 0.18877209722995758 0.1763627529144287 0.14016273617744446 0.09506727010011673 0.05508209764957428 0.027242518961429596 0.01153300516307354 0.004234567284584045 0.002200501272454858 0.0024047731421887875 0.006991135887801647 0.01696988008916378 0.035080425441265106 0.06128820404410362 0.09205000102519989 0.11745728552341461 0.12764571607112885 0.12803494930267334
-9999 -9999 -9999 0.1934228241443634 0.15327847003936768 0.10378247499465942 0.05999796465039253 0.029632389545440674 0.012529552914202213 0.004610271658748388 0.002203479176387191 0.0022840038873255253 0.004021541681140661 0.009733379818499088 0.020178651437163353 0.035258013755083084 0.053013209253549576 0.06731566041707993 0.07327260076999664 0.0734248086810112
