ncols         20
nrows         20
xllcorner     0
yllcorner     -3.5992928
cellsize      0.17996463
NODATA_value  -9999
-9999.0 -9999 -9999 -9999 -9999 -9999 -9999 -9999 -9999 -9999 -9999 -9999 -9999 -9999 -9999 -9999 -9999 -9999 -9999 -9999
-9999 -9999 -9999 -9999 -9999 -9999 -9999 -9999 -9999 -9999 -9999 0 0 -9999 -9999 0 0 -9999 -9999 -9999
-9999 -9999 -9999 -9999 0 0 0 0 0 0 0 0 0 0 0 0 0 0 -9999 -9999
-9999 -9999 -9999 0 0 0 0 0 0 0 0 0 0 0 0 0 0 0 -9999 -9999
-9999 -9999 -9999 0 0 0 0 0 0 0 0 0 0 0 0 0 0 0 -9999 -9999
-9999 -9999 0 0 0 0 3.5591869354248047 3.3688697814941406 3.1842386722564697 2.9655327796936035 2.744537353515625 2.643406867980957 2.708348512649536 2.9504928588867188 3.277690887451172 3.624739408493042 0 0 0 -9999
-9999 -9999 0 0 0 3.61745023727417 3.321830987930298 3.0412631034851074 2.7165780067443848 2.3427038192749023 2.0036563873291016 1.830726981163025 1.8781352043151855 2.1550111770629883 0.28811734914779663 3.124093532562256 0 0 0 -9999
-9999 -9999 0 0 3.802927255630493 3.4679079055786133 3.110913038253784 2.7044517993927 2.254988193511963 1.8087928295135498 1.4682939052581787 1.2872601747512817 1.3048553466796875 1.527824878692627 1.9371994733810425 2.480548858642578 3.0727713108062744 0 0 -9999
-9999 0 0 4.1219940185546875 3.7351527214050293 3.3041512966156006 2.8018364906311035 2.255774736404419 1.7419607639312744 1.3284826278686523 1.0590193271636963 0.921990692615509 0.9157404899597168 1.0618642568588257 1.3597239255905151 0.4025242030620575 2.3573966026306152 2.883333444595337 0 -9999
-9999 0 0 4.17130708694458 3.6209096908569336 2.995253086090088 2.326664924621582 1.6962052583694458 1.2055249214172363 0.887255072593689 0.715063750743866 0.6313526630401611 0.6275197863578796 0.7071754336357117 0.8990328907966614 0.27019453048706055 1.660097360610962 2.117109537124634 0 -9999
-9999 0 0 4.1196489334106445 3.369448661804199 2.585860252380371 1.8150407075881958 1.1726627349853516 0.7565711736679077 0.5310001373291016 0.42307281494140625 0.3786609172821045 0.37704387307167053 0.42100751399993896 0.5291724801063538 0.7308041453361511 1.0289443731307983 0 0 -9999
-9999 0 0 3.8507020473480225 2.9608750343322754 2.1213455200195312 1.3611613512039185 0.7902426719665527 0.4597983956336975 0.2946122884750366 0.22253486514091492 0.1920796036720276 0.08400142192840576 0.11419129371643066 0.25317344069480896 0.07919463515281677 0.5317087769508362 0 0 -9999
-9999 0 0 3.2801434993743896 2.376427173614502 1.602474570274353 0.9678450226783752 0.5199853181838989 0.27366986870765686 0.16208875179290771 0.10546114295721054 0.08330199122428894 0.050387993454933167 0.069410540163517 0.06323182582855225 0.13289450109004974 0.2176060825586319 0 0 -9999
-9999 0 0 2.5037314891815186 1.6761500835418701 1.0615649223327637 0.6143781542778015 0.3207738995552063 0.1573733687400818 0.08854392915964127 0.05632824823260307 0.04116225615143776 0.015031281858682632 0.024678824469447136 0.022666897624731064 0.043883610516786575 0.0672774463891983 0 0 -9999
-9999 0 0 1.7887866497039795 1.077462077140808 0.6310378909111023 0.3513267934322357 0.17837131023406982 0.09384340047836304 0.05385240539908409 0.0345388762652874 0.024108227342367172 0.018514789640903473 0.015883130952715874 0.009895000606775284 0.008996428921818733 0.020335402339696884 0 -9999 -9999
-9999 0 0 1.319252371788025 0.7201048135757446 0.3778189718723297 0.19607384502887726 0.10354074835777283 0.0588323250412941 0.03569651395082474 0.01578260213136673 0.012916093692183495 0.001478209625929594 0.014567376114428043 0.007186956703662872 0.007957877591252327 0.019562367349863052 0.002980108605697751 -9999 -9999
-9999 0 0 1.0413528680801392 0.526980996131897 0.2371016889810562 0.11872926354408264 0.06301527470350266 0.0370711050927639 0.015685269609093666 0.0144415944814682 0.01438108179718256 0.01197543740272522 0.01692817732691765 0.018796339631080627 0.020841727033257484 0.02298819273710251 0.02540002577006817 0.02075517550110817 0.030759217217564583
-9999 -9999 0 0.8401837348937988 0.40932396054267883 0.1724071502685547 0.07942762970924377 0.04099176079034805 0.013390791602432728 0.01420540176331997 0.01569742150604725 0.016214808449149132 0.015487758442759514 0.014913189224898815 0.014170615933835506 0.01565914787352085 0.017178772017359734 0.021801505237817764 0.026850661262869835 0.03132916986942291
-9999 -9999 0 0 0.3250095546245575 0.13019494712352753 0.05622658133506775 0.027611304074525833 0.01209248136729002 0.01719319447875023 0.01705537922680378 0.017705457285046577 0.019054464995861053 0.020948287099599838 0.023149218410253525 0.025444509461522102 0.027671709656715393 0.029623202979564667 0.031094104051589966 0.03186440095305443
-9999 -9999 -9999 0 0.27691584825515747 0.11326417326927185 0.04741765558719635 0.02270163781940937 0.012487988919019699 0.017881952226161957 0.017817674204707146 0.018527308478951454 0.01994614116847515 0.02191063202917576 0.024169372394680977 0.026467299088835716 0.028636064380407333 0.030361108481884003 0.03156532719731331 0.032184015959501266
