ncols         20
nrows         20
xllcorner     0
yllcorner     -3.5992928
cellsize      0.17996463
NODATA_value  -9999
-9999.0 -9999 -9999 -9999 -9999 -9999 -9999 -9999 -9999 -9999 -9999 -9999 -9999 -9999 -9999 -9999 -9999 -9999 -9999 -9999
-9999 -9999 -9999 -9999 -9999 -9999 -9999 -9999 -9999 -9999 -9999 0.9678249955177307 0.94971764087677 -9999 -9999 0.8585485219955444 0.8047206401824951 -9999 -9999 -9999
-9999 -9999 -9999 -9999 1.0424429178237915 1.108175277709961 1.2240391969680786 1.3092260360717773 1.354779601097107 1.377485752105713 1.2415237426757812 1.1499688625335693 1.1454800367355347 1.1442171335220337 1.042250394821167 0.9216720461845398 0.834171712398529 0.7765917778015137 -9999 -9999
-9999 -9999 -9999 0.9794811606407166 1.055387020111084 1.1431838274002075 1.2624220848083496 1.370414137840271 1.484245777130127 1.5777437686920166 1.6369524002075195 1.6249568462371826 1.5996971130371094 1.481618881225586 1.3087655305862427 1.1098601818084717 0.953617513179779 0.8688287734985352 -9999 -9999
-9999 -9999 -9999 0.9592565894126892 1.0392711162567139 1.1883152723312378 1.3533164262771606 1.5303272008895874 1.7482270002365112 2.04974102973938 2.3591480255126953 2.527244806289673 2.4876344203948975 2.1931095123291016 1.838976502418518 1.4658805131912231 1.1921428442001343 1.119159460067749 -9999 -9999
-9999 -9999 0.7673776149749756 0.8894750475883484 1.0234270095825195 1.2011029720306396 1.3876557350158691 1.6005074977874756 1.9433457851409912 2.4204394817352295 2.9835801124572754 3.345738649368286 3.428577423095703 3.0748751163482666 2.5002145767211914 1.9529293775558472 1.548402190208435 1.3769516944885254 1.2443064451217651 -9999
-9999 -9999 0.7445946931838989 0.8368399739265442 1.0123189687728882 1.2138985395431519 1.384527564048767 1.5611999034881592 1.8767037391662598 2.348078727722168 2.929020881652832 3.4546959400177 3.832467555999756 3.711465835571289 3.2122268676757812 2.556727886199951 2.0320286750793457 1.6910377740859985 1.5451604127883911 -9999
-9999 -9999 0.7496065497398376 0.8644554615020752 1.0706002712249756 1.2671573162078857 1.3854243755340576 1.304679036140442 1.4001808166503906 1.617205023765564 1.905490756034851 2.35368275642395 3.441232919692993 3.796018600463867 3.60863995552063 3.1051900386810303 2.584035873413086 2.168062448501587 1.9922794103622437 -9999
-9999 0.6410799026489258 0.7827933430671692 0.961758553981781 1.2293198108673096 1.460181713104248 1.508080244064331 1.2520238161087036 1.2000348567962646 1.2635222673416138 1.4264739751815796 1.826159954071045 2.972879648208618 3.5873754024505615 3.741943836212158 3.5071816444396973 3.0677707195281982 2.6681880950927734 2.4833154678344727 -9999
-9999 0.7309027910232544 0.8723995089530945 1.1593700647354126 1.5119491815567017 1.7717283964157104 1.7515255212783813 1.2994059324264526 1.124658465385437 1.088179588317871 1.175925850868225 1.5205398797988892 2.5763444900512695 3.2807888984680176 3.6308510303497314 3.6561081409454346 3.4005837440490723 3.0961174964904785 2.9476516246795654 -9999
-9999 0.9228391051292419 1.0916239023208618 1.442674160003662 1.831980586051941 2.088458776473999 2.002356767654419 1.3710825443267822 1.110690951347351 1.0151684284210205 1.059612512588501 1.347888708114624 2.3137094974517822 2.9864752292633057 3.4063596725463867 3.57978892326355 3.5389132499694824 3.3697125911712646 3.280358076095581 -9999
-9999 1.2517164945602417 1.4401432275772095 1.8402162790298462 2.2278401851654053 2.4280450344085693 2.272045850753784 1.5246413946151733 1.2246999740600586 1.0921224355697632 1.0938509702682495 1.3101766109466553 2.133305072784424 2.694200277328491 3.0892834663391113 3.341416597366333 3.439117670059204 3.4163060188293457 3.3959524631500244 -9999
-9999 1.7433393001556396 1.9684407711029053 2.4038379192352295 2.712693691253662 2.810702085494995 2.633161783218384 2.1941580772399902 1.826537013053894 1.594421625137329 1.5332648754119873 1.66062593460083 2.002368927001953 2.3307952880859375 2.6284704208374023 2.892199754714966 3.098565101623535 3.212625741958618 3.251396656036377 -9999
-9999 2.3329145908355713 2.566706895828247 2.980491876602173 3.1833722591400146 3.1271674633026123 2.858962059020996 2.4568326473236084 2.0756728649139404 1.8026299476623535 1.6738648414611816 1.6767224073410034 1.7769358158111572 1.9075955152511597 2.049534320831299 2.2403650283813477 2.4908010959625244 2.7885923385620117 2.9565601348876953 -9999
-9999 2.789475440979004 2.980461835861206 3.318734884262085 3.3921356201171875 3.191739082336426 2.8445003032684326 2.448047399520874 2.0819220542907715 1.813714623451233 1.6565423011779785 1.576836347579956 1.5490572452545166 1.5485739707946777 1.5574315786361694 1.6238937377929688 1.7601548433303833 2.0463056564331055 -9999 -9999
-9999 2.9665205478668213 3.0919387340545654 3.3229472637176514 3.2769088745117188 3.0028202533721924 2.6417970657348633 2.2680728435516357 1.9593712091445923 1.7285231351852417 1.5748082399368286 1.4604687690734863 1.3661619424819946 1.281755805015564 1.2148507833480835 1.172410011291504 1.168479561805725 1.0691502094268799 -9999 -9999
-9999 3.056776523590088 3.035738468170166 3.138648509979248 3.0275399684906006 2.7239484786987305 2.3570308685302734 2.0205161571502686 1.763221263885498 1.5712066888809204 1.4320716857910156 1.3092858791351318 1.190943956375122 1.085105538368225 0.9853596687316895 0.89952552318573 0.8311679363250732 0.7552327513694763 0.6948989629745483 0.6163914203643799
-9999 -9999 2.842938184738159 2.8961398601531982 2.7682697772979736 2.4512710571289062 2.0837900638580322 1.773703694343567 1.548841953277588 1.3873379230499268 1.2673614025115967 1.1549001932144165 1.0436484813690186 0.9195431470870972 0.815826952457428 0.7378194332122803 0.6612551212310791 0.6048212647438049 0.5594460368156433 0.5822707414627075
-9999 -9999 2.8144285678863525 2.720432758331299 2.5578153133392334 2.223245620727539 1.8502919673919678 1.5483003854751587 1.338291883468628 1.2032485008239746 1.1202901601791382 1.0211117267608643 0.9127546548843384 0.7942104339599609 0.7054042220115662 0.6410934925079346 0.584294855594635 0.5492891669273376 0.5793536901473999 0.5962677001953125
-9999 -9999 -9999 2.556619167327881 2.437408208847046 2.1093909740448 1.734911561012268 1.4395477771759033 1.2430700063705444 1.1262733936309814 1.0480726957321167 0.9697830677032471 0.8634470701217651 0.7478013634681702 0.6543847918510437 0.6075849533081055 0.5452994108200073 0.5656018853187561 0.591714084148407 0.6061580777168274
