ncols         20
nrows         20
xllcorner     0
yllcorner     -3.5992928
cellsize      0.17996463
NODATA_value  -9999
-9999.0 -9999 -9999 -9999 -9999 -9999 -9999 -9999 -9999 -9999 -9999 -9999 -9999 -9999 -9999 -9999 -9999 -9999 -9999 -9999
-9999 -9999 -9999 -9999 -9999 -9999 -9999 -9999 -9999 -9999 -9999 0.134148970246315 0.1342640370130539 -9999 -9999 0.13687299191951752 0.13707879185676575 -9999 -9999 -9999
-9999 -9999 -9999 -9999 0.13404443860054016 0.13396082818508148 0.13388875126838684 0.13386449217796326 0.13391561806201935 0.13404853641986847 0.1342269629240036 0.12427625805139542 0.12463229149580002 0.13559678196907043 0.1363072544336319 0.12669141590595245 0.1273021101951599 0.13840240240097046 -9999 -9999
-9999 -9999 -9999 0.13448408246040344 0.12416461110115051 0.10558797419071198 0.10555052757263184 0.10558144003152847 0.10568835586309433 0.10586312413215637 0.10608990490436554 0.09829817712306976 0.09864649176597595 0.1072809025645256 0.10788337886333466 0.10039646923542023 0.10941726714372635 0.1396586000919342 -9999 -9999
-9999 -9999 -9999 0.13481390476226807 0.10602827370166779 0.07712987810373306 0.0711188018321991 0.07122326642274857 0.07139568775892258 0.0716182291507721 0.07186955213546753 0.06674178689718246 0.06703817844390869 0.07288049906492233 0.07340086251497269 0.0741308256983757 0.11138815432786942 0.14223071932792664 -9999 -9999
-9999 -9999 0.1356668472290039 0.12520621716976166 0.09848476201295853 0.06620405614376068 0.041013408452272415 0.04114435985684395 0.04133656248450279 0.04155918210744858 0.04179291054606438 0.038767486810684204 0.039021074771881104 0.0426676906645298 0.04314293712377548 0.0705363005399704 0.10581538081169128 0.1357365995645523 0.149267315864563 -9999
-9999 -9999 0.13626399636268616 0.10723826289176941 0.0781550407409668 0.052683617919683456 0.03012663871049881 0.020383687689900398 0.02053847536444664 0.020712321624159813 0.02089351788163185 0.01946205087006092 0.019680017605423927 0.021640099585056305 0.032680436968803406 0.05794836953282356 0.086707204580307 0.11981425434350967 0.15309098362922668 -9999
-9999 -9999 0.13736027479171753 0.10820907354354858 0.07284633815288544 0.04192836210131645 0.020642114803195 0.010162504389882088 0.008773263543844223 0.008883259259164333 0.009002410806715488 0.00844261609017849 0.008622782304883003 0.011253110133111477 0.023444870486855507 0.04812271520495415 0.08399245887994766 0.1251523643732071 0.15915106236934662 -9999
-9999 0.13983553647994995 0.12869584560394287 0.10134046524763107 0.06841588765382767 0.03937027230858803 0.019467875361442566 0.008239827118813992 0.003242974169552326 0.003311048960313201 0.003384082345291972 0.0031946240924298763 0.003600174095481634 0.010376205667853355 0.0250247735530138 0.0510660782456398 0.08870457857847214 0.13158799707889557 0.16690461337566376 -9999
-9999 0.14173302054405212 0.11155335605144501 0.08146141469478607 0.055137407034635544 0.03192320466041565 0.01579328253865242 0.006704649887979031 0.002485409379005432 0.0016604813281446695 0.0017180722206830978 0.001769214286468923 0.0038994105998426676 0.011106539517641068 0.026628505438566208 0.05417810007929802 0.09390250593423843 0.13899625837802887 0.17598962783813477 -9999
-9999 0.14499257504940033 0.1143631562590599 0.07722976058721542 0.04467969387769699 0.022144552320241928 0.010986448265612125 0.004703613929450512 0.001760160899721086 0.0017714721616357565 0.001841183751821518 0.0018993281992152333 0.004172492306679487 0.011811576783657074 0.02822364680469036 0.057338230311870575 0.09928548336029053 0.14681380987167358 0.18572145700454712 -9999
-9999 0.14943578839302063 0.11804024130105972 0.07992423325777054 0.04638494551181793 0.02305825799703598 0.009815435856580734 0.0036028840113431215 0.0017817462794482708 0.0018721848027780652 0.0019505295203998685 0.0021293156314641237 0.006168456748127937 0.014757241122424603 0.029793012887239456 0.06045897305011749 0.10459082573652267 0.15444248914718628 0.1950508952140808 -9999
-9999 0.15492643415927887 0.12255792319774628 0.08316612243652344 0.048365164548158646 0.024240361526608467 0.010349186137318611 0.003811486763879657 0.001866184058599174 0.001959992805495858 0.002044814405962825 0.0033373148180544376 0.009618543088436127 0.022978754714131355 0.04689554497599602 0.08101444691419601 0.11904951930046082 0.16154897212982178 0.20303815603256226 -9999
-9999 0.1612614393234253 0.1277734637260437 0.08720483630895615 0.050835952162742615 0.02535046823322773 0.010821777395904064 0.003977876156568527 0.0019394621485844254 0.002031844574958086 0.002116657327860594 0.004377967678010464 0.012583197094500065 0.03025227226316929 0.061658598482608795 0.10680057108402252 0.1575997769832611 0.19771097600460052 0.20854362845420837 -9999
-9999 0.16795198619365692 0.13330179452896118 0.09111758321523666 0.053159113973379135 0.026518139988183975 0.01324935257434845 0.005697350949048996 0.002109370194375515 0.002088099718093872 0.0021698633208870888 0.004867993760854006 0.013924905098974705 0.03354005515575409 0.06856884807348251 0.11930449306964874 0.1764041930437088 0.22335240244865417 -9999 -9999
-9999 0.1740097850561142 0.13903284072875977 0.10270044952630997 0.0704287588596344 0.04117751121520996 0.02060765027999878 0.008768362924456596 0.003495501121506095 0.0021285051479935646 0.002208282006904483 0.004944721236824989 0.014154493808746338 0.03415367379784584 0.06998921930789948 0.12213493883609772 0.1817438155412674 0.23044058680534363 -9999 -9999
-9999 0.17828303575515747 0.16877377033233643 0.13521045446395874 0.09239117056131363 0.05390316992998123 0.029071683064103127 0.014451030641794205 0.0061752828769385815 0.0022702564019709826 0.002234100364148617 0.004596431273967028 0.013236415572464466 0.03199167177081108 0.06566765904426575 0.1147749051451683 0.171433225274086 0.21943797171115875 0.24163766205310822 0.24332092702388763
-9999 -9999 0.18894696235656738 0.1507582664489746 0.11099398136138916 0.07573502510786057 0.04402489960193634 0.0219261571764946 0.009289907291531563 0.0034235920757055283 0.0022485696244984865 0.003644128330051899 0.010528333485126495 0.025555163621902466 0.05237874016165733 0.0918218195438385 0.13719281554222107 0.17526496946811676 0.19120919704437256 0.19205284118652344
-9999 -9999 0.1925118863582611 0.18003477156162262 0.14328128099441528 0.09737632423639297 0.05653691664338112 0.02800845354795456 0.011866988614201546 0.004353491589426994 0.002255277708172798 0.002456262242048979 0.007116678636521101 0.01724202372133732 0.03559383749961853 0.06211249902844429 0.09318982064723969 0.1187991201877594 0.12900537252426147 0.12934419512748718
-9999 -9999 -9999 0.19756633043289185 0.15671798586845398 0.10630467534065247 0.06157838553190231 0.030462579801678658 0.012891157530248165 0.004739607218652964 0.002258111722767353 0.0023326491937041283 0.004092848394066095 0.009883846156299114 0.020461222156882286 0.035710424184799194 0.053640007972717285 0.06805402040481567 0.07403049618005753 0.07415933161973953
