ncols         20
nrows         20
xllcorner     0
yllcorner     -3.5992928
cellsize      0.17996463
NODATA_value  -9999
-9999.0 -9999 -9999 -9999 -9999 -9999 -9999 -9999 -9999 -9999 -9999 -9999 -9999 -9999 -9999 -9999 -9999 -9999 -9999 -9999
-9999 -9999 -9999 -9999 -9999 -9999 -9999 -9999 -9999 -9999 -9999 11.813166618347168 11.786191940307617 -9999 -9999 11.795483589172363 11.641247749328613 -9999 -9999 -9999
-9999 -9999 -9999 -9999 11.727277755737305 11.875642776489258 12.113420486450195 12.236648559570312 12.270478248596191 12.288946151733398 12.106515884399414 12.071405410766602 12.145209312438965 12.214010238647461 12.137372970581055 11.972012519836426 11.804217338562012 11.704459190368652 -9999 -9999
-9999 -9999 -9999 11.7805814743042 11.8915376663208 12.02505111694336 12.18923282623291 12.260224342346191 12.294915199279785 12.292927742004395 12.308328628540039 12.343080520629883 12.427824974060059 12.477243423461914 12.487984657287598 12.371066093444824 12.19073486328125 12.076253890991211 -9999 -9999
-9999 -9999 -9999 11.939326286315918 12.050886154174805 12.251583099365234 12.322211265563965 12.23321533203125 12.073760986328125 11.883391380310059 11.698994636535645 11.647278785705566 11.819075584411621 12.157325744628906 12.49555778503418 12.64874267578125 12.621472358703613 12.704320907592773 -9999 -9999
-9999 -9999 11.981404304504395 12.14363956451416 12.320935249328613 12.405376434326172 12.154759407043457 11.58552360534668 10.99119758605957 10.332162857055664 9.667006492614746 9.395756721496582 9.689377784729004 10.527331352233887 11.510894775390625 12.24648666381836 12.635651588439941 12.838297843933105 12.77805233001709 -9999
-9999 -9999 12.220016479492188 12.390604972839355 12.623120307922363 12.441474914550781 11.508563041687012 9.877973556518555 8.667016983032227 7.607157230377197 6.724938869476318 6.399362087249756 6.8888678550720215 8.008092880249023 9.484537124633789 10.915407180786133 11.891070365905762 12.409660339355469 12.6041898727417 -9999
-9999 -9999 12.745535850524902 12.959904670715332 13.035234451293945 12.30986213684082 10.276249885559082 6.236560821533203 4.842859745025635 4.044384002685547 3.555734634399414 3.504570245742798 4.548838138580322 5.660765647888184 7.136247634887695 8.806410789489746 10.23476505279541 11.214529037475586 11.652066230773926 -9999
-9999 13.179157257080078 13.411237716674805 13.592729568481445 13.342728614807129 12.00812816619873 9.241965293884277 4.93118143081665 3.386117458343506 2.661817789077759 2.3345232009887695 2.365561008453369 3.0838966369628906 3.86201810836792 4.938478469848633 6.37683629989624 7.923859596252441 9.145992279052734 9.747156143188477 -9999
-9999 13.721644401550293 13.920938491821289 13.958924293518066 13.137063980102539 11.095834732055664 7.905040264129639 3.9455928802490234 2.481462001800537 1.8544228076934814 1.624967336654663 1.6527729034423828 2.0844645500183105 2.514955997467041 3.176327705383301 4.153810501098633 5.429352283477783 6.575732707977295 7.171882629394531 -9999
-9999 14.256636619567871 14.22140121459961 13.712594985961914 12.209506034851074 9.666058540344238 6.393860340118408 3.015230178833008 1.7575572729110718 1.2394375801086426 1.0490360260009766 1.0463494062423706 1.2541930675506592 1.4665193557739258 1.8063963651657104 2.386728048324585 3.188462972640991 4.0456719398498535 4.510550498962402 -9999
-9999 14.185118675231934 13.785693168640137 12.598140716552734 10.551932334899902 7.8745012283325195 4.915585041046143 2.265146493911743 1.232656478881836 0.7912833094596863 0.6195167899131775 0.5720446109771729 0.6388243436813354 0.7059262990951538 0.8359427452087402 1.1101995706558228 1.5582072734832764 2.0682730674743652 2.3518311977386475 -9999
-9999 12.998950958251953 12.20169734954834 10.402427673339844 8.183103561401367 5.793601989746094 3.5346195697784424 1.7996248006820679 0.9195230007171631 0.5435956120491028 0.36574244499206543 0.2945003807544708 0.26994308829307556 0.26851919293403625 0.3037649989128113 0.3932703137397766 0.6052355766296387 0.8693823218345642 1.0449498891830444 -9999
-9999 10.729707717895508 9.664408683776855 7.568278789520264 5.467184543609619 3.650890588760376 2.1806507110595703 1.1479500532150269 0.5739791393280029 0.3282099962234497 0.21202144026756287 0.15423528850078583 0.12292231619358063 0.10813533514738083 0.10645648837089539 0.12565940618515015 0.17826053500175476 0.2933037579059601 0.40091073513031006 -9999
-9999 8.295944213867188 7.17573356628418 5.083898067474365 3.272840976715088 2.0225303173065186 1.1755844354629517 0.6190054416656494 0.33745530247688293 0.1992390900850296 0.12955361604690552 0.08937172591686249 0.06587214022874832 0.05291145294904709 0.04587475210428238 0.04661934822797775 0.05485217273235321 0.0833015963435173 -9999 -9999
-9999 6.5720696449279785 5.4476165771484375 3.5133230686187744 2.0236616134643555 1.1150585412979126 0.6048818826675415 0.33506691455841064 0.1994989663362503 0.12567542493343353 0.08483556658029556 0.05876636505126953 0.0452168844640255 0.04713154956698418 0.049740709364414215 0.052606649696826935 0.05543268471956253 0.05795678868889809 -9999 -9999
-9999 5.452569961547852 4.250846862792969 2.615478754043579 1.375809669494629 0.6390141248703003 0.33503520488739014 0.1877642720937729 0.11670995503664017 0.07747606933116913 0.05462981015443802 0.04819329455494881 0.050490602850914 0.053790148347616196 0.05780315399169922 0.0622917041182518 0.0673619732260704 0.07397160679101944 0.08566570281982422 0.09107256680727005
-9999 -9999 3.1028268337249756 2.005098819732666 1.0034079551696777 0.4307294487953186 0.2069588303565979 0.11316729336977005 0.07077538967132568 0.04943941533565521 0.05015401542186737 0.052333150058984756 0.05580073595046997 0.06031340733170509 0.06548169255256653 0.07101495563983917 0.07687710225582123 0.08312983065843582 0.08966433256864548 0.09307439625263214
-9999 -9999 2.139461040496826 1.487114667892456 0.7545194029808044 0.30681031942367554 0.13786086440086365 0.07205884158611298 0.05085853114724159 0.05116536095738411 0.052818406373262405 0.05584762245416641 0.06016135960817337 0.06550463289022446 0.07138657569885254 0.07740568369626999 0.08330490440130234 0.08861733227968216 0.09276235103607178 0.0949675664305687
-9999 -9999 -9999 1.1805877685546875 0.6181758046150208 0.25804123282432556 0.11254890263080597 0.057741519063711166 0.051387421786785126 0.052251964807510376 0.05437636747956276 0.057812273502349854 0.06255488097667694 0.06831790506839752 0.07455823570489883 0.0807277262210846 0.08653590828180313 0.09114636480808258 0.09440141171216965 0.09609150886535645
