ncols         20
nrows         20
xllcorner     0
yllcorner     -3.5992928
cellsize      0.17996463
NODATA_value  -9999
-9999.0 -9999 -9999 -9999 -9999 -9999 -9999 -9999 -9999 -9999 -9999 -9999 -9999 -9999 -9999 -9999 -9999 -9999 -9999 -9999
-9999 -9999 -9999 -9999 -9999 -9999 -9999 -9999 -9999 -9999 -9999 0 0 -9999 -9999 0 0 -9999 -9999 -9999
-9999 -9999 -9999 -9999 0 0 0 0 0 0 0 0 0 0 0 0 0 0 -9999 -9999
-9999 -9999 -9999 0 0 0 0 0 0 0 0 0 0 0 0 0 0 0 -9999 -9999
-9999 -9999 -9999 0 0 0 0 0 0 0 0 0 0 0 0 0 0 0 -9999 -9999
-9999 -9999 0 0 0 0 3.9709537029266357 3.6825191974639893 3.4711759090423584 3.2769534587860107 3.109055519104004 3.046988010406494 3.121779441833496 3.3459668159484863 3.6694376468658447 4.080134391784668 0 0 0 -9999
-9999 -9999 0 0 0 3.9129903316497803 3.481447458267212 3.159686326980591 2.865450143814087 2.5713493824005127 2.3235785961151123 2.208686590194702 2.2645747661590576 2.5030367374420166 0.32124561071395874 3.415614366531372 0 0 0 -9999
-9999 -9999 0 0 4.017911434173584 3.5313360691070557 3.1208081245422363 2.7421398162841797 2.376126527786255 2.0389013290405273 1.792582631111145 1.6708178520202637 1.701228141784668 1.8928499221801758 2.242356061935425 2.731675386428833 3.328610420227051 0 0 -9999
-9999 0 0 4.287575721740723 3.7316668033599854 3.2403838634490967 2.7688522338867188 2.315544605255127 1.9163050651550293 1.6071624755859375 1.4120113849639893 1.3200041055679321 1.3301453590393066 1.460351824760437 1.7161757946014404 0.4685361385345459 2.6066184043884277 3.1353068351745605 0 -9999
-9999 0 0 4.1584601402282715 3.514869451522827 2.9178566932678223 2.3537497520446777 1.8558036088943481 1.4800866842269897 1.240509271621704 1.113908052444458 1.0580365657806396 1.0668588876724243 1.1447733640670776 1.3156217336654663 0.3542768061161041 1.9899756908416748 2.430935859680176 0 -9999
-9999 0 0 4.023778915405273 3.258471727371216 2.568734884262085 1.9466313123703003 1.4485697746276855 1.129149079322815 0.9560197591781616 0.8744599223136902 0.8449335694313049 0.8528634309768677 0.9015572667121887 1.0068856477737427 1.1942671537399292 1.4749113321304321 0 0 -9999
-9999 0 0 3.7656667232513428 2.9217183589935303 2.2059824466705322 1.599471092224121 1.1560192108154297 0.8988894820213318 0.7689682841300964 0.7124464511871338 0.6917155981063843 0.30962008237838745 0.4016486406326294 0.7809793949127197 0.1981828212738037 1.0745636224746704 0 0 -9999
-9999 0 0 3.309316873550415 2.4765799045562744 1.818400502204895 1.3055635690689087 0.9512431025505066 0.7545719742774963 0.6627290844917297 0.6170582175254822 0.601313591003418 0.40096259117126465 0.5470460653305054 0.43195840716362 0.7072479128837585 0.8166440725326538 0 0 -9999
-9999 0 0 2.7126681804656982 1.956843614578247 1.4215648174285889 1.0452905893325806 0.8015486598014832 0.6643256545066833 0.6026349663734436 0.5735728740692139 0.5620003938674927 0.24938984215259552 0.4431467652320862 0.39251410961151123 0.6234094500541687 0.6836867928504944 0 0 -9999
-9999 0 0 2.159780740737915 1.5095901489257812 1.1040996313095093 0.8510146737098694 0.6946749687194824 0.6133736371994019 0.5721690654754639 0.5519333481788635 0.5430936217308044 0.5423421859741211 0.5486262440681458 0.3746577203273773 0.325050950050354 0.6221176981925964 0 -9999 -9999
-9999 0 0 1.7830137014389038 1.2329107522964478 0.9121391177177429 0.7338865995407104 0.6361911296844482 0.5839197635650635 0.5549439191818237 0.35981643199920654 0.41434961557388306 0.05917305126786232 0.539699375629425 0.24518711864948273 0.25310218334198 0.594866931438446 0.0885496661067009 -9999 -9999
-9999 0 0 1.5475572347640991 1.07467782497406 0.8012692332267761 0.6721591353416443 0.6028224229812622 0.5649675726890564 0.3621447682380676 0.4722990393638611 0.5275509357452393 0.41178256273269653 0.5350586771965027 0.5443164110183716 0.5574349164962769 0.5748432278633118 0.5917477607727051 0.4228813052177429 0.5929105281829834
-9999 -9999 0 1.368230938911438 0.9736326336860657 0.7456743717193604 0.6386088728904724 0.5836327075958252 0.3073713183403015 0.4762815833091736 0.5288636088371277 0.5263898372650146 0.4689868688583374 0.4137643575668335 0.3593692183494568 0.365642249584198 0.3730802834033966 0.44388651847839355 0.5120909810066223 0.5780746340751648
-9999 -9999 0 0 0.9066139459609985 0.7099558711051941 0.6184572577476501 0.5718505382537842 0.36499902606010437 0.5354184508323669 0.528594970703125 0.525958240032196 0.5267111659049988 0.5302018523216248 0.5357834696769714 0.5428416728973389 0.5505766272544861 0.5575683116912842 0.561890184879303 0.5638309121131897
-9999 -9999 -9999 0 0.864766001701355 0.6942000985145569 0.6101796627044678 0.5671958327293396 0.3647579252719879 0.5353225469589233 0.5285675525665283 0.5258301496505737 0.5263404846191406 0.529386579990387 0.5342440009117126 0.5401883125305176 0.5464576482772827 0.5518592000007629 0.5555021166801453 0.5572735667228699
