ncols         20
nrows         20
xllcorner     0
yllcorner     -3.5992928
cellsize      0.17996463
NODATA_value  -9999
-9999.0 -9999 -9999 -9999 -9999 -9999 -9999 -9999 -9999 -9999 -9999 -9999 -9999 -9999 -9999 -9999 -9999 -9999 -9999 -9999
-9999 -9999 -9999 -9999 -9999 -9999 -9999 -9999 -9999 -9999 -9999 1.266540288925171 1.26436448097229 -9999 -9999 1.3373230695724487 1.3085739612579346 -9999 -9999 -9999
-9999 -9999 -9999 -9999 1.2621229887008667 1.2792357206344604 1.3074133396148682 1.3135133981704712 1.3091791868209839 1.3125547170639038 1.288014531135559 1.304416537284851 1.3307101726531982 1.3517756462097168 1.3570499420166016 1.3544938564300537 1.3309721946716309 1.306645154953003 -9999 -9999
-9999 -9999 -9999 1.2902419567108154 1.3055130243301392 1.3217270374298096 1.3387157917022705 1.3405921459197998 1.3413301706314087 1.3378437757492065 1.3429473638534546 1.3593498468399048 1.3851617574691772 1.4045177698135376 1.427166223526001 1.4271609783172607 1.3986754417419434 1.3696621656417847 -9999 -9999
-9999 -9999 -9999 1.324629545211792 1.3456881046295166 1.3827815055847168 1.3946326971054077 1.3870357275009155 1.3482673168182373 1.2805596590042114 1.21149742603302 1.1857781410217285 1.2246692180633545 1.318169355392456 1.4212018251419067 1.4717092514038086 1.4722177982330322 1.4835906028747559 -9999 -9999
-9999 -9999 1.3361598253250122 1.3676860332489014 1.4049444198608398 1.4319525957107544 1.4174046516418457 1.3538724184036255 1.2169822454452515 1.0195201635360718 0.8287721276283264 0.7422694563865662 0.7787436246871948 0.9499677419662476 1.1924434900283813 1.3743324279785156 1.4738943576812744 1.5038024187088013 1.4742741584777832 -9999
-9999 -9999 1.3695722818374634 1.405997395515442 1.4626433849334717 1.4708149433135986 1.4074422121047974 1.2467358112335205 0.9871181845664978 0.691776692867279 0.46522313356399536 0.3660801947116852 0.3855162560939789 0.5367990136146545 0 1.1106224060058594 1.337443470954895 1.4491928815841675 1.4767662286758423 -9999
-9999 -9999 1.444931983947754 1.4886541366577148 1.5211764574050903 1.4759262800216675 1.3112237453460693 1.0304888486862183 0.70180743932724 0.4194503426551819 0.2508443593978882 0.17935501039028168 0.18318386375904083 0.2650490403175354 0.4530644714832306 0.7326325178146362 1.0191279649734497 1.2358543872833252 1.3282811641693115 -9999
-9999 1.4807066917419434 1.5377873182296753 1.562984585762024 1.533447265625 1.3645650148391724 1.0585156679153442 0.6999478936195374 0.404201477766037 0.2184508740901947 0.12720081210136414 0.09031710773706436 0.08816591650247574 0.12397854775190353 0.21708309650421143 0 0.6369557976722717 0.8638725280761719 0.9878843426704407 -9999
-9999 1.5624072551727295 1.5989774465560913 1.5779030323028564 1.4195330142974854 1.0844898223876953 0.6878058910369873 0.36470508575439453 0.17708104848861694 0.09036378562450409 0.055246930569410324 0.041227132081985474 0.0404256209731102 0.052937738597393036 0.0902358889579773 0 0.30992621183395386 0.4707493185997009 0.5689598917961121 -9999
-9999 1.6320316791534424 1.6174954175949097 1.48483145236969 1.179195523262024 0.7605065107345581 0.38358983397483826 0.15648992359638214 0.06264378875494003 0.029736703261733055 0.01831856183707714 0.01439864281564951 0.01424909383058548 0.01805170625448227 0.02927178144454956 0.05690149590373039 0.10979602485895157 0.18643997609615326 0.23668141663074493 -9999
-9999 1.5891751050949097 1.5090022087097168 1.2446708679199219 0.8601042032241821 0.4749183654785156 0.19702813029289246 0.06460799276828766 0.02131861075758934 0.008653796277940273 0.004890745971351862 0.003643132047727704 0 0 0.006381556391716003 0 0.027157489210367203 0.05064113438129425 0.06683828681707382 -9999
-9999 1.3659852743148804 1.206784725189209 0.8577356934547424 0.5143049955368042 0.2485087662935257 0.09152441471815109 0.0260909553617239 0.007174540311098099 0.0025408193469047546 0.0010138723300769925 0.0006376199889928102 0 0 0 0.0015888686757534742 0.004386920016258955 0.00948998425155878 0.013780716806650162 -9999
-9999 0.976908266544342 0.7901384234428406 0.4680802524089813 0.2330690324306488 0.09900832176208496 0.03409481793642044 0.009371881373226643 0.0021663440857082605 0.0007264877785928547 0.0003215711039956659 0.00019224485731683671 0 0 0 0.0002190361119573936 0.0004532653547357768 0.0011877826182171702 0.0020323144271969795 -9999
-9999 0.627120316028595 0.46655499935150146 0.22447866201400757 0.08829305320978165 0.03221115842461586 0.010453037917613983 0.0026781633496284485 0.0008012218168005347 0.00031482326448895037 0.00016407464863732457 0.00010310318612027913 7.588071457576007E-05 6.524479977088049E-05 0 0 9.084639168577269E-05 0.00018966059724334627 -9999 -9999
-9999 0.42745333909988403 0.2940632104873657 0.11830448359251022 0.037704434245824814 0.011012849397957325 0.003040802199393511 0.0009439418790861964 0.0003744158602785319 0.0001855846930993721 0 0 0 9.163078357232735E-05 0 0 0.00015448259364347905 0 -9999 -9999
-9999 0.3127403259277344 0.19656454026699066 0.0739099308848381 0.020156318321824074 0.004161529242992401 0.0011666961945593357 0.0004108952125534415 0.00019634843920357525 0 0 0 0 0.00016223084821831435 0.00020365550881251693 0.0002426263235975057 0.000278631312539801 0.00032203702721744776 0 0
-9999 -9999 0.11763250082731247 0.049403659999370575 0.012544413097202778 0.0023097170051187277 0.0005899138050153852 0.00021791772451251745 0 0 0 0 0 0 0 0 0 0 0 0
-9999 -9999 0.06016092374920845 0.030253034085035324 0.008086380548775196 0.0014035551575943828 0.0003379582485649735 0.0001245712919626385 0 0 0 0 0 0 0 0 0 0 0 0
-9999 -9999 -9999 0.020848246291279793 0.005778551567345858 0.0010990770533680916 0.00026065329439006746 9.703487012302503E-05 0 0 0 0 0 0 0 0 0 0 0 0
