ncols         20
nrows         20
xllcorner     0
yllcorner     -3.5992928
cellsize      0.17996463
NODATA_value  -9999
-9999.0 -9999 -9999 -9999 -9999 -9999 -9999 -9999 -9999 -9999 -9999 -9999 -9999 -9999 -9999 -9999 -9999 -9999 -9999 -9999
-9999 -9999 -9999 -9999 -9999 -9999 -9999 -9999 -9999 -9999 -9999 3.014183521270752 3.0259058475494385 -9999 -9999 3.2491729259490967 3.2566182613372803 -9999 -9999 -9999
-9999 -9999 -9999 -9999 3.2670156955718994 3.2121713161468506 3.130281925201416 3.0348103046417236 2.9472720623016357 2.8874146938323975 2.867574691772461 2.9108831882476807 2.9500770568847656 2.992345094680786 3.0650508403778076 3.1558070182800293 3.1949350833892822 3.2014050483703613 -9999 -9999
-9999 -9999 -9999 3.3071656227111816 3.2475745677948 3.1478116512298584 3.0273730754852295 2.899081230163574 2.788832664489746 2.714932441711426 2.687772750854492 2.7099297046661377 2.765686273574829 2.8447372913360596 2.9384896755218506 3.028775215148926 3.095890760421753 3.1373376846313477 -9999 -9999
-9999 -9999 -9999 3.285306215286255 3.184093952178955 3.0268971920013428 2.8363380432128906 2.6411871910095215 2.485384464263916 2.386350393295288 2.349033832550049 2.3743538856506348 2.4550280570983887 2.572667121887207 2.707278251647949 2.8351402282714844 2.9405882358551025 3.0093493461608887 -9999 -9999
-9999 -9999 3.3517961502075195 3.2645225524902344 3.0950918197631836 2.85085391998291 2.549685478210449 2.2448832988739014 2.0307698249816895 1.9094754457473755 1.8701744079589844 1.9128303527832031 2.035146713256836 2.2005205154418945 2.383296489715576 2.5575742721557617 2.701820135116577 2.791471242904663 2.769076108932495 -9999
-9999 -9999 3.3442463874816895 3.2170145511627197 2.9770264625549316 2.6215994358062744 2.164374351501465 1.6741149425506592 1.4138630628585815 1.2989565134048462 1.2827388048171997 1.3660000562667847 1.5736215114593506 1.7912766933441162 2.0101656913757324 2.219306707382202 2.3977303504943848 2.526890754699707 2.5843663215637207 -9999
-9999 -9999 3.3476905822753906 3.172818183898926 2.8503572940826416 2.372941255569458 1.7246873378753662 0.8196038007736206 0.6111823916435242 0.5644642114639282 0.5894867777824402 0.7101737856864929 1.14423406124115 1.423213005065918 1.6548025608062744 1.8690130710601807 2.059906244277954 2.2116713523864746 2.2980518341064453 -9999
-9999 3.4895107746124268 3.3620123863220215 3.114717721939087 2.7205312252044678 2.171717643737793 1.475370168685913 0.6214951276779175 0.40527114272117615 0.35895538330078125 0.38999244570732117 0.5165095329284668 0.8929442763328552 1.1539461612701416 1.3651702404022217 1.5552335977554321 1.7309343814849854 1.8798741102218628 1.9712004661560059 -9999
-9999 3.4333724975585938 3.287113904953003 2.9990897178649902 2.5642812252044678 1.9963682889938354 1.32646644115448 0.5709945559501648 0.36146578192710876 0.3111054003238678 0.3377302289009094 0.45099884271621704 0.7538893818855286 0.973604142665863 1.150028944015503 1.3075218200683594 1.4518142938613892 1.5794318914413452 1.6623399257659912 -9999
-9999 3.2867660522460938 3.12192964553833 2.8080878257751465 2.3644139766693115 1.8239736557006836 1.2242944240570068 0.5741991996765137 0.3841710686683655 0.33355188369750977 0.3523864448070526 0.44525963068008423 0.6856356859207153 0.8607216477394104 0.9998852014541626 1.125278115272522 1.2409238815307617 1.3459287881851196 1.41676926612854 -9999
-9999 3.0284345149993896 2.8544392585754395 2.537132501602173 2.120601177215576 1.6495308876037598 1.1563998460769653 0.6286899447441101 0.4654829800128937 0.41442328691482544 0.42181485891342163 0.48905429244041443 0.6694247722625732 0.7983471155166626 0.9023489356040955 0.9986633062362671 1.0906951427459717 1.1777420043945312 1.2391369342803955 -9999
-9999 2.67606520652771 2.505096673965454 2.2088730335235596 1.852790355682373 1.481521487236023 1.1279442310333252 0.8257758021354675 0.6633449792861938 0.5911065936088562 0.578480064868927 0.6142676472663879 0.6944095492362976 0.7723063230514526 0.8438851833343506 0.9152374863624573 0.989190399646759 1.0641907453536987 1.1220622062683105 -9999
-9999 2.2874865531921387 2.1317882537841797 1.878696322441101 1.6017377376556396 1.3285925388336182 1.0802769660949707 0.8819350004196167 0.7568778991699219 0.6901925206184387 0.6679099798202515 0.6800300478935242 0.7171319127082825 0.762306809425354 0.8100482225418091 0.8626224994659424 0.9241145849227905 0.9922059774398804 1.0599749088287354 -9999
-9999 1.9425462484359741 1.809515118598938 1.6119928359985352 1.403670072555542 1.2037192583084106 1.0265254974365234 0.8868893980979919 0.793293833732605 0.7387648224830627 0.7150410413742065 0.7151322364807129 0.7321678996086121 0.7584823369979858 0.7903867959976196 0.8283664584159851 0.8759037852287292 0.9197002053260803 -9999 -9999
-9999 1.695725679397583 1.5779755115509033 1.4178657531738281 1.2567825317382812 1.1072213649749756 0.9768980741500854 0.8738660216331482 0.8031373023986816 0.7599732875823975 0.7383441925048828 0.7334628701210022 0.7408989667892456 0.7565744519233704 0.77814120054245 0.8055923581123352 0.8415066599845886 0.8744045495986938 -9999 -9999
-9999 1.560219645500183 1.420583963394165 1.2827147245407104 1.1516363620758057 1.0352325439453125 0.935567319393158 0.856648862361908 0.8021286725997925 0.7679011821746826 0.7492673397064209 0.7428271770477295 0.7456144094467163 0.7550950646400452 0.7696712613105774 0.7889643907546997 0.8140133023262024 0.8389456272125244 0.8420015573501587 0.8440732955932617
-9999 -9999 1.2683488130569458 1.1804840564727783 1.0770032405853271 0.9833337664604187 0.9038107395172119 0.8411215543746948 0.7978866100311279 0.770139753818512 0.7542179822921753 0.7475396394729614 0.7479914426803589 0.7538136839866638 0.7636362910270691 0.7766322493553162 0.7921669483184814 0.8082916140556335 0.816870927810669 0.8200437426567078
-9999 -9999 1.1963263750076294 1.118461012840271 1.0312484502792358 0.9497614502906799 0.8820278644561768 0.829837441444397 0.793956458568573 0.7704486846923828 0.7563819885253906 0.749825119972229 0.7491287589073181 0.7528575658798218 0.7597398161888123 0.7687815427780151 0.7789599299430847 0.7884966135025024 0.7946366667747498 0.7974178194999695
-9999 -9999 -9999 1.0674190521240234 1.0053327083587646 0.9324410557746887 0.8708475828170776 0.8239154815673828 0.7916804552078247 0.7702397108078003 0.7571330666542053 0.7506893277168274 0.7495179772377014 0.7522995471954346 0.757813572883606 0.7650031447410583 0.7728698253631592 0.7799001932144165 0.784788966178894 0.7871974110603333
