ncols         20
nrows         20
xllcorner     0
yllcorner     -3.5992928
cellsize      0.17996463
NODATA_value  -9999
-9999.0 -9999 -9999 -9999 -9999 -9999 -9999 -9999 -9999 -9999 -9999 -9999 -9999 -9999 -9999 -9999 -9999 -9999 -9999 -9999
-9999 -9999 -9999 -9999 -9999 -9999 -9999 -9999 -9999 -9999 -9999 1.1349501609802246 1.117488980293274 -9999 -9999 1.0757046937942505 1.0113259553909302 -9999 -9999 -9999
-9999 -9999 -9999 -9999 1.1563063859939575 1.230928659439087 1.3629170656204224 1.463024616241455 1.5217736959457397 1.5583727359771729 1.418764591217041 1.3333821296691895 1.342214584350586 1.3569573163986206 1.2567923069000244 1.1353259086608887 1.0373164415359497 0.9669160842895508 -9999 -9999
-9999 -9999 -9999 1.0785024166107178 1.1652240753173828 1.2644606828689575 1.39949369430542 1.5240163803100586 1.6579679250717163 1.773045301437378 1.8536908626556396 1.8578157424926758 1.8482232093811035 1.7339153289794922 1.5554111003875732 1.341177225112915 1.1658623218536377 1.067588210105896 -9999 -9999
-9999 -9999 -9999 1.0497245788574219 1.138784646987915 1.303576946258545 1.4866724014282227 1.6845611333847046 1.9302089214324951 2.2723939418792725 2.6276988983154297 2.8321893215179443 2.8107810020446777 2.5069613456726074 2.131803035736084 1.7259036302566528 1.4212791919708252 1.3422634601593018 -9999 -9999
-9999 -9999 0.8244379758834839 0.961394727230072 1.107838749885559 1.3004839420318604 1.5025662183761597 1.733717679977417 2.107692241668701 2.6282193660736084 3.243844509124756 3.6480910778045654 3.761050224304199 3.4079039096832275 2.8092093467712402 2.2270188331604004 1.7870116233825684 1.597812294960022 1.432949185371399 -9999
-9999 -9999 0.7915583848953247 0.8908390998840332 1.0768007040023804 1.2885090112686157 1.4654717445373535 1.6467734575271606 1.9768565893173218 2.469559907913208 3.074932098388672 3.6288700103759766 4.054876327514648 3.9650704860687256 3.4748637676239014 2.806504726409912 2.2597765922546387 1.8972643613815308 1.7367037534713745 -9999
-9999 -9999 0.7815844416618347 0.9000445008277893 1.1101233959197998 1.305627703666687 1.4129289388656616 1.2982659339904785 1.3834326267242432 1.5885584354400635 1.8554621934890747 2.2840871810913086 3.477436065673828 3.8931283950805664 3.746213436126709 3.265465259552002 2.752225399017334 2.332674980163574 2.1537747383117676 -9999
-9999 0.6434100866317749 0.7930201292037964 0.9717500805854797 1.2319419384002686 1.4450299739837646 1.4634305238723755 1.1635668277740479 1.0981281995773315 1.1479061841964722 1.2866716384887695 1.657007098197937 2.8613877296447754 3.519590377807617 3.7162485122680664 3.523737668991089 3.1181745529174805 2.7379183769226074 2.5616681575775146 -9999
-9999 0.7197998762130737 0.8583658337593079 1.1313611268997192 1.4551401138305664 1.6718218326568604 1.6016602516174316 1.109277606010437 0.9319315552711487 0.8933011293411255 0.9670472741127014 1.2815234661102295 2.351149797439575 3.0711593627929688 3.446004629135132 3.508542060852051 3.2970187664031982 3.0271341800689697 2.8954927921295166 -9999
-9999 0.8826726675033569 1.0385856628417969 1.355725646018982 1.6901359558105469 1.876462459564209 1.7238142490386963 1.0644313097000122 0.8197289705276489 0.7385721802711487 0.7818058729171753 1.045150637626648 1.9967814683914185 2.6672048568725586 3.0954954624176025 3.2925992012023926 3.285736560821533 3.1508138179779053 3.078963041305542 -9999
-9999 1.156408667564392 1.3209630250930786 1.6632261276245117 1.9714428186416626 2.0855064392089844 1.859795331954956 1.0965747833251953 0.8314480781555176 0.730569064617157 0.7465171217918396 0.9498334527015686 1.7562665939331055 2.311998128890991 2.7085235118865967 2.970543384552002 3.087238073348999 3.0856595039367676 3.076047420501709 -9999
-9999 1.552945613861084 1.7396667003631592 2.091933250427246 2.312458038330078 2.3306031227111816 2.0994081497192383 1.6546825170516968 1.3267580270767212 1.143546223640442 1.117214322090149 1.2617278099060059 1.6123864650726318 1.9477955102920532 2.24919056892395 2.5149483680725098 2.7233545780181885 2.8399171829223633 2.879988670349121 -9999
-9999 2.0079257488250732 2.192335367202759 2.5106401443481445 2.6325268745422363 2.5246970653533936 2.239032745361328 1.8606727123260498 1.5356676578521729 1.3244671821594238 1.2465791702270508 1.2876380681991577 1.4183900356292725 1.572950839996338 1.7315218448638916 1.9262405633926392 2.167163848876953 2.4413671493530273 2.5915932655334473 -9999
-9999 2.333045244216919 2.475834369659424 2.7233290672302246 2.7398488521575928 2.5269432067871094 2.1999993324279785 1.8517119884490967 1.5514895915985107 1.3498492240905762 1.2503089904785156 1.2218173742294312 1.2391847372055054 1.2766165733337402 1.3164994716644287 1.3988192081451416 1.5359165668487549 1.7972066402435303 -9999 -9999
-9999 2.4272823333740234 2.5111243724823 2.6691372394561768 2.597815990447998 2.3435745239257812 2.0266294479370117 1.7128281593322754 1.468616008758545 1.3010972738265991 1.2046914100646973 1.1458244323730469 1.1042927503585815 1.0673542022705078 1.0389673709869385 1.0250611305236816 1.0390180349349976 0.9620707035064697 -9999 -9999
-9999 2.4659621715545654 2.418517827987671 2.474586009979248 2.3624002933502197 2.102047920227051 1.7965621948242188 1.5259968042373657 1.3308029174804688 1.1972172260284424 1.111967921257019 1.0432584285736084 0.9775325059890747 0.9180018305778503 0.8579235076904297 0.803966224193573 0.760960042476654 0.709499716758728 0.6771982908248901 0.6104453802108765
-9999 -9999 2.2148520946502686 2.2434682846069336 2.130143165588379 1.872554063796997 1.5804518461227417 1.341643214225769 1.1780239343643188 1.07023024559021 0.9988526105880737 0.9348688125610352 0.8703322410583496 0.7910344004631042 0.723500669002533 0.6731888651847839 0.619664192199707 0.5812942385673523 0.5503795146942139 0.5794546008110046
-9999 -9999 2.163712501525879 2.0792300701141357 1.946834683418274 1.6852004528045654 1.3985557556152344 1.1734575033187866 1.024962306022644 0.9379909634590149 0.8937339782714844 0.8371540307998657 0.7711254358291626 0.6925803422927856 0.6347038745880127 0.5940062403678894 0.5562233328819275 0.535354495048523 0.5744571089744568 0.5964484810829163
-9999 -9999 -9999 1.9359253644943237 1.8437308073043823 1.592118740081787 1.3090630769729614 1.092485785484314 0.9558379650115967 0.8830043077468872 0.841690719127655 0.8004950284957886 0.7345319986343384 0.6567659378051758 0.5933210849761963 0.567314863204956 0.5232740640640259 0.5546832084655762 0.5891343951225281 0.6081824898719788
