ncols         20
nrows         20
xllcorner     0
yllcorner     -3.5992928
cellsize      0.17996463
NODATA_value  -9999
-9999.0 -9999 -9999 -9999 -9999 -9999 -9999 -9999 -9999 -9999 -9999 -9999 -9999 -9999 -9999 -9999 -9999 -9999 -9999 -9999
-9999 -9999 -9999 -9999 -9999 -9999 -9999 -9999 -9999 -9999 -9999 0 0 -9999 -9999 0 0 -9999 -9999 -9999
-9999 -9999 -9999 -9999 0 0 0 0 0 0 0 0 0 0 0 0 0 0 -9999 -9999
-9999 -9999 -9999 0 0 0 0 0 0 0 0 0 0 0 0 0 0 0 -9999 -9999
-9999 -9999 -9999 0 0 0 0 0 0 0 0 0 0 0 0 0 0 0 -9999 -9999
-9999 -9999 0 0 0 0 8.47512149810791 7.48746919631958 6.6982903480529785 5.897980213165283 5.174352169036865 4.876668930053711 5.113273620605469 5.967013835906982 7.2577362060546875 8.891312599182129 0 0 0 -9999
-9999 -9999 0 0 0 8.524384498596191 7.024825572967529 5.870824337005615 4.767580986022949 3.6862010955810547 2.838589906692505 2.456562042236328 2.5811381340026855 3.2780327796936035 4.560576915740967 6.482126235961914 0 0 0 -9999
-9999 -9999 0 0 9.229218482971191 7.467138290405273 5.960949420928955 4.569944381713867 3.302290201187134 2.264528512954712 1.6065657138824463 1.3055435419082642 1.3453840017318726 1.7573142051696777 2.6494994163513184 4.140931129455566 6.24210786819458 0 0 -9999
-9999 0 0 10.692350387573242 8.515677452087402 6.58962345123291 4.794335842132568 3.229240655899048 2.0564634799957275 1.3064614534378052 0.908170223236084 0.734631359577179 0.7335103750228882 0.9365705251693726 1.4172983169555664 2.3324947357177734 3.764939546585083 5.538778781890869 0 -9999
-9999 0 0 10.58553409576416 7.832475662231445 5.403677940368652 3.3867247104644775 1.9372893571853638 1.0881866216659546 0.6644192337989807 0.47706541419029236 0.39787212014198303 0.39798036217689514 0.48238056898117065 0.7096821665763855 1.1732474565505981 2.015695095062256 3.151766777038574 0 -9999
-9999 0 0 10.171295166015625 6.779810905456543 4.107766628265381 2.1741943359375 1.0321533679962158 0.5105568766593933 0.2991204261779785 0.21610064804553986 0.1860414743423462 0.186725914478302 0.22095228731632233 0.3124684989452362 0.5178912878036499 0.9113588333129883 0 0 -9999
-9999 0 0 8.920180320739746 5.340963840484619 2.8828232288360596 1.3265396356582642 0.5451209545135498 0.2408870905637741 0.12967780232429504 0.08989303559064865 0.07496806234121323 0.07418463379144669 0.08382297307252884 0.11216706782579422 0.1824413239955902 0.33308225870132446 0 0 -9999
-9999 0 0 6.66892671585083 3.6156270503997803 1.7780290842056274 0.7581987380981445 0.28888896107673645 0.11737394332885742 0.06000298261642456 0.035989176481962204 0.027574019506573677 0.02495628595352173 0.026368658989667892 0.033822089433670044 0.05210097134113312 0.09981223195791245 0 0 -9999
-9999 0 0 4.14617919921875 1.9902492761611938 0.9039728045463562 0.3764757215976715 0.1466175764799118 0.058182403445243835 0.029302014037966728 0.01762397401034832 0.012574849650263786 0.01029047742486 0.009791005402803421 0.010843861848115921 0.014856956899166107 0.025112517178058624 0 0 -9999
-9999 0 0 2.333432674407959 0.9681283831596375 0.4065970182418823 0.170451819896698 0.06901052594184875 0.03155725076794624 0.01674828678369522 0.010318377055227757 0.007069626823067665 0.005412183701992035 0.004690700210630894 0.004486471880227327 0.005097756627947092 0.006815824192017317 0 -9999 -9999
-9999 0 0 1.4054675102233887 0.5186637043952942 0.19622226059436798 0.08012406527996063 0.036088138818740845 0.01864495873451233 0.010695423930883408 0.006879682186990976 0.0047543770633637905 0.0038029581774026155 0.0042209746316075325 0.00479002995416522 0.005475929006934166 0.006249677389860153 0.006942473817616701 -9999 -9999
-9999 0 0 0.954585611820221 0.3262193500995636 0.10616081953048706 0.043747760355472565 0.020584609359502792 0.011281915009021759 0.0068626124411821365 0.0046266959980130196 0.004064450040459633 0.004368536174297333 0.004855687264353037 0.005485842935740948 0.006229607854038477 0.007084112148731947 0.00805218517780304 0.009206186980009079 0.009756929241120815
-9999 -9999 0 0.6753981113433838 0.22704991698265076 0.0710439383983612 0.027536917477846146 0.01287262886762619 0.007145679090172052 0.004579192493110895 0.004440820310264826 0.004566841293126345 0.004920103587210178 0.005461204797029495 0.0061361584812402725 0.006899680010974407 0.007722302805632353 0.008563846349716187 0.009312290698289871 0.009689569473266602
-9999 -9999 0 0 0.1662043333053589 0.0506470613181591 0.018756024539470673 0.008456085808575153 0.005306514445692301 0.004919836763292551 0.004819138441234827 0.004978708922863007 0.005367407575249672 0.005942146759480238 0.006637485232204199 0.0073928432539105415 0.008154590614140034 0.008839521557092667 0.009348765946924686 0.009612513706088066
-9999 -9999 -9999 0 0.13430142402648926 0.04293270409107208 0.015564005821943283 0.006883204448968172 0.005475255660712719 0.005114608444273472 0.005032580345869064 0.005206850357353687 0.005612862296402454 0.006203658413141966 0.006908111274242401 0.007650546729564667 0.008374186232686043 0.008966068737208843 0.009382233954966068 0.009595959447324276
