ncols         20
nrows         20
xllcorner     0
yllcorner     -3.5992928
cellsize      0.17996463
NODATA_value  -9999
-9999.0 -9999 -9999 -9999 -9999 -9999 -9999 -9999 -9999 -9999 -9999 -9999 -9999 -9999 -9999 -9999 -9999 -9999 -9999 -9999
-9999 -9999 -9999 -9999 -9999 -9999 -9999 -9999 -9999 -9999 -9999 0.5605948567390442 0.5492494106292725 -9999 -9999 0.496566504240036 0.4657399356365204 -9999 -9999 -9999
-9999 -9999 -9999 -9999 0.6071270704269409 0.6476730108261108 0.719679594039917 0.774847149848938 0.8056968450546265 0.8201738595962524 0.7367634773254395 0.6758351922035217 0.6696059107780457 0.6680569648742676 0.6075403690338135 0.5362332463264465 0.4858595132827759 0.45382627844810486 -9999 -9999
-9999 -9999 -9999 0.5797159075737 0.6235365271568298 0.6792886257171631 0.7574685215950012 0.830993115901947 0.9068707227706909 0.9656401872634888 0.9976151585578918 0.9810868501663208 0.9560182094573975 0.8784058690071106 0.7722601294517517 0.6535210013389587 0.5617969632148743 0.5125806331634521 -9999 -9999
-9999 -9999 -9999 0.5793939828872681 0.6311112642288208 0.7317978739738464 0.8504824638366699 0.9830781817436218 1.1405224800109863 1.3412392139434814 1.5290663242340088 1.6084678173065186 1.5504132509231567 1.3429927825927734 1.1145484447479248 0.8830311298370361 0.7171111106872559 0.6737551093101501 -9999 -9999
-9999 -9999 0.4857124090194702 0.5579981803894043 0.6502076387405396 0.7852619290351868 0.9459161758422852 1.1442312002182007 1.435984492301941 1.8025612831115723 2.1832151412963867 2.360316276550293 2.3111677169799805 1.9955953359603882 1.586992859840393 1.2201708555221558 0.9621101021766663 0.8566741943359375 0.7831289172172546 -9999
-9999 -9999 0.48501864075660706 0.549538791179657 0.6848862171173096 0.8682161569595337 1.078627347946167 1.3581831455230713 1.7540055513381958 2.24353289604187 2.7272658348083496 2.9978110790252686 2.972820997238159 2.6554412841796875 0 1.6907631158828735 1.3183765411376953 1.090029001235962 0.996677041053772 -9999
-9999 -9999 0.5115892291069031 0.6018083691596985 0.7840826511383057 1.019166111946106 1.310909628868103 1.6747525930404663 2.1101558208465576 2.6045637130737305 3.0222508907318115 3.2930171489715576 3.3182597160339355 3.097611665725708 2.7050817012786865 2.218172073364258 1.7820221185684204 1.4685593843460083 1.3411391973495483 -9999
-9999 0.4668799936771393 0.564616858959198 0.7123843431472778 0.9752643704414368 1.3142839670181274 1.6953206062316895 2.1359589099884033 2.5757405757904053 2.965067148208618 3.244051933288574 3.4309840202331543 3.505521059036255 3.4098026752471924 3.1824491024017334 0 2.320700168609619 1.9445245265960693 1.7822165489196777 -9999
-9999 0.5451958775520325 0.6563365459442139 0.9032009243965149 1.2740848064422607 1.7254716157913208 2.2156190872192383 2.704103708267212 3.0976626873016357 3.353055953979492 3.490940570831299 3.6047017574310303 3.683969259262085 3.6933553218841553 3.588564157485962 0 2.8939449787139893 2.5033419132232666 2.328941822052002 -9999
-9999 0.706517219543457 0.8469863533973694 1.16017746925354 1.5948067903518677 2.116380453109741 2.6813559532165527 3.189467191696167 3.5095784664154053 3.6659834384918213 3.7538459300994873 3.8550572395324707 3.9855856895446777 4.0416483879089355 3.980475902557373 3.81707501411438 3.465747833251953 3.1135404109954834 2.9438464641571045 -9999
-9999 0.9747056365013123 1.1366913318634033 1.502234935760498 1.9655816555023193 2.485421895980835 3.0312259197235107 3.4695301055908203 3.6923952102661133 3.782773494720459 3.861185312271118 4.020066261291504 0 0 4.33371114730835 0 3.9541618824005127 3.6709930896759033 3.5209403038024902 -9999
-9999 1.3680492639541626 1.5649256706237793 1.981004238128662 2.4195024967193604 2.8704397678375244 3.29671049118042 3.598809003829956 3.701387405395508 3.710599184036255 3.757333755493164 3.9083991050720215 0 0 0 4.190230846405029 4.084532737731934 3.965766668319702 3.837567090988159 -9999
-9999 1.8412622213363647 2.063824415206909 2.513370990753174 2.922484874725342 3.253308057785034 3.5026400089263916 3.626002073287964 3.618621826171875 3.5776560306549072 3.5815012454986572 3.6543705463409424 0 0 0 3.710646629333496 3.748436689376831 3.8938543796539307 3.797367811203003 -9999
-9999 2.243367910385132 2.469693422317505 2.927382469177246 3.2811872959136963 3.4732587337493896 3.555302858352661 3.553184986114502 3.505995988845825 3.472639322280884 3.4779810905456543 3.447939395904541 3.386575698852539 3.2784976959228516 0 0 3.086568832397461 3.3950014114379883 -9999 -9999
-9999 2.4677064418792725 2.6902120113372803 3.1178367137908936 3.386953830718994 3.4672181606292725 3.4521124362945557 3.4089441299438477 3.4041237831115723 3.4471516609191895 0 0 0 2.916219711303711 0 0 2.391808271408081 0 -9999 -9999
-9999 2.6291182041168213 2.815192699432373 3.164396286010742 3.3600411415100098 3.350653648376465 3.274684429168701 3.2268588542938232 3.28035831451416 0 0 0 0 2.65021014213562 2.3586840629577637 2.1133062839508057 1.9299777746200562 1.7993263006210327 0 0
-9999 -9999 2.9127278327941895 3.162245035171509 3.294823169708252 3.2165675163269043 3.081498146057129 3.027726411819458 0 0 0 0 0 0 0 0 0 0 0 0
-9999 -9999 3.068986415863037 3.175715446472168 3.223578691482544 3.0730810165405273 2.87261962890625 2.7742700576782227 0 0 0 0 0 0 0 0 0 0 0 0
-9999 -9999 -9999 3.166273355484009 3.1806397438049316 3.0018835067749023 2.7647664546966553 2.644294261932373 0 0 0 0 0 0 0 0 0 0 0 0
