ncols         20
nrows         20
xllcorner     0
yllcorner     -3.5992928
cellsize      0.17996463
NODATA_value  -9999
-9999.0 -9999 -9999 -9999 -9999 -9999 -9999 -9999 -9999 -9999 -9999 -9999 -9999 -9999 -9999 -9999 -9999 -9999 -9999 -9999
-9999 -9999 -9999 -9999 -9999 -9999 -9999 -9999 -9999 -9999 -9999 2.3829071521759033 2.377764940261841 -9999 -9999 2.458303213119507 2.432178258895874 -9999 -9999 -9999
-9999 -9999 -9999 -9999 2.507303476333618 2.5181968212127686 2.532118797302246 2.5145370960235596 2.4802184104919434 2.4524824619293213 2.4028711318969727 2.403834104537964 2.4187190532684326 2.429128408432007 2.4388883113861084 2.4516165256500244 2.434209108352661 2.407050609588623 -9999 -9999
-9999 -9999 -9999 2.5424609184265137 2.5534493923187256 2.5600991249084473 2.5567498207092285 2.5253140926361084 2.484952449798584 2.441932201385498 2.413958787918091 2.406407117843628 2.417066812515259 2.433472156524658 2.4634602069854736 2.4777605533599854 2.4607176780700684 2.4366462230682373 -9999 -9999
-9999 -9999 -9999 2.576220989227295 2.5924253463745117 2.6132068634033203 2.5890212059020996 2.520745038986206 2.4330387115478516 2.3357083797454834 2.2442972660064697 2.1938586235046387 2.2076807022094727 2.2792932987213135 2.3754513263702393 2.4433720111846924 2.458667755126953 2.473818063735962 -9999 -9999
-9999 -9999 2.582061767578125 2.6144285202026367 2.6428604125976562 2.637396812438965 2.5475378036499023 2.379207134246826 2.2066102027893066 2.019536018371582 1.8331613540649414 1.7278976440429688 1.7451236248016357 1.8833508491516113 2.085981845855713 2.2553558349609375 2.3505735397338867 2.3811542987823486 2.3248629570007324 -9999
-9999 -9999 2.6092777252197266 2.6441352367401123 2.6809897422790527 2.6175355911254883 2.3835341930389404 1.9761598110198975 1.7063710689544678 1.457816243171692 1.2371397018432617 1.1329920291900635 1.2040501832962036 1.394166111946106 1.6582614183425903 1.9150010347366333 2.1095685958862305 2.2043917179107666 2.2248075008392334 -9999
-9999 -9999 2.6680939197540283 2.7092082500457764 2.708268165588379 2.5309104919433594 2.0496034622192383 0.9027292728424072 0.662286639213562 0.5554944276809692 0.49141955375671387 0.4975062906742096 0.7489727735519409 0.9516707062721252 1.2087823152542114 1.5014721155166626 1.7480734586715698 1.9063106775283813 1.9748823642730713 -9999
-9999 2.65126633644104 2.720390796661377 2.7493648529052734 2.6743972301483154 2.3864123821258545 1.8047547340393066 0.6736586689949036 0.41274818778038025 0.3248455226421356 0.295291543006897 0.3209800720214844 0.48927754163742065 0.6249566674232483 0.7999462485313416 1.0413920879364014 1.306820034980774 1.5121231079101562 1.6068650484085083 -9999
-9999 2.6786952018737793 2.7148351669311523 2.6958625316619873 2.5018742084503174 2.0961432456970215 1.4871829748153687 0.544586181640625 0.3084132969379425 0.23157623410224915 0.21223676204681396 0.23099148273468018 0.3247861862182617 0.39158838987350464 0.48677536845207214 0.6363162398338318 0.8432353138923645 1.0326101779937744 1.1286782026290894 -9999
-9999 2.640230655670166 2.6192798614501953 2.489914655685425 2.1809871196746826 1.7351808547973633 1.1442968845367432 0.42629557847976685 0.234531432390213 0.16965997219085693 0.15031570196151733 0.1562097668647766 0.19430412352085114 0.22016990184783936 0.2606605589389801 0.338207870721817 0.45407432317733765 0.582711398601532 0.6522868871688843 -9999
-9999 2.4476091861724854 2.360077142715454 2.118375778198242 1.752803087234497 1.3267165422439575 0.8258901834487915 0.32836729288101196 0.17789240181446075 0.11968789249658585 0.0976252481341362 0.09137333184480667 0.09868595004081726 0.10242660343647003 0.11371520161628723 0.14505918323993683 0.20177404582500458 0.26808834075927734 0.3045181632041931 -9999
-9999 2.062002658843994 1.9165985584259033 1.6119574308395386 1.2656002044677734 0.9015893936157227 0.5507165193557739 0.2720772624015808 0.13934949040412903 0.08471757918596268 0.05687905102968216 0.0451786182820797 0.03921685740351677 0.035927530378103256 0.03728568181395531 0.04572266712784767 0.0721399188041687 0.10225865244865417 0.12098314613103867 -9999
-9999 1.577627420425415 1.412018060684204 1.0853755474090576 0.7719002366065979 0.5136622190475464 0.3083333373069763 0.16207867860794067 0.07980400323867798 0.04734617844223976 0.031844254583120346 0.02370852790772915 0.018662963062524796 0.01568538323044777 0.014393681660294533 0.015635233372449875 0.020625855773687363 0.03137371316552162 0.03938831016421318 -9999
-9999 1.1506158113479614 0.9805339574813843 0.6699919104576111 0.417767733335495 0.25554707646369934 0.14897224307060242 0.076691173017025 0.04305564612150192 0.027495482936501503 0.019716709852218628 0.014967103488743305 0.011924310587346554 0.010160968638956547 0.009060079231858253 0.009040693752467632 0.00996577087789774 0.013704374432563782 -9999 -9999
-9999 0.8646700382232666 0.7000037431716919 0.4301753342151642 0.2374681532382965 0.1276654750108719 0.06677541136741638 0.037898603826761246 0.024596305564045906 0.017783597111701965 0.014134444296360016 0.011582080274820328 0.010306187905371189 0.011721138842403889 0.012966830283403397 0.013919497840106487 0.014575709588825703 0.015171213075518608 -9999 -9999
-9999 0.6890531182289124 0.5174204111099243 0.3026721477508545 0.1517784148454666 0.06540200114250183 0.034226223826408386 0.02082591876387596 0.015118401497602463 0.012307221069931984 0.010813144966959953 0.011438453570008278 0.01361781731247902 0.015760991722345352 0.017757577821612358 0.01952160894870758 0.021171679720282555 0.02328312397003174 0.027584195137023926 0.02938484400510788
-9999 -9999 0.35430482029914856 0.2213078886270523 0.10631229728460312 0.04222201183438301 0.020963110029697418 0.013298246078193188 0.010456519201397896 0.00944518018513918 0.011689161881804466 0.014188929460942745 0.016850754618644714 0.01955576427280903 0.022060509771108627 0.024219868704676628 0.026121122762560844 0.02787749469280243 0.02968611940741539 0.030422354117035866
-9999 -9999 0.23289234936237335 0.15732628107070923 0.0770091637969017 0.02960546687245369 0.014406914822757244 0.009417343884706497 0.008780675940215588 0.011129011400043964 0.013692242093384266 0.016494352370500565 0.019487693905830383 0.02252020873129368 0.025250010192394257 0.02747538313269615 0.029220350086688995 0.030387114733457565 0.03096885047852993 0.031169652938842773
-9999 -9999 -9999 0.1200411394238472 0.059059590101242065 0.02447262778878212 0.012078617699444294 0.00815821997821331 0.009568270295858383 0.01210884191095829 0.014836679212749004 0.017764758318662643 0.020907364785671234 0.02408421039581299 0.026908952742815018 0.029076410457491875 0.0306834913790226 0.03136119991540909 0.03153214976191521 0.03153739124536514
