ncols         20
nrows         20
xllcorner     0
yllcorner     -3.5992928
cellsize      0.17996463
NODATA_value  -9999
-9999.0 -9999 -9999 -9999 -9999 -9999 -9999 -9999 -9999 -9999 -9999 -9999 -9999 -9999 -9999 -9999 -9999 -9999 -9999 -9999
-9999 -9999 -9999 -9999 -9999 -9999 -9999 -9999 -9999 -9999 -9999 2.7446584701538086 2.758631944656372 -9999 -9999 3.106457233428955 3.129859685897827 -9999 -9999 -9999
-9999 -9999 -9999 -9999 2.9563372135162354 2.8738327026367188 2.7586669921875 2.6448538303375244 2.555473804473877 2.505319118499756 2.5048718452453613 2.58024001121521 2.6241559982299805 2.656660795211792 2.7595722675323486 2.9253857135772705 3.008509635925293 3.0249176025390625 -9999 -9999
-9999 -9999 -9999 2.931680917739868 2.8659706115722656 2.730271816253662 2.575258731842041 2.4405415058135986 2.341992139816284 2.2848172187805176 2.2712836265563965 2.300124406814575 2.3478565216064453 2.417843818664551 2.5286202430725098 2.672445774078369 2.804971218109131 2.884558916091919 -9999 -9999
-9999 -9999 -9999 2.799375534057617 2.6633987426757812 2.4518134593963623 2.2222704887390137 2.0573854446411133 1.9500020742416382 1.8883256912231445 1.8659898042678833 1.8790491819381714 1.9219473600387573 1.9978632926940918 2.1174700260162354 2.2874860763549805 2.5004374980926514 2.6372737884521484 -9999 -9999
-9999 -9999 2.6625988483428955 2.5889744758605957 2.3641090393066406 2.049546241760254 1.6804542541503906 1.5043936967849731 1.410185694694519 1.3612251281738281 1.3427655696868896 1.3492403030395508 1.3795709609985352 1.4391250610351562 1.543421745300293 1.729602336883545 2.102884292602539 2.3082942962646484 2.310849189758301 -9999
-9999 -9999 2.492312431335449 2.3103384971618652 1.985548496246338 1.5720676183700562 1.3172308206558228 1.1744552850723267 1.0967975854873657 1.0573759078979492 1.0424314737319946 1.0469353199005127 1.0708376169204712 1.1203253269195557 1.2116605043411255 1.3826398849487305 1.7252588272094727 1.976599931716919 2.0915417671203613 -9999
-9999 -9999 2.2590808868408203 1.9762649536132812 1.5469266176223755 1.2605113983154297 1.077638864517212 0.9693425297737122 0.9086631536483765 0.8775357007980347 0.8656632900238037 0.8690958023071289 0.888251006603241 0.9279929995536804 0.9992870092391968 1.1226582527160645 1.3276585340499878 1.6175411939620972 1.7820022106170654 -9999
-9999 2.2477211952209473 2.06455135345459 1.6021616458892822 1.2775813341140747 1.0615177154541016 0.9238100647926331 0.8407370448112488 0.7930704355239868 0.7680929899215698 0.7584760189056396 0.761262834072113 0.7766401767730713 0.8078407049179077 0.8615215420722961 0.9481073021888733 1.0796699523925781 1.2604979276657104 1.4678202867507935 -9999
-9999 2.1554055213928223 1.9107130765914917 1.417019248008728 1.1224021911621094 0.9399805068969727 0.8282111883163452 0.7609401941299438 0.7216890454292297 0.7006213665008545 0.6922430396080017 0.6942116022109985 0.7064602971076965 0.7310795187950134 0.7723575234413147 0.8368874192237854 0.933157205581665 1.069915771484375 1.2353450059890747 -9999
-9999 2.03444242477417 1.7818316221237183 1.3040690422058105 1.0294859409332275 0.866526186466217 0.7695948481559753 0.7115867137908936 0.6774111390113831 0.658713698387146 0.6509130001068115 0.6519569754600525 0.6616394519805908 0.6814558506011963 0.7146282196044922 0.7667560577392578 0.8478825092315674 0.979400098323822 1.0800857543945312 -9999
-9999 1.9021899700164795 1.662294626235962 1.2214816808700562 0.9685947299003601 0.8204644322395325 0.7329487800598145 0.6806254386901855 0.6496728658676147 0.632495105266571 0.6249704360961914 0.6251350045204163 0.6327152848243713 0.6489231586456299 0.6763105988502502 0.7194429636001587 0.7866936326026917 0.8933535814285278 0.9676777124404907 -9999
-9999 1.7609055042266846 1.5425995588302612 1.1513285636901855 0.9230538010597229 0.7887724041938782 0.7087090015411377 0.6606144905090332 0.6320501565933228 0.6159307956695557 0.6086612343788147 0.6080645322799683 0.6139845848083496 0.6273871064186096 0.6503316164016724 0.6865876913070679 0.7424946427345276 0.8294241428375244 0.8925515413284302 -9999
-9999 1.6136835813522339 1.420104742050171 1.084507942199707 0.8839121460914612 0.7638753652572632 0.691179096698761 0.6470614075660706 0.6206951141357422 0.605207622051239 0.5976616144180298 0.5963917374610901 0.6009764075279236 0.6120507121086121 0.6312687397003174 0.6619724035263062 0.7108528017997742 0.7856183648109436 0.8525286912918091 -9999
-9999 1.4726111888885498 1.3019863367080688 1.0195709466934204 0.8473609685897827 0.742202877998352 0.677365779876709 0.6373952627182007 0.6124175786972046 0.5975440144538879 0.5899373292922974 0.5881171822547913 0.5915388464927673 0.6004778146743774 0.6160535216331482 0.6406406164169312 0.6786976456642151 0.7256799936294556 -9999 -9999
-9999 1.3564646244049072 1.200009822845459 0.961163341999054 0.8144172430038452 0.7233833074569702 0.6662678122520447 0.6295285820960999 0.6061789989471436 0.5919671654701233 0.5843743681907654 0.5820630192756653 0.584388256072998 0.5913036465644836 0.6033341884613037 0.6217905879020691 0.6488609910011292 0.6758466362953186 -9999 -9999
-9999 1.282561182975769 1.1148053407669067 0.9131903052330017 0.7869054079055786 0.7081519961357117 0.6568418741226196 0.6232866644859314 0.6015466451644897 0.5880139470100403 0.5805091857910156 0.5777671337127686 0.5790667533874512 0.5841051936149597 0.5929253101348877 0.6059260368347168 0.6236938238143921 0.6407420039176941 0.6381332874298096 0.6377223134040833
-9999 -9999 0.9989296793937683 0.8692739009857178 0.7651863694190979 0.6959723830223083 0.6495795845985413 0.6186859607696533 0.5983206033706665 0.5854058861732483 0.5779883861541748 0.5748774409294128 0.5753031373023987 0.5787910223007202 0.5850117802619934 0.5937198996543884 0.6043588519096375 0.6149629950523376 0.6192395687103271 0.6205114126205444
-9999 -9999 0.952774167060852 0.8593385219573975 0.7558168768882751 0.68874192237854 0.6449379324913025 0.6157693266868591 0.5963714718818665 0.583888828754425 0.5765109062194824 0.573123574256897 0.5729274153709412 0.5753269791603088 0.5797935128211975 0.5858193039894104 0.5926534533500671 0.598878026008606 0.6024946570396423 0.6040077805519104
-9999 -9999 -9999 0.8244390487670898 0.7465682029724121 0.6842597126960754 0.642453670501709 0.614294707775116 0.595416784286499 0.5831570625305176 0.5758057832717896 0.572264552116394 0.5717477202415466 0.5735988020896912 0.5772122740745544 0.5819885730743408 0.5872235298156738 0.5918362736701965 0.5949003100395203 0.5963494777679443
