ncols         20
nrows         20
xllcorner     0
yllcorner     -3.5992928
cellsize      0.17996463
NODATA_value  -9999
-9999.0 -9999 -9999 -9999 -9999 -9999 -9999 -9999 -9999 -9999 -9999 -9999 -9999 -9999 -9999 -9999 -9999 -9999 -9999 -9999
-9999 -9999 -9999 -9999 -9999 -9999 -9999 -9999 -9999 -9999 -9999 0.12915225327014923 0.1293143779039383 -9999 -9999 0.13193945586681366 0.13213248550891876 -9999 -9999 -9999
-9999 -9999 -9999 -9999 0.12787145376205444 0.1278516948223114 0.1278928518295288 0.12801747024059296 0.12823894619941711 0.12854711711406708 0.12892352044582367 0.11955834925174713 0.12002979964017868 0.1307121366262436 0.131440669298172 0.12213733047246933 0.12269512563943863 0.13338172435760498 -9999 -9999
-9999 -9999 -9999 0.12819786369800568 0.11838407814502716 0.1007157564163208 0.10075247287750244 0.10087914019823074 0.1010999083518982 0.10139989852905273 0.10177338123321533 0.0944492444396019 0.09491580724716187 0.10333839058876038 0.10396391153335571 0.09672872722148895 0.10537291318178177 0.13447147607803345 -9999 -9999
-9999 -9999 -9999 0.12846030294895172 0.10101345181465149 0.07347225397825241 0.06776265799999237 0.06789251416921616 0.06810841709375381 0.06839452683925629 0.0687372237443924 0.06394395232200623 0.06433659791946411 0.07003884017467499 0.07057806849479675 0.07125619053840637 0.10703349113464355 0.1365906000137329 -9999 -9999
-9999 -9999 0.12921586632728577 0.11922158300876617 0.09371377527713776 0.06292422115802765 0.03893120214343071 0.03904082253575325 0.039225075393915176 0.03946378454566002 0.039741937071084976 0.03693263977766037 0.03724412992596626 0.04078475385904312 0.0412551574409008 0.06747783720493317 0.10121124237775803 0.12957999110221863 0.14196428656578064 -9999
-9999 -9999 0.1296670138835907 0.10196984559297562 0.07420019060373306 0.04989638179540634 0.028446970507502556 0.019205406308174133 0.019332321360707283 0.01949656382203102 0.019688434898853302 0.01836930587887764 0.018604299053549767 0.02047915942966938 0.030956760048866272 0.054970741271972656 0.08229558169841766 0.11358027905225754 0.14492087066173553 -9999
-9999 -9999 0.1304454356431961 0.10264884680509567 0.0689292699098587 0.03951621800661087 0.019352223724126816 0.009480747394263744 0.008167865686118603 0.008263219147920609 0.00837736576795578 0.007862318307161331 0.008029032498598099 0.010466573759913445 0.021863162517547607 0.045058730989694595 0.07887381315231323 0.11761660873889923 0.14955414831638336 -9999
-9999 0.13215157389640808 0.1217455044388771 0.09574966132640839 0.06444104015827179 0.036893922835588455 0.018117709085345268 0.007610028143972158 0.002973658498376608 0.0030271573923528194 0.0030897315591573715 0.0029138815589249134 0.0032768507953733206 0.009471544995903969 0.022961262613534927 0.04711681604385376 0.08221998065710068 0.12231369316577911 0.1553046852350235 -9999
-9999 0.13333778083324432 0.10492323338985443 0.07647405564785004 0.051575884222984314 0.029689272865653038 0.014570692554116249 0.006128082517534494 0.002245622919872403 0.0014857983915135264 0.0015315664932131767 0.001576515263877809 0.003481960156932473 0.009970341809093952 0.024052705615758896 0.0492350310087204 0.08577629178762436 0.12744863331317902 0.16170388460159302 -9999
-9999 0.1353777050971985 0.10671438276767731 0.07187117636203766 0.04137570410966873 0.020357046276330948 0.010012466460466385 0.004243229981511831 0.0015636745374649763 0.0015583920758217573 0.0016131497686728835 0.00166422501206398 0.0036690160632133484 0.010451039299368858 0.025134125724434853 0.051368072628974915 0.08940163254737854 0.1327146291732788 0.16826632618904114 -9999
-9999 0.13819624483585358 0.10905054956674576 0.07357998192310333 0.042453452944755554 0.02093334123492241 0.00882459245622158 0.0032010809518396854 0.001560268341563642 0.0016250606859102845 0.0016870824620127678 0.0018424115842208266 0.005357193760573864 0.012898171320557594 0.02620961144566536 0.05349550023674965 0.09299245476722717 0.13784635066986084 0.17451708018779755 -9999
-9999 0.14167457818984985 0.11187879741191864 0.07558557391166687 0.043669555336236954 0.021704839542508125 0.009176858700811863 0.0033403397537767887 0.001614598324522376 0.001683360431343317 0.0017518957611173391 0.0028619265649467707 0.008287817239761353 0.019908441230654716 0.040848731994628906 0.07093635946512222 0.10473145544528961 0.14270754158496857 0.1799427568912506 -9999
-9999 0.1455679088830948 0.11503122746944427 0.07810701429843903 0.04522548243403435 0.022372424602508545 0.009463896043598652 0.0034426762722432613 0.00166127213742584 0.0017313291318714619 0.0018023421289399266 0.0037378582637757063 0.01079678162932396 0.026082679629325867 0.053400348871946335 0.0928715169429779 0.13754987716674805 0.1732267290353775 0.18377697467803955 -9999
-9999 0.14950202405452728 0.11827178299427032 0.08040366321802139 0.04659593477845192 0.02306734398007393 0.011428214609622955 0.0048724994994699955 0.0017913620686158538 0.0017685237107798457 0.0018400466069579124 0.004145849496126175 0.01191775593906641 0.028826838359236717 0.05915616452693939 0.10325759649276733 0.15306484699249268 0.19414262473583221 -9999 -9999
-9999 0.15302029252052307 0.1217271015048027 0.08937520533800125 0.060879237949848175 0.035346679389476776 0.017571449279785156 0.007428790908306837 0.0029468738939613104 0.0017940276302397251 0.0018668870907276869 0.004203840624541044 0.012093162164092064 0.029287219047546387 0.06020357459783554 0.10532458126544952 0.15701773762702942 0.19931328296661377 -9999 -9999
-9999 0.15552538633346558 0.14611953496932983 0.1163671612739563 0.07907435297966003 0.0458764024078846 0.02460344508290291 0.012166038155555725 0.005179887637495995 0.0019060290651395917 0.0018837908282876015 0.0039012564811855555 0.011292461305856705 0.027382951229810715 0.056351155042648315 0.09868587553501129 0.14759038388729095 0.1889675259590149 0.20772936940193176 0.20909611880779266
-9999 -9999 0.1619170606136322 0.12871898710727692 0.09434695541858673 0.06407814472913742 0.03707844018936157 0.018389517441391945 0.007768533192574978 0.0028644222766160965 0.001891452120617032 0.0030870356131345034 0.00897021871060133 0.021841544657945633 0.04486420750617981 0.07877407968044281 0.1178201213479042 0.15057095885276794 0.16421151161193848 0.1649245321750641
-9999 -9999 0.1641598343849182 0.15292738378047943 0.12127092480659485 0.08211733400821686 0.0474969856441021 0.02344442717730999 0.009906921535730362 0.003635367378592491 0.001893546199426055 0.002076004631817341 0.006055808626115322 0.014719219878315926 0.03044544905424118 0.053200751543045044 0.0798925906419754 0.10189482569694519 0.11065657436847687 0.11096332967281342
-9999 -9999 -9999 0.16727273166179657 0.1324005424976349 0.08953959494829178 0.051690489053726196 0.025483984500169754 0.01075701229274273 0.00395562220364809 0.0018945984775200486 0.001969568897038698 0.003478648606687784 0.008432041853666306 0.017489366233348846 0.03056151047348976 0.04594482481479645 0.058318279683589935 0.06345339119434357 0.06357593834400177
