ncols         20
nrows         20
xllcorner     0
yllcorner     -3.5992928
cellsize      0.17996463
NODATA_value  -9999
-9999.0 -9999 -9999 -9999 -9999 -9999 -9999 -9999 -9999 -9999 -9999 -9999 -9999 -9999 -9999 -9999 -9999 -9999 -9999 -9999
-9999 -9999 -9999 -9999 -9999 -9999 -9999 -9999 -9999 -9999 -9999 27.138418197631836 27.13787841796875 -9999 -9999 27.163707733154297 27.2257022857666 -9999 -9999 -9999
-9999 -9999 -9999 -9999 27.217954635620117 27.1331844329834 27.00120735168457 26.900531768798828 26.847843170166016 26.84208106994629 26.920143127441406 26.992231369018555 26.96257781982422 26.876548767089844 26.90911102294922 27.03215980529785 27.113056182861328 27.124849319458008 -9999 -9999
-9999 -9999 -9999 27.240982055664062 27.206132888793945 27.146831512451172 27.06159019470215 26.99527931213379 26.956348419189453 26.956180572509766 26.97576332092285 26.98025894165039 26.92776107788086 26.861984252929688 26.84726905822754 26.885150909423828 26.911237716674805 26.900840759277344 -9999 -9999
-9999 -9999 -9999 27.22124671936035 27.219751358032227 27.214744567871094 27.229408264160156 27.262147903442383 27.328014373779297 27.405254364013672 27.468624114990234 27.4821720123291 27.406057357788086 27.258142471313477 27.078617095947266 26.913938522338867 26.747051239013672 26.60289764404297 -9999 -9999
-9999 -9999 27.208023071289062 27.214221954345703 27.265087127685547 27.391847610473633 27.612504959106445 27.841646194458008 28.083324432373047 28.332611083984375 28.533306121826172 28.616573333740234 28.526472091674805 28.261619567871094 27.863502502441406 27.396169662475586 26.890323638916016 26.532024383544922 26.347118377685547 -9999
-9999 -9999 27.121742248535156 27.20195770263672 27.36014175415039 27.653974533081055 28.057048797607422 28.506608963012695 28.980785369873047 29.435550689697266 29.77617073059082 29.92494010925293 29.841569900512695 29.507064819335938 28.929059982299805 28.24061393737793 27.487751007080078 26.90430450439453 26.59157943725586 -9999
-9999 -9999 26.90499496459961 27.113548278808594 27.45907211303711 27.93988037109375 28.556865692138672 29.249195098876953 29.943145751953125 30.542755126953125 30.955493927001953 31.13428497314453 31.07050895690918 30.75021743774414 30.161632537841797 29.377235412597656 28.51767921447754 27.754520416259766 27.314125061035156 -9999
-9999 26.254337310791016 26.562135696411133 27.021102905273438 27.57172393798828 28.315073013305664 29.196979522705078 30.11208724975586 30.936861038208008 31.573997497558594 31.981279373168945 32.15428924560547 32.10417175292969 31.829151153564453 31.311355590820312 30.57402992248535 29.769947052001953 29.00682830810547 28.507152557373047 -9999
-9999 26.001985549926758 26.332138061523438 26.998485565185547 27.859603881835938 28.908361434936523 30.030811309814453 31.07137107849121 31.904476165771484 32.488136291503906 32.838138580322266 32.97753143310547 32.92884063720703 32.70771026611328 32.30421829223633 31.716350555419922 31.058738708496094 30.398469924926758 29.951122283935547 -9999
-9999 25.777793884277344 26.244258880615234 27.20545196533203 28.404743194580078 29.708629608154297 30.963647842407227 32.01094055175781 32.773075103759766 33.27045822143555 33.54862976074219 33.63846206665039 33.57111358642578 33.39738082885742 33.118804931640625 32.71038818359375 32.227413177490234 31.721742630004883 31.387285232543945 -9999
-9999 25.88249397277832 26.529367446899414 27.7791748046875 29.214183807373047 30.63331413269043 31.88372230529785 32.85201644897461 33.52536392211914 33.952735900878906 34.17725372314453 34.219295501708984 34.10982894897461 33.967132568359375 33.79698944091797 33.5223274230957 33.20057678222656 32.847373962402344 32.609886169433594 -9999
-9999 26.559131622314453 27.343944549560547 28.754344940185547 30.258190155029297 31.626201629638672 32.749839782714844 33.59376907348633 34.18754959106445 34.568450927734375 34.78199768066406 34.8191032409668 34.722721099853516 34.61553192138672 34.49588394165039 34.33097839355469 34.06208801269531 33.764991760253906 33.538780212402344 -9999
-9999 27.722949981689453 28.556760787963867 29.979780197143555 31.405227661132812 32.608543395996094 33.54917526245117 34.2573356628418 34.778785705566406 35.10671615600586 35.29618835449219 35.37001037597656 35.35322570800781 35.32402801513672 35.2664909362793 35.15242004394531 34.9227180480957 34.60063934326172 34.182559967041016 -9999
-9999 29.00201416015625 29.82756233215332 31.169029235839844 32.4508056640625 33.47948455810547 34.26040267944336 34.85221862792969 35.256500244140625 35.52184295654297 35.694305419921875 35.82435607910156 35.925025939941406 36.00270080566406 36.01983642578125 35.96995544433594 35.83811569213867 35.631561279296875 -9999 -9999
-9999 30.05724334716797 30.8907413482666 32.123504638671875 33.26777267456055 34.18205642700195 34.867523193359375 35.33793640136719 35.64370346069336 35.83808517456055 35.97747039794922 36.14271545410156 36.33452606201172 36.523048400878906 36.632999420166016 36.68000411987305 36.676212310791016 36.68192672729492 -9999 -9999
-9999 30.736841201782227 31.74927520751953 32.84978103637695 33.87810516357422 34.7386474609375 35.34242630004883 35.744651794433594 35.98305892944336 36.126651763916016 36.263145446777344 36.44911575317383 36.68275833129883 36.92452621459961 37.10261917114258 37.21318435668945 37.27871322631836 37.36023712158203 37.57796859741211 37.678714752197266
-9999 -9999 32.74756622314453 33.47730255126953 34.34052658081055 35.12944793701172 35.70879364013672 36.08845901489258 36.29428482055664 36.42842483520508 36.560325622558594 36.746341705322266 36.9841194152832 37.24182891845703 37.445674896240234 37.577762603759766 37.66486740112305 37.727256774902344 37.79438018798828 37.808868408203125
-9999 -9999 33.311031341552734 33.940185546875 34.67369079589844 35.40937423706055 35.98924255371094 36.37749481201172 36.58168411254883 36.7066764831543 36.82182312011719 36.997920989990234 37.23270797729492 37.48859786987305 37.693058013916016 37.827606201171875 37.91279983520508 37.945804595947266 37.934242248535156 37.9221076965332
-9999 -9999 -9999 34.340702056884766 34.899024963378906 35.56391906738281 36.13932418823242 36.532779693603516 36.73476028442383 36.85325622558594 36.962501525878906 37.123802185058594 37.355587005615234 37.611717224121094 37.823238372802734 37.95652770996094 38.047149658203125 38.04795837402344 38.02095413208008 38.003578186035156
