ncols         20
nrows         20
xllcorner     0
yllcorner     -3.5992928
cellsize      0.17996463
NODATA_value  -9999
-9999.0 -9999 -9999 -9999 -9999 -9999 -9999 -9999 -9999 -9999 -9999 -9999 -9999 -9999 -9999 -9999 -9999 -9999 -9999 -9999
-9999 -9999 -9999 -9999 -9999 -9999 -9999 -9999 -9999 -9999 -9999 0 0 -9999 -9999 0 0 -9999 -9999 -9999
-9999 -9999 -9999 -9999 0 0 0 0 0 0 0 0 0 0 0 0 0 0 -9999 -9999
-9999 -9999 -9999 0 0 0 0 0 0 0 0 0 0 0 0 0 0 0 -9999 -9999
-9999 -9999 -9999 0 0 0 0 0 0 0 0 0 0 0 0 0 0 0 -9999 -9999
-9999 -9999 0 0 0 0 8.522329330444336 7.565280914306641 6.799545764923096 6.0114054679870605 5.288999080657959 4.9884772300720215 5.2226881980896 6.074267864227295 7.357433795928955 8.978328704833984 0 0 0 -9999
-9999 -9999 0 0 0 8.566783905029297 7.098956108093262 5.967077255249023 4.873727798461914 3.788677453994751 2.929544687271118 2.5389838218688965 2.663520574569702 3.3687098026275635 4.661726474761963 6.592397689819336 0 0 0 -9999
-9999 -9999 0 0 9.263936996459961 7.5367841720581055 6.053425312042236 4.6709980964660645 3.3983449935913086 2.345301866531372 1.6717420816421509 1.3608951568603516 1.4002907276153564 1.821244478225708 2.730043888092041 4.242656230926514 6.366640567779541 0 0 -9999
-9999 0 0 10.715636253356934 8.578621864318848 6.677738666534424 4.890388011932373 3.317765712738037 2.128197193145752 1.360685110092163 0.9501020312309265 0.7698035836219788 0.7675668597221375 0.9763805866241455 1.4698703289031982 2.406003713607788 3.8667972087860107 5.6721296310424805 0 -9999
-9999 0 0 10.63541030883789 7.91390323638916 5.495031356811523 3.4682233333587646 1.9984970092773438 1.1301658153533936 0.6938198208808899 0.5000104308128357 0.41754648089408875 0.4171869456768036 0.5041564702987671 0.7388002276420593 1.2164057493209839 2.0829241275787354 3.249525308609009 0 -9999
-9999 0 0 10.243139266967773 6.868188858032227 4.1886372566223145 2.232640027999878 1.0669023990631104 0.5305531620979309 0.31207191944122314 0.22606447339057922 0.1948080062866211 0.19535230100154877 0.2306821346282959 0.3254333734512329 0.5382012128829956 0.9455976486206055 0 0 -9999
-9999 0 0 9.005885124206543 5.42387056350708 2.9459664821624756 1.3640683889389038 0.5633717179298401 0.24981705844402313 0.13482195138931274 0.0936422348022461 0.07814264297485352 0.07726330310106277 0.08717258274555206 0.11650151014328003 0.18937280774116516 0.34581390023231506 0 0 -9999
-9999 0 0 6.752671241760254 3.6805646419525146 1.8198453187942505 0.7797630429267883 0.2980709671974182 0.12135283648967743 0.062148526310920715 0.03735611215233803 0.028637966141104698 0.025894567370414734 0.027327455580234528 0.035030294209718704 0.05396771430969238 0.10341652482748032 0 0 -9999
-9999 0 0 4.211363315582275 2.030306577682495 0.9259334802627563 0.38681527972221375 0.15094156563282013 0.06002000346779823 0.030272290110588074 0.018232805654406548 0.013015970587730408 0.01064421609044075 0.01011959183961153 0.0112032201141119 0.015353696420788765 0.025971118360757828 0 0 -9999
-9999 0 0 2.3765454292297363 0.988933801651001 0.41632816195487976 0.1748344451189041 0.07091153413057327 0.03246806561946869 0.01725173369050026 0.010638573206961155 0.0072930133901536465 0.005582267884165049 0.004835628438740969 0.004622986540198326 0.005253405310213566 0.0070275976322591305 0 -9999 -9999
-9999 0 0 1.4338791370391846 0.5299549102783203 0.20071068406105042 0.08206650614738464 0.03699549660086632 0.01913064904510975 0.01098268199712038 0.0070694489404559135 0.0048873648047447205 0.003909418825060129 0.004339630715548992 0.004924168344587088 0.005628951825201511 0.00642378581687808 0.0071335965767502785 -9999 -9999
-9999 0 0 0.9746580123901367 0.33320286870002747 0.10849320143461227 0.04472075402736664 0.02105006016790867 0.011542806401848793 0.007025839760899544 0.004739399999380112 0.004165723919868469 0.004479467403143644 0.004980612080544233 0.005627074744552374 0.006388713605701923 0.007261637598276138 0.008246009238064289 0.0094103142619133 0.009966372512280941
-9999 -9999 0 0.6897364258766174 0.23174607753753662 0.07249882072210312 0.02809371054172516 0.013133096508681774 0.007293307222425938 0.004676868673413992 0.004539205227047205 0.004671129863709211 0.005034842062741518 0.005590540356934071 0.006281980313360691 0.007062352262437344 0.007900947704911232 0.008755994960665703 0.009513440541923046 0.0098948422819376
-9999 -9999 0 0 0.1695183515548706 0.05161695554852486 0.01910516992211342 0.008613549172878265 0.005408229772001505 0.005018325522542 0.004919517785310745 0.005085549782961607 0.005485494155436754 0.006075051613152027 0.006786629557609558 0.007557895965874195 0.008333905600011349 0.009029950946569443 0.009546143934130669 0.009813097305595875
-9999 -9999 -9999 0 0.13696779310703278 0.04373027756810188 0.015839459374547005 0.007006140425801277 0.005576772149652243 0.005213743541389704 0.005134194158017635 0.00531522324308753 0.005732775200158358 0.00633845804259181 0.007059015799313784 0.007816796191036701 0.008553920313715935 0.009155596606433392 0.009577821008861065 0.009794292971491814
