ncols         20
nrows         20
xllcorner     0
yllcorner     -3.5992928
cellsize      0.17996463
NODATA_value  -9999
-9999.0 -9999 -9999 -9999 -9999 -9999 -9999 -9999 -9999 -9999 -9999 -9999 -9999 -9999 -9999 -9999 -9999 -9999 -9999 -9999
-9999 -9999 -9999 -9999 -9999 -9999 -9999 -9999 -9999 -9999 -9999 0.018117422237992287 0.018121883273124695 -9999 -9999 0.01827141083776951 0.01827925629913807 -9999 -9999 -9999
-9999 -9999 -9999 -9999 0.018216023221611977 0.0181774590164423 0.018120907247066498 0.01805330067873001 0.017989153042435646 0.017944568768143654 0.01793423295021057 0.03808045759797096 0.038107890635728836 0.01799091137945652 0.018035942688584328 0.03839132934808731 0.038440775126218796 0.018142135813832283 -9999 -9999
-9999 -9999 -9999 0.018132224678993225 0.03837069496512413 0.07978738099336624 0.07951156795024872 0.07915527373552322 0.07880799472332001 0.07855306565761566 0.0784531757235527 0.09456998854875565 0.09468290209770203 0.07873380184173584 0.07893436402082443 0.0953696221113205 0.0793667733669281 0.017998933792114258 -9999 -9999
-9999 -9999 -9999 0.018010087311267853 0.0793834924697876 0.1146201491355896 0.11412012577056885 0.11347008496522903 0.11283960938453674 0.11237338930368423 0.112171471118927 0.1122671514749527 0.11246299743652344 0.11269363760948181 0.11302082240581512 0.11336054652929306 0.07846612483263016 0.017757168039679527 -9999 -9999
-9999 -9999 0.01778319478034973 0.03770662844181061 0.09463246911764145 0.11339785903692245 0.11270545423030853 0.11181912571191788 0.11098067462444305 0.11037451028823853 0.11010479182004929 0.11017430573701859 0.11047020554542542 0.11086804419755936 0.11127915978431702 0.11158332228660583 0.09284524619579315 0.036830633878707886 0.01729467883706093 -9999
-9999 -9999 0.01762867160141468 0.07767537981271744 0.11224202811717987 0.11168179661035538 0.1106489971280098 0.10934970527887344 0.10819151997566223 0.10739260166883469 0.1070680245757103 0.10720466077327728 0.10767807066440582 0.1082821637392044 0.10885196924209595 0.10925324261188507 0.10932374000549316 0.07536213845014572 0.017075099050998688 -9999
-9999 -9999 0.017389217391610146 0.07667047530412674 0.11051227152347565 0.10960081219673157 0.10812187194824219 0.1062660664319992 0.10485801100730896 0.10394715517759323 0.10356014966964722 0.10369239002466202 0.10430769622325897 0.10514964163303375 0.10592245310544968 0.10651786625385284 0.10685917735099792 0.07392013072967529 0.016754508018493652 -9999
-9999 0.017024867236614227 0.03613901883363724 0.09072528034448624 0.10850602388381958 0.10730303078889847 0.10545824468135834 0.10332789272069931 0.10173014551401138 0.10069633275270462 0.1002250388264656 0.1003037765622139 0.10089385509490967 0.10177038609981537 0.10267752408981323 0.10343688726425171 0.10395706444978714 0.07205267250537872 0.01634935848414898 -9999
-9999 0.016858402639627457 0.07419730722904205 0.10715131461620331 0.10640431195497513 0.10492260754108429 0.10279758274555206 0.1005588099360466 0.09884914755821228 0.09771273285150528 0.09714613109827042 0.0971309021115303 0.09762109071016312 0.09840687364339828 0.09932583570480347 0.1001700609922409 0.10080727934837341 0.06996665894985199 0.01589471846818924 -9999
-9999 0.01663031615316868 0.07314295321702957 0.10528307408094406 0.10424813628196716 0.10253923386335373 0.10023678839206696 0.09799188375473022 0.09623267501592636 0.09501911699771881 0.09435439109802246 0.09422003477811813 0.09457220882177353 0.09522669017314911 0.09604642540216446 0.09690184891223907 0.09761364758014679 0.06783881038427353 0.015429808758199215 -9999
-9999 0.016353953629732132 0.0718485563993454 0.10323423147201538 0.10204064100980759 0.10021384060382843 0.09788879752159119 0.09568041563034058 0.0939098373055458 0.0926370918750763 0.09187228232622147 0.09159912168979645 0.09177924692630768 0.09226158261299133 0.09294084459543228 0.09374724328517914 0.09454505890607834 0.06584744155406952 0.01499627623707056 -9999
-9999 0.016051849350333214 0.07045070827007294 0.10111003369092941 0.09983939677476883 0.09799200296401978 0.09575525671243668 0.09364809840917587 0.091892771422863 0.09057118743658066 0.08970418572425842 0.08927637338638306 0.0892428457736969 0.08950887620449066 0.09000255167484283 0.09069878607988358 0.09167324006557465 0.06418212503194809 0.0146288201212883 -9999
-9999 0.01574866659939289 0.06906044483184814 0.09902339428663254 0.09771590679883957 0.09590362012386322 0.09380067884922028 0.09179552644491196 0.09007671475410461 0.08872667700052261 0.08776868134737015 0.08718527853488922 0.08693692833185196 0.08696092665195465 0.08720346540212631 0.08763588964939117 0.07323376089334488 0.029795916751027107 0.01434902660548687 -9999
-9999 0.015471125021576881 0.0677918791770935 0.097076416015625 0.09572876244783401 0.0939704105257988 0.09199272096157074 0.0900927409529686 0.08843116462230682 0.08707055449485779 0.08603615313768387 0.08531099557876587 0.08486216515302658 0.08464202284812927 0.08460178971290588 0.08469592779874802 0.05866115912795067 0.013342902995646 -9999 -9999
-9999 0.01524397637695074 0.06639319658279419 0.09534990042448044 0.09390240907669067 0.092204749584198 0.09034299850463867 0.08855480700731277 0.08695847541093826 0.08560308814048767 0.08451218903064728 0.08366961032152176 0.08304719626903534 0.0826050192117691 0.08229845762252808 0.08208546042442322 0.056238509714603424 0.012739291414618492 -9999 -9999
-9999 0.015084818005561829 0.03150000795722008 0.07750003039836884 0.09215234220027924 0.090606190264225 0.08888561278581619 0.0872117429971695 0.0856848657131195 0.08434708416461945 0.08322010934352875 0.08228852599859238 0.08152760565280914 0.0809008777141571 0.08035995811223984 0.07984178513288498 0.06556251645088196 0.025731515139341354 0.011816170066595078 0.011680133640766144
-9999 -9999 0.01455684658139944 0.06320750713348389 0.0906706228852272 0.08924300968647003 0.0876660868525505 0.08610980957746506 0.08465339243412018 0.08334144204854965 0.0821966752409935 0.08120501786470413 0.08034507930278778 0.07958289235830307 0.07887034118175507 0.07812704890966415 0.07719345390796661 0.06312858313322067 0.05166848376393318 0.05131234601140022
-9999 -9999 0.014204069040715694 0.030071543529629707 0.07404491305351257 0.08812855929136276 0.08674900978803635 0.08531013876199722 0.08391828089952469 0.08263381570577621 0.08148442953824997 0.08045801520347595 0.07953724265098572 0.078694649040699 0.0778934508562088 0.07708118855953217 0.07619763910770416 0.07523718476295471 0.07447624951601028 0.07408709079027176
-9999 -9999 -9999 0.013845560140907764 0.06084013730287552 0.08749576658010483 0.08625883609056473 0.08489417284727097 0.08354199677705765 0.08227549493312836 0.08112446218729019 0.0800824984908104 0.07913337647914886 0.07825466990470886 0.07741844654083252 0.07659289985895157 0.07575757801532745 0.07495654374361038 0.07432907074689865 0.07399379462003708
