ncols         20
nrows         20
xllcorner     0
yllcorner     -3.5992928
cellsize      0.17996463
NODATA_value  -9999
-9999.0 -9999 -9999 -9999 -9999 -9999 -9999 -9999 -9999 -9999 -9999 -9999 -9999 -9999 -9999 -9999 -9999 -9999 -9999 -9999
-9999 -9999 -9999 -9999 -9999 -9999 -9999 -9999 -9999 -9999 -9999 0.9815757274627686 0.9592075347900391 -9999 -9999 0.8492573499679565 0.7957586050033569 -9999 -9999 -9999
-9999 -9999 -9999 -9999 1.1249946355819702 1.1948362588882446 1.3164914846420288 1.401346206665039 1.4381754398345947 1.4449512958526611 1.2829387187957764 1.1683671474456787 1.1477943658828735 1.1297165155410767 1.0205665826797485 0.9021701812744141 0.8152549266815186 0.7550373077392578 -9999 -9999
-9999 -9999 -9999 1.0620125532150269 1.1436187028884888 1.2393718957901 1.3684797286987305 1.481555700302124 1.59213387966156 1.6687268018722534 1.6977089643478394 1.648642897605896 1.5895602703094482 1.446363925933838 1.2626705169677734 1.06499445438385 0.9125872254371643 0.8294264078140259 -9999 -9999
-9999 -9999 -9999 1.0439039468765259 1.1344144344329834 1.3047133684158325 1.4964592456817627 1.7001755237579346 1.9338992834091187 2.229876756668091 2.493354082107544 2.580857276916504 2.4565675258636475 2.104599952697754 1.7302120923995972 1.3638750314712524 1.1026922464370728 1.0309077501296997 -9999 -9999
-9999 -9999 0.8355305790901184 0.9722629189491272 1.1297993659973145 1.3490519523620605 1.59664785861969 1.8886876106262207 2.3125810623168945 2.8275258541107178 3.3407607078552246 3.540274143218994 3.4145328998565674 2.9111123085021973 2.2904446125030518 1.7499651908874512 1.3694825172424316 1.2041970491409302 1.0639957189559937 -9999
-9999 -9999 0.8081644773483276 0.9167392253875732 1.1330070495605469 1.412492275238037 1.714858889579773 2.1015989780426025 2.6292877197265625 3.2537567615509033 3.8358826637268066 4.111459732055664 4.002737522125244 3.5207812786102295 2.892611503601074 2.2028019428253174 1.7120754718780518 1.4074183702468872 1.2734806537628174 -9999
-9999 -9999 0.8025013208389282 0.9408299922943115 1.209333896636963 1.5373849868774414 1.9229987859725952 2.37298846244812 2.8773393630981445 3.4150800704956055 3.8229596614837646 4.040111541748047 3.9792957305908203 3.651965618133545 3.149550676345825 2.5648903846740723 2.0643770694732666 1.703650712966919 1.5537176132202148 -9999
-9999 0.6434142589569092 0.8077009916305542 1.0203454494476318 1.3743888139724731 1.801661491394043 2.2416417598724365 2.703455686569214 3.11090087890625 3.4209234714508057 3.5896406173706055 3.661693811416626 3.635814905166626 3.4648962020874023 3.1888227462768555 2.8183603286743164 2.3313567638397217 1.9755088090896606 1.8211838006973267 -9999
-9999 0.7059217095375061 0.8566784858703613 1.1713401079177856 1.6173226833343506 2.1171326637268066 2.593749523162842 2.9946792125701904 3.2382619380950928 3.3183751106262207 3.287353992462158 3.2486746311187744 3.204390048980713 3.137631416320801 3.012207508087158 2.833374261856079 2.4622914791107178 2.168640375137329 2.0393152236938477 -9999
-9999 0.8327193260192871 0.9964808225631714 1.3508919477462769 1.8113597631454468 2.3031320571899414 2.7498459815979004 3.0531957149505615 3.134186029434204 3.066709280014038 2.956883430480957 2.8752758502960205 2.8373970985412598 2.8035876750946045 2.746532678604126 2.6467397212982178 2.4544875621795654 2.255276679992676 2.163569211959839 -9999
-9999 1.0333843231201172 1.1984528303146362 1.561801552772522 1.9796407222747803 2.3743743896484375 2.6991329193115234 2.854499340057373 2.809556722640991 2.674852132797241 2.5512795448303223 2.48950457572937 2.516672372817993 2.509608507156372 2.456538200378418 2.446723699569702 2.326046943664551 2.2186813354492188 2.1681132316589355 -9999
-9999 1.306716799736023 1.4812312126159668 1.831485629081726 2.140397548675537 2.3832454681396484 2.531266689300537 2.5398671627044678 2.4084982872009277 2.2382988929748535 2.111790895462036 2.0532655715942383 2.0820789337158203 2.0848891735076904 2.082286834716797 2.0617756843566895 2.0606231689453125 2.0535101890563965 2.0391604900360107 -9999
-9999 1.600332260131836 1.762986421585083 2.062371015548706 2.259011745452881 2.336048126220703 2.3157663345336914 2.2034685611724854 2.027937412261963 1.849012017250061 1.720550298690796 1.6494108438491821 1.6380723714828491 1.6145635843276978 1.5957032442092896 1.589548110961914 1.6580324172973633 1.7856404781341553 1.8445155620574951 -9999
-9999 1.786705732345581 1.90898597240448 2.133981227874756 2.22137188911438 2.1681692600250244 2.0412063598632812 1.876041054725647 1.6951274871826172 1.5432859659194946 1.4382145404815674 1.355244755744934 1.2899048328399658 1.232495665550232 1.1969105005264282 1.1829618215560913 1.2082839012145996 1.363000512123108 -9999 -9999
-9999 1.8123464584350586 1.8841859102249146 2.0271942615509033 2.0251002311706543 1.9055240154266357 1.7439631223678589 1.5726419687271118 1.4322580099105835 1.3301069736480713 1.2706928253173828 1.1926416158676147 1.1018800735473633 0.9984303712844849 0.9345061182975769 0.8787244558334351 0.8483850955963135 0.7765858173370361 -9999 -9999
-9999 1.8169167041778564 1.7853245735168457 1.841904878616333 1.7917542457580566 1.644925594329834 1.4701157808303833 1.3188722133636475 1.2201573848724365 1.1647188663482666 1.1111479997634888 1.0387156009674072 0.9464184641838074 0.8451518416404724 0.7623826861381531 0.6927239298820496 0.6409843564033508 0.5970677137374878 0.5855644345283508 0.5330593585968018
-9999 -9999 1.6195579767227173 1.6486713886260986 1.585790753364563 1.4287279844284058 1.2529675960540771 1.1212718486785889 1.0566047430038452 1.0080245733261108 0.9641940593719482 0.9046847820281982 0.8296272158622742 0.7339030504226685 0.6541627645492554 0.595580518245697 0.5402249693870544 0.5050374269485474 0.4814349412918091 0.5088959336280823
-9999 -9999 1.5736995935440063 1.5167839527130127 1.4329626560211182 1.2660212516784668 1.0880814790725708 0.961274266242981 0.9021196365356445 0.8648442625999451 0.8445838093757629 0.7963240146636963 0.7281647324562073 0.6433519721031189 0.5787791609764099 0.5329009294509888 0.49323898553848267 0.47240766882896423 0.506989598274231 0.526870846748352
-9999 -9999 -9999 1.4083764553070068 1.3504598140716553 1.1874574422836304 1.0095702409744263 0.8865578770637512 0.8330938816070557 0.8057405352592468 0.7875393629074097 0.7554364800453186 0.6905309557914734 0.6100383996963501 0.5428213477134705 0.5119041204452515 0.4672006666660309 0.4925464987754822 0.5222428441047668 0.5389981269836426
