ncols         20
nrows         20
xllcorner     0
yllcorner     -3.5992928
cellsize      0.17996463
NODATA_value  -9999
-9999.0 -9999 -9999 -9999 -9999 -9999 -9999 -9999 -9999 -9999 -9999 -9999 -9999 -9999 -9999 -9999 -9999 -9999 -9999 -9999
-9999 -9999 -9999 -9999 -9999 -9999 -9999 -9999 -9999 -9999 -9999 0.1586947739124298 0.1588795781135559 -9999 -9999 0.17668034136295319 0.16722333431243896 -9999 -9999 -9999
-9999 -9999 -9999 -9999 0.13306955993175507 0.14197534322738647 0.1592651754617691 0.17560188472270966 0.19015458226203918 0.20460525155067444 0.19648203253746033 0.19355350732803345 0.2051721066236496 0.22288335859775543 0.2157122939825058 0.19722700119018555 0.18378771841526031 0.1776919662952423 -9999 -9999
-9999 -9999 -9999 0.13390980660915375 0.1410233974456787 0.1521090716123581 0.16986121237277985 0.1898031234741211 0.21567651629447937 0.24442468583583832 0.2734614312648773 0.2931589186191559 0.31124377250671387 0.310778945684433 0.2927541434764862 0.2606569528579712 0.2324230819940567 0.21730995178222656 -9999 -9999
-9999 -9999 -9999 0.14131861925125122 0.15051385760307312 0.17055994272232056 0.1950594186782837 0.22563959658145905 0.2704532742500305 0.3409197926521301 0.4295627176761627 0.5058145523071289 0.5447205901145935 0.5232327580451965 0.47245562076568604 0.39937305450439453 0.3401440978050232 0.3297137916088104 -9999 -9999
-9999 -9999 0.14225329458713531 0.15242905914783478 0.16934426128864288 0.1945704221725464 0.22173556685447693 0.2560524344444275 0.32260021567344666 0.4341675639152527 0.5961890816688538 0.7552595734596252 0.8709129691123962 0.8676192164421082 0.7677369713783264 0.6415831446647644 0.5381316542625427 0.5044944286346436 0.4963260889053345 -9999
-9999 -9999 0.15823093056678772 0.17185570299625397 0.20197325944900513 0.23497268557548523 0.256801962852478 0.2746964395046234 0.33191898465156555 0.4487702548503876 0.6398972272872925 0.8910192251205444 1.1723523139953613 1.2893235683441162 1.2234352827072144 1.0422251224517822 0.8709732890129089 0.7522016763687134 0.7092693448066711 -9999
-9999 -9999 0.20183305442333221 0.2278481125831604 0.27610719203948975 0.31583768129348755 0.3213275671005249 0.2594144940376282 0.2626509666442871 0.31944185495376587 0.4364936351776123 0.6801202297210693 1.3420186042785645 1.7009665966033936 1.763921856880188 1.609776496887207 1.3944008350372314 1.2009806632995605 1.1200811862945557 -9999
-9999 0.26288557052612305 0.28697994351387024 0.34135255217552185 0.4311259388923645 0.5012111067771912 0.4835524260997772 0.33568987250328064 0.2943459749221802 0.32142776250839233 0.427216500043869 0.7124788761138916 1.5806787014007568 2.1648502349853516 2.4274096488952637 2.374002456665039 2.125924587249756 1.8732200860977173 1.754308819770813 -9999
-9999 0.3551287055015564 0.4142812490463257 0.5511671900749207 0.7263766527175903 0.8527798652648926 0.8125910758972168 0.5099056363105774 0.4147813022136688 0.41845703125 0.5203518867492676 0.8481179475784302 1.920499563217163 2.71882700920105 3.1751925945281982 3.2821905612945557 3.079397439956665 2.8046653270721436 2.6671013832092285 -9999
-9999 0.5616181492805481 0.6680276393890381 0.9015189409255981 1.1793872117996216 1.3844844102859497 1.3348733186721802 0.8016482591629028 0.6545994281768799 0.6381239295005798 0.7312179207801819 1.085595965385437 2.4096555709838867 3.3683173656463623 3.9850690364837646 4.247433185577393 4.198044776916504 3.9638633728027344 3.8321900367736816 -9999
-9999 0.9482825398445129 1.110095500946045 1.4716147184371948 1.8735275268554688 2.167588233947754 2.1419014930725098 1.3605871200561523 1.1868512630462646 1.145648717880249 1.2046042680740356 1.528460144996643 2.989157199859619 3.9573700428009033 4.636079788208008 5.0596113204956055 5.1976447105407715 5.1106486320495605 5.031066417694092 -9999
-9999 1.5968003273010254 1.8521993160247803 2.3840818405151367 2.889866828918457 3.2747623920440674 3.3983113765716553 3.1480469703674316 2.885091781616211 2.6941874027252197 2.686828374862671 2.9513072967529297 3.5979819297790527 4.210638523101807 4.7603559494018555 5.240438461303711 5.616947174072266 5.778538703918457 5.774312973022461 -9999
-9999 2.499140977859497 2.851564645767212 3.553910255432129 4.164798736572266 4.546026229858398 4.636783123016357 4.414624214172363 4.050955295562744 3.7409605979919434 3.5861704349517822 3.6122207641601562 3.793652296066284 4.024603843688965 4.279642105102539 4.639997959136963 5.114562034606934 5.639330863952637 5.793045520782471 -9999
-9999 3.415663957595825 3.8365631103515625 4.66831636428833 5.3036298751831055 5.558809280395508 5.4738030433654785 5.131267547607422 4.691632270812988 4.295591354370117 4.015940189361572 3.821758985519409 3.6964149475097656 3.6183223724365234 3.565861701965332 3.655867099761963 3.9058609008789062 4.490860939025879 -9999 -9999
-9999 4.085054397583008 4.565145015716553 5.434697151184082 5.972377777099609 6.044607639312744 5.788512229919434 5.353172779083252 4.896667957305908 4.475873947143555 4.130176067352295 3.8017516136169434 3.479520797729492 3.171830654144287 2.9183268547058105 2.74072527885437 2.666517734527588 2.3916234970092773 -9999 -9999
-9999 4.578880786895752 5.119579792022705 5.8983330726623535 6.2966179847717285 6.156647205352783 5.733379364013672 5.210680961608887 4.735809803009033 4.310415267944336 3.936115264892578 3.5430872440338135 3.131526231765747 2.751574754714966 2.4037630558013916 2.112262725830078 1.879513144493103 1.6400924921035767 1.4376635551452637 1.2440370321273804
-9999 -9999 5.67293643951416 6.213151931762695 6.4418253898620605 6.099538326263428 5.486238479614258 4.867218494415283 4.358236789703369 3.93669056892395 3.567920207977295 3.177595376968384 2.7730469703674316 2.339813709259033 1.9813235998153687 1.7107058763504028 1.4646111726760864 1.2823801040649414 1.1420068740844727 1.1660804748535156
-9999 -9999 6.196832180023193 6.455324649810791 6.473714351654053 5.929640769958496 5.139370918273926 4.4180474281311035 3.867659330368042 3.4719510078430176 3.1842269897460938 2.821207046508789 2.4235939979553223 2.0088846683502197 1.6934826374053955 1.4616657495498657 1.2681242227554321 1.1419872045516968 1.1679905652999878 1.1831886768341064
-9999 -9999 -9999 6.555482864379883 6.470997333526611 5.837693214416504 4.951604843139648 4.185987949371338 3.6358046531677246 3.27184796333313 2.9873592853546143 2.679931640625 2.287376880645752 1.8820844888687134 1.5580185651779175 1.371046543121338 1.1688722372055054 1.163895845413208 1.1836415529251099 1.1950609683990479
