ncols         20
nrows         20
xllcorner     0
yllcorner     -3.5992928
cellsize      0.17996463
NODATA_value  -9999
-9999.0 -9999 -9999 -9999 -9999 -9999 -9999 -9999 -9999 -9999 -9999 -9999 -9999 -9999 -9999 -9999 -9999 -9999 -9999 -9999
-9999 -9999 -9999 -9999 -9999 -9999 -9999 -9999 -9999 -9999 -9999 26.532581329345703 26.53274154663086 -9999 -9999 26.632410049438477 26.711803436279297 -9999 -9999 -9999
-9999 -9999 -9999 -9999 26.586706161499023 26.47596549987793 26.316509246826172 26.201663970947266 26.144956588745117 26.138629913330078 26.22256851196289 26.316450119018555 26.284648895263672 26.181392669677734 26.23870277404785 26.430097579956055 26.56086540222168 26.598690032958984 -9999 -9999
-9999 -9999 -9999 26.59328842163086 26.535240173339844 26.435813903808594 26.32160758972168 26.252824783325195 26.2169246673584 26.20340919494629 26.202356338500977 26.187000274658203 26.1124267578125 26.038896560668945 26.05010223388672 26.160594940185547 26.275360107421875 26.324443817138672 -9999 -9999
-9999 -9999 -9999 26.513538360595703 26.46082878112793 26.399839401245117 26.400049209594727 26.478878021240234 26.57056999206543 26.6344051361084 26.64842414855957 26.57341957092285 26.390548706054688 26.17552375793457 26.0206356048584 25.973331451416016 25.97175407409668 25.94373893737793 -9999 -9999
-9999 -9999 26.453763961791992 26.41031265258789 26.37281036376953 26.45241355895996 26.749752044677734 27.219329833984375 27.63887596130371 27.959461212158203 28.127086639404297 28.004894256591797 27.577030181884766 27.01165771484375 26.50775146484375 26.141990661621094 25.923656463623047 25.789623260498047 25.724445343017578 -9999
-9999 -9999 26.276676177978516 26.249549865722656 26.297489166259766 26.654987335205078 27.510963439941406 28.83364486694336 29.877025604248047 30.501379013061523 30.70319938659668 30.391576766967773 29.554353713989258 28.572071075439453 27.625873565673828 26.830541610717773 26.30950355529785 26.003108978271484 25.862449645996094 -9999
-9999 -9999 25.94108772277832 25.965839385986328 26.205047607421875 27.004987716674805 28.70984649658203 31.423934936523438 32.95912551879883 33.64396286010742 33.71382141113281 33.11286544799805 31.68651580810547 30.31201934814453 29.085113525390625 28.021209716796875 27.18332862854004 26.62826156616211 26.369436264038086 -9999
-9999 25.473100662231445 25.551807403564453 25.679018020629883 26.173986434936523 27.42060661315918 29.792789459228516 33.0096549987793 34.788658142089844 35.52170944213867 35.53788375854492 34.82727813720703 33.26030349731445 31.758604049682617 30.456819534301758 29.33416175842285 28.400556564331055 27.722946166992188 27.36870765686035 -9999
-9999 25.231706619262695 25.294633865356445 25.562889099121094 26.365623474121094 28.008224487304688 30.7292423248291 33.95589828491211 35.75094223022461 36.48793029785156 36.49718475341797 35.79292297363281 34.26525115966797 32.789390563964844 31.53203010559082 30.47801399230957 29.609027862548828 28.961837768554688 28.608442306518555 -9999
-9999 25.036062240600586 25.208248138427734 25.722213745117188 26.844200134277344 28.76839256286621 31.502601623535156 34.487884521484375 36.16283416748047 36.86768341064453 36.89696502685547 36.258018493652344 34.827735900878906 33.45018768310547 32.28826141357422 31.335195541381836 30.573230743408203 30.01871109008789 29.713024139404297 -9999
-9999 25.141319274902344 25.46158218383789 26.220882415771484 27.551925659179688 29.51742935180664 31.970905303955078 34.52607727050781 36.00469207763672 36.67661666870117 36.76343536376953 36.26205825805664 35.045677185058594 33.8739013671875 32.86290740966797 32.00428771972656 31.303966522216797 30.797523498535156 30.51340103149414 -9999
-9999 25.688556671142578 26.13343048095703 27.059612274169922 28.43633270263672 30.147361755371094 32.05447769165039 33.888755798339844 35.13964080810547 35.81504440307617 36.010772705078125 35.73920822143555 35.0417366027832 34.25381088256836 33.48027801513672 32.73949432373047 32.047611236572266 31.498891830444336 31.134584426879883 -9999
-9999 26.62714195251465 27.145402908325195 28.094783782958984 29.304990768432617 30.661714553833008 32.08059310913086 33.42291259765625 34.46913528442383 35.121124267578125 35.41834259033203 35.39851379394531 35.12329864501953 34.72271728515625 34.24868392944336 33.690460205078125 33.06769561767578 32.4304084777832 31.696252822875977 -9999
-9999 27.708410263061523 28.199615478515625 29.02396011352539 30.009048461914062 31.083454132080078 32.194671630859375 33.26333999633789 34.13212966918945 34.754798889160156 35.13734817504883 35.32320022583008 35.353397369384766 35.273460388183594 35.100162506103516 34.80492401123047 34.4135627746582 34.012176513671875 -9999 -9999
-9999 28.576736450195312 29.040695190429688 29.73004150390625 30.544822692871094 31.475074768066406 32.44817352294922 33.351932525634766 34.11083221435547 34.699989318847656 35.12839126586914 35.44272994995117 35.66873550415039 35.813941955566406 35.869712829589844 35.82859802246094 35.72868728637695 35.7018928527832 -9999 -9999
-9999 29.087743759155273 29.653934478759766 30.24774932861328 30.97753143310547 31.877309799194336 32.792293548583984 33.638648986816406 34.34443664550781 34.90540313720703 35.34626770019531 35.71906280517578 36.042152404785156 36.30533218383789 36.49386215209961 36.60289764404297 36.67228698730469 36.80899429321289 37.21030807495117 37.38007736206055
-9999 -9999 30.276269912719727 30.682247161865234 31.342411041259766 32.232566833496094 33.17368698120117 34.02923583984375 34.7216796875 35.258792877197266 35.683223724365234 36.06351852416992 36.417396545410156 36.73902130126953 36.98319625854492 37.14265823364258 37.258148193359375 37.36379623413086 37.49698257446289 37.54176330566406
-9999 -9999 30.583845138549805 30.99315071105957 31.62706184387207 32.53757858276367 33.52997589111328 34.42047119140625 35.1161003112793 35.625022888183594 36.01193618774414 36.37625503540039 36.73493576049805 37.070281982421875 37.325279235839844 37.49372482299805 37.60749816894531 37.668426513671875 37.68082809448242 37.6807746887207
-9999 -9999 -9999 31.275684356689453 31.823715209960938 32.7158088684082 33.733516693115234 34.64274597167969 35.33399200439453 35.823490142822266 36.19371795654297 36.53635787963867 36.893123626708984 37.233154296875 37.498836517333984 37.666465759277344 37.784542083740234 37.80282211303711 37.78751754760742 37.77585220336914
