ncols         20
nrows         20
xllcorner     0
yllcorner     -3.5992928
cellsize      0.17996463
NODATA_value  -9999
-9999.0 -9999 -9999 -9999 -9999 -9999 -9999 -9999 -9999 -9999 -9999 -9999 -9999 -9999 -9999 -9999 -9999 -9999 -9999 -9999
-9999 -9999 -9999 -9999 -9999 -9999 -9999 -9999 -9999 -9999 -9999 12.345284461975098 12.32042121887207 -9999 -9999 12.315483093261719 12.156880378723145 -9999 -9999 -9999
-9999 -9999 -9999 -9999 12.213013648986816 12.34359359741211 12.570150375366211 12.69687557220459 12.745650291442871 12.784075736999512 12.611180305480957 12.593335151672363 12.682315826416016 12.762653350830078 12.686050415039062 12.517172813415527 12.365541458129883 12.296693801879883 -9999 -9999
-9999 -9999 -9999 12.330622673034668 12.384196281433105 12.446157455444336 12.54826545715332 12.60721492767334 12.659613609313965 12.683419227600098 12.725661277770996 12.782032012939453 12.881000518798828 12.93860149383545 12.967172622680664 12.898188591003418 12.805150985717773 12.753426551818848 -9999 -9999
-9999 -9999 -9999 12.508427619934082 12.493398666381836 12.506708145141602 12.379531860351562 12.27161693572998 12.149055480957031 11.992671966552734 11.835603713989258 11.79311752319336 11.9511137008667 12.27186107635498 12.640985488891602 12.949956893920898 13.244559288024902 13.534132957458496 -9999 -9999
-9999 -9999 12.787622451782227 12.743263244628906 12.60621166229248 12.256253242492676 11.442463874816895 11.003946304321289 10.560856819152832 9.96581745147705 9.308609962463379 8.984674453735352 9.15412712097168 9.854391098022461 10.788755416870117 11.76683235168457 13.134957313537598 13.852754592895508 14.105813980102539 -9999
-9999 -9999 13.03646469116211 12.870247840881348 12.5193510055542 11.598284721374512 10.851419448852539 10.127537727355957 9.221908569335938 8.100133895874023 7.027560710906982 6.453340530395508 6.579000949859619 7.431346416473389 8.76890754699707 10.373878479003906 12.29094409942627 13.46921443939209 14.017592430114746 -9999
-9999 -9999 13.585653305053711 13.115680694580078 12.126550674438477 11.268988609313965 10.318758964538574 9.168697357177734 7.823941230773926 6.420094013214111 5.305642127990723 4.685354232788086 4.719701290130615 5.429657459259033 6.729830741882324 8.435152053833008 10.277220726013184 12.145720481872559 13.07651138305664 -9999
-9999 14.911230087280273 14.412973403930664 13.049973487854004 12.038094520568848 10.863859176635742 9.418825149536133 7.771692276000977 6.159177303314209 4.814820289611816 3.911452531814575 3.4323618412017822 3.3899025917053223 3.8642306327819824 4.836954593658447 6.302297592163086 8.062810897827148 9.753217697143555 11.084339141845703 -9999
-9999 15.625930786132812 15.060354232788086 13.302349090576172 11.766989707946777 9.943093299865723 7.909964084625244 5.9205145835876465 4.322572708129883 3.2601869106292725 2.6749918460845947 2.3793981075286865 2.35343599319458 2.6128153800964355 3.2551116943359375 4.31502103805542 5.799866199493408 7.322483539581299 8.478686332702637 -9999
-9999 16.409648895263672 15.571914672851562 13.219853401184082 11.023028373718262 8.645278930664062 6.218544960021973 4.124727725982666 2.7310009002685547 1.9612853527069092 1.5888192653656006 1.431779384613037 1.4199120998382568 1.5661067962646484 1.936598300933838 2.6321139335632324 3.66084623336792 4.920750617980957 5.6750102043151855 -9999
-9999 16.583702087402344 15.38712215423584 12.433813095092773 9.742361068725586 7.128467082977295 4.681513786315918 2.784109592437744 1.6583768129348755 1.0854302644729614 0.8332230448722839 0.7241034507751465 0.7100849747657776 0.7648183107376099 0.9308382272720337 1.295174241065979 1.9165372848510742 2.700228214263916 3.154759168624878 -9999
-9999 15.557581901550293 14.011834144592285 10.66282844543457 7.861427307128906 5.4046125411987305 3.3315632343292236 1.8273587226867676 0.9822251200675964 0.5934343338012695 0.39335641264915466 0.31306973099708557 0.28324368596076965 0.2905145287513733 0.3501805067062378 0.4874075651168823 0.7919017672538757 1.206493616104126 1.4885985851287842 -9999
-9999 13.281585693359375 11.554084777832031 8.195611953735352 5.571484088897705 3.587955951690674 2.112327814102173 1.1228818893432617 0.5627632737159729 0.3222261071205139 0.20781514048576355 0.15287017822265625 0.12543851137161255 0.11717136204242706 0.12509851157665253 0.16125565767288208 0.24695764482021332 0.43518102169036865 0.614463746547699 -9999
-9999 10.717719078063965 9.02445125579834 5.890528202056885 3.5929067134857178 2.1328611373901367 1.204808235168457 0.6225645542144775 0.3327917158603668 0.19352777302265167 0.12527135014533997 0.08786636590957642 0.06750385463237762 0.05776651203632355 0.05385865643620491 0.05878399312496185 0.07398286461830139 0.11896947771310806 -9999 -9999
-9999 8.863655090332031 7.212274551391602 4.361225128173828 2.403158187866211 1.2747831344604492 0.6707874536514282 0.3588135242462158 0.20621666312217712 0.12623974680900574 0.08419133722782135 0.059239909052848816 0.04750688374042511 0.05207866430282593 0.05782799422740936 0.06406884640455246 0.07003127783536911 0.0746193677186966 -9999 -9999
-9999 7.580345153808594 5.878303050994873 3.449462652206421 1.7572581768035889 0.7985221147537231 0.40370190143585205 0.21620076894760132 0.1281423568725586 0.08178548514842987 0.05669837445020676 0.05037130042910576 0.05412321910262108 0.05969773605465889 0.06640005111694336 0.07366204261779785 0.08116551488637924 0.08935137093067169 0.10136313736438751 0.1069544106721878
-9999 -9999 4.454763889312744 2.785949945449829 1.3627588748931885 0.5779688954353333 0.2680201530456543 0.13913191854953766 0.08220715820789337 0.05476205796003342 0.054046884179115295 0.05609758570790291 0.06055402755737305 0.06690002977848053 0.07434232532978058 0.08221691846847534 0.09012547880411148 0.0978073850274086 0.10503622144460678 0.10872884094715118
-9999 -9999 3.1646101474761963 2.1804051399230957 1.0804004669189453 0.4346295893192291 0.1885051280260086 0.09294106066226959 0.06132770702242851 0.05842102691531181 0.05825624242424965 0.06079193204641342 0.06575560569763184 0.07259605079889297 0.08043817430734634 0.08850826323032379 0.09622639417648315 0.10287711024284363 0.1078006774187088 0.11035070568323135
-9999 -9999 -9999 1.7776213884353638 0.920451283454895 0.377314031124115 0.15836399793624878 0.07610538601875305 0.0630720853805542 0.06051655486226082 0.060626957565546036 0.06338178366422653 0.06859486550092697 0.07567697018384933 0.0837121307849884 0.09178304672241211 0.09930302202701569 0.10519727319478989 0.10925214737653732 0.11131355911493301
