ncols         20
nrows         20
xllcorner     0
yllcorner     -3.5992928
cellsize      0.17996463
NODATA_value  -9999
-9999.0 -9999 -9999 -9999 -9999 -9999 -9999 -9999 -9999 -9999 -9999 -9999 -9999 -9999 -9999 -9999 -9999 -9999 -9999 -9999
-9999 -9999 -9999 -9999 -9999 -9999 -9999 -9999 -9999 -9999 -9999 0 0 -9999 -9999 0 0 -9999 -9999 -9999
-9999 -9999 -9999 -9999 0 0 0 0 0 0 0 0 0 0 0 0 0 0 -9999 -9999
-9999 -9999 -9999 0 0 0 0 0 0 0 0 0 0 0 0 0 0 0 -9999 -9999
-9999 -9999 -9999 0 0 0 0 0 0 0 0 0 0 0 0 0 0 0 -9999 -9999
-9999 -9999 0 0 0 0 8.716732025146484 7.859160423278809 7.17024040222168 6.4203691482543945 5.697785377502441 5.383054733276367 5.604392051696777 6.443483352661133 7.695680618286133 9.26832389831543 0 0 0 -9999
-9999 -9999 0 0 0 8.726204872131348 7.363209247589111 6.306325912475586 5.247534275054932 4.149528980255127 3.248929977416992 2.8262364864349365 2.947021007537842 3.6749227046966553 4.99535608291626 6.945913791656494 0 0 0 -9999
-9999 -9999 0 0 9.375402450561523 7.766723155975342 6.364016532897949 5.015017509460449 3.728865623474121 2.62569260597229 1.898739218711853 1.5528123378753662 1.5882141590118408 2.035414934158325 2.992504358291626 4.564021587371826 6.747415065765381 0 0 -9999
-9999 0 0 10.757111549377441 8.759074211120605 6.951615333557129 5.201382637023926 3.611236095428467 2.3707525730133057 1.5466738939285278 1.094793677330017 0.89073646068573 0.8831413984298706 1.1085819005966187 1.6395719051361084 2.6358790397644043 4.175394535064697 6.065487861633301 0 -9999
-9999 0 0 10.736592292785645 8.135334968566895 5.766601085662842 3.7224209308624268 2.196073055267334 1.2692360877990723 0.7929010987281799 0.5778712034225464 0.4840858578681946 0.4813174307346344 0.5753553509712219 0.8314514756202698 1.349649429321289 2.2843375205993652 3.535897731781006 0 -9999
-9999 0 0 10.390863418579102 7.097871780395508 4.419229507446289 2.4081740379333496 1.1754505634307861 0.5948295593261719 0.35446274280548096 0.2589173913002014 0.2236398607492447 0.22339193522930145 0.2616945207118988 0.3657298684120178 0.5996408462524414 1.0465809106826782 0 0 -9999
-9999 0 0 9.181180000305176 5.629708766937256 3.1172962188720703 1.4718259572982788 0.6179567575454712 0.2772943079471588 0.1509317010641098 0.10547768324613571 0.08815201371908188 0.08687607198953629 0.09744520485401154 0.12949448823928833 0.20969198644161224 0.3824463188648224 0 0 -9999
-9999 0 0 6.921835422515869 3.8343732357025146 1.9275542497634888 0.8384789228439331 0.3240492045879364 0.13290166854858398 0.0684751570224762 0.04140698164701462 0.03178630769252777 0.028644733130931854 0.030090708285570145 0.038447968661785126 0.05917004868388176 0.11338624358177185 0 0 -9999
-9999 0 0 4.340174198150635 2.1200993061065674 0.9791555404663086 0.41319403052330017 0.16235142946243286 0.06496509164571762 0.03291179612278938 0.019892383366823196 0.01421270426362753 0.011592174880206585 0.010982793755829334 0.012134869582951069 0.016641909256577492 0.02820364572107792 0 0 -9999
-9999 0 0 2.4582462310791016 1.0325108766555786 0.4381394684314728 0.18511097133159637 0.07549436390399933 0.03469349071383476 0.01848694682121277 0.01141811441630125 0.007828186266124249 0.0059826732613146305 0.005170084536075592 0.0049347588792443275 0.005610677879303694 0.007519720587879419 0 -9999 -9999
-9999 0 0 1.4841856956481934 0.5515645146369934 0.20979513227939606 0.0861477330327034 0.03894060105085373 0.02017957530915737 0.01160007156431675 0.007467917166650295 0.005160496104508638 0.004124936647713184 0.004580718465149403 0.0051992712542414665 0.005947131663560867 0.006790235172957182 0.007537477649748325 -9999 -9999
-9999 0 0 1.0073891878128052 0.34518182277679443 0.1126539334654808 0.046494003385305405 0.02190656028687954 0.012020725756883621 0.007317725103348494 0.004935834556818008 0.004341902676969767 0.004676511976867914 0.005209505092352629 0.00589317362755537 0.006695099640637636 0.0076073938980698586 0.008620759472250938 0.009787543676793575 0.010345390066504478
-9999 -9999 0 0.7109211683273315 0.23885619640350342 0.07472927868366241 0.028948208317160606 0.013528787530958652 0.007510591764003038 0.00481741176918149 0.004682205151766539 0.004828701261430979 0.005217953585088253 0.005808356683701277 0.006538478657603264 0.0073573291301727295 0.008230137638747692 0.009109928272664547 0.009877951815724373 0.010262271389365196
-9999 -9999 0 0 0.1739303469657898 0.052888307720422745 0.019552038982510567 0.00880663376301527 0.005529624409973621 0.005137247499078512 0.005046565551310778 0.005231061484664679 0.005659514106810093 0.006285379640758038 0.0070360139943659306 0.007844433188438416 0.008651893585920334 0.009369715116918087 0.0098965959623456 0.01016741618514061
-9999 -9999 -9999 0 0.1402008980512619 0.04466916620731354 0.016150401905179024 0.00713758822530508 0.005683726165443659 0.005321761127561331 0.005253097042441368 0.005454286001622677 0.005901777185499668 0.006544516887515783 0.007304316386580467 0.008098467253148556 0.008865942247211933 0.009487640112638474 0.009920655749738216 0.010141529142856598
