ncols         20
nrows         20
xllcorner     0
yllcorner     -3.5992928
cellsize      0.17996463
NODATA_value  -9999
-9999.0 -9999 -9999 -9999 -9999 -9999 -9999 -9999 -9999 -9999 -9999 -9999 -9999 -9999 -9999 -9999 -9999 -9999 -9999 -9999
-9999 -9999 -9999 -9999 -9999 -9999 -9999 -9999 -9999 -9999 -9999 26.523366928100586 26.5227108001709 -9999 -9999 26.618940353393555 26.69864845275879 -9999 -9999 -9999
-9999 -9999 -9999 -9999 26.584278106689453 26.473119735717773 26.31307029724121 26.19771957397461 26.14013671875 26.13206672668457 26.21344757080078 26.304819107055664 26.270233154296875 26.163623809814453 26.220211029052734 26.412946701049805 26.544357299804688 26.58167266845703 -9999 -9999
-9999 -9999 -9999 26.59261703491211 26.533573150634766 26.433197021484375 26.318265914916992 26.248920440673828 26.211566925048828 26.195598602294922 26.19062614440918 26.16999053955078 26.09016990661621 26.013397216796875 26.023902893066406 26.135486602783203 26.251541137695312 26.301197052001953 -9999 -9999
-9999 -9999 -9999 26.514259338378906 26.460205078125 26.397872924804688 26.396530151367188 26.472963333129883 26.561710357666016 26.621719360351562 26.629928588867188 26.54766273498535 26.355371475219727 26.135326385498047 25.97954559326172 25.934083938598633 25.934829711914062 25.907676696777344 -9999 -9999
-9999 -9999 26.4594783782959 26.413328170776367 26.373397827148438 26.450485229492188 26.7440242767334 27.20965576171875 27.625293731689453 27.941547393798828 28.099199295043945 27.96471405029297 27.524503707885742 26.951444625854492 26.445554733276367 26.08213233947754 25.86714744567871 25.733861923217773 25.66343879699707 -9999
-9999 -9999 26.28249168395996 26.252918243408203 26.298194885253906 26.6507625579834 27.501068115234375 28.819133758544922 29.85902976989746 30.478357315063477 30.672447204589844 30.347047805786133 29.489093780517578 28.49045753479004 27.537471771240234 26.743789672851562 26.227901458740234 25.92534065246582 25.785348892211914 -9999
-9999 -9999 25.945159912109375 25.96672248840332 26.202241897583008 26.995515823364258 28.693077087402344 31.404747009277344 32.9429931640625 33.62968826293945 33.69647216796875 33.081016540527344 31.619882583618164 30.216064453125 28.972545623779297 27.90471649169922 27.0709285736084 26.5230712890625 26.267288208007812 -9999
-9999 25.47376823425293 25.550260543823242 25.672407150268555 26.162626266479492 27.402050018310547 29.767276763916016 32.990840911865234 34.77838897705078 35.51590347290039 35.52961730957031 34.80257797241211 33.193912506103516 31.653976440429688 30.32666778564453 29.192594528198242 28.258731842041016 27.585920333862305 27.235300064086914 -9999
-9999 25.221906661987305 25.279884338378906 25.540334701538086 26.336788177490234 27.9736328125 30.691499710083008 33.93651580810547 35.744773864746094 36.48704147338867 36.493186950683594 35.77111053466797 34.19839859008789 32.67995834350586 31.391963958740234 30.32117462158203 29.447324752807617 28.802017211914062 28.451583862304688 -9999
-9999 25.006540298461914 25.17189598083496 25.67442512512207 26.784992218017578 28.702476501464844 31.447265625 34.462852478027344 36.15522766113281 36.866336822509766 36.89278030395508 36.23609924316406 34.75947570800781 33.338687896728516 32.14546585083008 31.174175262451172 30.40507698059082 29.850433349609375 29.546850204467773 -9999
-9999 25.083927154541016 25.396089553833008 26.141258239746094 27.45730972290039 29.419416427612305 31.890602111816406 34.48303985595703 35.982032775878906 36.661983489990234 36.7476806640625 36.23117446899414 34.97208023071289 33.762367248535156 32.72453308105469 31.850133895874023 31.143083572387695 30.635665893554688 30.352725982666016 -9999
-9999 25.597801208496094 26.033849716186523 26.943227767944336 28.305465698242188 30.015256881713867 31.939559936523438 33.80308151245117 35.07518768310547 35.7613639831543 35.95866394042969 35.677276611328125 34.956058502197266 34.14488220214844 33.35429000854492 32.603206634521484 31.906269073486328 31.355375289916992 30.989309310913086 -9999
-9999 26.504562377929688 27.015913009643555 27.954788208007812 29.149150848388672 30.504470825195312 31.938560485839844 33.30409240722656 34.369991302490234 35.034454345703125 35.33712387084961 35.31533432006836 35.03190612792969 34.622596740722656 34.142967224121094 33.58137512207031 32.956050872802734 32.31449508666992 31.567794799804688 -9999
-9999 27.5809326171875 28.070697784423828 28.892467498779297 29.859785079956055 30.9202823638916 32.04200744628906 33.12933349609375 34.01591873168945 34.65166091918945 35.04295349121094 35.23333740234375 35.266117095947266 35.1884880065918 35.01829528808594 34.725887298583984 34.33617401123047 33.93520736694336 -9999 -9999
-9999 28.4372615814209 28.90410614013672 29.600017547607422 30.41316032409668 31.324108123779297 32.301368713378906 33.22065353393555 33.99525833129883 34.59722137451172 35.036014556884766 35.359100341796875 35.593711853027344 35.74720001220703 35.810997009277344 35.77696228027344 35.68275833129883 35.66071319580078 -9999 -9999
-9999 28.941059112548828 29.512590408325195 30.119182586669922 30.861839294433594 31.758150100708008 32.66553497314453 33.523101806640625 34.24267578125 34.81568145751953 35.26708984375 35.650089263916016 35.98353576660156 36.25681686401367 36.45466232299805 36.571983337402344 36.649131774902344 36.79608154296875 37.21222686767578 37.38526153564453
-9999 -9999 30.13581657409668 30.556018829345703 31.235546112060547 32.138309478759766 33.07670974731445 33.935752868652344 34.63917541503906 35.18670654296875 35.62129211425781 36.011474609375 36.375205993652344 36.706546783447266 36.95951843261719 37.126949310302734 37.250633239746094 37.363216400146484 37.5006217956543 37.547027587890625
-9999 -9999 30.44730567932129 30.87189292907715 31.526954650878906 32.4583740234375 33.4566535949707 34.3495979309082 35.05060958862305 35.568424224853516 35.96459197998047 36.33770751953125 36.705299377441406 37.04983901977539 37.31346130371094 37.489009857177734 37.608158111572266 37.67170715332031 37.68572235107422 37.68643569946289
-9999 -9999 -9999 31.162307739257812 31.728620529174805 32.642704010009766 33.67169189453125 34.584571838378906 35.28025817871094 35.77663803100586 36.155174255371094 36.50630187988281 36.87195587158203 37.22056579589844 37.49355697631836 37.66667938232422 37.78786849975586 37.8075065612793 37.793060302734375 37.7818489074707
