ncols         20
nrows         20
xllcorner     0
yllcorner     -3.5992928
cellsize      0.17996463
NODATA_value  -9999
-9999.0 -9999 -9999 -9999 -9999 -9999 -9999 -9999 -9999 -9999 -9999 -9999 -9999 -9999 -9999 -9999 -9999 -9999 -9999 -9999
-9999 -9999 -9999 -9999 -9999 -9999 -9999 -9999 -9999 -9999 -9999 0.13779348134994507 0.1372860074043274 -9999 -9999 0.14514406025409698 0.13710518181324005 -9999 -9999 -9999
-9999 -9999 -9999 -9999 0.11874350160360336 0.12732698023319244 0.14366798102855682 0.15889671444892883 0.17173244059085846 0.18342657387256622 0.1739012598991394 0.16850672662258148 0.17601943016052246 0.18792904913425446 0.17926666140556335 0.16211694478988647 0.15014880895614624 0.14450602233409882 -9999 -9999
-9999 -9999 -9999 0.11722661554813385 0.12465135008096695 0.1356722116470337 0.15273281931877136 0.17133550345897675 0.19434261322021484 0.21852964162826538 0.24133208394050598 0.25467821955680847 0.26594558358192444 0.26107123494148254 0.2422909438610077 0.21328069269657135 0.1887957602739334 0.17581360042095184 -9999 -9999
-9999 -9999 -9999 0.12203589826822281 0.13128361105918884 0.15059645473957062 0.17401115596294403 0.20251435041427612 0.24252726137638092 0.3031136691570282 0.3763613700866699 0.4356234669685364 0.46125441789627075 0.43574193120002747 0.38791322708129883 0.32425928115844727 0.2741580903530121 0.26471060514450073 -9999 -9999
-9999 -9999 0.11736683547496796 0.12816523015499115 0.14468182623386383 0.16878744959831238 0.19508510828018188 0.22769159078598022 0.28736498951911926 0.38348302245140076 0.5174921154975891 0.6418944597244263 0.7266653180122375 0.7131615877151489 0.6233797669410706 0.5163474082946777 0.43072932958602905 0.4023098945617676 0.3945217430591583 -9999
-9999 -9999 0.12793540954589844 0.14065340161323547 0.16789188981056213 0.1985367238521576 0.22096827626228333 0.24100355803966522 0.2933255434036255 0.39335137605667114 0.5512455105781555 0.7510195374488831 0.9665377736091614 1.0475469827651978 0.9846358895301819 0.8339748382568359 0.6947206854820251 0.5989194512367249 0.5640881657600403 -9999
-9999 -9999 0.1581624448299408 0.18050634860992432 0.221774160861969 0.25755465030670166 0.2672778069972992 0.22401489317417145 0.23188315331935883 0.2828959822654724 0.3819864094257355 0.5807599425315857 1.0961509943008423 1.3700720071792603 1.4125114679336548 1.2865267992019653 1.1142332553863525 0.9600335955619812 0.8955169320106506 -9999
-9999 0.19551753997802734 0.21706080436706543 0.261605441570282 0.33422157168388367 0.39309263229370117 0.3856336772441864 0.28022995591163635 0.25388768315315247 0.281022846698761 0.371139258146286 0.6036667823791504 1.2782504558563232 1.7314025163650513 1.9376716613769531 1.8992884159088135 1.7073806524276733 1.509408712387085 1.415797472000122 -9999
-9999 0.26110103726387024 0.30673423409461975 0.4115128219127655 0.5465220212936401 0.6466822624206543 0.6245952248573303 0.41452232003211975 0.3494575619697571 0.3589557707309723 0.44688087701797485 0.7138291597366333 1.5400466918945312 2.1619598865509033 2.5289602279663086 2.629723072052002 2.4855682849884033 2.278080940246582 2.17344069480896 -9999
-9999 0.409009724855423 0.4878947138786316 0.6611399054527283 0.8681985139846802 1.0240048170089722 1.0037014484405518 0.6433628797531128 0.5414083003997803 0.5357965230941772 0.6188250780105591 0.9085121750831604 1.916347622871399 2.6639153957366943 3.1673660278320312 3.4065966606140137 3.401106357574463 3.238356828689575 3.1447806358337402 -9999
-9999 0.6903030872344971 0.8088937997817993 1.073556661605835 1.3682843446731567 1.5890896320343018 1.590546727180481 1.073588490486145 0.9508516788482666 0.926035463809967 0.9852032661437988 1.2550055980682373 2.350019693374634 3.110341787338257 3.675624370574951 4.058994770050049 4.219947338104248 4.189091205596924 4.145050048828125 -9999
-9999 1.1757808923721313 1.364454746246338 1.755699634552002 2.1251230239868164 2.4040112495422363 2.49763560295105 2.32977032661438 2.145573377609253 2.018219470977783 2.034815549850464 2.2620139122009277 2.7770841121673584 3.2841851711273193 3.762770414352417 4.202212333679199 4.564391136169434 4.7426557540893555 4.765334606170654 -9999
-9999 1.8765532970428467 2.1422767639160156 2.6660265922546387 3.1079630851745605 3.368453025817871 3.4151086807250977 3.24118971824646 2.9729080200195312 2.756256580352783 2.6657660007476807 2.7192559242248535 2.8963799476623535 3.1210503578186035 3.374316692352295 3.7184698581695557 4.156473636627197 4.627721309661865 4.782541275024414 -9999
-9999 2.6134274005889893 2.934605598449707 3.5619630813598633 4.020130634307861 4.17124080657959 4.066108226776123 3.7819271087646484 3.4446640014648438 3.1582281589508057 2.973005771636963 2.862466335296631 2.8106656074523926 2.7993924617767334 2.8099656105041504 2.9312310218811035 3.175869941711426 3.6806640625 -9999 -9999
-9999 3.1606032848358154 3.5330018997192383 4.197863578796387 4.585928916931152 4.592924118041992 4.346299648284912 3.9795186519622803 3.618516206741333 3.30590558052063 3.0665881633758545 2.8522658348083496 2.64897084236145 2.457824468612671 2.305410623550415 2.206191301345825 2.1798861026763916 1.9753626585006714 -9999 -9999
-9999 3.5637528896331787 3.9930732250213623 4.596146583557129 4.882614612579346 4.729672431945801 4.352638244628906 3.913227081298828 3.53137469291687 3.208676815032959 2.9419217109680176 2.6731181144714355 2.3959670066833496 2.1428017616271973 1.9100408554077148 1.713940143585205 1.555791974067688 1.3841030597686768 1.242893099784851 1.0873332023620605
-9999 -9999 4.45172119140625 4.871057987213135 5.031179904937744 4.726470947265625 4.2055463790893555 3.69077730178833 3.2797348499298096 2.9555394649505615 2.687734842300415 2.414661169052124 2.135890245437622 1.8346153497695923 1.5865412950515747 1.4009928703308105 1.2267088890075684 1.0961601734161377 0.9930083155632019 1.0224881172180176
-9999 -9999 4.8785929679870605 5.078651428222656 5.078821659088135 4.622038841247559 3.9684770107269287 3.375669479370117 2.932347536087036 2.6255688667297363 2.415310859680176 2.1579430103302 1.8786189556121826 1.5854688882827759 1.3656960725784302 1.2064253091812134 1.0708591938018799 0.9835293889045715 1.0200365781784058 1.0404976606369019
-9999 -9999 -9999 5.163823127746582 5.085181713104248 4.563137054443359 3.8375403881073 3.2110540866851807 2.767630100250244 2.4841272830963135 2.2748782634735107 2.0575640201568604 1.7795109748840332 1.4908878803253174 1.2615424394607544 1.136114478111267 0.9909992218017578 1.005324363708496 1.0355387926101685 1.0522030591964722
