ncols         20
nrows         20
xllcorner     0
yllcorner     -3.5992928
cellsize      0.17996463
NODATA_value  -9999
-9999.0 -9999 -9999 -9999 -9999 -9999 -9999 -9999 -9999 -9999 -9999 -9999 -9999 -9999 -9999 -9999 -9999 -9999 -9999 -9999
-9999 -9999 -9999 -9999 -9999 -9999 -9999 -9999 -9999 -9999 -9999 2.4707846641540527 2.4677317142486572 -9999 -9999 2.5663554668426514 2.537813186645508 -9999 -9999 -9999
-9999 -9999 -9999 -9999 2.5396504402160645 2.5559303760528564 2.578901767730713 2.572093963623047 2.549281358718872 2.5329668521881104 2.4916632175445557 2.4996337890625 2.5226690769195557 2.543935775756836 2.5567543506622314 2.566445827484131 2.5455167293548584 2.516622304916382 -9999 -9999
-9999 -9999 -9999 2.5675320625305176 2.5836522579193115 2.597492218017578 2.6040143966674805 2.58431339263916 2.557194232940674 2.5276849269866943 2.512967109680176 2.5174098014831543 2.5389251708984375 2.563997268676758 2.597046136856079 2.608473777770996 2.5860702991485596 2.5583150386810303 -9999 -9999
-9999 -9999 -9999 2.599024772644043 2.6204986572265625 2.6499106884002686 2.636532783508301 2.5809478759765625 2.5076589584350586 2.4243481159210205 2.347466468811035 2.311640739440918 2.339245557785034 2.425402879714966 2.52877140045166 2.5961718559265137 2.605978012084961 2.6189451217651367 -9999 -9999
-9999 -9999 2.594043493270874 2.6325526237487793 2.6684117317199707 2.6721556186676025 2.5921988487243652 2.4347095489501953 2.275087356567383 2.091883659362793 1.9120378494262695 1.8181953430175781 1.8481383323669434 2.0197677612304688 2.2438220977783203 2.424469470977783 2.5196237564086914 2.5498008728027344 2.496483564376831 -9999
-9999 -9999 2.620687484741211 2.660566806793213 2.7053723335266113 2.6500024795532227 2.421300172805786 2.017516613006592 1.761912226676941 1.523071050643921 1.3093558549880981 1.2149298191070557 1.3042203187942505 1.5124890804290771 1.7863746881484985 2.0802001953125 2.2861897945404053 2.386439085006714 2.408071994781494 -9999
-9999 -9999 2.680925130844116 2.727802038192749 2.735064744949341 2.5628814697265625 2.0772056579589844 0.9316730499267578 0.6905525922775269 0.5843908190727234 0.5226383209228516 0.5376102924346924 0.8299827575683594 1.058680534362793 1.3328944444656372 1.6376721858978271 1.8979448080062866 2.08077335357666 2.1539554595947266 -9999
-9999 2.664167642593384 2.7378768920898438 2.7754476070404053 2.70924711227417 2.423931121826172 1.8360834121704102 0.6968289017677307 0.4316418170928955 0.34296563267707825 0.3157818615436554 0.3506060838699341 0.5516934990882874 0.7112411260604858 0.906635582447052 1.1658506393432617 1.4417089223861694 1.648511290550232 1.7422152757644653 -9999
-9999 2.703047513961792 2.745318651199341 2.736154794692993 2.5480082035064697 2.1386454105377197 1.520891547203064 0.5635693669319153 0.32183781266212463 0.24403512477874756 0.227130725979805 0.2534424960613251 0.3690962791442871 0.4519956707954407 0.5638824701309204 0.7329652905464172 0.961036205291748 1.1642614603042603 1.2643548250198364 -9999
-9999 2.687490701675415 2.6724777221679688 2.549081802368164 2.2361364364624023 1.772652506828308 1.1739052534103394 0.4403897225856781 0.2432393580675125 0.17743869125843048 0.15988127887248993 0.17075254023075104 0.220293790102005 0.25511014461517334 0.30549493432044983 0.39752882719039917 0.5323874950408936 0.6803353428840637 0.75913006067276 -9999
-9999 2.5245349407196045 2.4394702911376953 2.1927719116210938 1.8063273429870605 1.367489218711853 0.8508975505828857 0.33829665184020996 0.18289589881896973 0.12368213385343552 0.10249896347522736 0.0987345278263092 0.1107000783085823 0.11808647960424423 0.13352686166763306 0.17206379771232605 0.24045442044734955 0.32006174325942993 0.3636344373226166 -9999
-9999 2.1597256660461426 2.0095160007476807 1.6774041652679443 1.3183538913726807 0.9390308260917664 0.5702195167541504 0.2790907025337219 0.1417635977268219 0.08625021576881409 0.05833812057971954 0.04765501618385315 0.042957380414009094 0.04068716615438461 0.04333777725696564 0.05412370339035988 0.08648476749658585 0.12328536063432693 0.14630863070487976 -9999
-9999 1.6600568294525146 1.4863306283950806 1.1460559368133545 0.8154375553131104 0.5397277474403381 0.32037779688835144 0.16595159471035004 0.08016026020050049 0.04746328666806221 0.0323277972638607 0.02471040189266205 0.02009262517094612 0.017396969720721245 0.016355782747268677 0.018127553164958954 0.024286620318889618 0.03738660737872124 0.04758482798933983 -9999
-9999 1.2388999462127686 1.058692216873169 0.7224587798118591 0.44709402322769165 0.2701345682144165 0.15496066212654114 0.07786539942026138 0.04313460737466812 0.027633054181933403 0.02012789621949196 0.015629179775714874 0.012759598903357983 0.011077177710831165 0.009987958706915379 0.010031764395534992 0.011118380352854729 0.015374032780528069 -9999 -9999
-9999 0.9599422812461853 0.7783346176147461 0.47480180859565735 0.25813958048820496 0.13598869740962982 0.06913601607084274 0.03853251412510872 0.02491389960050583 0.018182964995503426 0.014682093635201454 0.012257828377187252 0.011073331348598003 0.012699946761131287 0.014103783294558525 0.015151865780353546 0.015849675983190536 0.016471723094582558 -9999 -9999
-9999 0.7814552187919617 0.59040766954422 0.3423410654067993 0.16842889785766602 0.07004859298467636 0.03574889525771141 0.02154509723186493 0.015696415677666664 0.012912953272461891 0.011491211131215096 0.012264855206012726 0.014673386700451374 0.017011240124702454 0.019153565168380737 0.021008986979722977 0.022708876058459282 0.024858063086867332 0.029216209426522255 0.031007785350084305
-9999 -9999 0.4146202802658081 0.25639569759368896 0.12079504132270813 0.0461236797273159 0.02241051197052002 0.014150505885481834 0.011186052113771439 0.01017048116773367 0.012616658583283424 0.01531775388866663 0.01816583052277565 0.02102586254477501 0.023632189258933067 0.02583669126033783 0.027750201523303986 0.029506392776966095 0.031303539872169495 0.03202322870492935
-9999 -9999 0.27569225430488586 0.18530023097991943 0.08909022808074951 0.03299986571073532 0.01579217053949833 0.010295663960278034 0.009609025903046131 0.01215921901166439 0.01489761471748352 0.017859607934951782 0.020995089784264565 0.024134092032909393 0.02690131589770317 0.02910851687192917 0.030821485444903374 0.03196830302476883 0.03254582732915878 0.03275299817323685
-9999 -9999 -9999 0.14265933632850647 0.06821424514055252 0.027509741485118866 0.013415965251624584 0.009037296287715435 0.010571063496172428 0.013308586552739143 0.016192510724067688 0.01924807019531727 0.022504866123199463 0.0257475096732378 0.028568103909492493 0.030680226162075996 0.03224143385887146 0.03290243074297905 0.03309216722846031 0.03312020003795624
