ncols         20
nrows         20
xllcorner     0
yllcorner     -3.5992928
cellsize      0.17996463
NODATA_value  -9999
-9999.0 -9999 -9999 -9999 -9999 -9999 -9999 -9999 -9999 -9999 -9999 -9999 -9999 -9999 -9999 -9999 -9999 -9999 -9999 -9999
-9999 -9999 -9999 -9999 -9999 -9999 -9999 -9999 -9999 -9999 -9999 0.17049767076969147 0.17070843279361725 -9999 -9999 0.1882806122303009 0.1780346781015396 -9999 -9999 -9999
-9999 -9999 -9999 -9999 0.14262987673282623 0.1520027220249176 0.17020942270755768 0.18734969198703766 0.20271649956703186 0.21824762225151062 0.20993322134017944 0.2072990983724594 0.21983866393566132 0.23849733173847198 0.23041418194770813 0.2101796269416809 0.19544804096221924 0.1886148303747177 -9999 -9999
-9999 -9999 -9999 0.14342211186885834 0.15095610916614532 0.16253429651260376 0.18106162548065186 0.20183339715003967 0.22908011078834534 0.2597329318523407 0.2910405993461609 0.3126416802406311 0.33226490020751953 0.33165523409843445 0.31197860836982727 0.2771802544593811 0.24659894406795502 0.23018932342529297 -9999 -9999
-9999 -9999 -9999 0.1510390043258667 0.1606353372335434 0.18149274587631226 0.20684316754341125 0.23872148990631104 0.28587013483047485 0.3605350852012634 0.45489028096199036 0.536478579044342 0.5786387920379639 0.55585116147995 0.5012891292572021 0.4229082763195038 0.35933515429496765 0.34769207239151 -9999 -9999
-9999 -9999 0.15145519375801086 0.16230136156082153 0.17986620962619781 0.20581278204917908 0.23375293612480164 0.2692870497703552 0.33900052309036255 0.45666491985321045 0.6283023357391357 0.7969363927841187 0.9197953343391418 0.9163534641265869 0.810039758682251 0.675622284412384 0.5651423931121826 0.5284115672111511 0.5181883573532104 -9999
-9999 -9999 0.16787494719028473 0.18208901584148407 0.2131395936012268 0.24692149460315704 0.26880943775177 0.28645867109298706 0.34567776322364807 0.46782293915748596 0.6679457426071167 0.9316442012786865 1.2290107011795044 1.352595567703247 1.2824267148971558 1.090498447418213 0.9090577363967896 0.7832745313644409 0.7373024821281433 -9999
-9999 -9999 0.2129548192024231 0.23996606469154358 0.2894558906555176 0.3296319544315338 0.33351051807403564 0.2657507061958313 0.26755082607269287 0.32496532797813416 0.44435662031173706 0.6956135034561157 1.3945486545562744 1.7724887132644653 1.8371472358703613 1.6731855869293213 1.4455240964889526 1.2420443296432495 1.1566637754440308 -9999
-9999 0.27525997161865234 0.30086636543273926 0.3572828769683838 0.44929206371307373 0.5199820399284363 0.49858906865119934 0.340129554271698 0.29523566365242004 0.3214704990386963 0.4285331964492798 0.7217175364494324 1.6320151090621948 2.2430663108825684 2.5138893127441406 2.4527275562286377 2.18947696685791 1.923675775527954 1.7985608577728271 -9999
-9999 0.37021610140800476 0.4318321645259857 0.5736227035522461 0.7534084916114807 0.880675733089447 0.8337113261222839 0.5130466222763062 0.41264933347702026 0.415028840303421 0.5180890560150146 0.8542413711547852 1.9736948013305664 2.8046061992645264 3.2733640670776367 3.374499797821045 3.154381036758423 2.863039016723633 2.7169694900512695 -9999
-9999 0.5818849205970764 0.6920217275619507 0.9329333901405334 1.217939019203186 1.4248793125152588 1.3650085926055908 0.8033004403114319 0.650131106376648 0.632627010345459 0.7267553806304932 1.0895746946334839 2.4690253734588623 3.463801860809326 4.094489097595215 4.3509721755981445 4.28341817855835 4.029503345489502 3.8868415355682373 -9999
-9999 0.9763039946556091 1.1428004503250122 1.5142086744308472 1.925662875175476 2.2232449054718018 2.186757802963257 1.3657385110855103 1.1871473789215088 1.1459957361221313 1.2059013843536377 1.5370107889175415 3.060201406478882 4.06242036819458 4.752847194671631 5.170100688934326 5.289829730987549 5.182286262512207 5.090132713317871 -9999
-9999 1.6345465183258057 1.895933985710144 2.4402577877044678 2.9571008682250977 3.3493995666503906 3.471550464630127 3.2087459564208984 2.9398553371429443 2.747257709503174 2.7426578998565674 3.017838478088379 3.689944267272949 4.319352626800537 4.87345027923584 5.346454620361328 5.70806884765625 5.852273941040039 5.835076332092285 -9999
-9999 2.5479891300201416 2.906696319580078 3.6231250762939453 4.245736122131348 4.636396408081055 4.731304168701172 4.506854057312012 4.1396918296813965 3.827925682067871 3.673736572265625 3.703774929046631 3.891610860824585 4.124725341796875 4.375791072845459 4.728369235992432 5.19360876083374 5.709681034088135 5.8511552810668945 -9999
-9999 3.4870216846466064 3.9151623249053955 4.760415077209473 5.401063442230225 5.65625524520874 5.573542594909668 5.231233596801758 4.790327072143555 4.392859935760498 4.111713409423828 3.915407657623291 3.7865991592407227 3.7022364139556885 3.6403677463531494 3.7216832637786865 3.9655842781066895 4.552020072937012 -9999 -9999
-9999 4.172553062438965 4.660314083099365 5.542248249053955 6.081362724304199 6.141656875610352 5.880409240722656 5.443404197692871 4.986767292022705 4.565443992614746 4.21772575378418 3.8846375942230225 3.5549252033233643 3.2373569011688232 2.9733920097351074 2.7866365909576416 2.706754207611084 2.4260060787200928 -9999 -9999
-9999 4.677456855773926 5.226059913635254 6.014409065246582 6.410717010498047 6.255597114562988 5.813996315002441 5.283685207366943 4.807063102722168 4.38102912902832 4.0047736167907715 3.607076406478882 3.188204288482666 2.7998085021972656 2.4433395862579346 2.1447300910949707 1.907874345779419 1.6677193641662598 1.4669246673583984 1.2712806463241577
-9999 -9999 5.788313865661621 6.33382511138916 6.557555198669434 6.197271823883057 5.560100078582764 4.924708843231201 4.410032272338867 3.986558675765991 3.6160449981689453 3.2224059104919434 2.812985420227051 2.37355375289917 2.0097384452819824 1.735872507095337 1.4885714054107666 1.3065106868743896 1.166120171546936 1.1920069456100464
-9999 -9999 6.321036338806152 6.578842639923096 6.5889692306518555 6.024107456207275 5.208621025085449 4.466131687164307 3.9049150943756104 3.505711078643799 3.2168478965759277 2.851803779602051 2.451399087905884 2.033705234527588 1.7166578769683838 1.484420657157898 1.2907589673995972 1.1648811101913452 1.1933956146240234 1.2099326848983765
-9999 -9999 -9999 6.677804946899414 6.584968090057373 5.930098056793213 5.018385410308838 4.230489730834961 3.6678473949432373 3.29910945892334 3.0131258964538574 2.704918622970581 2.311037063598633 1.9043021202087402 1.579569935798645 1.393244981765747 1.1905109882354736 1.18779718875885 1.2097195386886597 1.222298264503479
