ncols         20
nrows         20
xllcorner     0
yllcorner     -3.5992928
cellsize      0.17996463
NODATA_value  -9999
-9999.0 -9999 -9999 -9999 -9999 -9999 -9999 -9999 -9999 -9999 -9999 -9999 -9999 -9999 -9999 -9999 -9999 -9999 -9999 -9999
-9999 -9999 -9999 -9999 -9999 -9999 -9999 -9999 -9999 -9999 -9999 0.017891766503453255 0.017892803996801376 -9999 -9999 0.017974385991692543 0.017980394884943962 -9999 -9999 -9999
-9999 -9999 -9999 -9999 0.018045732751488686 0.018007345497608185 0.017950035631656647 0.01787985861301422 0.0178102795034647 0.017756501212716103 0.017732836306095123 0.037615858018398285 0.03762155398726463 0.017741160467267036 0.017766905948519707 0.03778204321861267 0.037819162011146545 0.01784435100853443 -9999 -9999
-9999 -9999 -9999 0.017958462238311768 0.03800682723522186 0.07903429120779037 0.07876024395227432 0.07839883118867874 0.07803375273942947 0.07774372398853302 0.07758984714746475 0.0934438407421112 0.0934753268957138 0.07764752954244614 0.07776889950037003 0.0938861295580864 0.07809708267450333 0.017703838646411896 -9999 -9999
-9999 -9999 -9999 0.017832880839705467 0.07861405611038208 0.11352374404668808 0.11303716897964478 0.11239183694124222 0.11174727976322174 0.11123979091644287 0.11096569895744324 0.11096109449863434 0.11104436218738556 0.11115337908267975 0.11136357486248016 0.11161016672849655 0.07721112668514252 0.017464106902480125 -9999 -9999
-9999 -9999 0.01759115234017372 0.03731396049261093 0.09368183463811874 0.11228734254837036 0.11162589490413666 0.11076246947050095 0.1099272221326828 0.10929204523563385 0.10895565897226334 0.10892566293478012 0.10910266637802124 0.10937073081731796 0.10965630412101746 0.10985717177391052 0.09134620428085327 0.03621140867471695 0.016994712874293327 -9999
-9999 -9999 0.01742825284600258 0.07681702077388763 0.11105052381753922 0.11054280400276184 0.10956629365682602 0.1083110049366951 0.10717520862817764 0.10636081546545029 0.10597121715545654 0.10600565373897552 0.10636119544506073 0.10682810097932816 0.10726293176412582 0.10754676163196564 0.10753018409013748 0.07407745718955994 0.01677536405622959 -9999
-9999 -9999 0.017172828316688538 0.07575864344835281 0.109254851937294 0.10841647535562515 0.10701707005500793 0.10517361015081406 0.10374542325735092 0.10279369354248047 0.10234944522380829 0.10242157429456711 0.10300416499376297 0.10370877385139465 0.10434409976005554 0.10481694340705872 0.10506470501422882 0.07263172417879105 0.016453159973025322 -9999
-9999 0.016766872256994247 0.03562452644109726 0.08952140808105469 0.10714872181415558 0.10604970157146454 0.10431332886219025 0.10215827077627182 0.10051217675209045 0.0994216799736023 0.098891980946064 0.09891695529222488 0.09946463257074356 0.10027851909399033 0.10106118023395538 0.10169801861047745 0.10212644189596176 0.07073800265789032 0.016041629016399384 -9999
-9999 0.016585789620876312 0.0730304941534996 0.10555750131607056 0.1049196869134903 0.10357460379600525 0.10159102082252502 0.09929248690605164 0.09751509875059128 0.09631236642599106 0.09568414092063904 0.09561274200677872 0.09605317562818527 0.09678744524717331 0.0976085364818573 0.09833507984876633 0.09887829422950745 0.06858494132757187 0.015571908093988895 -9999
-9999 0.016335757449269295 0.07188130170106888 0.10353628545999527 0.10261285305023193 0.10105884820222855 0.09892012923955917 0.09659317135810852 0.09476014971733093 0.09347964823246002 0.09275364130735397 0.09256009012460709 0.09285135567188263 0.09343705326318741 0.09417350590229034 0.09491283446550369 0.0955277606844902 0.06634677201509476 0.015081215649843216 -9999
-9999 0.01603046990931034 0.07045657187700272 0.10129304230213165 0.10020959377288818 0.09853620827198029 0.09635793417692184 0.09409134835004807 0.09226319193840027 0.09093604236841202 0.0901183933019638 0.0897887796163559 0.08990257978439331 0.0903051346540451 0.0908849835395813 0.09158259630203247 0.09227979928255081 0.06422688812017441 0.014616715721786022 -9999
-9999 0.015693465247750282 0.0688975527882576 0.09892474859952927 0.09774922579526901 0.09603501111268997 0.0939316526055336 0.091806560754776 0.09002768993377686 0.08867814391851425 0.08777733892202377 0.08730566501617432 0.08721350133419037 0.08740414679050446 0.08780357241630554 0.08839786797761917 0.08927086740732193 0.06246224790811539 0.014222775585949421 -9999
-9999 0.01535062026232481 0.06731639802455902 0.09652987867593765 0.09528181701898575 0.0935741439461708 0.09159083664417267 0.08963586390018463 0.08794866502285004 0.08661248534917831 0.0856528952717781 0.08505100756883621 0.08476593345403671 0.08473552763462067 0.08490774035453796 0.08526439219713211 0.07120124250650406 0.02894124761223793 0.013926862739026546 -9999
-9999 0.015030092559754848 0.06583182513713837 0.09421811997890472 0.09289281815290451 0.09121765941381454 0.08936852216720581 0.08758533000946045 0.08601778000593185 0.08472121506929398 0.08372633159160614 0.08301831781864166 0.08256559818983078 0.08232363313436508 0.08224833011627197 0.08230184018611908 0.0569777712225914 0.012952912598848343 -9999 -9999
-9999 0.014761260710656643 0.06424178928136826 0.09211643785238266 0.09064274281263351 0.08901877701282501 0.08731943368911743 0.08571264892816544 0.08426682651042938 0.08302589505910873 0.0820184051990509 0.08123287558555603 0.08064484596252441 0.080218605697155 0.07991470396518707 0.07969729602336884 0.05459330603480339 0.012364543043076992 -9999 -9999
-9999 0.014568563550710678 0.03034512884914875 0.07448415458202362 0.08847814798355103 0.0870179533958435 0.08552127331495285 0.08407969772815704 0.08275038748979568 0.08157090842723846 0.08056776225566864 0.07973160594701767 0.07904234528541565 0.07846802473068237 0.07796520739793777 0.0774761214852333 0.0636269673705101 0.024976501241326332 0.011473603546619415 0.011344099417328835
-9999 -9999 0.013939396478235722 0.060461290180683136 0.08665350079536438 0.08534996211528778 0.08404470980167389 0.08275490254163742 0.08153063803911209 0.08041102439165115 0.07942239940166473 0.07855766266584396 0.07780033349990845 0.07712089270353317 0.07647541910409927 0.07578925043344498 0.07491106539964676 0.06128569319844246 0.05017859488725662 0.04984189569950104
-9999 -9999 0.01355177816003561 0.028647147119045258 0.07050076872110367 0.08403988182544708 0.08296038955450058 0.08180853724479675 0.08067073673009872 0.07960083335638046 0.07862915098667145 0.07775123417377472 0.07695464789867401 0.07621563971042633 0.07550062984228134 0.07476170361042023 0.07394398748874664 0.07304482907056808 0.07233156263828278 0.0719662457704544
-9999 -9999 -9999 0.013148607686161995 0.057803429663181305 0.08331283926963806 0.08238516747951508 0.08131866902112961 0.0802311971783638 0.07918990403413773 0.07822751998901367 0.07734479755163193 0.07653070986270905 0.07576601952314377 0.07502535730600357 0.0742802768945694 0.07351446896791458 0.07277178019285202 0.07218813896179199 0.07187547534704208
