ncols         20
nrows         20
xllcorner     0
yllcorner     -3.5992928
cellsize      0.17996463
NODATA_value  -9999
-9999.0 -9999 -9999 -9999 -9999 -9999 -9999 -9999 -9999 -9999 -9999 -9999 -9999 -9999 -9999 -9999 -9999 -9999 -9999 -9999
-9999 -9999 -9999 -9999 -9999 -9999 -9999 -9999 -9999 -9999 -9999 18.973026275634766 18.981670379638672 -9999 -9999 18.912412643432617 18.916921615600586 -9999 -9999 -9999
-9999 -9999 -9999 -9999 18.91952133178711 18.941312789916992 18.958337783813477 18.98345947265625 19.004629135131836 18.99915885925293 19.038066864013672 19.010801315307617 18.999588012695312 19.024145126342773 19.021520614624023 18.974973678588867 18.95443344116211 18.96368408203125 -9999 -9999
-9999 -9999 -9999 18.921897888183594 18.91981315612793 18.944482803344727 18.965335845947266 18.98082160949707 18.976463317871094 18.967975616455078 18.943880081176758 18.93974494934082 18.947246551513672 18.984851837158203 19.00164222717285 19.005226135253906 19.007863998413086 19.022550582885742 -9999 -9999
-9999 -9999 -9999 18.945695877075195 18.95880889892578 18.957578659057617 18.94976234436035 18.91853904724121 18.870563507080078 18.794347763061523 18.714977264404297 18.6812801361084 18.7115421295166 18.80855369567871 18.901655197143555 18.98668098449707 19.048032760620117 19.044767379760742 -9999 -9999
-9999 -9999 18.99014663696289 18.98313331604004 18.992826461791992 18.974077224731445 18.909414291381836 18.795934677124023 18.656579971313477 18.50282859802246 18.35472869873047 18.288530349731445 18.323604583740234 18.47398567199707 18.676300048828125 18.856143951416016 18.987958908081055 19.044374465942383 19.128583908081055 -9999
-9999 -9999 19.047061920166016 19.058340072631836 19.037622451782227 18.95710563659668 18.787511825561523 18.55879020690918 18.32973289489746 18.154972076416016 18.019649505615234 17.945768356323242 17.94402313232422 18.07841682434082 18.30791664123535 18.57737159729004 18.787328720092773 18.935087203979492 19.002962112426758 -9999
-9999 -9999 19.136201858520508 19.13112449645996 19.067577362060547 18.90085792541504 18.60926628112793 18.626445770263672 18.29231071472168 18.11582374572754 18.040740966796875 18.040441513061523 17.731428146362305 17.775249481201172 17.954513549804688 18.20885467529297 18.460552215576172 18.663759231567383 18.759532928466797 -9999
-9999 19.270551681518555 19.21817398071289 19.192794799804688 19.059982299804688 18.785846710205078 18.401399612426758 18.31690788269043 17.997833251953125 17.85401153564453 17.808988571166992 17.82123374938965 17.571306228637695 17.560056686401367 17.65789222717285 17.845752716064453 18.075775146484375 18.28059959411621 18.391782760620117 -9999
-9999 19.327285766601562 19.297788619995117 19.190534591674805 18.964244842529297 18.614147186279297 18.210956573486328 18.121726989746094 17.84166145324707 17.720291137695312 17.685245513916016 17.694496154785156 17.459728240966797 17.40337371826172 17.431594848632812 17.53999900817871 17.711721420288086 17.881452560424805 17.977535247802734 -9999
-9999 19.35856056213379 19.28436279296875 19.09051513671875 18.7786808013916 18.37725257873535 18.01665496826172 17.991531372070312 17.75759506225586 17.652822494506836 17.623374938964844 17.62682342529297 17.365901947021484 17.274648666381836 17.253713607788086 17.29754066467285 17.399147033691406 17.52263641357422 17.596242904663086 -9999
-9999 19.2535343170166 19.121143341064453 18.843524932861328 18.484954833984375 18.092737197875977 17.807680130004883 17.888980865478516 17.699796676635742 17.60976219177246 17.583566665649414 17.584779739379883 17.283348083496094 17.179166793823242 17.132415771484375 17.12388038635254 17.16348648071289 17.238121032714844 17.291831970214844 -9999
-9999 18.952259063720703 18.77267837524414 18.453065872192383 18.09916114807129 17.777935028076172 17.543437957763672 17.43587875366211 17.36664390563965 17.336551666259766 17.316089630126953 17.283565521240234 17.20444107055664 17.149877548217773 17.103519439697266 17.068086624145508 17.044775009155273 17.064054489135742 17.11129379272461 -9999
-9999 18.52482032775879 18.327484130859375 18.009544372558594 17.708162307739258 17.471887588500977 17.316221237182617 17.242610931396484 17.22323226928711 17.222164154052734 17.220304489135742 17.209976196289062 17.194116592407227 17.181106567382812 17.171939849853516 17.141904830932617 17.088916778564453 17.015579223632812 17.099210739135742 -9999
-9999 18.111007690429688 17.926509857177734 17.638004302978516 17.401077270507812 17.248750686645508 17.169248580932617 17.148151397705078 17.156620025634766 17.173999786376953 17.18511962890625 17.197235107421875 17.210155487060547 17.224201202392578 17.247676849365234 17.249202728271484 17.229448318481445 17.09300422668457 -9999 -9999
-9999 17.82834815979004 17.655067443847656 17.40485954284668 17.224855422973633 17.140329360961914 17.111278533935547 17.119911193847656 17.135950088500977 17.156124114990234 17.17127799987793 17.193979263305664 17.224082946777344 17.25945281982422 17.293193817138672 17.322803497314453 17.336668014526367 17.427282333374023 -9999 -9999
-9999 17.662334442138672 17.482925415039062 17.273847579956055 17.1376895904541 17.104652404785156 17.110523223876953 17.13634490966797 17.155107498168945 17.174354553222656 17.191673278808594 17.21836280822754 17.25348663330078 17.28624725341797 17.322940826416016 17.357839584350586 17.385765075683594 17.414710998535156 17.377521514892578 17.407957077026367
-9999 -9999 17.324548721313477 17.189167022705078 17.094900131225586 17.09375 17.132705688476562 17.170860290527344 17.193401336669922 17.212100982666016 17.22743034362793 17.251625061035156 17.279176712036133 17.320486068725586 17.353225708007812 17.37532615661621 17.401384353637695 17.418132781982422 17.432292938232422 17.407922744750977
-9999 -9999 17.228275299072266 17.1369571685791 17.078487396240234 17.11144256591797 17.17531967163086 17.2265567779541 17.25518035888672 17.267662048339844 17.26640510559082 17.288375854492188 17.315715789794922 17.35157012939453 17.37250328063965 17.387203216552734 17.40340805053711 17.41767120361328 17.39571762084961 17.388837814331055
-9999 -9999 -9999 17.098642349243164 17.068927764892578 17.114429473876953 17.19297981262207 17.2475528717041 17.272951126098633 17.280006408691406 17.28346824645996 17.292909622192383 17.32101821899414 17.354740142822266 17.38093376159668 17.384977340698242 17.411449432373047 17.394866943359375 17.385774612426758 17.382694244384766
