ncols         20
nrows         20
xllcorner     0
yllcorner     -3.5992928
cellsize      0.17996463
NODATA_value  -9999
-9999.0 -9999 -9999 -9999 -9999 -9999 -9999 -9999 -9999 -9999 -9999 -9999 -9999 -9999 -9999 -9999 -9999 -9999 -9999 -9999
-9999 -9999 -9999 -9999 -9999 -9999 -9999 -9999 -9999 -9999 -9999 0.018816303461790085 0.018816189840435982 -9999 -9999 0.018921630457043648 0.018929053097963333 -9999 -9999 -9999
-9999 -9999 -9999 -9999 0.01893504709005356 0.018894294276833534 0.018835067749023438 0.018764490261673927 0.018696503713726997 0.018645675852894783 0.018624406307935715 0.03951648622751236 0.03951719403266907 0.018627997487783432 0.018657825887203217 0.03970611095428467 0.03975523263216019 0.0187594722956419 -9999 -9999
-9999 -9999 -9999 0.018827542662620544 0.039844706654548645 0.08284426480531693 0.08255872875452042 0.0821971669793129 0.08184386044740677 0.0815671980381012 0.08141212165355682 0.09803324192762375 0.09802495688199997 0.08138293027877808 0.08150596171617508 0.09844405949115753 0.08192797005176544 0.01858564279973507 -9999 -9999
-9999 -9999 -9999 0.01868010312318802 0.08231717348098755 0.11885714530944824 0.11834497004747391 0.11770986765623093 0.11710269004106522 0.11662691831588745 0.11634217202663422 0.1162806823849678 0.11626020818948746 0.116264708340168 0.11645051836967468 0.1167539656162262 0.08082528412342072 0.018293745815753937 -9999 -9999
-9999 -9999 0.01840844564139843 0.039034221321344376 0.09796394407749176 0.11738445609807968 0.11668287962675095 0.11587014049291611 0.11513081938028336 0.11457743495702744 0.11423107981681824 0.11407788842916489 0.11404413729906082 0.1141127273440361 0.11431295424699783 0.11455784738063812 0.09533506631851196 0.037812139838933945 0.017748381942510605 -9999
-9999 -9999 0.018228763714432716 0.0802588015794754 0.11594798415899277 0.11536185443401337 0.11440832912921906 0.11338862776756287 0.11254443228244781 0.11192850768566132 0.11152791976928711 0.11132851243019104 0.11126336455345154 0.11131902039051056 0.11152105778455734 0.11179810762405396 0.11189379543066025 0.0771501362323761 0.01749393902719021 -9999
-9999 -9999 0.017957016825675964 0.07909072190523148 0.11392359435558319 0.11302030831575394 0.11183448880910873 0.11075904220342636 0.10987026244401932 0.10920217633247375 0.10874137282371521 0.1084674745798111 0.10834203660488129 0.1083497628569603 0.10849440842866898 0.10876044631004333 0.1090693324804306 0.07549946010112762 0.017129210755228996 -9999
-9999 0.017575476318597794 0.037268057465553284 0.09342993050813675 0.11165986955165863 0.11053560674190521 0.10926301777362823 0.10813652724027634 0.10720663517713547 0.10648937523365021 0.10596802830696106 0.10562851279973984 0.10544644296169281 0.10540459305047989 0.1054944097995758 0.10569608211517334 0.10595846176147461 0.07343543320894241 0.016679925844073296 -9999
-9999 0.01739460974931717 0.07643698155879974 0.11022306978702545 0.10937106609344482 0.10803361237049103 0.1067192554473877 0.10556210577487946 0.10460008680820465 0.10383711755275726 0.10325828939676285 0.10285911709070206 0.10262419283390045 0.10253702104091644 0.10258179903030396 0.10273470729589462 0.10294415056705475 0.07130033522844315 0.016199490055441856 -9999
-9999 0.017146732658147812 0.07529006898403168 0.10819455981254578 0.10704977810382843 0.10558265447616577 0.10423362255096436 0.10305843502283096 0.10207021981477737 0.10126640647649765 0.10063774138689041 0.1001870259642601 0.09990514814853668 0.09977660328149796 0.09978693723678589 0.09991687536239624 0.10011999309062958 0.06934656947851181 0.015744224190711975 -9999
-9999 0.01684388890862465 0.07386886328458786 0.10594449192285538 0.10464424639940262 0.10316234081983566 0.10181588679552078 0.10063718259334564 0.09962905943393707 0.09879129379987717 0.09812031686306 0.09762462973594666 0.09729938209056854 0.09712948650121689 0.09711020439863205 0.09724487364292145 0.09750919044017792 0.06761913001537323 0.01535202469676733 -9999
-9999 0.016507405787706375 0.0723055899143219 0.10356131941080093 0.10219989717006683 0.10079382359981537 0.09948720037937164 0.09831999987363815 0.0973011702299118 0.09643784165382385 0.09572868049144745 0.09518701583147049 0.09480895847082138 0.09458434581756592 0.09452301263809204 0.09466291964054108 0.09510732442140579 0.0662144348025322 0.015035237185657024 -9999
-9999 0.016161803156137466 0.07071451097726822 0.10117792338132858 0.09986945986747742 0.09854106605052948 0.09728553891181946 0.09614101052284241 0.0951230600476265 0.0942474827170372 0.09351016581058502 0.09291873127222061 0.092471644282341 0.09216423332691193 0.09201009571552277 0.09204453229904175 0.07655106484889984 0.030934389680624008 0.014799986965954304 -9999
-9999 0.01583738625049591 0.06923385709524155 0.09894371032714844 0.09770368039608002 0.0964469164609909 0.09524767100811005 0.09413890540599823 0.09314426779747009 0.09227002412080765 0.0915108472108841 0.09086861461400986 0.09034066647291183 0.08992660045623779 0.0896364375948906 0.0894828513264656 0.061802398413419724 0.014008164405822754 -9999 -9999
-9999 0.015568602830171585 0.06765476614236832 0.09699255228042603 0.0957304835319519 0.09454108774662018 0.0934101864695549 0.09236017614603043 0.091403067111969 0.09054373949766159 0.089773029088974 0.08908633142709732 0.0884787067770958 0.08794953674077988 0.08750645071268082 0.08715400099754333 0.05963243544101715 0.013493256643414497 -9999 -9999
-9999 0.015379666350781918 0.032029859721660614 0.0787297934293747 0.09388980269432068 0.09284652769565582 0.09182039648294449 0.09084378182888031 0.0899352878332138 0.08909952640533447 0.08832308650016785 0.08760076761245728 0.08692501485347748 0.08629138022661209 0.08569562435150146 0.0851144939661026 0.06990143656730652 0.02747981995344162 0.012663546949625015 0.01253483071923256
-9999 -9999 0.014756972901523113 0.06416451930999756 0.09237753599882126 0.09144613146781921 0.09053054451942444 0.08963378518819809 0.08877750486135483 0.08796682208776474 0.08719099313020706 0.08644495904445648 0.08572010695934296 0.08500830829143524 0.08429628610610962 0.08353795856237411 0.08260807394981384 0.06766951829195023 0.05546889826655388 0.05512149631977081
-9999 -9999 0.014382920227944851 0.03052304871380329 0.07549095153808594 0.09036028385162354 0.08959173411130905 0.0887761116027832 0.08796650171279907 0.08717916905879974 0.08640868216753006 0.08565036207437515 0.08489617705345154 0.08413948863744736 0.08337154239416122 0.08256767690181732 0.08169089257717133 0.08074898272752762 0.0800052136182785 0.07961909472942352
-9999 -9999 -9999 0.01406247727572918 0.06206826493144035 0.08975411206483841 0.08908738940954208 0.08832469582557678 0.08754367381334305 0.08677023649215698 0.08600465208292007 0.08524250984191895 0.08447553217411041 0.08369961380958557 0.08291126042604446 0.08210314065217972 0.08127494901418686 0.08048275113105774 0.07986361533403397 0.07952958345413208
