ncols         20
nrows         20
xllcorner     0
yllcorner     -3.5992928
cellsize      0.17996463
NODATA_value  -9999
-9999.0 -9999 -9999 -9999 -9999 -9999 -9999 -9999 -9999 -9999 -9999 -9999 -9999 -9999 -9999 -9999 -9999 -9999 -9999 -9999
-9999 -9999 -9999 -9999 -9999 -9999 -9999 -9999 -9999 -9999 -9999 3.0268049240112305 3.0383474826812744 -9999 -9999 3.2592358589172363 3.2665345668792725 -9999 -9999 -9999
-9999 -9999 -9999 -9999 3.2847447395324707 3.2295360565185547 3.1470448970794678 3.050762891769409 2.962315797805786 2.901559829711914 2.880863666534424 2.923480987548828 2.962216854095459 3.0039591789245605 3.076143503189087 3.1663029193878174 3.205177068710327 3.211667060852051 -9999 -9999
-9999 -9999 -9999 3.3255438804626465 3.2654409408569336 3.1649560928344727 3.04364275932312 2.9143364429473877 2.8030686378479004 2.728245973587036 2.700305461883545 2.7218708992004395 2.777247190475464 2.8560075759887695 2.9494969844818115 3.0395209789276123 3.1065433025360107 3.148057222366333 -9999 -9999
-9999 -9999 -9999 3.3037960529327393 3.2018423080444336 3.04354190826416 2.8516428470611572 2.6550629138946533 2.497997283935547 2.3979666233062744 2.359933614730835 2.3848397731781006 2.4653940200805664 2.583104133605957 2.7178759574890137 2.845919370651245 2.951612710952759 3.0206475257873535 -9999 -9999
-9999 -9999 3.3712005615234375 3.2831554412841797 3.1125025749206543 2.866589307785034 2.5633769035339355 2.2565035820007324 2.0408260822296143 1.9184685945510864 1.8785343170166016 1.9209938049316406 2.04355525970459 2.2094616889953613 2.3929076194763184 2.5678696632385254 2.7127745151519775 2.803030490875244 2.7811079025268555 -9999
-9999 -9999 3.363435745239258 3.2352867126464844 2.993680477142334 2.6359145641326904 2.1757524013519287 1.6825146675109863 1.4205392599105835 1.3046869039535522 1.2880382537841797 1.3713678121566772 1.5796610116958618 1.7982443571090698 2.018214702606201 2.2284693717956543 2.4079155921936035 2.537919282913208 2.5959174633026123 -9999
-9999 -9999 3.3663718700408936 3.1904001235961914 2.86592960357666 2.385535955429077 1.7334128618240356 0.8237155675888062 0.6140216588973999 0.5668439269065857 0.5917598009109497 0.7127219438552856 1.1481022834777832 1.4282108545303345 1.6610157489776611 1.8765428066253662 2.0686869621276855 2.2214832305908203 2.30846905708313 -9999
-9999 3.5079026222229004 3.3799142837524414 3.1312832832336426 2.734834671020508 2.1827428340911865 1.4823429584503174 0.6242755055427551 0.40686047077178955 0.3601616621017456 0.39115995168685913 0.5179783701896667 0.8955065011978149 1.1573748588562012 1.3695929050445557 1.560915470123291 1.7378829717636108 1.887916922569275 1.9798824787139893 -9999
-9999 3.4508960247039795 3.3038744926452637 3.0143697261810303 2.5771994590759277 2.0059683322906494 1.3321863412857056 0.5731430649757385 0.36253100633621216 0.31181010603904724 0.3383980989456177 0.4519116282463074 0.7555691599845886 0.9759331345558167 1.153015375137329 1.3114573955535889 1.4568079710006714 1.585465431213379 1.668964147567749 -9999
-9999 3.3029417991638184 3.137263774871826 2.821876287460327 2.375826120376587 1.8321796655654907 1.2289923429489136 0.5759455561637878 0.38497301936149597 0.3340228796005249 0.3528108596801758 0.44585198163986206 0.6866881251335144 0.8621982336044312 1.0017861127853394 1.1278735399246216 1.244337797164917 1.3501105308532715 1.42140531539917 -9999
-9999 3.0429553985595703 2.868072509765625 2.5491528511047363 2.130248785018921 1.6562302112579346 1.160220742225647 0.6301446557044983 0.46613767743110657 0.4147762954235077 0.4221058189868927 0.48943933844566345 0.6700167059898376 0.7991958260536194 0.903510570526123 1.0002849102020264 1.0929306745529175 1.180564284324646 1.2423194646835327 -9999
-9999 2.688586711883545 2.516643524169922 2.2186686992645264 1.860241174697876 1.4864475727081299 1.130643367767334 0.8270671963691711 0.6638972163200378 0.5913178324699402 0.5785802602767944 0.6143866777420044 0.6946313381195068 0.7726865410804749 0.8444826602935791 0.9161562919616699 0.9905733466148376 1.0660487413406372 1.1242588758468628 -9999
-9999 2.297534465789795 2.140744686126709 1.8857454061508179 1.6065279245376587 1.3315634727478027 1.0818138122558594 0.8826961517333984 0.7571476697921753 0.6901916265487671 0.6677960157394409 0.6799025535583496 0.7170577049255371 0.7623361349105835 0.8102325201034546 0.8630373477935791 0.9248798489570618 0.9933777451515198 1.0616216659545898 -9999
-9999 1.9497581720352173 1.8155514001846313 1.6161189079284668 1.4062745571136475 1.2053176164627075 1.0272459983825684 0.8871132135391235 0.7932352423667908 0.738532304763794 0.7147268056869507 0.7148022651672363 0.7318705916404724 0.7582565546035767 0.7902694344520569 0.8284007906913757 0.8761648535728455 0.9201861023902893 -9999 -9999
-9999 1.700262188911438 1.5814478397369385 1.4199998378753662 1.2579011917114258 1.1078441143035889 0.977048397064209 0.8736754655838013 0.8027927875518799 0.7595362663269043 0.7378636598587036 0.7329775094985962 0.7404406070709229 0.7561706304550171 0.7778160572052002 0.8053714632987976 0.8414216041564941 0.8744528293609619 -9999 -9999
-9999 1.5633682012557983 1.4225798845291138 1.2836263179779053 1.15174400806427 1.034924864768982 0.9351835250854492 0.8561016917228699 0.8015435934066772 0.7672960758209229 0.7486568093299866 0.7422287464141846 0.7450450658798218 0.7545697093009949 0.7692039608955383 0.7885677814483643 0.8136991858482361 0.8386897444725037 0.8416752815246582 0.8437246680259705
-9999 -9999 1.2691349983215332 1.1806018352508545 1.0764731168746948 0.9824332594871521 0.902825117111206 0.8402488231658936 0.7971028685569763 0.769403338432312 0.7535125613212585 0.746863067150116 0.7473468780517578 0.7532070279121399 0.7630741596221924 0.7761200666427612 0.7917057275772095 0.807873010635376 0.8164575099945068 0.8196290135383606
-9999 -9999 1.19658625125885 1.11817467212677 1.0303875207901 0.9485279321670532 0.880712628364563 0.8287498950958252 0.7930356860160828 0.7696235179901123 0.7556136250495911 0.7490971088409424 0.7484352588653564 0.7521987557411194 0.7591180801391602 0.7682005167007446 0.7784181237220764 0.7879869341850281 0.7941436767578125 0.7969315052032471
-9999 -9999 -9999 1.0668201446533203 1.004306674003601 0.9310522079467773 0.8693844676017761 0.8227211833000183 0.790687084197998 0.7693656086921692 0.756330132484436 0.749933123588562 0.7487972974777222 0.7516128420829773 0.7571625709533691 0.7643897533416748 0.7722923159599304 0.7793526649475098 0.7842607498168945 0.7866785526275635
