ncols         20
nrows         20
xllcorner     0
yllcorner     -3.5992928
cellsize      0.17996463
NODATA_value  -9999
-9999.0 -9999 -9999 -9999 -9999 -9999 -9999 -9999 -9999 -9999 -9999 -9999 -9999 -9999 -9999 -9999 -9999 -9999 -9999 -9999
-9999 -9999 -9999 -9999 -9999 -9999 -9999 -9999 -9999 -9999 -9999 3.0201802253723145 3.031863212585449 -9999 -9999 3.2400007247924805 3.2461600303649902 -9999 -9999 -9999
-9999 -9999 -9999 -9999 3.2341036796569824 3.1830029487609863 3.10686993598938 3.018454074859619 2.9381611347198486 2.8846278190612793 2.869748830795288 2.9158272743225098 2.9547922611236572 2.993826150894165 3.061772346496582 3.147170066833496 3.182072401046753 3.1847996711730957 -9999 -9999
-9999 -9999 -9999 3.2536187171936035 3.202509641647339 3.1104211807250977 2.9982879161834717 2.879013776779175 2.7773876190185547 2.7107295989990234 2.68900990486145 2.7140724658966064 2.76975417137146 2.845825672149658 2.9345240592956543 3.0187411308288574 3.0800654888153076 3.1174631118774414 -9999 -9999
-9999 -9999 -9999 3.2137601375579834 3.1208877563476562 2.9745848178863525 2.796452283859253 2.614018440246582 2.4693164825439453 2.378937244415283 2.347717523574829 2.3762013912200928 2.457047700881958 2.5718977451324463 2.7011735439300537 2.8221261501312256 2.9204413890838623 2.9839844703674316 -9999 -9999
-9999 -9999 3.228351593017578 3.159742593765259 3.0054972171783447 2.778318166732788 2.4962849617004395 2.2098960876464844 2.009814977645874 1.8982558250427246 1.8652046918869019 1.910939335823059 2.033533811569214 2.1962928771972656 2.3737432956695557 2.5406761169433594 2.6767518520355225 2.75880765914917 2.729295492172241 -9999
-9999 -9999 3.1930174827575684 3.078223466873169 2.8571362495422363 2.526799201965332 2.0983469486236572 1.635148286819458 1.3911924362182617 1.2857760190963745 1.2748827934265137 1.3605221509933472 1.5684701204299927 1.7836214303970337 1.9972474575042725 2.199051856994629 2.3692679405212402 2.4909934997558594 2.543443441390991 -9999
-9999 -9999 3.1505424976348877 2.9921741485595703 2.696983575820923 2.2561113834381104 1.6494866609573364 0.787625789642334 0.5933359265327454 0.5526893734931946 0.580432116985321 0.7018650770187378 1.137260913848877 1.4140793085098267 1.6406527757644653 1.8475360870361328 2.0303444862365723 2.175142526626587 2.2573320865631104 -9999
-9999 3.1988542079925537 3.1062724590301514 2.889840841293335 2.535054922103882 2.0350921154022217 1.3915549516677856 0.5901513695716858 0.38990160822868347 0.34978941082954407 0.3833042085170746 0.5102776288986206 0.8861825466156006 1.1453416347503662 1.3527508974075317 1.5361040830612183 1.7036817073822021 1.8459930419921875 1.933630108833313 -9999
-9999 3.1182665824890137 2.994028091430664 2.741509199142456 2.3557372093200684 1.8464981317520142 1.2370420694351196 0.5389226675033569 0.3468385338783264 0.3033016622066498 0.3327111303806305 0.4465954303741455 0.7484840154647827 0.9665332436561584 1.140390396118164 1.292738437652588 1.430676817893982 1.552180290222168 1.6318929195404053 -9999
-9999 2.9509294033050537 2.80763840675354 2.5344460010528564 2.1466784477233887 1.6702560186386108 1.1339565515518188 0.5416324138641357 0.3694102168083191 0.32602041959762573 0.3480222225189209 0.44190511107444763 0.6817967891693115 0.8558904528617859 0.99334716796875 1.114753246307373 1.2255762815475464 1.3267699480056763 1.3960446119308472 -9999
-9999 2.6909947395324707 2.5404951572418213 2.267714738845825 1.9097346067428589 1.5019398927688599 1.068796157836914 0.594545841217041 0.44880300760269165 0.4056221842765808 0.4169304370880127 0.4859200119972229 0.6669194102287292 0.7957252264022827 0.8988012075424194 0.9920092821121216 1.080336570739746 1.1648919582366943 1.2256441116333008 -9999
-9999 2.3609554767608643 2.214787721633911 1.9641231298446655 1.6635220050811768 1.3481837511062622 1.0443552732467651 0.779987096786499 0.6385325789451599 0.5779029726982117 0.5716950297355652 0.6110124588012695 0.692964494228363 0.771517813205719 0.842865526676178 0.9122106432914734 0.9831811189651489 1.0563912391662598 1.113765835762024 -9999
-9999 2.0149178504943848 1.8835242986679077 1.6727010011672974 1.4415569305419922 1.2127760648727417 1.0041136741638184 0.8368194699287415 0.7309913039207458 0.6761481761932373 0.6609700322151184 0.6772736310958862 0.7167092561721802 0.7629914283752441 0.8109937310218811 0.8628571629524231 0.9223347902297974 0.9889250993728638 1.0548170804977417 -9999
-9999 1.7213401794433594 1.6101182699203491 1.4447898864746094 1.2708784341812134 1.1051331758499146 0.9596530199050903 0.8460901379585266 0.7696928977966309 0.7259900569915771 0.7089983820915222 0.7132138013839722 0.7326623201370239 0.7602576613426208 0.7927061319351196 0.830782413482666 0.8777186870574951 0.9208365678787231 -9999 -9999
-9999 1.5196506977081299 1.4192075729370117 1.2832027673721313 1.1478066444396973 1.0240620374679565 0.9194648265838623 0.8387463688850403 0.7829554080963135 0.7492563724517822 0.7336064577102661 0.7324708700180054 0.7421668767929077 0.7591173648834229 0.7813381552696228 0.8090794682502747 0.8451162576675415 0.87786865234375 -9999 -9999
-9999 1.4100022315979004 1.2929661273956299 1.1742627620697021 1.0622739791870117 0.9654560685157776 0.886946439743042 0.8271427154541016 0.7853965163230896 0.7592947483062744 0.7458318471908569 0.742671012878418 0.74748295545578 0.7581679224967957 0.7734318375587463 0.7931134104728699 0.8184199929237366 0.8436922430992126 0.8473691344261169 0.8496590852737427
-9999 -9999 1.1711933612823486 1.093800663948059 1.0035279989242554 0.9250733852386475 0.8631681799888611 0.8165746331214905 0.7841252088546753 0.7633190751075745 0.7518468499183655 0.7480344176292419 0.7502986788749695 0.7572408318519592 0.7677499651908875 0.7811794281005859 0.7970215678215027 0.8134230971336365 0.8222943544387817 0.8256070613861084
-9999 -9999 1.1146728992462158 1.0469744205474854 0.9695152044296265 0.9004324674606323 0.847948431968689 0.8091599345207214 0.7823806405067444 0.7648770809173584 0.7547392845153809 0.7507539987564087 0.7517146468162537 0.7564973831176758 0.7640565037727356 0.7735503911972046 0.7840527892112732 0.7938472628593445 0.8001925349235535 0.8030712604522705
-9999 -9999 -9999 1.0066405534744263 0.9503445029258728 0.8879935145378113 0.8403449058532715 0.8053493499755859 0.781221866607666 0.7652715444564819 0.7558283805847168 0.7518109083175659 0.7522188425064087 0.7560210227966309 0.7622048258781433 0.7698522210121155 0.7780471444129944 0.7853282690048218 0.7903967499732971 0.792891800403595
