ncols         20
nrows         20
xllcorner     0
yllcorner     -3.5992928
cellsize      0.17996463
NODATA_value  -9999
-9999.0 -9999 -9999 -9999 -9999 -9999 -9999 -9999 -9999 -9999 -9999 -9999 -9999 -9999 -9999 -9999 -9999 -9999 -9999 -9999
-9999 -9999 -9999 -9999 -9999 -9999 -9999 -9999 -9999 -9999 -9999 0.16653020679950714 0.1667783111333847 -9999 -9999 0.18506397306919098 0.17507600784301758 -9999 -9999 -9999
-9999 -9999 -9999 -9999 0.13922163844108582 0.14838330447673798 0.16620013117790222 0.1830059438943863 0.19809535145759583 0.2133210450410843 0.20522084832191467 0.20266710221767426 0.21507367491722107 0.2336636185646057 0.22606930136680603 0.2065308839082718 0.19226790964603424 0.18570172786712646 -9999 -9999
-9999 -9999 -9999 0.1401594877243042 0.14747610688209534 0.15880098938941956 0.1769636571407318 0.19736212491989136 0.2241448312997818 0.2542063593864441 0.2848654091358185 0.3060973584651947 0.32552671432495117 0.3252759575843811 0.3063686192035675 0.2725665271282196 0.2427811175584793 0.22679762542247772 -9999 -9999
-9999 -9999 -9999 0.1477837711572647 0.1571662425994873 0.1776227355003357 0.20255567133426666 0.23385874927043915 0.2801389694213867 0.3533976078033447 0.44602397084236145 0.5262430310249329 0.5679309964179993 0.5461065173149109 0.49309733510017395 0.41652077436447144 0.35432717204093933 0.34311819076538086 -9999 -9999
-9999 -9999 0.14863868057727814 0.15915364027023315 0.17637485265731812 0.20191684365272522 0.2293771505355835 0.26423823833465576 0.33264532685279846 0.4481278955936432 0.6167621612548828 0.7829596996307373 0.9045868515968323 0.9022127985954285 0.7984722256660461 0.6667799949645996 0.5584396719932556 0.5227023363113403 0.5131869912147522 -9999
-9999 -9999 0.1650274246931076 0.17897793650627136 0.20957037806510925 0.24287256598472595 0.2643589973449707 0.2815312445163727 0.3395860195159912 0.459567129611969 0.6566596031188965 0.9170709848403931 1.2114239931106567 1.3348617553710938 1.2670682668685913 1.0786446332931519 0.900162398815155 0.7763036489486694 0.7311849594116211 -9999
-9999 -9999 0.20985829830169678 0.2364942729473114 0.2854228615760803 0.3251054883003235 0.3288055956363678 0.26174190640449524 0.26332929730415344 0.31987789273262024 0.43790021538734436 0.6866594552993774 1.3781075477600098 1.7533769607543945 1.819259524345398 1.6586962938308716 1.4344772100448608 1.233581304550171 1.1493281126022339 -9999
-9999 0.2721732258796692 0.2972658574581146 0.3529960513114929 0.444117933511734 0.5141169428825378 0.49282366037368774 0.33599141240119934 0.29150715470314026 0.31747815012931824 0.42365700006484985 0.7144304513931274 1.6165837049484253 2.2235939502716064 2.494415521621704 2.4363012313842773 2.1771137714385986 1.9144607782363892 1.7907817363739014 -9999
-9999 0.36653777956962585 0.4274766147136688 0.5678821802139282 0.7461003661155701 0.8724318742752075 0.825888991355896 0.5081271529197693 0.4086834192276001 0.41115543246269226 0.513576328754425 0.8474160432815552 1.958681344985962 2.7849769592285156 3.253230571746826 3.357193946838379 3.1416332721710205 2.8541481494903564 2.709981679916382 -9999
-9999 0.5770452618598938 0.6862334609031677 0.9251908659934998 1.2080565690994263 1.4136359691619873 1.3544490337371826 0.7971473932266235 0.6453051567077637 0.6280834674835205 0.7217409014701843 1.0824251174926758 2.453494071960449 3.4438083171844482 4.074113368988037 4.333654403686523 4.270971298217773 4.021570682525635 3.8813183307647705 -9999
-9999 0.9696703553199768 1.1349793672561646 1.5038392543792725 1.9126657247543335 2.2085704803466797 2.1726644039154053 1.3572081327438354 1.1799728870391846 1.139190435409546 1.1988645792007446 1.5282832384109497 3.043527126312256 4.0422515869140625 4.7328972816467285 5.153454780578613 5.278219699859619 5.175447940826416 5.086036205291748 -9999
-9999 1.6255848407745361 1.885362148284912 2.426382303237915 2.9406068325042725 3.330925703048706 3.4526023864746094 3.1915032863616943 2.9241485595703125 2.732588291168213 2.7281532287597656 3.0022685527801514 3.6717920303344727 4.300202369689941 4.855452060699463 5.331688404083252 5.697743892669678 5.846266269683838 5.83196496963501 -9999
-9999 2.5363144874572754 2.892937660217285 3.6051409244537354 4.225968360900879 4.6149821281433105 4.709233283996582 4.485475540161133 4.119741916656494 3.809299945831299 3.6559579372406006 3.6862988471984863 3.8742642402648926 4.108276844024658 4.36131477355957 4.716625213623047 5.184988498687744 5.703930854797363 5.848560333251953 -9999
-9999 3.4693617820739746 3.895612955093384 4.737419128417969 5.376897811889648 5.633604049682617 5.551405429840088 5.2098236083984375 4.770181655883789 4.374056816101074 4.094130992889404 3.899073362350464 3.7716801166534424 3.689140796661377 3.629570722579956 3.713064432144165 3.95871639251709 4.54572057723999 -9999 -9999
-9999 4.150603294372559 4.636559963226318 5.5156989097595215 6.054934024810791 6.118763446807861 5.860380172729492 5.424757957458496 4.9692301750183105 4.549046039581299 4.2025346755981445 3.87093448638916 3.5430054664611816 3.2274715900421143 2.9655327796936035 2.7804856300354004 2.7016117572784424 2.4215731620788574 -9999 -9999
-9999 4.652536392211914 5.199240207672119 5.985620975494385 6.383002281188965 6.23212194442749 5.7962117195129395 5.268589973449707 4.793416500091553 4.3684892654418945 3.9933016300201416 3.59688663482666 3.1795101165771484 2.7926247119903564 2.437589645385742 2.140031337738037 1.9035754203796387 1.6627700328826904 1.4610085487365723 1.2655460834503174
-9999 -9999 5.7589497566223145 6.303560256958008 6.529119491577148 6.173677921295166 5.542335510253906 4.911981582641602 4.3997626304626465 3.97768235206604 3.6081438064575195 3.21540904045105 2.8068857192993164 2.3683536052703857 2.0052475929260254 1.7315417528152466 1.4841285943984985 1.3017957210540771 1.1611381769180298 1.1865113973617554
-9999 -9999 6.289185047149658 6.547483444213867 6.560244560241699 6.000901699066162 5.191471576690674 4.453784465789795 3.8965728282928467 3.499228000640869 3.211235761642456 2.8467698097229004 2.4467875957489014 2.0291919708251953 1.712245225906372 1.480029582977295 1.2863036394119263 1.1602156162261963 1.1880519390106201 1.204211950302124
-9999 -9999 -9999 6.646578788757324 6.556314945220947 5.907192707061768 5.001658916473389 4.218406677246094 3.659332275390625 3.292935371398926 3.0079293251037598 2.699937582015991 2.306292772293091 1.8997989892959595 1.5752427577972412 1.3888375759124756 1.1861435174942017 1.1828408241271973 1.204180121421814 1.2164350748062134
