ncols         20
nrows         20
xllcorner     0
yllcorner     -3.5992928
cellsize      0.17996463
NODATA_value  -9999
-9999.0 -9999 -9999 -9999 -9999 -9999 -9999 -9999 -9999 -9999 -9999 -9999 -9999 -9999 -9999 -9999 -9999 -9999 -9999 -9999
-9999 -9999 -9999 -9999 -9999 -9999 -9999 -9999 -9999 -9999 -9999 0.13836291432380676 0.13849762082099915 -9999 -9999 0.14093933999538422 0.14111864566802979 -9999 -9999 -9999
-9999 -9999 -9999 -9999 0.13785022497177124 0.13776850700378418 0.1377061903476715 0.1377086490392685 0.13781200349330902 0.13802410662174225 0.13829877972602844 0.12813785672187805 0.1285509169101715 0.13986483216285706 0.14053753018379211 0.13050487637519836 0.13104510307312012 0.142399400472641 -9999 -9999
-9999 -9999 -9999 0.13828955590724945 0.12767279148101807 0.10855992138385773 0.10851392149925232 0.10855136811733246 0.10869237035512924 0.10893233865499496 0.10924471914768219 0.10130245983600616 0.10171982645988464 0.11064335703849792 0.11122403293848038 0.10341527312994003 0.11260142922401428 0.14363069832324982 -9999 -9999
-9999 -9999 -9999 0.13861043751239777 0.10898660868406296 0.07923971861600876 0.07302701473236084 0.07311103492975235 0.07329382002353668 0.07356197386980057 0.07388456910848618 0.06868624687194824 0.06905347853899002 0.07510536909103394 0.07562255859375 0.07630239427089691 0.1145302951335907 0.14611291885375977 -9999 -9999
-9999 -9999 0.13946229219436646 0.1286897361278534 0.10116337239742279 0.06791979819536209 0.04200394079089165 0.042098745703697205 0.0422838032245636 0.04253522679209709 0.042823031544685364 0.039780039340257645 0.04009164869785309 0.04387100040912628 0.04435334354639053 0.07247098535299301 0.1086229681968689 0.13910673558712006 0.15271779894828796 -9999
-9999 -9999 0.13999821245670319 0.11013287305831909 0.08017145842313766 0.053929977118968964 0.030756225809454918 0.020766424015164375 0.02090708166360855 0.021093109622597694 0.02130577713251114 0.01988101378083229 0.02013520523905754 0.022164419293403625 0.0334906168282032 0.05938967317342758 0.0888211727142334 0.12255508452653885 0.15646225214004517 -9999
-9999 -9999 0.14095377922058105 0.11097761988639832 0.07458773255348206 0.042814984917640686 0.021000493317842484 0.010303106158971786 0.008881445042788982 0.008994786068797112 0.009128247387707233 0.0085765291005373 0.008770502172410488 0.011455499567091465 0.023906094953417778 0.049142830073833466 0.08582112193107605 0.12779471278190613 0.16245169937610626 -9999
-9999 0.1430138796567917 0.1317710280418396 0.10371766984462738 0.06991497427225113 0.040114909410476685 0.019752446562051773 0.008322462439537048 0.0032639119308441877 0.0033304293174296618 0.0034069065004587173 0.0032210727222263813 0.003633917309343815 0.010501195676624775 0.02539467066526413 0.05194418877363205 0.09037508070468903 0.13416001200675964 0.17017552256584167 -9999
-9999 0.14468739926815033 0.11395557224750519 0.0831831619143486 0.056229107081890106 0.03246196731925011 0.015989646315574646 0.006754647474735975 0.002491377294063568 0.0016597833018749952 0.0017172719817608595 0.0017713226843625307 0.003914630506187677 0.011188140138983727 0.02690885215997696 0.054899271577596664 0.09535554051399231 0.14136390388011932 0.17914244532585144 -9999
-9999 0.14767920970916748 0.11654558777809143 0.07868170738220215 0.04545898362994194 0.022464675828814507 0.011097810231149197 0.004728091415017843 0.0017584903398528695 0.0017641214653849602 0.0018327529542148113 0.0018937423592433333 0.004173244349658489 0.011856898665428162 0.028424469754099846 0.05790839344263077 0.10049925744533539 0.14887173473834991 0.18851542472839355 -9999
-9999 0.15185704827308655 0.12002096325159073 0.08123096823692322 0.04707615450024605 0.0233342032879591 0.009891996160149574 0.0036128221545368433 0.001776111195795238 0.0018603445496410131 0.0019371622474864125 0.0021180910989642143 0.006154938135296106 0.014776123687624931 0.029926592484116554 0.06089816987514496 0.10558002442121506 0.15618060529232025 0.19746647775173187 -9999
-9999 0.15709485113620758 0.12431138753890991 0.08428391814231873 0.048933450132608414 0.024457741528749466 0.01040320098400116 0.003813212737441063 0.0018570389365777373 0.0019447756931185722 0.002027994254603982 0.003315180540084839 0.009584862738847733 0.022969841957092285 0.04701073840260506 0.0814133882522583 0.11988810449838638 0.16299185156822205 0.20516337454319 -9999
-9999 0.1630956530570984 0.12917886674404144 0.0880497395992279 0.0512407161295414 0.025492386892437935 0.01084880344569683 0.003971874248236418 0.0019278161926195025 0.0020147860050201416 0.002098421799018979 0.004347663838416338 0.01253114640712738 0.030208397656679153 0.06172088533639908 0.10712787508964539 0.1583591252565384 0.19901055097579956 0.21047420799732208 -9999
-9999 0.16924560070037842 0.13424573838710785 0.09164077043533325 0.05338399112224579 0.026579780504107475 0.013247260823845863 0.005679257679730654 0.0020953069906681776 0.0020701431203633547 0.0021511260420084 0.004833830986171961 0.013859277591109276 0.033455487340688705 0.06853572279214859 0.11944415420293808 0.17682218551635742 0.22404158115386963 -9999 -9999
-9999 0.1747957468032837 0.1395617127418518 0.10295981168746948 0.07051391899585724 0.041165828704833984 0.020564166828989983 0.008729629218578339 0.00347092910669744 0.002109934575855732 0.002189107472077012 0.004908949136734009 0.014078626409173012 0.03402821719646454 0.06984079629182816 0.12202445417642593 0.18172194063663483 0.2305050641298294 -9999 -9999
-9999 0.1787506341934204 0.16905561089515686 0.13529080152511597 0.09235451370477676 0.053819440305233 0.028980344533920288 0.01437672320753336 0.00613026786595583 0.0022499754559248686 0.0022140697110444307 0.004560951143503189 0.013154853135347366 0.03183538466691971 0.06541935354471207 0.11443182080984116 0.1709771752357483 0.21876780688762665 0.2404482513666153 0.2419622540473938
-9999 -9999 0.1890413612127304 0.15072444081306458 0.11087384074926376 0.07557322829961777 0.04386647418141365 0.021806251257658005 0.009220099076628685 0.0033919515553861856 0.0022273878566920757 0.0036135087721049786 0.010454453527927399 0.025401979684829712 0.05210596323013306 0.09139053523540497 0.13656963407993317 0.17441712319850922 0.1901453137397766 0.19091388583183289
-9999 -9999 0.19251614809036255 0.17994995415210724 0.14310485124588013 0.09715826064348221 0.056329719722270966 0.027853216975927353 0.011776642873883247 0.004312427714467049 0.0022330698557198048 0.0024337945505976677 0.007061160635203123 0.017122721299529076 0.035369034856557846 0.06174294650554657 0.09264667332172394 0.11809148639440536 0.12819963693618774 0.12851710617542267
-9999 -9999 -9999 0.19748200476169586 0.15654969215393066 0.10608431696891785 0.06136278063058853 0.03029789961874485 0.012794372625648975 0.004695164039731026 0.002235581399872899 0.002310516545549035 0.004058611113578081 0.00980985164642334 0.020318854600191116 0.035472843796014786 0.05329015105962753 0.06760751456022263 0.07353672385215759 0.07366091012954712
