ncols         20
nrows         20
xllcorner     0
yllcorner     -3.5992928
cellsize      0.17996463
NODATA_value  -9999
-9999.0 -9999 -9999 -9999 -9999 -9999 -9999 -9999 -9999 -9999 -9999 -9999 -9999 -9999 -9999 -9999 -9999 -9999 -9999 -9999
-9999 -9999 -9999 -9999 -9999 -9999 -9999 -9999 -9999 -9999 -9999 2.852086067199707 2.8681070804595947 -9999 -9999 3.232858180999756 3.2572691440582275 -9999 -9999 -9999
-9999 -9999 -9999 -9999 3.0269973278045654 2.945068836212158 2.8313825130462646 2.7202391624450684 2.6349000930786133 2.5901753902435303 2.597256660461426 2.681716203689575 2.731152296066284 2.768162488937378 2.8764801025390625 3.0483174324035645 3.1347169876098633 3.152841567993164 -9999 -9999
-9999 -9999 -9999 2.9997012615203857 2.9347028732299805 2.799739122390747 2.645547866821289 2.5126841068267822 2.417363405227661 2.364802598953247 2.357675790786743 2.3935818672180176 2.447284698486328 2.5226993560791016 2.6394572257995605 2.7897140979766846 2.9274256229400635 3.009761333465576 -9999 -9999
-9999 -9999 -9999 2.8648734092712402 2.7288730144500732 2.5165998935699463 2.2857892513275146 2.12080717086792 2.014875888824463 1.956138014793396 1.9382781982421875 1.956472396850586 2.004699945449829 2.0864009857177734 2.2128243446350098 2.3912596702575684 2.6134355068206787 2.755405902862549 -9999 -9999
-9999 -9999 2.7242231369018555 2.6506102085113525 2.4242427349090576 2.106142044067383 1.7316007614135742 1.552491307258606 1.4571332931518555 1.4084715843200684 1.3918095827102661 1.401087999343872 1.4352635145187378 1.5000393390655518 1.6115974187850952 1.8086124658584595 2.200313091278076 2.415248394012451 2.4195291996002197 -9999
-9999 -9999 2.5515353679656982 2.3677818775177 2.038858413696289 1.6184834241867065 1.3577749729156494 1.2109134197235107 1.130759596824646 1.0904192924499512 1.0759758949279785 1.0819984674453735 1.1087554693222046 1.1628276109695435 1.2612361907958984 1.4433611631393433 1.8052281141281128 2.069643974304199 2.190316915512085 -9999
-9999 -9999 2.314943313598633 2.0283892154693604 1.5920392274856567 1.2986814975738525 1.1099517345428467 0.9971603751182556 0.9339219331741333 0.9016649723052979 0.889926552772522 0.894432008266449 0.9157127737998962 0.9589563608169556 1.0357497930526733 1.167732834815979 1.385669231414795 1.6919859647750854 1.8650568723678589 -9999
-9999 2.303011417388916 2.1178855895996094 1.6485505104064941 1.3165431022644043 1.0936111211776733 0.9500213861465454 0.8629783391952515 0.8129153251647949 0.7867473363876343 0.7770137786865234 0.7805039882659912 0.7974511384963989 0.8312936425209045 0.8890835642814636 0.9818116426467896 1.1220836639404297 1.3137712478637695 1.5330091714859009 -9999
-9999 2.209608793258667 1.9627742767333984 1.4601690769195557 1.1573975086212158 0.9680128693580627 0.8507201671600342 0.7798152565956116 0.7383160591125488 0.7160360217094421 0.7073599696159363 0.709736704826355 0.7231118679046631 0.7497022151947021 0.7940371036529541 0.8630539178848267 0.9656029343605042 1.1105108261108398 1.2857624292373657 -9999
-9999 2.0896410942077637 1.8341708183288574 1.3457297086715698 1.062235713005066 0.8919864892959595 0.7899438142776489 0.7285287976264954 0.6922016739845276 0.6722806692123413 0.6640565395355225 0.6652817130088806 0.6757386326789856 0.6970081329345703 0.7324749231338501 0.7879996299743652 0.8740917444229126 1.013082504272461 1.1191489696502686 -9999
-9999 1.9607408046722412 1.716636061668396 1.2630960941314697 1.0003302097320557 0.8447132110595703 0.7521489262580872 0.6964950561523438 0.6634307503700256 0.6450148820877075 0.6369775533676147 0.6371475458145142 0.6452174186706543 0.6624712944030762 0.6915667057037354 0.7372112274169922 0.8080655336380005 0.9198610782623291 0.9974871873855591 -9999
-9999 1.8250112533569336 1.6000369787216187 1.193619966506958 0.9542719125747681 0.8123944401741028 0.7272695302963257 0.6758739352226257 0.6452205181121826 0.6278454065322876 0.6200088858604431 0.619276762008667 0.6254624724388123 0.6395838260650635 0.6637605428695679 0.7018267512321472 0.7601461410522461 0.850257933139801 0.9156270623207092 -9999
-9999 1.681755542755127 1.4796820878982544 1.126930832862854 0.9146935343742371 0.7869728207588196 0.7092635631561279 0.6619231700897217 0.6335352659225464 0.6167669892311096 0.6085553169250488 0.6070351004600525 0.6117138266563416 0.6232385039329529 0.6432784199714661 0.6752042174339294 0.7256835699081421 0.8024742603302002 0.871903657913208 -9999
-9999 1.5416338443756104 1.3612045049667358 1.0607069730758667 0.8771423101425171 0.7645576596260071 0.6949442625045776 0.6519340872764587 0.6249609589576721 0.608820378780365 0.6005116701126099 0.5983695387840271 0.6017703413963318 0.6109585165977478 0.6270254850387573 0.6523382663726807 0.6912515163421631 0.7389653325080872 -9999 -9999
-9999 1.423616886138916 1.2562923431396484 1.00039803981781 0.8427559733390808 0.7448004484176636 0.6833000183105469 0.6436694264411926 0.6184295415878296 0.60300213098526 0.5947054028511047 0.5920365452766418 0.5942690968513489 0.6013063192367554 0.6136162281036377 0.6324750185012817 0.6599647998809814 0.687218427658081 -9999 -9999
-9999 1.3468103408813477 1.1655880212783813 0.9491669535636902 0.8133513927459717 0.7285340428352356 0.6732075214385986 0.6369936466217041 0.6134994029998779 0.598824679851532 0.5906490683555603 0.587546706199646 0.5887165665626526 0.5938012003898621 0.6027832627296448 0.6160145401954651 0.6339931488037109 0.6510966420173645 0.648189902305603 0.647721529006958
-9999 -9999 1.0395562648773193 0.9008952379226685 0.7894877195358276 0.7152014374732971 0.6652733683586121 0.6319767236709595 0.609997570514679 0.5960288643836975 0.5879884362220764 0.5845298767089844 0.5848075747489929 0.5882948040962219 0.5946168899536133 0.6034838557243347 0.6142787933349609 0.6249681115150452 0.6292299628257751 0.6305222511291504
-9999 -9999 0.9884881973266602 0.8882295489311218 0.7784403562545776 0.7070178389549255 0.6600849032402039 0.6287312507629395 0.607843279838562 0.5943850874900818 0.5864267945289612 0.5827069282531738 0.582356333732605 0.584733247756958 0.5892736315727234 0.595430850982666 0.6024093627929688 0.6087530851364136 0.612446665763855 0.6140177249908447
-9999 -9999 -9999 0.8496807217597961 0.7679290175437927 0.7019625902175903 0.6573159694671631 0.6271079182624817 0.6068155765533447 0.5936266779899597 0.585712194442749 0.5818460583686829 0.5811722278594971 0.582991898059845 0.5866678357124329 0.5915657877922058 0.5969412922859192 0.6016853451728821 0.6048477292060852 0.6063593626022339
