ncols         20
nrows         20
xllcorner     0
yllcorner     -3.5992928
cellsize      0.17996463
NODATA_value  -9999
-9999.0 -9999 -9999 -9999 -9999 -9999 -9999 -9999 -9999 -9999 -9999 -9999 -9999 -9999 -9999 -9999 -9999 -9999 -9999 -9999
-9999 -9999 -9999 -9999 -9999 -9999 -9999 -9999 -9999 -9999 -9999 0.009779090993106365 0.009435141459107399 -9999 -9999 0.0076377433724701405 0.0067003704607486725 -9999 -9999 -9999
-9999 -9999 -9999 -9999 0.009154580533504486 0.010695078410208225 0.01381558645516634 0.016893425956368446 0.019283652305603027 0.020958390086889267 0.01750706322491169 0.014922152273356915 0.014885938726365566 0.015195619314908981 0.012537761591374874 0.009473798796534538 0.007719853892922401 0.006851074285805225 -9999 -9999
-9999 -9999 -9999 0.008621500805020332 0.01001064945012331 0.012250416912138462 0.016001082956790924 0.020421022549271584 0.025856686756014824 0.03101634979248047 0.034664884209632874 0.034544676542282104 0.03341265022754669 0.02846667729318142 0.021907253190875053 0.01545187272131443 0.01130836270749569 0.009422536008059978 -9999 -9999
-9999 -9999 -9999 0.009120222181081772 0.010999873280525208 0.015408431179821491 0.022053929045796394 0.03153953328728676 0.04563376307487488 0.06768591701984406 0.09303698688745499 0.10679896175861359 0.10106787085533142 0.07605933398008347 0.051892973482608795 0.03213559836149216 0.02097269892692566 0.018509527668356895 -9999 -9999
-9999 -9999 0.00730745168402791 0.00937454029917717 0.01299884170293808 0.019924461841583252 0.030891912057995796 0.048826318234205246 0.08355788886547089 0.14192606508731842 0.22088304162025452 0.26810571551322937 0.2618617117404938 0.19564345479011536 0.12224093824625015 0.07127667218446732 0.04387691244482994 0.03500957787036896 0.030635299161076546 -9999
-9999 -9999 0.007925043813884258 0.01024618186056614 0.01653990149497986 0.028254900127649307 0.04696131497621536 0.08097650110721588 0.14669738709926605 0.25810110569000244 0.40347546339035034 0.5058703422546387 0.5062738656997681 0.4041477143764496 0 0.15982383489608765 0.0960346981883049 0.06515194475650787 0.05480848252773285 -9999
-9999 -9999 0.010100796818733215 0.014309003949165344 0.025592584162950516 0.04636092111468315 0.0832354947924614 0.14755313098430634 0.2526126801967621 0.4102537930011749 0.5799227952957153 0.7118440866470337 0.7350661158561707 0.6419515609741211 0.4841802716255188 0.3211071491241455 0.2050161361694336 0.1377720981836319 0.11435884982347488 -9999
-9999 0.010308845899999142 0.01449909619987011 0.023761706426739693 0.04742921516299248 0.09315609186887741 0.16829489171504974 0.28876060247421265 0.4489315152168274 0.6274756789207458 0.7813881635665894 0.8975895643234253 0.9500173330307007 0.9000471234321594 0.7752575278282166 0 0.40215808153152466 0.28094956278800964 0.23514628410339355 -9999
-9999 0.015395204536616802 0.022560689598321915 0.04501194879412651 0.09637138247489929 0.19203510880470276 0.34312885999679565 0.5493007898330688 0.7645989060401917 0.9362170100212097 1.045613408088684 1.134791612625122 1.1934064626693726 1.1981545686721802 1.1195597648620605 0 0.7153685688972473 0.5346735715866089 0.46200433373451233 -9999
-9999 0.029352208599448204 0.043353207409381866 0.08662111312150955 0.17692850530147552 0.3376060128211975 0.584599494934082 0.8833830952644348 1.1251577138900757 1.2708215713500977 1.35858154296875 1.4409449100494385 1.531799077987671 1.5681922435760498 1.5180597305297852 1.3862849473953247 1.14838445186615 0.928413450717926 0.8302156925201416 -9999
-9999 0.06413499265909195 0.09015858173370361 0.1685703992843628 0.3110410273075104 0.5339851379394531 0.8482381105422974 1.1736502647399902 1.3816527128219604 1.4823304414749146 1.5529682636260986 1.6643913984298706 0 0 1.8811928033828735 0 1.6041569709777832 1.397711992263794 1.2923078536987305 -9999
-9999 0.14543333649635315 0.1976027488708496 0.3379451036453247 0.5371490716934204 0.801864743232727 1.1133044958114624 1.3792442083358765 1.4922701120376587 1.509402871131897 1.5337402820587158 1.6189625263214111 0 0 0 1.8137664794921875 1.7678664922714233 1.6945334672927856 1.607282042503357 -9999
-9999 0.30167749524116516 0.39270350337028503 0.6149523258209229 0.8760281801223755 1.1354362964630127 1.3618537187576294 1.4887895584106445 1.4885975122451782 1.4407119750976562 1.410858154296875 1.4195457696914673 0 0 0 1.397499680519104 1.4660513401031494 1.6178706884384155 1.5915390253067017 -9999
-9999 0.5012840032577515 0.6260370016098022 0.9194834232330322 1.204489827156067 1.391880750656128 1.4825528860092163 1.4811800718307495 1.420261025428772 1.3515011072158813 1.3013105392456055 1.2290692329406738 1.1429656744003296 1.04317307472229 0 0 0.9208477139472961 1.1302846670150757 -9999 -9999
-9999 0.6571413278579712 0.804571270942688 1.1233652830123901 1.3682504892349243 1.4580291509628296 1.4438904523849487 1.3812224864959717 1.324911117553711 1.2839674949645996 0 0 0 0.7749399542808533 0 0 0.4841708838939667 0 -9999 -9999
-9999 0.7819589972496033 0.9378274083137512 1.2253888845443726 1.4110078811645508 1.4065937995910645 1.3200947046279907 1.2298469543457031 1.1903637647628784 0 0 0 0 0.5905044674873352 0.44845032691955566 0.343274861574173 0.270341694355011 0.21359840035438538 0 0
-9999 -9999 1.0701075792312622 1.2817442417144775 1.4037076234817505 1.323982834815979 1.173951268196106 1.0635367631912231 0 0 0 0 0 0 0 0 0 0 0 0
-9999 -9999 1.2282613515853882 1.3327291011810303 1.3738113641738892 1.2235909700393677 1.01980459690094 0.8793423771858215 0 0 0 0 0 0 0 0 0 0 0 0
-9999 -9999 -9999 1.3494553565979004 1.3519655466079712 1.1741684675216675 0.9436872601509094 0.7921488285064697 0 0 0 0 0 0 0 0 0 0 0 0
