ncols         20
nrows         20
xllcorner     0
yllcorner     -3.5992928
cellsize      0.17996463
NODATA_value  -9999
-9999.0 -9999 -9999 -9999 -9999 -9999 -9999 -9999 -9999 -9999 -9999 -9999 -9999 -9999 -9999 -9999 -9999 -9999 -9999 -9999
-9999 -9999 -9999 -9999 -9999 -9999 -9999 -9999 -9999 -9999 -9999 18.96891212463379 18.977596282958984 -9999 -9999 18.90945816040039 18.91399574279785 -9999 -9999 -9999
-9999 -9999 -9999 -9999 18.913843154907227 18.935544967651367 18.9525089263916 18.977664947509766 18.999006271362305 18.993854522705078 19.032970428466797 19.006223678588867 18.995283126831055 19.02001190185547 19.017711639404297 18.971601486206055 18.951263427734375 18.960472106933594 -9999 -9999
-9999 -9999 -9999 18.916202545166016 18.91410255432129 18.938642501831055 18.959365844726562 18.97491455078125 18.970748901367188 18.962547302246094 18.93879508972168 18.93488883972168 18.942630767822266 18.980424880981445 18.997501373291016 19.00136947631836 19.004179000854492 19.01882553100586 -9999 -9999
-9999 -9999 -9999 18.940032958984375 18.953006744384766 18.951576232910156 18.943584442138672 18.912315368652344 18.86448860168457 18.78860855102539 18.70969009399414 18.676467895507812 18.706727981567383 18.803800582885742 18.897022247314453 18.982107162475586 19.04345703125 19.040245056152344 -9999 -9999
-9999 -9999 18.985029220581055 18.977724075317383 18.987003326416016 18.967849731445312 18.90282440185547 18.789321899414062 18.65018653869629 18.496572494506836 18.348697662353516 18.28296661376953 18.31832504272461 18.468812942504883 18.67115592956543 18.85076141357422 18.982389450073242 19.038663864135742 19.12216567993164 -9999
-9999 -9999 19.04222869873047 19.05317497253418 19.03192710876465 18.950654983520508 18.78064727783203 18.551881790161133 18.323122024536133 18.148433685302734 18.013057708740234 17.939376831054688 17.93840789794922 18.073169708251953 18.302433013916016 18.57128143310547 18.780960083007812 18.928298950195312 18.99579620361328 -9999
-9999 -9999 19.13208770751953 19.12649154663086 19.06209373474121 18.894268035888672 18.6020450592041 18.617786407470703 18.284210205078125 18.107587814331055 18.031644821166992 18.02956771850586 17.725210189819336 17.770143508911133 17.949289321899414 18.202835083007812 18.453611373901367 18.656362533569336 18.751644134521484 -9999
-9999 19.268638610839844 19.215513229370117 19.18907928466797 19.054821014404297 18.779264450073242 18.394176483154297 18.308652877807617 17.990694046020508 17.847217559814453 17.801755905151367 17.812480926513672 17.5658016204834 17.555564880371094 17.653226852416992 17.84043312072754 18.069257736206055 18.27297019958496 18.383432388305664 -9999
-9999 19.3260440826416 19.295997619628906 19.187347412109375 18.958961486816406 18.607519149780273 18.203723907470703 18.1135311126709 17.834999084472656 17.714332580566406 17.679176330566406 17.687152862548828 17.455223083496094 17.39988136291504 17.428024291992188 17.535655975341797 17.706132888793945 17.87476921081543 17.97003936767578 -9999
-9999 19.357484817504883 19.282474517822266 19.086788177490234 18.772823333740234 18.370098114013672 18.00956153869629 17.983047485351562 17.751022338867188 17.647171020507812 17.617694854736328 17.619964599609375 17.36221694946289 17.272186279296875 17.251310348510742 17.294469833374023 17.394874572753906 17.517175674438477 17.589929580688477 -9999
-9999 19.250993728637695 19.117727279663086 18.83849334716797 18.47828483581543 18.086036682128906 17.801206588745117 17.879541397094727 17.692646026611328 17.60370635986328 17.577560424804688 17.5775146484375 17.280567169189453 17.177682876586914 17.131010055541992 17.121858596801758 17.160398483276367 17.233905792236328 17.286781311035156 -9999
-9999 18.947242736816406 18.76726531982422 18.446632385253906 18.09259796142578 17.77208709716797 17.538421630859375 17.431201934814453 17.36284828186035 17.333498001098633 17.313467025756836 17.28133773803711 17.203304290771484 17.149246215820312 17.102798461914062 17.06676483154297 17.042572021484375 17.060867309570312 17.10727310180664 -9999
-9999 18.517881393432617 18.320714950561523 18.003265380859375 17.70220375061035 17.46686363220215 17.312345504760742 17.239789962768555 17.221214294433594 17.220788955688477 17.219356536865234 17.209352493286133 17.193790435791016 17.180776596069336 17.171335220336914 17.14081573486328 17.087202072143555 17.013195037841797 17.09571075439453 -9999
-9999 18.10630989074707 17.922697067260742 17.635318756103516 17.3990535736084 17.245132446289062 17.16634178161621 17.146148681640625 17.15536880493164 17.17323875427246 17.184656143188477 17.19686508178711 17.20979881286621 17.22368621826172 17.24683380126953 17.24802017211914 17.227867126464844 17.091388702392578 -9999 -9999
-9999 17.825130462646484 17.653152465820312 17.404495239257812 17.225088119506836 17.138051986694336 17.108970642089844 17.11810302734375 17.134660720825195 17.155244827270508 17.17059326171875 17.193279266357422 17.223299026489258 17.258609771728516 17.292190551757812 17.321657180786133 17.335376739501953 17.425918579101562 -9999 -9999
-9999 17.660293579101562 17.48255157470703 17.275102615356445 17.139659881591797 17.10594367980957 17.10912322998047 17.134504318237305 17.153461456298828 17.17296600341797 17.19039535522461 17.217126846313477 17.25231170654297 17.285085678100586 17.321739196777344 17.356691360473633 17.384803771972656 17.414331436157227 17.377391815185547 17.407840728759766
-9999 -9999 17.325908660888672 17.191604614257812 17.09779930114746 17.096071243286133 17.133243560791016 17.1693058013916 17.191492080688477 17.210220336914062 17.225675582885742 17.249975204467773 17.27764320373535 17.319116592407227 17.3520565032959 17.374385833740234 17.40119743347168 17.418087005615234 17.432270050048828 17.407869338989258
-9999 -9999 17.23061180114746 17.140060424804688 17.08182716369629 17.114065170288086 17.1767635345459 17.22584342956543 17.25324058532715 17.265657424926758 17.264394760131836 17.286468505859375 17.3140811920166 17.350296020507812 17.3718318939209 17.386962890625 17.403308868408203 17.417612075805664 17.395666122436523 17.38876724243164
-9999 -9999 -9999 17.102210998535156 17.072481155395508 17.117158889770508 17.194580078125 17.24772834777832 17.271379470825195 17.27802848815918 17.281389236450195 17.290943145751953 17.319652557373047 17.35405731201172 17.380691528320312 17.384790420532227 17.411327362060547 17.39472770690918 17.385658264160156 17.382577896118164
