ncols         20
nrows         20
xllcorner     0
yllcorner     -3.5992928
cellsize      0.17996463
NODATA_value  -9999
-9999.0 -9999 -9999 -9999 -9999 -9999 -9999 -9999 -9999 -9999 -9999 -9999 -9999 -9999 -9999 -9999 -9999 -9999 -9999 -9999
-9999 -9999 -9999 -9999 -9999 -9999 -9999 -9999 -9999 -9999 -9999 0.13460339605808258 0.13470815122127533 -9999 -9999 0.13701662421226501 0.1371944099664688 -9999 -9999 -9999
-9999 -9999 -9999 -9999 0.13407589495182037 0.13404875993728638 0.13405278325080872 0.1341087371110916 0.13423305749893188 0.13442321121692657 0.13463470339775085 0.12466461211442947 0.12499109655618668 0.13589510321617126 0.13651461899280548 0.12679670751094818 0.12732627987861633 0.13833202421665192 -9999 -9999
-9999 -9999 -9999 0.13435187935829163 0.12411826848983765 0.10561814159154892 0.105653777718544 0.10575414448976517 0.1059214249253273 0.10614126175642014 0.10639047622680664 0.09857240319252014 0.09888692200183868 0.10747019201517105 0.10798616707324982 0.10039277374744415 0.1093047708272934 0.13943082094192505 -9999 -9999
-9999 -9999 -9999 0.13457784056663513 0.10589444637298584 0.07709077000617981 0.07114720344543457 0.07130726426839828 0.07152438163757324 0.07177795469760895 0.07204144448041916 0.06689058989286423 0.06715292483568192 0.0729404091835022 0.07337658852338791 0.07399746030569077 0.11105158925056458 0.1417004019021988 -9999 -9999
-9999 -9999 0.13508544862270355 0.12479255348443985 0.09823039174079895 0.06608479470014572 0.04098276048898697 0.041155941784381866 0.04137808084487915 0.04161825776100159 0.041856035590171814 0.038813114166259766 0.039036378264427185 0.04262930527329445 0.04303056374192238 0.07022952288389206 0.10520972311496735 0.1347861886024475 0.14795275032520294 -9999
-9999 -9999 0.13549776375293732 0.10669054836034775 0.07780717313289642 0.05249079689383507 0.03004753775894642 0.02035551518201828 0.02052842080593109 0.020710213109850883 0.020889557898044586 0.019446004182100296 0.019640367478132248 0.021556882187724113 0.03248697519302368 0.057514987885951996 0.08595539629459381 0.11866684257984161 0.15151982009410858 -9999
-9999 -9999 0.13628487288951874 0.1074141263961792 0.07235121726989746 0.04166778177022934 0.020528174936771393 0.010117284022271633 0.008745151571929455 0.008857972919940948 0.008973651565611362 0.008406196720898151 0.008569353260099888 0.011152544058859348 0.02319851517677307 0.047591857612133026 0.08303942531347275 0.12368626892566681 0.15725380182266235 -9999
-9999 0.13802039623260498 0.12726300954818726 0.10031008720397949 0.06776166707277298 0.03901228308677673 0.01929881051182747 0.008171693421900272 0.0032174373045563698 0.0032853647135198116 0.003355282824486494 0.0031620117370039225 0.0035539150703698397 0.01022602990269661 0.024655811488628387 0.05033433437347412 0.08748707175254822 0.12982790172100067 0.16468892991542816 -9999
-9999 0.13965708017349243 0.10998062789440155 0.08036166429519653 0.05441988259553909 0.03152051195502281 0.015597222372889519 0.0066213179379701614 0.0024528545327484608 0.0016360963927581906 0.0016907304525375366 0.0017387151019647717 0.003826893400400877 0.010895875282585621 0.02613762393593788 0.053238630294799805 0.09239944815635681 0.13693565130233765 0.17350350320339203 -9999
-9999 0.14256805181503296 0.11245760321617126 0.07593102008104324 0.04392280802130699 0.021766772493720055 0.01079858373850584 0.004621763713657856 0.0017266926588490605 0.0017352316062897444 0.001801523845642805 0.0018567206570878625 0.004076686222106218 0.01154528371989727 0.027618277817964554 0.0561983585357666 0.09749055653810501 0.14440104365348816 0.1828588992357254 -9999
-9999 0.14666123688220978 0.11582199484109879 0.07836708426475525 0.045455653220415115 0.022582512348890305 0.009606472216546535 0.0035225064493715763 0.001739168306812644 0.0018252318259328604 0.0019001177279278636 0.0020732409320771694 0.006006445270031691 0.014385327696800232 0.029088763520121574 0.05914461612701416 0.10252947360277176 0.1516799032688141 0.19178219139575958 -9999
-9999 0.1518723964691162 0.12009189277887344 0.08143667876720428 0.04731912165880203 0.02368784137070179 0.010099897161126137 0.0037137495819479227 0.0018150601536035538 0.0019043046049773693 0.001985942479223013 0.0032413348089903593 0.009350663051009178 0.022370021790266037 0.04573327302932739 0.07916820049285889 0.11658068001270294 0.15849049389362335 0.19942381978034973 -9999
-9999 0.1580575406551361 0.12523861229419708 0.08543922007083893 0.04974443465471268 0.024758461862802505 0.010547243058681488 0.003868602216243744 0.0018823095597326756 0.001970138633623719 0.002052523661404848 0.004249068442732096 0.012231303378939629 0.02945566736161709 0.06014484539628029 0.10437838733196259 0.15431112051010132 0.1938842535018921 0.2047273963689804 -9999
-9999 0.16465207934379578 0.13066716492176056 0.08928607404232025 0.05204154923558235 0.02590804733335972 0.01291219238191843 0.005538548342883587 0.0020459783263504505 0.002023545326665044 0.002103686099871993 0.004726785235106945 0.013547121547162533 0.032691340893507004 0.06695744395256042 0.11670751124620438 0.17283174395561218 0.21905389428138733 -9999 -9999
-9999 0.17056486010551453 0.13626016676425934 0.10062459111213684 0.06895500421524048 0.04025637358427048 0.020098509266972542 0.008530103601515293 0.0033932053484022617 0.002064160071313381 0.002142846817150712 0.004807097837328911 0.01379053108394146 0.03334064409136772 0.06844735145568848 0.11964215338230133 0.17828421294689178 0.2262655794620514 -9999 -9999
-9999 0.1747293323278427 0.1653706133365631 0.13245245814323425 0.09045277535915375 0.05270841717720032 0.028374267742037773 0.01407361589372158 0.0060029407031834126 0.002204752527177334 0.002171201864257455 0.004475738853216171 0.012918712571263313 0.031284771859645844 0.06432871520519257 0.1126120463013649 0.16844166815280914 0.21589723229408264 0.23815390467643738 0.23998992145061493
-9999 -9999 0.18509551882743835 0.1476583480834961 0.10865315794944763 0.07405984401702881 0.04298765957355499 0.021372273564338684 0.009041080251336098 0.0033295918256044388 0.0021887298207730055 0.0035542098339647055 0.010293751023709774 0.025033067911863327 0.05139193683862686 0.09022120386362076 0.1349678933620453 0.1726156622171402 0.1885143667459488 0.1894536316394806
-9999 -9999 0.18858712911605835 0.17632298171520233 0.14025281369686127 0.09522378444671631 0.05521409958600998 0.027313342317938805 0.011557422578334808 0.004237818066030741 0.0021979177836328745 0.002398746320977807 0.00696827145293355 0.016913624480366707 0.034966882318258286 0.061094239354133606 0.09175968915224075 0.11708305031061172 0.12723666429519653 0.1276250034570694
-9999 -9999 -9999 0.19348502159118652 0.15340998768806458 0.10396287590265274 0.060145795345306396 0.02971341833472252 0.012559613212943077 0.0046160416677594185 0.0022022163029760122 0.0022797067649662495 0.004010437522083521 0.009703859686851501 0.020116398110985756 0.03514853119850159 0.052846115082502365 0.06710053980350494 0.07303731143474579 0.07318919152021408
