ncols         20
nrows         20
xllcorner     0
yllcorner     -3.5992928
cellsize      0.17996463
NODATA_value  -9999
-9999.0 -9999 -9999 -9999 -9999 -9999 -9999 -9999 -9999 -9999 -9999 -9999 -9999 -9999 -9999 -9999 -9999 -9999 -9999 -9999
-9999 -9999 -9999 -9999 -9999 -9999 -9999 -9999 -9999 -9999 -9999 27.423274993896484 27.421527862548828 -9999 -9999 27.407840728759766 27.46930503845215 -9999 -9999 -9999
-9999 -9999 -9999 -9999 27.446144104003906 27.36597442626953 27.24409294128418 27.158620834350586 27.124755859375 27.135698318481445 27.216747283935547 27.280963897705078 27.246658325195312 27.156097412109375 27.176742553710938 27.285627365112305 27.364469528198242 27.38340187072754 -9999 -9999
-9999 -9999 -9999 27.46534538269043 27.42950439453125 27.371570587158203 27.29753875732422 27.25088882446289 27.24375343322754 27.258325576782227 27.277917861938477 27.275218963623047 27.21773338317871 27.14508056640625 27.109760284423828 27.14125633239746 27.17053985595703 27.17022705078125 -9999 -9999
-9999 -9999 -9999 27.446252822875977 27.439098358154297 27.43245506286621 27.46097755432129 27.52324867248535 27.597187042236328 27.662315368652344 27.70134925842285 27.695215225219727 27.61920738220215 27.49042320251465 27.330455780029297 27.177169799804688 27.019664764404297 26.88949203491211 -9999 -9999
-9999 -9999 27.44133758544922 27.440664291381836 27.483379364013672 27.6079044342041 27.845890045166016 28.074392318725586 28.287832260131836 28.478700637817383 28.60767936706543 28.644290924072266 28.558042526245117 28.348413467407227 28.025131225585938 27.62778091430664 27.17746353149414 26.842374801635742 26.67961883544922 -9999
-9999 -9999 27.357421875 27.426881790161133 27.57352066040039 27.870574951171875 28.263010025024414 28.673654556274414 29.071285247802734 29.411598205566406 29.629878997802734 29.700763702392578 29.620420455932617 29.371017456054688 28.923776626586914 28.363941192626953 27.717811584472656 27.20714569091797 26.935340881347656 -9999
-9999 -9999 27.14131736755371 27.33325958251953 27.65668487548828 28.123760223388672 28.687726974487305 29.289884567260742 29.854637145996094 30.297298431396484 30.564678192138672 30.651981353759766 30.584821701049805 30.35363006591797 29.919498443603516 29.31026268005371 28.606231689453125 27.96246910095215 27.58639144897461 -9999
-9999 26.50002670288086 26.791324615478516 27.22083854675293 27.741220474243164 28.41106414794922 29.17800521850586 29.938745498657227 30.587648391723633 31.054962158203125 31.328983306884766 31.423595428466797 31.36687469482422 31.167020797729492 30.79498291015625 30.24941062927246 29.63102912902832 29.021398544311523 28.6103515625 -9999
-9999 26.237075805664062 26.537099838256836 27.15188217163086 27.93471336364746 28.843036651611328 29.775989532470703 30.60071563720703 31.233291625976562 31.66356086730957 31.91668701171875 32.00769805908203 31.960630416870117 31.795198440551758 31.507125854492188 31.088815689086914 30.616758346557617 30.124685287475586 29.777484893798828 -9999
-9999 25.985912322998047 26.40493392944336 27.283119201660156 28.33264923095703 29.42690086364746 30.42829132080078 31.222856521606445 31.789997100830078 32.16842269897461 32.38971710205078 32.46449661254883 32.41376876831055 32.282081604003906 32.07831954956055 31.789840698242188 31.455604553222656 31.101106643676758 30.858097076416016 -9999
-9999 26.036584854125977 26.615161895751953 27.712615966796875 28.937015533447266 30.099485397338867 31.071420669555664 31.796411514282227 32.312503814697266 32.666866302490234 32.87488555908203 32.934104919433594 32.86410140991211 32.7574462890625 32.62196350097656 32.408119201660156 32.16838836669922 31.912004470825195 31.735767364501953 -9999
-9999 26.58831024169922 27.26095962524414 28.46100425720215 29.71333885192871 30.81545066833496 31.68944549560547 32.34658432006836 32.8474006652832 33.212806701660156 33.45142364501953 33.5386848449707 33.504966735839844 33.442012786865234 33.34352493286133 33.18629455566406 32.93486785888672 32.663185119628906 32.44712829589844 -9999
-9999 27.539710998535156 28.232685089111328 29.401470184326172 30.55797004699707 31.526260375976562 32.28974914550781 32.898807525634766 33.402103424072266 33.774044036865234 34.03490447998047 34.19139099121094 34.26055908203125 34.29523468017578 34.273902893066406 34.16054916381836 33.910926818847656 33.54796600341797 33.033199310302734 -9999
-9999 28.591079711914062 29.25498390197754 30.31989288330078 31.344146728515625 32.19606018066406 32.887142181396484 33.46583938598633 33.92345428466797 34.28110885620117 34.559654235839844 34.79616928100586 34.99723815917969 35.159751892089844 35.24635696411133 35.23006820678711 35.09895324707031 34.872013092041016 -9999 -9999
-9999 29.463088989257812 30.12186050415039 31.08331871032715 32.00677490234375 32.80735397338867 33.476322174072266 34.00442886352539 34.41249465942383 34.732215881347656 35.00169372558594 35.288204193115234 35.58906936645508 35.87220764160156 36.07196807861328 36.18833541870117 36.234413146972656 36.286720275878906 -9999 -9999
-9999 30.021005630493164 30.83391571044922 31.696556091308594 32.55117416381836 33.35472869873047 34.00625228881836 34.516571044921875 34.89067840576172 35.17911148071289 35.451942443847656 35.7616081237793 36.104305267333984 36.43991470336914 36.709407806396484 36.90380096435547 37.0473518371582 37.21571350097656 37.57056427001953 37.724002838134766
-9999 -9999 31.662891387939453 32.244049072265625 32.995460510253906 33.784706115722656 34.461181640625 34.98481369018555 35.34846878051758 35.63180160522461 35.896629333496094 36.200706481933594 36.54158020019531 36.89017105102539 37.176841735839844 37.38466262817383 37.54315948486328 37.672969818115234 37.80329895019531 37.84440994262695
-9999 -9999 32.117210388183594 32.65489959716797 33.33354568481445 34.11539840698242 34.82815170288086 35.38364028930664 35.7569465637207 36.02924346923828 36.2680778503418 36.55296325683594 36.88251876831055 37.22099685668945 37.496307373046875 37.693050384521484 37.83490753173828 37.914527893066406 37.93395233154297 37.935096740722656
-9999 -9999 -9999 33.019805908203125 33.561363220214844 34.30009841918945 35.02759552001953 35.59864807128906 35.973140716552734 36.235782623291016 36.463932037353516 36.727134704589844 37.0481071472168 37.38115692138672 37.65691375732422 37.84307861328125 37.97969436645508 38.012569427490234 38.0048942565918 37.995540618896484
