ncols         20
nrows         20
xllcorner     0
yllcorner     -3.5992928
cellsize      0.17996463
NODATA_value  -9999
-9999.0 -9999 -9999 -9999 -9999 -9999 -9999 -9999 -9999 -9999 -9999 -9999 -9999 -9999 -9999 -9999 -9999 -9999 -9999 -9999
-9999 -9999 -9999 -9999 -9999 -9999 -9999 -9999 -9999 -9999 -9999 1.7527735233306885 1.7510662078857422 -9999 -9999 1.798039197921753 1.7782378196716309 -9999 -9999 -9999
-9999 -9999 -9999 -9999 1.748295545578003 1.7609587907791138 1.7814371585845947 1.7865350246429443 1.784062147140503 1.7873371839523315 1.7708532810211182 1.781130075454712 1.798330307006836 1.8120441436767578 1.8147263526916504 1.8111443519592285 1.7943141460418701 1.7774696350097656 -9999 -9999
-9999 -9999 -9999 1.76699697971344 1.7782602310180664 1.7905735969543457 1.8034604787826538 1.805570363998413 1.805336356163025 1.8054535388946533 1.8109767436981201 1.8222538232803345 1.8381532430648804 1.848876714706421 1.863796591758728 1.8615567684173584 1.8413193225860596 1.8213118314743042 -9999 -9999
-9999 -9999 -9999 1.7906248569488525 1.806025743484497 1.8326057195663452 1.842348337173462 1.8385396003723145 1.8177149295806885 1.778078317642212 1.734466314315796 1.7176032066345215 1.7434033155441284 1.8034305572509766 1.8661611080169678 1.8937039375305176 1.89216148853302 1.8984036445617676 -9999 -9999
-9999 -9999 1.7974108457565308 1.8197088241577148 1.8462803363800049 1.8661950826644897 1.858970284461975 1.8242952823638916 1.739975094795227 1.602866530418396 1.4530192613601685 1.3782014846801758 1.4091614484786987 1.5483707189559937 1.7235866785049438 1.8393969535827637 1.8971630334854126 1.9149930477142334 1.8953830003738403 -9999
-9999 -9999 1.8204671144485474 1.8460896015167236 1.8854397535324097 1.892444372177124 1.8594355583190918 1.7623733282089233 1.5818735361099243 1.3369778394699097 1.1057097911834717 0.984813392162323 1.0084174871444702 1.1810442209243774 1.464832067489624 1.6679328680038452 1.8180489540100098 1.8847037553787231 1.8986111879348755 -9999
-9999 -9999 1.871349811553955 1.9017984867095947 1.9262994527816772 1.9024851322174072 1.8053094148635864 1.6151992082595825 1.347822666168213 1.0547109842300415 0.8244946599006653 0.7011101841926575 0.7070010304450989 0.8428515791893005 1.0890625715255737 1.369802713394165 1.6013879776000977 1.7531095743179321 1.8121403455734253 -9999
-9999 1.8945260047912598 1.9324620962142944 1.9518500566482544 1.937278151512146 1.838422417640686 1.6336640119552612 1.3434412479400635 1.0342135429382324 0.7707313299179077 0.5951176881790161 0.5046226382255554 0.49760401248931885 0.584679901599884 0.7640848755836487 1.034057855606079 1.2804324626922607 1.4809786081314087 1.5784120559692383 -9999
-9999 1.9483144283294678 1.97385573387146 1.966036081314087 1.8718316555023193 1.6493213176727295 1.3277745246887207 0.979356050491333 0.6920797824859619 0.5013359785079956 0.39653003215789795 0.34456539154052734 0.34057366847991943 0.38642367720603943 0.49856001138687134 0.685269832611084 0.9043093919754028 1.1069165468215942 1.2128245830535889 -9999
-9999 1.9955048561096191 1.989698886871338 1.911328911781311 1.714840292930603 1.3908591270446777 0.9999585747718811 0.647546112537384 0.415577232837677 0.290195107460022 0.2301693707704544 0.20507273077964783 0.20360594987869263 0.22744189202785492 0.2866324186325073 0.3955462872982025 0.5448312759399414 0.7058117389678955 0.7929241061210632 -9999
-9999 1.9749228954315186 1.9265594482421875 1.758314609527588 1.4739768505096436 1.1073110103607178 0.722343921661377 0.419301837682724 0.2441532015800476 0.1575140804052353 0.11955319344997406 0.10358987003564835 0.10201826691627502 0.11041070520877838 0.13470876216888428 0.18788880109786987 0.2737875282764435 0.3722979426383972 0.42687320709228516 -9999
-9999 1.8381010293960571 1.7324974536895752 1.4697065353393555 1.148537039756775 0.8072472810745239 0.4958581030368805 0.2680869698524475 0.14238081872463226 0.085712730884552 0.05473201349377632 0.043529853224754333 0.03964395448565483 0.04067014157772064 0.048623401671648026 0.06719565391540527 0.11088845133781433 0.1627013385295868 0.19598357379436493 -9999
-9999 1.5654501914978027 1.412743091583252 1.0948361158370972 0.7797498106956482 0.5135169625282288 0.30461907386779785 0.16154102981090546 0.07873779535293579 0.046014122664928436 0.030744455754756927 0.023721463978290558 0.020271938294172287 0.019244946539402008 0.020181892439723015 0.024810772389173508 0.03569301217794418 0.05792143568396568 0.07615361362695694 -9999
-9999 1.264783501625061 1.0949163436889648 0.7647444009780884 0.48381680250167847 0.29494285583496094 0.16965866088867188 0.08690090477466583 0.04794216901063919 0.030134592205286026 0.021673724055290222 0.017037609592080116 0.014459560625255108 0.01327151246368885 0.012628071010112762 0.013330690562725067 0.01551959291100502 0.022506654262542725 -9999 -9999
-9999 1.0520302057266235 0.8759063482284546 0.5591864585876465 0.31813448667526245 0.1734004020690918 0.0920495092868805 0.051654428243637085 0.032594796270132065 0.022839734330773354 0.01781756803393364 0.014662768691778183 0.013284710235893726 0.015404018573462963 0.01730463281273842 0.018792031332850456 0.019783200696110725 0.020477568730711937 -9999 -9999
-9999 0.9041740894317627 0.7204330563545227 0.44430944323539734 0.23355305194854736 0.10709936171770096 0.057073093950748444 0.03392256423830986 0.023336581885814667 0.017813915386795998 0.014844274148344994 0.01515057124197483 0.017680589109659195 0.020233169198036194 0.02257327176630497 0.024551929906010628 0.026222867891192436 0.028071241453289986 0.031686004251241684 0.03310316801071167
-9999 -9999 0.5610019564628601 0.3647627830505371 0.18468311429023743 0.07982319593429565 0.040457550436258316 0.024496665224432945 0.017603380605578423 0.014389533549547195 0.01647985354065895 0.01890329271554947 0.02158442698419094 0.02435578778386116 0.02687166817486286 0.028942644596099854 0.030637752264738083 0.032059356570243835 0.033435672521591187 0.03392834588885307
-9999 -9999 0.4025518000125885 0.28624892234802246 0.14852763712406158 0.06217574328184128 0.030495738610625267 0.018371138721704483 0.015124284662306309 0.01717173121869564 0.019358081743121147 0.02182878740131855 0.024567510932683945 0.027373354882001877 0.02983929216861725 0.031759776175022125 0.03318433091044426 0.034049972891807556 0.03439074382185936 0.03446882963180542
-9999 -9999 -9999 0.23826372623443604 0.12588098645210266 0.055012427270412445 0.02670549973845482 0.016135739162564278 0.016572151333093643 0.018710074946284294 0.020929040387272835 0.02337777242064476 0.02610776573419571 0.02889125980436802 0.031308386474847794 0.033073507249355316 0.034330543130636215 0.03476240858435631 0.03478784114122391 0.03472838178277016
