ncols         20
nrows         20
xllcorner     0
yllcorner     -3.5992928
cellsize      0.17996463
NODATA_value  -9999
-9999.0 -9999 -9999 -9999 -9999 -9999 -9999 -9999 -9999 -9999 -9999 -9999 -9999 -9999 -9999 -9999 -9999 -9999 -9999 -9999
-9999 -9999 -9999 -9999 -9999 -9999 -9999 -9999 -9999 -9999 -9999 18.970325469970703 18.97891616821289 -9999 -9999 18.90993309020996 18.914356231689453 -9999 -9999 -9999
-9999 -9999 -9999 -9999 18.91510772705078 18.93700408935547 18.9543399810791 18.979806900024414 19.001338958740234 18.996273040771484 19.035099029541016 19.008024215698242 18.996915817260742 19.021411895751953 19.018726348876953 18.97227668762207 18.95172882080078 18.96085548400879 -9999 -9999
-9999 -9999 -9999 18.917890548706055 18.915796279907227 18.940507888793945 18.961565017700195 18.97739028930664 18.973426818847656 18.96529197692871 18.94148063659668 18.93729591369629 18.944740295410156 18.9821834564209 18.998844146728516 19.00230598449707 19.004817962646484 19.019317626953125 -9999 -9999
-9999 -9999 -9999 18.942285537719727 18.95534896850586 18.95420265197754 18.946435928344727 18.91522979736328 18.867429733276367 18.791597366333008 18.712604522705078 18.679168701171875 18.70905113220215 18.80574607849121 18.89859962463379 18.983243942260742 19.044219970703125 19.040922164916992 -9999 -9999
-9999 -9999 18.988502502441406 18.981000900268555 18.990402221679688 18.971336364746094 18.90606117248535 18.792133331298828 18.652753829956055 18.499187469482422 18.350967407226562 18.284996032714844 18.320222854614258 18.470523834228516 18.67241668701172 18.85167694091797 18.982967376708984 19.039052963256836 19.122282028198242 -9999
-9999 -9999 19.046648025512695 19.05766487121582 19.036609649658203 18.954923629760742 18.78384780883789 18.554054260253906 18.324691772460938 18.149553298950195 18.01381492614746 17.9399471282959 17.939245223999023 18.074079513549805 18.303171157836914 18.571714401245117 18.7810115814209 18.928125381469727 18.995519638061523 -9999
-9999 -9999 19.13825225830078 19.132768630981445 19.068201065063477 18.899038314819336 18.6048583984375 18.618608474731445 18.284189224243164 18.10700798034668 18.030351638793945 18.027179718017578 17.72495460510254 17.770368576049805 17.949420928955078 18.202579498291016 18.452991485595703 18.655433654785156 18.750619888305664 -9999
-9999 19.277246475219727 19.223798751831055 19.197139739990234 19.06195640563965 18.784189224243164 18.396522521972656 18.308914184570312 17.99038314819336 17.8466796875 17.800792694091797 17.810516357421875 17.565399169921875 17.55552864074707 17.65299415588379 17.83981704711914 18.06806182861328 18.271312713623047 18.38159942626953 -9999
-9999 19.335474014282227 19.305294036865234 19.195955276489258 18.96578025817871 18.611656188964844 18.205324172973633 18.1132755279541 17.83458709716797 17.71390151977539 17.6784725189209 17.685470581054688 17.45496368408203 17.39993667602539 17.42786407470703 17.535030364990234 17.704792022705078 17.872859954833984 17.96786880493164 -9999
-9999 19.366683959960938 19.291152954101562 19.09395980834961 18.77761459350586 18.372529983520508 18.010271072387695 17.981945037841797 17.750225067138672 17.646533966064453 17.616838455200195 17.618099212646484 17.36212921142578 17.272523880004883 17.25152015686035 17.294233322143555 17.393911361694336 17.51549530029297 17.587892532348633 -9999
-9999 19.257728576660156 19.12363052368164 18.84270668029785 18.480499267578125 18.08684730529785 17.80105972290039 17.87696075439453 17.690837860107422 17.602262496948242 17.575925827026367 17.574861526489258 17.280677795410156 17.178348541259766 17.131616592407227 17.122095108032227 17.159988403320312 17.232805252075195 17.285236358642578 -9999
-9999 18.950042724609375 18.76938819885254 18.447608947753906 18.092605590820312 17.77176284790039 17.53809356689453 17.43075942993164 17.36272621154785 17.333621978759766 17.3137264251709 17.28162384033203 17.204063415527344 17.150100708007812 17.10354232788086 17.067222595214844 17.042573928833008 17.060298919677734 17.10620880126953 -9999
-9999 18.517322540283203 18.319894790649414 18.00220489501953 17.701183319091797 17.466169357299805 17.312108993530273 17.239803314208984 17.22154998779297 17.221385955810547 17.220121383666992 17.21019172668457 17.19464683532715 17.18149185180664 17.17183494567871 17.14107322692871 17.08722496032715 17.012989044189453 17.094799041748047 -9999
-9999 18.105274200439453 17.922016143798828 17.63542366027832 17.398212432861328 17.24446678161621 17.166118621826172 17.1462345123291 17.155685424804688 17.173789978027344 17.18535614013672 17.197551727294922 17.210390090942383 17.22408103942871 17.2469539642334 17.247928619384766 17.22760009765625 17.091379165649414 -9999 -9999
-9999 17.824174880981445 17.652883529663086 17.40538787841797 17.226360321044922 17.137920379638672 17.108741760253906 17.11797332763672 17.134700775146484 17.15550422668457 17.170984268188477 17.193626403808594 17.223535537719727 17.258676528930664 17.292070388793945 17.321388244628906 17.335006713867188 17.425350189208984 -9999 -9999
-9999 17.659597396850586 17.4826717376709 17.276447296142578 17.141624450683594 17.107254028320312 17.109031677246094 17.134109497070312 17.153079986572266 17.17276382446289 17.19025230407715 17.21700668334961 17.252155303955078 17.284849166870117 17.321439743041992 17.356327056884766 17.38442039489746 17.414016723632812 17.37759017944336 17.40806770324707
-9999 -9999 17.326696395874023 17.19330406188965 17.100072860717773 17.098125457763672 17.13336181640625 17.168746948242188 17.1908016204834 17.20956802368164 17.225183486938477 17.249500274658203 17.277202606201172 17.31867218017578 17.351625442504883 17.374025344848633 17.400928497314453 17.418182373046875 17.432445526123047 17.408098220825195
-9999 -9999 17.232038497924805 17.142061233520508 17.08421516418457 17.116226196289062 17.178043365478516 17.225353240966797 17.252330780029297 17.264785766601562 17.263648986816406 17.285762786865234 17.313419342041016 17.3497257232666 17.37141990661621 17.386816024780273 17.40340232849121 17.417762756347656 17.395854949951172 17.388988494873047
-9999 -9999 -9999 17.104467391967773 17.0749454498291 17.11939239501953 17.196334838867188 17.247108459472656 17.27044105529785 17.277095794677734 17.280542373657227 17.2901554107666 17.31893539428711 17.35350227355957 17.380508422851562 17.38494110107422 17.411476135253906 17.39490509033203 17.385860443115234 17.382795333862305
