ncols         20
nrows         20
xllcorner     0
yllcorner     -3.5992928
cellsize      0.17996463
NODATA_value  -9999
-9999.0 -9999 -9999 -9999 -9999 -9999 -9999 -9999 -9999 -9999 -9999 -9999 -9999 -9999 -9999 -9999 -9999 -9999 -9999 -9999
-9999 -9999 -9999 -9999 -9999 -9999 -9999 -9999 -9999 -9999 -9999 3.027463674545288 3.039027690887451 -9999 -9999 3.258887767791748 3.2661314010620117 -9999 -9999 -9999
-9999 -9999 -9999 -9999 3.2808902263641357 3.226163387298584 3.144552707672119 3.0493104457855225 2.961851119995117 2.9018726348876953 2.881586790084839 2.9242963790893555 2.9631733894348145 3.005152702331543 3.07717227935791 3.1667678356170654 3.205601453781128 3.2125542163848877 -9999 -9999
-9999 -9999 -9999 3.321892738342285 3.2617955207824707 3.1616406440734863 3.041138172149658 2.9128007888793945 2.802459478378296 2.7283926010131836 2.7009313106536865 2.7227632999420166 2.778411388397217 2.8574466705322266 2.951000213623047 3.0409438610076904 3.1082019805908203 3.1502206325531006 -9999 -9999
-9999 -9999 -9999 3.3009657859802246 3.19889497756958 3.040863275527954 2.849616527557373 2.653780698776245 2.4974262714385986 2.3980090618133545 2.36043643951416 2.385749340057373 2.466749668121338 2.5849435329437256 2.7201759815216064 2.8486907482147217 2.955097198486328 3.024949073791504 -9999 -9999
-9999 -9999 3.3706002235412598 3.281919479370117 3.111008405685425 2.865222454071045 2.562300205230713 2.2557425498962402 2.0404000282287598 1.918375849723816 1.8787572383880615 1.921627163887024 2.044774293899536 2.2114455699920654 2.39579701423645 2.5717825889587402 2.7179274559020996 2.809692621231079 2.789552927017212 -9999
-9999 -9999 3.364579677581787 3.2360458374023438 2.9941837787628174 2.63622784614563 2.175783634185791 1.6823499202728271 1.4203014373779297 1.304486632347107 1.2879585027694702 1.3715804815292358 1.5804362297058105 1.7998855113983154 2.021042823791504 2.232722282409668 2.4137470722198486 2.5454001426696777 2.60469388961792 -9999
-9999 -9999 3.370602607727051 3.194093942642212 2.8689723014831543 2.3877060413360596 1.734593152999878 0.8244867324829102 0.614427924156189 0.5670737624168396 0.5919344425201416 0.7129702568054199 1.1486023664474487 1.429250955581665 1.6631720066070557 1.8802603483200073 2.074166774749756 2.228731632232666 2.316941261291504 -9999
-9999 3.5178604125976562 3.3881144523620605 3.138268232345581 2.740471839904785 2.1866328716278076 1.4844259023666382 0.6252467036247253 0.4073205888271332 0.36037173867225647 0.391254186630249 0.5180749893188477 0.8958004713058472 1.1577961444854736 1.3706868886947632 1.5634434223175049 1.7421256303787231 1.893951416015625 1.9871368408203125 -9999
-9999 3.4632375240325928 3.315145254135132 3.02410888671875 2.5848677158355713 2.011077642440796 1.3348599672317505 0.5741987824440002 0.36295846104621887 0.31193387508392334 0.3383658230304718 0.4518323242664337 0.7555865049362183 0.9760326147079468 1.15318763256073 1.312532663345337 1.4592756032943726 1.5896570682525635 1.6743162870407104 -9999
-9999 3.317864179611206 3.1509320735931396 2.8333849906921387 2.3845319747924805 1.8377764225006104 1.2320144176483154 0.5769854187965393 0.3853068947792053 0.3340214490890503 0.35262995958328247 0.44558146595954895 0.6863630414009094 0.8618214726448059 1.0012238025665283 1.1278084516525269 1.245284080505371 1.3523705005645752 1.4246525764465332 -9999
-9999 3.059149742126465 2.8826334476470947 2.560926675796509 2.138707399368286 1.6613895893096924 1.1629507541656494 0.6309827566146851 0.46628662943840027 0.41458287835121155 0.42171990871429443 0.4889344871044159 0.6693313121795654 0.7984094023704529 0.9026119709014893 0.9994282126426697 1.0927460193634033 1.181402564048767 1.2439885139465332 -9999
-9999 2.7041964530944824 2.5302770137786865 2.2290782928466797 1.8672075271606445 1.4903079271316528 1.1323654651641846 0.8276033401489258 0.6637448072433472 0.5907629728317261 0.5777837038040161 0.6134337782859802 0.6935534477233887 0.7715193629264832 0.8432045578956604 0.9147683382034302 0.9896313548088074 1.0659332275390625 1.1248738765716553 -9999
-9999 2.310969829559326 2.151974678039551 1.8935918807983398 1.6111764907836914 1.3336243629455566 1.0821298360824585 0.8824456334114075 0.756458044052124 0.6891866326332092 0.6665791273117065 0.6785515546798706 0.7156223058700562 0.7608537077903748 0.8087223172187805 0.8615221977233887 0.923571765422821 0.9927513003349304 1.06169593334198 -9999
-9999 1.9602426290512085 1.8237230777740479 1.6210294961929321 1.4085438251495361 1.2057517766952515 1.026418685913086 0.8859915137290955 0.7919316291809082 0.7370527982711792 0.7131133079528809 0.7131052017211914 0.7301331162452698 0.7565140128135681 0.7885488271713257 0.826724648475647 0.8747124671936035 0.9190608263015747 -9999 -9999
-9999 1.7079437971115112 1.586713194847107 1.4224705696105957 1.2581827640533447 1.1067402362823486 0.9752208590507507 0.8717653155326843 0.8009092211723328 0.7576161623001099 0.7359000444412231 0.7309907078742981 0.7384589910507202 0.7542237043380737 0.7759320139884949 0.8035864233970642 0.839807391166687 0.8730813264846802 -9999 -9999
-9999 1.5690581798553467 1.4257264137268066 1.2842766046524048 1.1504461765289307 1.0324612855911255 0.9324141144752502 0.8534752130508423 0.7991432547569275 0.7649927735328674 0.7463995814323425 0.7400100231170654 0.7428752183914185 0.7524654865264893 0.7671867609024048 0.7866675853729248 0.8119679093360901 0.8371578454971313 0.8401810526847839 0.8422566652297974
-9999 -9999 1.2699410915374756 1.1797629594802856 1.0739768743515015 0.9789125323295593 0.8990362882614136 0.836983323097229 0.7942710518836975 0.7667918801307678 0.7510285377502441 0.7444702386856079 0.7450373768806458 0.7509852647781372 0.7609522342681885 0.7741140127182007 0.7898350954055786 0.8061510920524597 0.8148284554481506 0.8180413246154785
-9999 -9999 1.196272850036621 1.1164475679397583 1.0271707773208618 0.9443260431289673 0.8763153553009033 0.8250700235366821 0.7899096012115479 0.7668009400367737 0.7529739141464233 0.7465856671333313 0.746030867099762 0.7498968839645386 0.7569240927696228 0.7661208510398865 0.7764562368392944 0.7861356735229492 0.7923718094825745 0.795199453830719
-9999 -9999 -9999 1.0642814636230469 1.0006775856018066 0.9265080690383911 0.864711582660675 0.8189175724983215 0.787429928779602 0.766437828540802 0.7536100745201111 0.7473595142364502 0.7463434934616089 0.7492702007293701 0.7549323439598083 0.7622736692428589 0.770287275314331 0.777446448802948 0.7824268937110901 0.7848818302154541
