ncols         20
nrows         20
xllcorner     0
yllcorner     -3.5992928
cellsize      0.17996463
NODATA_value  -9999
-9999.0 -9999 -9999 -9999 -9999 -9999 -9999 -9999 -9999 -9999 -9999 -9999 -9999 -9999 -9999 -9999 -9999 -9999 -9999 -9999
-9999 -9999 -9999 -9999 -9999 -9999 -9999 -9999 -9999 -9999 -9999 3.0271480083465576 3.038207769393921 -9999 -9999 3.253899335861206 3.2606868743896484 -9999 -9999 -9999
-9999 -9999 -9999 -9999 3.284731864929199 3.2306761741638184 3.149705648422241 3.054638385772705 2.966810703277588 2.9059746265411377 2.8840925693511963 2.9250497817993164 2.962601661682129 3.003077507019043 3.0736312866210938 3.1619415283203125 3.1996140480041504 3.2052831649780273 -9999 -9999
-9999 -9999 -9999 3.3280069828033447 3.267862558364868 3.1682052612304688 3.0479114055633545 2.9193222522735596 2.8083062171936035 2.733168125152588 2.7040762901306152 2.7241930961608887 2.778141498565674 2.8553969860076904 2.9472525119781494 3.035593032836914 3.101156711578369 3.141611337661743 -9999 -9999
-9999 -9999 -9999 3.3099775314331055 3.2081050872802734 3.0500526428222656 2.858228921890259 2.661436080932617 2.503920078277588 2.403095006942749 2.3636667728424072 2.3869872093200684 2.465935468673706 2.5820488929748535 2.7151925563812256 2.8415632247924805 2.9456570148468018 3.0134785175323486 -9999 -9999
-9999 -9999 3.385500431060791 3.295177936553955 3.123430013656616 2.876427173614502 2.5718469619750977 2.2635629177093506 2.046761989593506 1.9232457876205444 1.8817596435546875 1.9225057363510132 2.04327392578125 2.207411289215088 2.389113664627075 2.562297821044922 2.705402374267578 2.793919086456299 2.770151376724243 -9999
-9999 -9999 3.3816163539886475 3.2522242069244385 3.0086162090301514 2.648162603378296 2.185016632080078 1.6889736652374268 1.4255759716033936 1.3086639642715454 1.290771722793579 1.3726195096969604 1.5791208744049072 1.7956746816635132 2.0135483741760254 2.22170352935791 2.3991241455078125 2.5273094177246094 2.583970546722412 -9999
-9999 -9999 3.389464855194092 3.211402654647827 2.8834171295166016 2.398712635040283 1.7420856952667236 0.8267136812210083 0.6161050200462341 0.5685620903968811 0.5930016040802002 0.7132509350776672 1.1476775407791138 1.4259138107299805 1.6564253568649292 1.869405746459961 2.059152841567993 2.2099456787109375 2.295677661895752 -9999
-9999 3.5381150245666504 3.4065022468566895 3.1538236141204834 2.752429962158203 2.1951918601989746 1.4901256561279297 0.6269334554672241 0.40853509306907654 0.36151906847953796 0.39221489429473877 0.5185272097587585 0.8950247168540955 1.1555784940719604 1.3660756349563599 1.5545254945755005 1.728801965713501 1.8765860795974731 1.9672735929489136 -9999
-9999 3.4776430130004883 3.328021287918091 3.034174680709839 2.5918242931365967 2.015775680541992 1.3382192850112915 0.5754034519195557 0.36396506428718567 0.3129614591598511 0.33932018280029297 0.45242980122566223 0.7551425695419312 0.9743896722793579 1.1502845287322998 1.306538462638855 1.449418067932129 1.5756053924560547 1.6578881740570068 -9999
-9999 3.32206130027771 3.154402494430542 2.835355520248413 2.385075807571411 1.8379665613174438 1.2325347661972046 0.5774179100990295 0.38594505190849304 0.3348095118999481 0.35344547033309937 0.4461860656738281 0.6863055229187012 0.8609864115715027 0.9996351003646851 1.1239399909973145 1.2383503913879395 1.342374324798584 1.4128215312957764 -9999
-9999 3.052110433578491 2.8759868144989014 2.5547163486480713 2.1332828998565674 1.6576164960861206 1.1608301401138306 0.6304271817207336 0.46633148193359375 0.414958655834198 0.4222690165042877 0.4894525408744812 0.6696363687515259 0.7982625365257263 0.9017665982246399 0.9971036911010742 1.0880711078643799 1.1743725538253784 1.2355237007141113 -9999
-9999 2.6881115436553955 2.515778064727783 2.2170183658599854 1.857874870300293 1.484080195426941 1.1288487911224365 0.825659453868866 0.6628937721252441 0.5906615853309631 0.5781806111335754 0.6141000986099243 0.6942598223686218 0.7720096111297607 0.8431887626647949 0.913695216178894 0.9867428541183472 1.0611354112625122 1.118769645690918 -9999
-9999 2.2899813652038574 2.133615493774414 1.8791790008544922 1.6004960536956787 1.3263380527496338 1.0778350830078125 0.8798445463180542 0.7551665902137756 0.6889011263847351 0.6670370101928711 0.6794814467430115 0.7167649269104004 0.761939525604248 0.8094547390937805 0.8615019917488098 0.922174870967865 0.9897461533546448 1.0569841861724854 -9999
-9999 1.9384865760803223 1.8054412603378296 1.6073215007781982 1.3979960680007935 1.1976968050003052 1.0211952924728394 0.8829463124275208 0.790539026260376 0.736839771270752 0.7137719392776489 0.7143431901931763 0.7316836714744568 0.7581211924552917 0.789960503578186 0.8276762962341309 0.8747838735580444 0.9182114005088806 -9999 -9999
-9999 1.6873055696487427 1.5697282552719116 1.4098315238952637 1.248638391494751 1.0988304615020752 0.9695218205451965 0.8686281442642212 0.7996401190757751 0.7576131224632263 0.7368178367614746 0.7325295209884644 0.7403596639633179 0.7562512159347534 0.7778767943382263 0.8052477836608887 0.8409643173217773 0.873670756816864 -9999 -9999
-9999 1.5496448278427124 1.4099396467208862 1.2726638317108154 1.1421290636062622 1.0259795188903809 0.9272029399871826 0.8507223129272461 0.7982050180435181 0.765285849571228 0.7475917935371399 0.7418139576911926 0.7450536489486694 0.7548192739486694 0.7695454359054565 0.7888827323913574 0.8139007091522217 0.8388226628303528 0.8421260714530945 0.8443009257316589
-9999 -9999 1.256470799446106 1.1693891286849976 1.0669031143188477 0.9740396738052368 0.8953462839126587 0.8350351452827454 0.7938158512115479 0.7674189209938049 0.7524731159210205 0.7464909553527832 0.7474320530891418 0.7535857558250427 0.7636191844940186 0.7767379283905029 0.7923382520675659 0.8085103631019592 0.8171818852424622 0.8204116821289062
-9999 -9999 1.1840460300445557 1.1069629192352295 1.020961880683899 0.9406872391700745 0.8741012215614319 0.8239705562591553 0.789937436580658 0.7677252888679504 0.7546253204345703 0.7487723231315613 0.7485830187797546 0.7526702880859375 0.7597992420196533 0.7690064311027527 0.779292643070221 0.7889047861099243 0.7951084971427917 0.7979263067245483
-9999 -9999 -9999 1.0561094284057617 0.9951417446136475 0.923646092414856 0.8634266257286072 0.8184564709663391 0.7878110408782959 0.7675801515579224 0.7554040551185608 0.7496539354324341 0.7489916086196899 0.7521415948867798 0.7579174637794495 0.765288233757019 0.773276150226593 0.7803885340690613 0.7853336334228516 0.7877718210220337
