ncols         20
nrows         20
xllcorner     0
yllcorner     -3.5992928
cellsize      0.17996463
NODATA_value  -9999
-9999.0 -9999 -9999 -9999 -9999 -9999 -9999 -9999 -9999 -9999 -9999 -9999 -9999 -9999 -9999 -9999 -9999 -9999 -9999 -9999
-9999 -9999 -9999 -9999 -9999 -9999 -9999 -9999 -9999 -9999 -9999 0 0 -9999 -9999 0 0 -9999 -9999 -9999
-9999 -9999 -9999 -9999 0 0 0 0 0 0 0 0 0 0 0 0 0 0 -9999 -9999
-9999 -9999 -9999 0 0 0 0 0 0 0 0 0 0 0 0 0 0 0 -9999 -9999
-9999 -9999 -9999 0 0 0 0 0 0 0 0 0 0 0 0 0 0 0 -9999 -9999
-9999 -9999 0 0 0 0 3.9802186489105225 3.687042474746704 3.471461296081543 3.273768424987793 3.1035268306732178 3.0405709743499756 3.1157455444335938 3.341526985168457 3.6675174236297607 4.0807976722717285 0 0 0 -9999
-9999 -9999 0 0 0 3.9227418899536133 3.485807180404663 3.159442186355591 2.8613951206207275 2.564368963241577 2.315004825592041 2.1996212005615234 2.2555043697357178 2.4944021701812744 0.3204166889190674 3.4096672534942627 0 0 0 -9999
-9999 -9999 0 0 4.028860092163086 3.536464214324951 3.120999813079834 2.738298177719116 2.3692097663879395 2.030296564102173 1.7834645509719849 1.6617814302444458 1.6920619010925293 1.8832322359085083 2.232412338256836 2.721700429916382 3.3185954093933105 0 0 -9999
-9999 0 0 4.300862789154053 3.7382705211639404 3.2415852546691895 2.765817880630493 2.309460163116455 1.9086575508117676 1.5992023944854736 1.4042798280715942 1.3125863075256348 1.322666049003601 1.452103853225708 1.706739902496338 0.46613192558288574 2.594271659851074 3.1214001178741455 0 -9999
-9999 0 0 4.168281078338623 3.517946481704712 2.915989637374878 2.3487956523895264 1.8495972156524658 1.4740270376205444 1.2350776195526123 1.1089032888412476 1.0532889366149902 1.061988353729248 1.1392461061477661 1.3087034225463867 0.35228708386421204 1.978278636932373 2.4164576530456543 0 -9999
-9999 0 0 4.030155181884766 3.258514404296875 2.5649845600128174 1.9414522647857666 1.4440224170684814 1.1259355545043945 0.9538394808769226 0.872773289680481 0.8433968424797058 0.8512011170387268 0.8993629813194275 1.0035383701324463 1.1889005899429321 1.4666343927383423 0 0 -9999
-9999 0 0 3.768087387084961 2.91926908493042 2.201408624649048 1.5952140092849731 1.1536023616790771 0.89825439453125 0.7694680690765381 0.7134405374526978 0.6929078102111816 0.3101296126842499 0.40213242173194885 0.7811700105667114 0.19792580604553223 1.0711960792541504 0 0 -9999
-9999 0 0 3.307800769805908 2.4726309776306152 1.8142001628875732 1.3028764724731445 0.9507651925086975 0.7557929754257202 0.6648821234703064 0.6197044849395752 0.6041809916496277 0.40292441844940186 0.549588143825531 0.43365681171417236 0.7091841101646423 0.8174600601196289 0 0 -9999
-9999 0 0 2.7085630893707275 1.952927589416504 1.418947458267212 1.044582486152649 0.8026696443557739 0.6667166352272034 0.6057317852973938 0.5770371556282043 0.5656579732894897 0.2510596215724945 0.4460827708244324 0.39499974250793457 0.6270003318786621 0.687023401260376 0 0 -9999
-9999 0 0 2.155032157897949 1.5069829225540161 1.103500485420227 0.8520833253860474 0.6970022320747375 0.6165258288383484 0.5757999420166016 0.5558190941810608 0.5471336245536804 0.5464759469032288 0.5528159141540527 0.3774852752685547 0.3274397850036621 0.6265425682067871 0 -9999 -9999
-9999 0 0 1.778559684753418 1.2316261529922485 0.9130373597145081 0.7361106872558594 0.6393024325370789 0.5875523686408997 0.5588916540145874 0.3625676929950714 0.4176506996154785 0.059652071446180344 0.5440179705619812 0.24711868166923523 0.2550654113292694 0.5994476079940796 0.0892336443066597 -9999 -9999
-9999 0 0 1.543852686882019 1.0743930339813232 0.8031190633773804 0.675132691860199 0.6064372062683105 0.5689323544502258 0.36492806673049927 0.4761161208152771 0.531889796257019 0.41516271233558655 0.5394123792648315 0.5486953854560852 0.5618734359741211 0.5794051885604858 0.5964767336845398 0.4263153076171875 0.5977423191070557
-9999 -9999 0 1.365576982498169 0.9741973876953125 0.7481536865234375 0.6420542001724243 0.587561845779419 0.3096942901611328 0.48012223839759827 0.5332092642784119 0.5307484269142151 0.47286611795425415 0.41716331243515015 0.36229315400123596 0.36859020590782166 0.37607231736183167 0.44744977355003357 0.516218900680542 0.5827369093894958
-9999 -9999 0 0 0.9079386591911316 0.7129265666007996 0.6222177743911743 0.5759839415550232 0.3678603768348694 0.5397552251815796 0.5329509377479553 0.5303239822387695 0.531080424785614 0.5345740914344788 0.5401626825332642 0.5472383499145508 0.5550041794776917 0.5620347261428833 0.5663846731185913 0.5683339834213257
-9999 -9999 -9999 0 0.8664595484733582 0.6973715424537659 0.614064633846283 0.5714036226272583 0.3676219880580902 0.5396576523780823 0.5329208374023438 0.5301912426948547 0.5307040810585022 0.5337508320808411 0.5386108756065369 0.5445630550384521 0.5508476495742798 0.5562686920166016 0.5599268674850464 0.5617033243179321
