ncols         20
nrows         20
xllcorner     0
yllcorner     -3.5992928
cellsize      0.17996463
NODATA_value  -9999
-9999.0 -9999 -9999 -9999 -9999 -9999 -9999 -9999 -9999 -9999 -9999 -9999 -9999 -9999 -9999 -9999 -9999 -9999 -9999 -9999
-9999 -9999 -9999 -9999 -9999 -9999 -9999 -9999 -9999 -9999 -9999 0.047603461891412735 0.04558727517724037 -9999 -9999 0.03646102547645569 0.03203833848237991 -9999 -9999 -9999
-9999 -9999 -9999 -9999 0.058444295078516006 0.06629335880279541 0.08132457733154297 0.09343066066503525 0.09996530413627625 0.10249099135398865 0.08189228177070618 0.06846202909946442 0.06668887287378311 0.06556548178195953 0.053858526051044464 0.04195551946759224 0.03433700650930405 0.029727008193731308 -9999 -9999
-9999 -9999 -9999 0.052771762013435364 0.06112714111804962 0.07226376980543137 0.08917385339736938 0.10620875656604767 0.12493591010570526 0.13984854519367218 0.14733190834522247 0.14091551303863525 0.13251365721225739 0.11083474010229111 0.08505072444677353 0.060652781277894974 0.04464685916900635 0.03701707348227501 -9999 -9999
-9999 -9999 -9999 0.05198873579502106 0.061586856842041016 0.08229440450668335 0.11001529544591904 0.14499400556087494 0.1920633763074875 0.26145467162132263 0.3343413174152374 0.3648212254047394 0.3350714147090912 0.24865591526031494 0.16952094435691833 0.10574054718017578 0.06933805346488953 0.06085953861474991 -9999 -9999
-9999 -9999 0.035106904804706573 0.04687046259641647 0.06354615837335587 0.09189961105585098 0.1315305233001709 0.18907178938388824 0.29204636812210083 0.45044374465942383 0.6471769213676453 0.7434322834014893 0.7030230760574341 0.5176169276237488 0.3235599398612976 0.18961580097675323 0.11669357120990753 0.09121215343475342 0.07378489524126053 -9999
-9999 -9999 0.034031402319669724 0.04378046095371246 0.067631796002388 0.10735271126031876 0.1627795696258545 0.2527863681316376 0.41106459498405457 0.6545519232749939 0.9425888061523438 1.1141871213912964 1.0773367881774902 0.846606969833374 0 0.33599305152893066 0.20277562737464905 0.1372784823179245 0.11339778453111649 -9999
-9999 -9999 0.035830579698085785 0.04956582933664322 0.08344117552042007 0.13878658413887024 0.22506943345069885 0.357644259929657 0.5506009459495544 0.8121482133865356 1.0606300830841064 1.2258130311965942 1.2187007665634155 1.0440948009490967 0.7852658629417419 0.522997260093689 0.3367926776409149 0.22798170149326324 0.18930362164974213 -9999
-9999 0.026312898844480515 0.04001684486865997 0.06418611854314804 0.1193738654255867 0.21301618218421936 0.3454557955265045 0.530072808265686 0.7420909404754639 0.946395993232727 1.0926029682159424 1.1830977201461792 1.2023217678070068 1.1144129037857056 0.9558578133583069 0 0.5060610771179199 0.3577812910079956 0.3015208840370178 -9999
-9999 0.03386881202459335 0.04968474432826042 0.09443105757236481 0.1862490177154541 0.334781289100647 0.5332290530204773 0.7600411772727966 0.9508811235427856 1.063002347946167 1.1023684740066528 1.128662347793579 1.1393511295318604 1.1180914640426636 1.041212558746338 0 0.68144291639328 0.5169934034347534 0.4512347877025604 -9999
-9999 0.05227593705058098 0.07542294263839722 0.141889289021492 0.2658228278160095 0.4555222690105438 0.6987923979759216 0.934699296951294 1.0668421983718872 1.098732590675354 1.0901603698730469 1.0917009115219116 1.1151244640350342 1.1165128946304321 1.0748082399368286 0.9904480576515198 0.8304372429847717 0.6829620599746704 0.6182413697242737 -9999
-9999 0.09082093834877014 0.12373094260692596 0.21654561161994934 0.36562296748161316 0.56312096118927 0.7919593453407288 0.9707335233688354 1.0266051292419434 1.007702112197876 0.984637439250946 1.0023908615112305 0 0 1.063435673713684 0 0.9125479459762573 0.8057796359062195 0.7543514966964722 -9999
-9999 0.16443663835525513 0.21523553133010864 0.34295907616615295 0.4976065754890442 0.6669683456420898 0.8243316411972046 0.9126304388046265 0.896532416343689 0.8385152220726013 0.8022668957710266 0.8118623495101929 0 0 0 0.8662588000297546 0.8412444591522217 0.8128909468650818 0.7817460298538208 -9999
-9999 0.27808016538619995 0.3470267951488495 0.5022133588790894 0.6489462852478027 0.7566739916801453 0.8161554932594299 0.809838056564331 0.7465468049049377 0.6736139059066772 0.6267388463020325 0.6118848919868469 0 0 0 0.5899578928947449 0.6195204854011536 0.6929036974906921 0.7018879055976868 -9999
-9999 0.38870733976364136 0.46129897236824036 0.6191940307617188 0.7316679954528809 0.7638333439826965 0.7412894368171692 0.6831300854682922 0.6091828942298889 0.5479084849357605 0.5091715455055237 0.47315704822540283 0.43999576568603516 0.4045558571815491 0 0 0.3663085401058197 0.4534701704978943 -9999 -9999
-9999 0.44295454025268555 0.5063595175743103 0.6389778852462769 0.7010157704353333 0.6803004145622253 0.621912956237793 0.5536378622055054 0.5016911029815674 0.4690776467323303 0 0 0 0.2876150608062744 0 0 0.1941208392381668 0 -9999 -9999
-9999 0.47928372025489807 0.5110547542572021 0.5994692444801331 0.6246580481529236 0.5742064714431763 0.5015584230422974 0.4415733218193054 0.4124602973461151 0 0 0 0 0.2179831862449646 0.172478586435318 0.13819874823093414 0.11467283964157104 0.09732971340417862 0 0
-9999 -9999 0.48965007066726685 0.5447486042976379 0.5489904880523682 0.4833502173423767 0.40468505024909973 0.35318657755851746 0 0 0 0 0 0 0 0 0 0 0 0
-9999 -9999 0.5074106454849243 0.5092097520828247 0.4898572564125061 0.4119652509689331 0.3288743495941162 0.2777569890022278 0 0 0 0 0 0 0 0 0 0 0 0
-9999 -9999 -9999 0.47521546483039856 0.45774027705192566 0.37877538800239563 0.2942463457584381 0.24425798654556274 0 0 0 0 0 0 0 0 0 0 0 0
