ncols         20
nrows         20
xllcorner     0
yllcorner     -3.5992928
cellsize      0.17996463
NODATA_value  -9999
-9999.0 -9999 -9999 -9999 -9999 -9999 -9999 -9999 -9999 -9999 -9999 -9999 -9999 -9999 -9999 -9999 -9999 -9999 -9999 -9999
-9999 -9999 -9999 -9999 -9999 -9999 -9999 -9999 -9999 -9999 -9999 11.818632125854492 11.791464805603027 -9999 -9999 11.799727439880371 11.645418167114258 -9999 -9999 -9999
-9999 -9999 -9999 -9999 11.737557411193848 11.885858535766602 12.123316764831543 12.245753288269043 12.278429985046387 12.295633316040039 12.112020492553711 12.076309204101562 12.149611473083496 12.217708587646484 12.140933990478516 11.975794792175293 11.807975769042969 11.707961082458496 -9999 -9999
-9999 -9999 -9999 11.791430473327637 11.902310371398926 12.03562068939209 12.19915771484375 12.26899242401123 12.302169799804688 12.298538208007812 12.312482833862305 12.346217155456543 12.43028736114502 12.479336738586426 12.490190505981445 12.373611450195312 12.193390846252441 12.078754425048828 -9999 -9999
-9999 -9999 -9999 11.950690269470215 12.062124252319336 12.262297630310059 12.331636428833008 12.24073600769043 12.079032897949219 11.886323928833008 11.69991397857666 11.646724700927734 11.81765079498291 12.155678749084473 12.494306564331055 12.64816951751709 12.621319770812988 12.704148292541504 -9999 -9999
-9999 -9999 11.993844032287598 12.155715942382812 12.332426071166992 12.415470123291016 12.1625337600708 11.590417861938477 10.993149757385254 10.331310272216797 9.663832664489746 9.39082145690918 9.683220863342285 10.5206298828125 11.504462242126465 12.240751266479492 12.630562782287598 12.83308219909668 12.771204948425293 -9999
-9999 -9999 12.232772827148438 12.402932167053223 12.634180068969727 12.449919700622559 11.513461112976074 9.87911319732666 8.665258407592773 7.603054046630859 6.719029903411865 6.391841411590576 6.879487037658691 7.997159004211426 9.472777366638184 10.9036283493042 11.879764556884766 12.398531913757324 12.592692375183105 -9999
-9999 -9999 12.758561134338379 12.971951484680176 13.044769287109375 12.315359115600586 10.27721881866455 6.233290195465088 4.838301658630371 4.039036750793457 3.54964017868042 3.4972476959228516 4.53834867477417 5.647720813751221 7.121030330657959 8.789656639099121 10.217292785644531 11.196725845336914 11.634016036987305 -9999
-9999 13.192665100097656 13.42397403717041 13.603238105773926 13.34907054901123 12.009368896484375 9.238931655883789 4.926353454589844 3.380795955657959 2.656135082244873 2.3282816410064697 2.358116626739502 3.0733044147491455 3.8488149642944336 4.922613143920898 6.358144283294678 7.902641296386719 9.123010635375977 9.723381042480469 -9999
-9999 13.733234405517578 13.931108474731445 13.965505599975586 13.138157844543457 11.091475486755371 7.89781379699707 3.939544677734375 2.4757745265960693 1.848686933517456 1.618778109550476 1.6455546617507935 2.0746676921844482 2.5031991004943848 3.1622347831726074 4.136682510375977 5.408553123474121 6.551806449890137 7.146465301513672 -9999
-9999 14.263093948364258 14.225729942321777 13.712456703186035 12.203497886657715 9.655548095703125 6.382863998413086 3.008139133453369 1.7517356872558594 1.2340136766433716 1.0434980392456055 1.0401883125305176 1.246436357498169 1.4575711488723755 1.7959039211273193 2.3737032413482666 3.1720457077026367 4.025692939758301 4.4887590408325195 -9999
-9999 14.182799339294434 13.781131744384766 12.589315414428711 10.538470268249512 7.85884952545166 4.90195894241333 2.257059097290039 1.2267134189605713 0.7863612174987793 0.6149523854255676 0.5674483776092529 0.6336004734039307 0.7003140449523926 0.8296500444412231 1.1023672819137573 1.5478088855743408 2.0549705028533936 2.337001323699951 -9999
-9999 12.985705375671387 12.186952590942383 10.385470390319824 8.164406776428223 5.775608539581299 3.5202574729919434 1.7901391983032227 0.9132277965545654 0.5389057397842407 0.361958771944046 0.291157066822052 0.26682963967323303 0.26551738381385803 0.30057960748672485 0.3894716501235962 0.5999143719673157 0.8621232509613037 1.0365285873413086 -9999
-9999 10.70683765411377 9.641810417175293 7.547178268432617 5.447934150695801 3.634727954864502 2.168614625930786 1.1399242877960205 0.5687326788902283 0.32443147897720337 0.20908430218696594 0.15181942284107208 0.12087438255548477 0.10631325840950012 0.10472656041383743 0.1237742081284523 0.17586952447891235 0.2897695004940033 0.3967495560646057 -9999
-9999 8.267838478088379 7.149796009063721 5.063088417053223 3.2569997310638428 2.010619640350342 1.1671252250671387 0.613309919834137 0.33348724246025085 0.19628337025642395 0.12720388174057007 0.08746671676635742 0.06427843868732452 0.05150176212191582 0.0445861741900444 0.04530918598175049 0.053379107266664505 0.08122055232524872 -9999 -9999
-9999 6.541907787322998 5.4210076332092285 3.494304656982422 2.0111424922943115 1.1068286895751953 0.5992807149887085 0.3311680257320404 0.19655275344848633 0.12332169711589813 0.08286002278327942 0.05710454285144806 0.04372258484363556 0.04543164744973183 0.04785923659801483 0.05057329684495926 0.05326959863305092 0.05567410960793495 -9999 -9999
-9999 5.422996997833252 4.225127220153809 2.5980401039123535 1.3655046224594116 0.6332630515098572 0.3312692940235138 0.1850983053445816 0.11458637565374374 0.07566531002521515 0.05301562696695328 0.04649339243769646 0.0484909862279892 0.051505185663700104 0.0552474707365036 0.05947522446513176 0.06425720453262329 0.07045801728963852 0.08133745193481445 0.08638867735862732
-9999 -9999 3.0797605514526367 1.9892492294311523 0.9946596026420593 0.42626693844795227 0.20429712533950806 0.11127890646457672 0.06922168284654617 0.048021502792835236 0.048408545553684235 0.05024091526865959 0.05335436761379242 0.057514738291502 0.062341734766960144 0.06754522770643234 0.07306866347789764 0.07894643396139145 0.08506177365779877 0.08825703710317612
-9999 -9999 2.1215872764587402 1.473761796951294 0.7471112012863159 0.3032805621623993 0.1358892321586609 0.07068824023008347 0.04956157132983208 0.049525342881679535 0.05081566423177719 0.05346206575632095 0.05738005414605141 0.06232614070177078 0.06782455742359161 0.07348330318927765 0.0790436863899231 0.08404899388551712 0.08794554322957993 0.09002146124839783
-9999 -9999 -9999 1.1688522100448608 0.6115485429763794 0.25488051772117615 0.11084061115980148 0.056554071605205536 0.04999586194753647 0.050499364733695984 0.05224207416176796 0.05527704954147339 0.059602368623018265 0.06494465470314026 0.07078122347593307 0.07658184319734573 0.08205892145633698 0.08640816807746887 0.0894768014550209 0.09107215702533722
