ncols         20
nrows         20
xllcorner     0
yllcorner     -3.5992928
cellsize      0.17996463
NODATA_value  -9999
-9999.0 -9999 -9999 -9999 -9999 -9999 -9999 -9999 -9999 -9999 -9999 -9999 -9999 -9999 -9999 -9999 -9999 -9999 -9999 -9999
-9999 -9999 -9999 -9999 -9999 -9999 -9999 -9999 -9999 -9999 -9999 0 0 -9999 -9999 0 0 -9999 -9999 -9999
-9999 -9999 -9999 -9999 0 0 0 0 0 0 0 0 0 0 0 0 0 0 -9999 -9999
-9999 -9999 -9999 0 0 0 0 0 0 0 0 0 0 0 0 0 0 0 -9999 -9999
-9999 -9999 -9999 0 0 0 0 0 0 0 0 0 0 0 0 0 0 0 -9999 -9999
-9999 -9999 0 0 0 0 2.2300477027893066 1.853803277015686 1.6404491662979126 1.4976810216903687 1.4049088954925537 1.3864867687225342 1.4550901651382446 1.6292320489883423 1.9183261394500732 2.392118453979492 0 0 0 -9999
-9999 -9999 0 0 0 2.0527420043945312 1.5323201417922974 1.2412645816802979 1.052566647529602 0.912139892578125 0.8141587972640991 0.7785216569900513 0.8177214860916138 0.9469043016433716 1.1843820810317993 1.598387598991394 0 0 0 -9999
-9999 -9999 0 0 2.0712485313415527 1.4854567050933838 1.1233172416687012 0.888551652431488 0.7226481437683105 0.5997840166091919 0.5210986137390137 0.48836687207221985 0.508906364440918 0.5922746062278748 0.7563261985778809 1.0360993146896362 1.494779109954834 0 0 -9999
-9999 0 0 2.2863755226135254 1.5895730257034302 1.1480014324188232 0.8542180061340332 0.650692343711853 0.5085518956184387 0.4135957658290863 0.3593065142631531 0.3375309407711029 0.34738898277282715 0.3971746563911438 0.4983159303665161 0.674433708190918 0.9504603147506714 1.3361247777938843 0 -9999
-9999 0 0 1.9630762338638306 1.3162848949432373 0.9158429503440857 0.651350200176239 0.47221261262893677 0.35747048258781433 0.2910745143890381 0.25846487283706665 0.24640792608261108 0.2530841827392578 0.2813400328159332 0.34201571345329285 0.44966989755630493 0.6267023086547852 0.878807544708252 0 -9999
-9999 0 0 1.7508020401000977 1.1207172870635986 0.7440973520278931 0.5010918378829956 0.3449203372001648 0.25599151849746704 0.21077746152877808 0.19058115780353546 0.1845424920320511 0.1891835331916809 0.20619221031665802 0.24183101952075958 0.3082819879055023 0.42179739475250244 0 0 -9999
-9999 0 0 1.538681983947754 0.9473859667778015 0.6061092019081116 0.3926444351673126 0.2634553611278534 0.19542226195335388 0.16266825795173645 0.148908331990242 0.1446460634469986 0.14752227067947388 0.15715783834457397 0.1771710366010666 0.2156045287847519 0.2846542000770569 0 0 -9999
-9999 0 0 1.279016137123108 0.7672437429428101 0.4812913239002228 0.310298889875412 0.2105196863412857 0.15957434475421906 0.13645173609256744 0.12549729645252228 0.12217097729444504 0.12341960519552231 0.12912766635417938 0.14107133448123932 0.1628049910068512 0.20363810658454895 0 0 -9999
-9999 0 0 0.9912492632865906 0.5822052955627441 0.36505311727523804 0.2425171434879303 0.17380137741565704 0.13796228170394897 0.12189307808876038 0.11450523138046265 0.11193559318780899 0.11263013631105423 0.11651425063610077 0.12426204979419708 0.13809305429458618 0.16277781128883362 0 0 -9999
-9999 0 0 0.7442087531089783 0.43146729469299316 0.2757865786552429 0.1935693770647049 0.14838646352291107 0.12568072974681854 0.11426375061273575 0.1087556704878807 0.1066550463438034 0.10712479054927826 0.11002437770366669 0.11566469073295593 0.12527711689472198 0.14115379750728607 0 -9999 -9999
-9999 0 0 0.5806199908256531 0.33910974860191345 0.2221587896347046 0.16420383751392365 0.13420666754245758 0.1184268370270729 0.1097954586148262 0.10535195469856262 0.10354474186897278 0.10391663759946823 0.10657268762588501 0.11117643117904663 0.118299201130867 0.12895220518112183 0.13992798328399658 -9999 -9999
-9999 0 0 0.4791213274002075 0.28568828105926514 0.1910460889339447 0.148236945271492 0.12588803470134735 0.11370029300451279 0.10675761848688126 0.10303191840648651 0.1017889603972435 0.1023787260055542 0.1043759137392044 0.10780003666877747 0.11283192038536072 0.119764544069767 0.12663334608078003 0.12616847455501556 0.12627846002578735
-9999 -9999 0 0.4029558598995209 0.2515689730644226 0.17466922104358673 0.1392398327589035 0.12095954269170761 0.11073856800794601 0.10483480244874954 0.10211798548698425 0.10107076168060303 0.10137394070625305 0.10283903777599335 0.10533784329891205 0.10878521203994751 0.11299451440572739 0.11725280433893204 0.11918359249830246 0.11984451860189438
-9999 -9999 0 0 0.2312031388282776 0.16448867321014404 0.13383953273296356 0.117937833070755 0.10922115296125412 0.10449489951133728 0.10181615501642227 0.10069069266319275 0.10079299658536911 0.10188966244459152 0.10377301275730133 0.10624774545431137 0.10903275012969971 0.1115877702832222 0.1131415143609047 0.11382671445608139
-9999 -9999 -9999 0 0.21769322454929352 0.1597437858581543 0.1315217912197113 0.11669319868087769 0.10898246616125107 0.10435594618320465 0.10169679671525955 0.10052565485239029 0.10052460432052612 0.10143687576055527 0.10302384197711945 0.10504800081253052 0.10723935812711716 0.10916503518819809 0.11046665906906128 0.11109752953052521
