ncols         20
nrows         20
xllcorner     0
yllcorner     -3.5992928
cellsize      0.17996463
NODATA_value  -9999
-9999.0 -9999 -9999 -9999 -9999 -9999 -9999 -9999 -9999 -9999 -9999 -9999 -9999 -9999 -9999 -9999 -9999 -9999 -9999 -9999
-9999 -9999 -9999 -9999 -9999 -9999 -9999 -9999 -9999 -9999 -9999 2.3511435985565186 2.3457534313201904 -9999 -9999 2.4244818687438965 2.3990800380706787 -9999 -9999 -9999
-9999 -9999 -9999 -9999 2.4794833660125732 2.489628553390503 2.502549886703491 2.4844348430633545 2.4497241973876953 2.4212942123413086 2.3711867332458496 2.371058702468872 2.384612798690796 2.393625259399414 2.403346300125122 2.4169647693634033 2.400641918182373 2.3743438720703125 -9999 -9999
-9999 -9999 -9999 2.516597032546997 2.5265166759490967 2.5323805809020996 2.5284628868103027 2.4967856407165527 2.4560680389404297 2.412287473678589 2.382737398147583 2.3730719089508057 2.381549119949341 2.39656662940979 2.4262311458587646 2.4413819313049316 2.425745964050293 2.4027373790740967 -9999 -9999
-9999 -9999 -9999 2.5516204833984375 2.5673136711120605 2.5877346992492676 2.563695192337036 2.4957644939422607 2.408263921737671 2.31085205078125 2.2178492546081543 2.1648917198181152 2.175537347793579 2.244366407394409 2.338444232940674 2.406165361404419 2.422515869140625 2.4382946491241455 -9999 -9999
-9999 -9999 2.561008930206299 2.59220290184021 2.6206140518188477 2.615962266921997 2.5276083946228027 2.361302614212036 2.1903157234191895 2.006133794784546 1.8183386325836182 1.7107205390930176 1.7251067161560059 1.8592970371246338 2.054861307144165 2.221034049987793 2.3155808448791504 2.346602439880371 2.2916271686553955 -9999
-9999 -9999 2.5889053344726562 2.62400221824646 2.6622860431671143 2.601452112197876 2.371384859085083 1.969205379486084 1.7012721300125122 1.4538989067077637 1.233522653579712 1.1282230615615845 1.1959782838821411 1.3805345296859741 1.6374664306640625 1.8879865407943726 2.0789761543273926 2.172783613204956 2.193248987197876 -9999
-9999 -9999 2.647824764251709 2.690460443496704 2.6931092739105225 2.5208797454833984 2.0462758541107178 0.9107237458229065 0.6698845624923706 0.5623807311058044 0.4977835416793823 0.5032430291175842 0.7517099976539612 0.949295699596405 1.1991941928863525 1.4839670658111572 1.724529504776001 1.8804219961166382 1.9478485584259033 -9999
-9999 2.6285769939422607 2.698946237564087 2.7311384677886963 2.6622509956359863 2.38177752494812 1.8077988624572754 0.6831318736076355 0.421650767326355 0.3332064151763916 0.30345192551612854 0.3292168080806732 0.4981403946876526 0.6308414340019226 0.8006740808486938 1.0354499816894531 1.2938485145568848 1.4938410520553589 1.5859649181365967 -9999
-9999 2.654454231262207 2.6919970512390137 2.6771485805511475 2.490957736968994 2.0948615074157715 1.4950003623962402 0.5545563697814941 0.31770840287208557 0.24059414863586426 0.22136518359184265 0.24059781432151794 0.33654165267944336 0.4016653001308441 0.49374547600746155 0.6394197940826416 0.8418211936950684 1.026973843574524 1.1206408739089966 -9999
-9999 2.614367961883545 2.5950772762298584 2.469733476638794 2.1674857139587402 1.7307089567184448 1.1546157598495483 0.4366118907928467 0.244226336479187 0.17914390563964844 0.15985207259655 0.16608774662017822 0.20584024488925934 0.2305367887020111 0.2691991925239563 0.3451387584209442 0.4595036804676056 0.58672696352005 0.6553259491920471 -9999
-9999 2.4216322898864746 2.3359405994415283 2.0969133377075195 1.7333317995071411 1.3256832361221313 0.8387737274169922 0.33987465500831604 0.18856629729270935 0.12963004410266876 0.10708262771368027 0.10035884380340576 0.10785644501447678 0.11035741120576859 0.12044227123260498 0.1512889266014099 0.20815406739711761 0.2748653292655945 0.3113827705383301 -9999
-9999 2.0372567176818848 1.894261360168457 1.5879175662994385 1.2551233768463135 0.9071582555770874 0.5656535625457764 0.28729766607284546 0.15226681530475616 0.09563591331243515 0.06606977432966232 0.052818458527326584 0.04538986086845398 0.04080282896757126 0.04138828441500664 0.04960337281227112 0.07652904838323593 0.10750162601470947 0.12668421864509583 -9999
-9999 1.550452470779419 1.3920972347259521 1.0760142803192139 0.7736627459526062 0.5235457420349121 0.3217036724090576 0.174880713224411 0.09052085876464844 0.056042835116386414 0.038837749511003494 0.0291808620095253 0.022756896913051605 0.018735656514763832 0.016770100221037865 0.01777079701423645 0.02291063964366913 0.034406788647174835 0.042783912271261215 -9999
-9999 1.1435163021087646 0.9786397218704224 0.6742482781410217 0.4259307384490967 0.2654992938041687 0.15915143489837646 0.08595488965511322 0.050859235227108 0.03393154218792915 0.02493741363286972 0.018958071246743202 0.014855004847049713 0.01232027355581522 0.010666616261005402 0.010386399924755096 0.011249249801039696 0.015394026413559914 -9999 -9999
-9999 0.873469889163971 0.7110533118247986 0.4411594569683075 0.24710293114185333 0.13606233894824982 0.07426970452070236 0.044356632977724075 0.030264422297477722 0.022640127688646317 0.018153555691242218 0.014661799184978008 0.012665243819355965 0.013973483815789223 0.015024516731500626 0.01574643701314926 0.016189534217119217 0.016657650470733643 -9999 -9999
-9999 0.7053346037864685 0.5353710055351257 0.3167455494403839 0.16154304146766663 0.07224007695913315 0.03965843841433525 0.025391262024641037 0.019169693812727928 0.01583871617913246 0.013773311860859394 0.014199953526258469 0.016397135332226753 0.018408367410302162 0.02017657645046711 0.021677304059267044 0.023088812828063965 0.02503529004752636 0.02928926795721054 0.031024329364299774
-9999 -9999 0.3755630552768707 0.23677195608615875 0.11581689119338989 0.04799145832657814 0.025085460394620895 0.01665457896888256 0.013395607471466064 0.012058563530445099 0.014648417010903358 0.017295721918344498 0.01991661638021469 0.02243012934923172 0.024649979546666145 0.026498649269342422 0.028120601549744606 0.0296724084764719 0.031355008482933044 0.03202975541353226
-9999 -9999 0.2510485053062439 0.17188601195812225 0.08586401492357254 0.034465640783309937 0.017621301114559174 0.011926565319299698 0.011221377179026604 0.01407347060739994 0.0169365257024765 0.019821446388959885 0.022702472284436226 0.025470785796642303 0.02784907817840576 0.029716884717345238 0.031161770224571228 0.03212343528866768 0.03259599208831787 0.03275275230407715
-9999 -9999 -9999 0.13405698537826538 0.06747796386480331 0.029003074392676353 0.014940199442207813 0.010371041484177113 0.012197960168123245 0.015228860080242157 0.018223799765110016 0.02118959091603756 0.024170944467186928 0.027032457292079926 0.029465818777680397 0.031255193054676056 0.03256131708621979 0.033055901527404785 0.03313903883099556 0.03311219438910484
