ncols         20
nrows         20
xllcorner     0
yllcorner     -3.5992928
cellsize      0.17996463
NODATA_value  -9999
-9999.0 -9999 -9999 -9999 -9999 -9999 -9999 -9999 -9999 -9999 -9999 -9999 -9999 -9999 -9999 -9999 -9999 -9999 -9999 -9999
-9999 -9999 -9999 -9999 -9999 -9999 -9999 -9999 -9999 -9999 -9999 1.1640033721923828 1.1629658937454224 -9999 -9999 1.195467472076416 1.182474970817566 -9999 -9999 -9999
-9999 -9999 -9999 -9999 1.1615972518920898 1.1696220636367798 1.1826858520507812 1.1856579780578613 1.1838316917419434 1.185570478439331 1.17451012134552 1.1817768812179565 1.1935027837753296 1.2028230428695679 1.204979419708252 1.2034499645233154 1.1927486658096313 1.1817294359207153 -9999 -9999
-9999 -9999 -9999 1.174356460571289 1.1814517974853516 1.1890387535095215 1.1969630718231201 1.1980150938034058 1.198278784751892 1.1972260475158691 1.1999280452728271 1.2072910070419312 1.2184431552886963 1.2264894247055054 1.2363015413284302 1.2358037233352661 1.223111629486084 1.2102035284042358 -9999 -9999
-9999 -9999 -9999 1.1899774074554443 1.1996546983718872 1.2164734601974487 1.2221003770828247 1.2190861701965332 1.2029474973678589 1.1736476421356201 1.142541527748108 1.1306787729263306 1.1486639976501465 1.1906660795211792 1.235014796257019 1.255517840385437 1.2554911375045776 1.2601391077041626 -9999 -9999
-9999 -9999 1.1949974298477173 1.2092511653900146 1.2260234355926514 1.2382500171661377 1.2324833869934082 1.2060400247573853 1.1454718112945557 1.0504274368286133 0.948602020740509 0.8983432054519653 0.9196838736534119 1.014229655265808 1.1341384649276733 1.2153785228729248 1.2571290731430054 1.2695221900939941 1.2568683624267578 -9999
-9999 -9999 1.2100194692611694 1.2263332605361938 1.2513397932052612 1.2552611827850342 1.2296000719070435 1.1596966981887817 1.0345687866210938 0.8685334324836731 0.7140461802482605 0.6341819763183594 0.6503949761390686 0.7657787799835205 0 1.0955041646957397 1.1997601985931396 1.2473276853561401 1.2583510875701904 -9999
-9999 -9999 1.2432003021240234 1.2623655796051025 1.2769067287445068 1.2588694095611572 1.188970685005188 1.0569262504577637 0.8751120567321777 0.6789868474006653 0.5267786383628845 0.44619545340538025 0.4506528675556183 0.5406455397605896 0.7043830752372742 0.8927954435348511 1.0502068996429443 1.154445767402649 1.1957719326019287 -9999
-9999 1.2585797309875488 1.2829627990722656 1.2942012548446655 1.2828131914138794 1.2123324871063232 1.07062828540802 0.873537003993988 0.6663879752159119 0.4918960928916931 0.3766934871673584 0.3180254399776459 0.31404292583465576 0.37138718366622925 0.4896082580089569 0 0.8331660628318787 0.9682846665382385 1.03440523147583 -9999
-9999 1.293291687965393 1.3089584112167358 1.3014254570007324 1.2359049320220947 1.082921028137207 0.8652456402778625 0.6324939131736755 0.4425909221172333 0.31749391555786133 0.24911798536777496 0.21559102833271027 0.2133743017911911 0.24355153739452362 0.3168482184410095 0 0.5834178328514099 0.717544436454773 0.7880473732948303 -9999
-9999 1.3226971626281738 1.3174856901168823 1.263418197631836 1.1282851696014404 0.9088640213012695 0.6478897333145142 0.41554829478263855 0.26404842734336853 0.18266332149505615 0.14382608234882355 0.12770690023899078 0.12696942687034607 0.14258603751659393 0.18100211024284363 0.2515793442726135 0.34857943654060364 0.45342782139778137 0.5104308128356934 -9999
-9999 1.3064854145050049 1.2736111879348755 1.1585217714309692 0.9655879139900208 0.719935417175293 0.4655252695083618 0.26768428087234497 0.154401034116745 0.0987466424703598 0.07445178180932999 0.06433504819869995 0 0 0.08469422161579132 0 0.17393383383750916 0.2372138351202011 0.2723609507083893 -9999
-9999 1.2128355503082275 1.1410163640975952 0.9638586640357971 0.7485082745552063 0.5220987796783447 0.3180355727672577 0.17046132683753967 0.08973698318004608 0.05359147489070892 0.03396764397621155 0.02696150913834572 0 0 0 0.04226824268698692 0.07008283585309982 0.103002168238163 0.12410815805196762 -9999
-9999 1.028041958808899 0.9255914688110352 0.7139634490013123 0.5052750110626221 0.33039551973342896 0.19453902542591095 0.10235751420259476 0.04942446947097778 0.028703413903713226 0.01912294514477253 0.014776348136365414 0 0 0 0.0156719870865345 0.022542644292116165 0.03651897981762886 0.04784443974494934 -9999
-9999 0.8259442448616028 0.7132432460784912 0.4958295226097107 0.3118249773979187 0.1888950765132904 0.10793779045343399 0.05484295263886452 0.030080130323767662 0.018872790038585663 0.013609781861305237 0.01076028123497963 0.009199623949825764 0.008502813056111336 0 0 0.010002922266721725 0.014469358138740063 -9999 -9999
-9999 0.6835833191871643 0.5676796436309814 0.3608209192752838 0.2042040228843689 0.11066310852766037 0.058343447744846344 0.03258301690220833 0.020535007119178772 0.014436956495046616 0 0 0 0.010011941194534302 0 0 0.012951897457242012 0 -9999 -9999
-9999 0.5856415629386902 0.4650627374649048 0.2857094407081604 0.14952272176742554 0.06814826279878616 0.0361613929271698 0.02147284522652626 0.014822116121649742 0 0 0 0 0.013267858885228634 0.01484413631260395 0.01618284359574318 0.017322493717074394 0.018596746027469635 0 0
-9999 -9999 0.3605748414993286 0.23393011093139648 0.11806561797857285 0.05078832060098648 0.025694604963064194 0.015600020997226238 0 0 0 0 0 0 0 0 0 0 0 0
-9999 -9999 0.2581678032875061 0.18324847519397736 0.09485866129398346 0.03958839550614357 0.019426194950938225 0.01176593080163002 0 0 0 0 0 0 0 0 0 0 0 0
-9999 -9999 -9999 0.15227113664150238 0.08026880025863647 0.035035356879234314 0.01704716682434082 0.010369131341576576 0 0 0 0 0 0 0 0 0 0 0 0
