ncols         20
nrows         20
xllcorner     0
yllcorner     -3.5992928
cellsize      0.17996463
NODATA_value  -9999
-9999.0 -9999 -9999 -9999 -9999 -9999 -9999 -9999 -9999 -9999 -9999 -9999 -9999 -9999 -9999 -9999 -9999 -9999 -9999 -9999
-9999 -9999 -9999 -9999 -9999 -9999 -9999 -9999 -9999 -9999 -9999 0 0 -9999 -9999 0 0 -9999 -9999 -9999
-9999 -9999 -9999 -9999 0 0 0 0 0 0 0 0 0 0 0 0 0 0 -9999 -9999
-9999 -9999 -9999 0 0 0 0 0 0 0 0 0 0 0 0 0 0 0 -9999 -9999
-9999 -9999 -9999 0 0 0 0 0 0 0 0 0 0 0 0 0 0 0 -9999 -9999
-9999 -9999 0 0 0 0 8.553391456604004 7.613757133483887 6.86140775680542 6.080047130584717 5.357994079589844 5.05549955368042 5.288057804107666 6.138168811798096 7.416759490966797 9.030133247375488 0 0 0 -9999
-9999 -9999 0 0 0 8.592570304870605 7.14314079284668 6.0241780281066895 4.936685085296631 3.8493597507476807 2.983363389968872 2.587628126144409 2.7119252681732178 3.4216346740722656 4.7202839851379395 6.655637264251709 0 0 0 -9999
-9999 -9999 0 0 9.28270149230957 7.576085090637207 6.106436729431152 4.729475021362305 3.4543042182922363 2.3925585746765137 1.70995032787323 1.3933006525039673 1.4322830438613892 1.8581889867782593 2.77608323097229 4.300088405609131 6.436048984527588 0 0 -9999
-9999 0 0 10.724071502685547 8.611063957214355 6.725811004638672 4.944161891937256 3.368128538131714 2.169469118118286 1.3921126127243042 0.9744894504547119 0.7902428507804871 0.7872605323791504 0.9992039203643799 1.499660611152649 2.447105884552002 3.9230005741119385 5.744889259338379 0 -9999
-9999 0 0 10.656270027160645 7.954897403717041 5.543722629547119 3.512981414794922 2.0327999591827393 1.154028296470642 0.7106826305389404 0.5132243633270264 0.4288700520992279 0.4281880557537079 0.5165238380432129 0.7551501989364624 1.2403289079666138 2.1197214126586914 3.3025200366973877 0 -9999
-9999 0 0 10.274201393127441 6.911860942840576 4.230825901031494 2.264134645462036 1.086055040359497 0.5417473912239075 0.31939321756362915 0.2317223846912384 0.19978496432304382 0.20022784173488617 0.23613767325878143 0.33262723684310913 0.5493426322937012 0.9641812443733215 0 0 -9999
-9999 0 0 9.043476104736328 5.464165687561035 2.9782278537750244 1.3838762044906616 0.5732280611991882 0.2547156512737274 0.13767141103744507 0.09572956711053848 0.07991066575050354 0.07897122204303741 0.08901729434728622 0.1188666969537735 0.19312065839767456 0.3526462912559509 0 0 -9999
-9999 0 0 6.789629936218262 3.711611032485962 1.840758204460144 0.7908833026885986 0.3029085695743561 0.12347981333732605 0.0633060559630394 0.03809716925024986 0.029214907437562943 0.026401188224554062 0.027841687202453613 0.03567379713058472 0.05495646223425865 0.1053192988038063 0 0 -9999
-9999 0 0 4.240124702453613 2.0490987300872803 0.9366573095321655 0.3920050263404846 0.15315385162830353 0.06097251921892166 0.030778640881180763 0.0185512937605381 0.013246403075754642 0.010827645659446716 0.010288923978805542 0.01138769369572401 0.015608665533363819 0.026413891464471817 0 0 -9999
-9999 0 0 2.3953912258148193 0.9984702467918396 0.4209417998790741 0.17696253955364227 0.07185056060552597 0.03292183578014374 0.017503272742033005 0.010798136703670025 0.007404065225273371 0.005666417069733143 0.004906974732875824 0.004690053407102823 0.005330102518200874 0.007132600527256727 0 -9999 -9999
-9999 0 0 1.4460501670837402 0.5349709987640381 0.20276103913784027 0.0829726979136467 0.03742365911602974 0.019360795617103577 0.011118454858660698 0.007158919703215361 0.0049499510787427425 0.003959532827138901 0.004395766649395227 0.004987973254173994 0.005702195223420858 0.006507592741400003 0.007225808687508106 -9999 -9999
-9999 0 0 0.9830421209335327 0.3361928462982178 0.10951437056064606 0.04515201225876808 0.02125738188624382 0.011658738367259502 0.007098257541656494 0.00478941248729825 0.004211013671010733 0.004529727157205343 0.005038036033511162 0.005692764651030302 0.006463387981057167 0.007345430087298155 0.008337512612342834 0.009505809284746647 0.010063905268907547
-9999 -9999 0 0.6955545544624329 0.23367838561534882 0.07310488820075989 0.02832646854221821 0.013241450302302837 0.0073545570485293865 0.004717532079666853 0.004580710083246231 0.004716022405773401 0.005085367243736982 0.005648706573992968 0.006348659750074148 0.007137621287256479 0.007984207011759281 0.008845748379826546 0.009607180021703243 0.009990278631448746
-9999 -9999 0 0 0.17083239555358887 0.05200245976448059 0.019243216142058372 0.008675296790897846 0.005448177922517061 0.005057559814304113 0.0049604508094489574 0.00513037946075201 0.005536500830203295 0.006133934948593378 0.006854025647044182 0.007633523549884558 0.008416778407990932 0.009118298068642616 0.009637764655053616 0.00990623515099287
-9999 -9999 -9999 0 0.13800141215324402 0.04403812810778618 0.015944093465805054 0.0070526935160160065 0.005615495145320892 0.005252329166978598 0.005174905061721802 0.00536008644849062 0.005784032866358757 0.006397700868546963 0.00712676253169775 0.007892548106610775 0.008636586368083954 0.009243168868124485 0.00966841634362936 0.009886302053928375
