ncols         20
nrows         20
xllcorner     0
yllcorner     -3.5992928
cellsize      0.17996463
NODATA_value  -9999
-9999.0 -9999 -9999 -9999 -9999 -9999 -9999 -9999 -9999 -9999 -9999 -9999 -9999 -9999 -9999 -9999 -9999 -9999 -9999 -9999
-9999 -9999 -9999 -9999 -9999 -9999 -9999 -9999 -9999 -9999 -9999 27.39824104309082 27.398900985717773 -9999 -9999 27.417268753051758 27.48069953918457 -9999 -9999 -9999
-9999 -9999 -9999 -9999 27.42315673828125 27.33832359313965 27.209896087646484 27.117446899414062 27.076784133911133 27.082033157348633 27.167970657348633 27.24341583251953 27.216047286987305 27.13257598876953 27.16351890563965 27.28386688232422 27.368427276611328 27.389493942260742 -9999 -9999
-9999 -9999 -9999 27.445369720458984 27.404571533203125 27.338912963867188 27.256366729736328 27.200660705566406 27.182048797607422 27.192129135131836 27.21371078491211 27.217010498046875 27.167421340942383 27.10503387451172 27.08354377746582 27.125417709350586 27.163055419921875 27.16847801208496 -9999 -9999
-9999 -9999 -9999 27.424293518066406 27.409650802612305 27.392240524291992 27.40742301940918 27.45677947998047 27.521480560302734 27.5811767578125 27.619657516479492 27.617023468017578 27.548524856567383 27.43070411682129 27.283227920532227 27.141918182373047 26.997539520263672 26.87453269958496 -9999 -9999
-9999 -9999 27.423442840576172 27.416866302490234 27.449304580688477 27.560184478759766 27.780614852905273 27.996532440185547 28.199790954589844 28.38303565979004 28.50835418701172 28.5457763671875 28.465824127197266 28.267650604248047 27.958271026611328 27.575000762939453 27.136545181274414 26.809030532836914 26.64724349975586 -9999
-9999 -9999 27.33844566345215 27.39972496032715 27.533401489257812 27.811492919921875 28.187524795532227 28.584110260009766 28.969680786132812 29.299938201904297 29.511518478393555 29.580427169799805 29.504838943481445 29.26709747314453 28.835865020751953 28.291959762573242 27.658950805664062 27.158048629760742 26.891782760620117 -9999
-9999 -9999 27.121442794799805 27.303131103515625 27.61060333251953 28.05561065673828 28.601123809814453 29.186979293823242 29.737640380859375 30.1683406829834 30.427268981933594 30.51093864440918 30.447011947631836 30.226470947265625 29.808622360229492 29.21754264831543 28.529483795166016 27.89815902709961 27.52964210510254 -9999
-9999 26.48914337158203 26.771385192871094 27.185914993286133 27.684280395507812 28.33184814453125 29.077695846557617 29.819311141967773 30.451919555664062 30.906513214111328 31.172321319580078 31.263591766357422 31.209369659423828 31.018674850463867 30.661771774291992 30.135297775268555 29.53445816040039 28.9395751953125 28.537324905395508 -9999
-9999 26.22396469116211 26.512794494628906 27.107433319091797 27.866647720336914 28.749814987182617 29.658037185668945 30.46044158935547 31.0753116607666 31.4937686920166 31.7409725189209 31.83084487915039 31.787092208862305 31.629241943359375 31.353540420532227 30.952247619628906 30.4970760345459 30.020729064941406 29.683216094970703 -9999
-9999 25.968429565429688 26.374534606933594 27.22928810119629 28.251535415649414 29.316810607910156 30.289920806884766 31.060035705566406 31.610132217407227 31.979679107666016 32.198726654052734 32.27602767944336 32.2310791015625 32.10610580444336 31.910423278808594 31.633596420288086 31.312692642211914 30.972278594970703 30.73859405517578 -9999
-9999 26.010881423950195 26.574478149414062 27.645862579345703 28.839452743530273 29.970130920410156 30.912418365478516 31.614248275756836 32.11722183227539 32.46782684326172 32.67864227294922 32.745201110839844 32.68552017211914 32.585838317871094 32.45374298095703 32.24507141113281 32.011207580566406 31.76345443725586 31.59355354309082 -9999
-9999 26.549606323242188 27.205020904541016 28.375083923339844 29.593910217285156 30.664119720458984 31.511564254760742 32.15140914916992 32.6463508605957 33.01506423950195 33.26231384277344 33.36170959472656 33.342044830322266 33.28794860839844 33.192256927490234 33.033775329589844 32.781494140625 32.51068878173828 32.294429779052734 -9999
-9999 27.482507705688477 28.155616760253906 29.29071617126465 30.412607192993164 31.35257911682129 32.09720993041992 32.69861602783203 33.205047607421875 33.58781433105469 33.86299133300781 34.035457611083984 34.12104034423828 34.167137145996094 34.15165710449219 34.03791809082031 33.785255432128906 33.415958404541016 32.884239196777344 -9999
-9999 28.513254165649414 29.155288696289062 30.184520721435547 31.175884246826172 32.00625228881836 32.688541412353516 33.26987075805664 33.73937225341797 34.11418151855469 34.411136627197266 34.66560745239258 34.883087158203125 35.058837890625 35.156410217285156 35.14607238769531 35.0168342590332 34.78922653198242 -9999 -9999
-9999 29.367942810058594 30.003700256347656 30.930484771728516 31.825748443603516 32.61259078979492 33.28199005126953 33.821678161621094 34.248287200927734 34.589839935302734 34.88087844848633 35.18598556518555 35.50238037109375 35.79829406738281 36.0111083984375 36.13871383666992 36.19436264038086 36.25574493408203 -9999 -9999
-9999 29.91400146484375 30.70199203491211 31.53420066833496 32.36642837524414 33.16363525390625 33.82395553588867 34.35279083251953 34.75031280517578 35.06303024291992 35.35728454589844 35.6845703125 36.04130554199219 36.388248443603516 36.67000961303711 36.87721633911133 37.03412628173828 37.21733856201172 37.59212112426758 37.75221252441406
-9999 -9999 31.512834548950195 32.07469177246094 32.81170654296875 33.60219955444336 34.29407501220703 34.840980529785156 35.23128890991211 35.538822174072266 35.82355499267578 36.1431884765625 36.496299743652344 36.855316162109375 37.152374267578125 37.371177673339844 37.54122543334961 37.682647705078125 37.82199478149414 37.866615295410156
-9999 -9999 31.95549964904785 32.481571197509766 33.153133392333984 33.941986083984375 34.67470932006836 35.256473541259766 35.657493591308594 35.952938079833984 36.209632873535156 36.50819396972656 36.84846878051758 37.196022033691406 37.47978973388672 37.68524169921875 37.835289001464844 37.921913146972656 37.94583511352539 37.94881820678711
-9999 -9999 -9999 32.84326934814453 33.38262176513672 34.13169860839844 34.881370544433594 35.480140686035156 35.88249969482422 36.167476654052734 36.4124641418457 36.688255310058594 37.01910400390625 37.36061477661133 37.64396286010742 37.83634948730469 37.97871398925781 38.01602554321289 38.01108932495117 38.002864837646484
