ncols         20
nrows         20
xllcorner     0
yllcorner     -3.5992928
cellsize      0.17996463
NODATA_value  -9999
-9999.0 -9999 -9999 -9999 -9999 -9999 -9999 -9999 -9999 -9999 -9999 -9999 -9999 -9999 -9999 -9999 -9999 -9999 -9999 -9999
-9999 -9999 -9999 -9999 -9999 -9999 -9999 -9999 -9999 -9999 -9999 0.017845632508397102 0.017845656722784042 -9999 -9999 0.017910730093717575 0.017916373908519745 -9999 -9999 -9999
-9999 -9999 -9999 -9999 0.018019793555140495 0.017980633303523064 0.01792188175022602 0.01784941367805004 0.017776641994714737 0.017718825489282608 0.017690451815724373 0.0375153087079525 0.03751462697982788 0.017684614285826683 0.01770561747252941 0.037644773721694946 0.037679385393857956 0.017777008935809135 -9999 -9999
-9999 -9999 -9999 0.01793205924332142 0.03795019909739494 0.07891198247671127 0.07863148301839828 0.07825906574726105 0.07787857204675674 0.07756925374269485 0.07739333063364029 0.09317938983440399 0.09318643808364868 0.07738374173641205 0.07748575508594513 0.09352882951498032 0.07779302448034286 0.017633747309446335 -9999 -9999
-9999 -9999 -9999 0.01780529133975506 0.07849058508872986 0.11334013193845749 0.11284326761960983 0.1121802031993866 0.11151092499494553 0.11097290366888046 0.11066456139087677 0.11062514781951904 0.11067450791597366 0.11075039207935333 0.11093300580978394 0.11116005480289459 0.07689032703638077 0.01738893799483776 -9999 -9999
-9999 -9999 0.017560210078954697 0.03725038096308708 0.09352395683526993 0.11209321022033691 0.11141975969076157 0.11053566634654999 0.10967225581407547 0.1090025082230568 0.10862809419631958 0.10856007039546967 0.10870153456926346 0.10893779247999191 0.10919591039419174 0.10937421023845673 0.09092697501182556 0.03603502735495567 0.016907205805182457 -9999
-9999 -9999 0.01739489659667015 0.07667205482721329 0.1108432412147522 0.11033064126968384 0.10933898389339447 0.10805895924568176 0.10689082741737366 0.10603754222393036 0.10560590028762817 0.10559937357902527 0.10591800510883331 0.10635402053594589 0.1067613735795021 0.10702098160982132 0.10698197036981583 0.07368286699056625 0.016683999449014664 -9999
-9999 -9999 0.01713506318628788 0.0755976065993309 0.10902293026447296 0.10817655920982361 0.10675812512636185 0.10489154607057571 0.10343989729881287 0.10245782136917114 0.10197266191244125 0.10199319571256638 0.10251414030790329 0.10319089889526367 0.10379850119352341 0.1042458713054657 0.10447443276643753 0.07221285998821259 0.016356350854039192 -9999
-9999 0.016718856990337372 0.0355292484164238 0.08929546177387238 0.10687921941280365 0.1057688295841217 0.1040087640285492 0.10184106975793839 0.10018537938594818 0.09907668083906174 0.09851199388504028 0.0984840989112854 0.09896592050790787 0.09972366690635681 0.10047304630279541 0.10108403861522675 0.1014915332198143 0.0702894851565361 0.01593809761106968 -9999
-9999 0.01653342880308628 0.07280253618955612 0.10523831099271774 0.10459934920072556 0.10323703289031982 0.10122235119342804 0.09893174469470978 0.09716428816318512 0.09595949947834015 0.09530679881572723 0.09518656879663467 0.09555736184120178 0.09621545672416687 0.09698794037103653 0.09768183529376984 0.0982050895690918 0.0681072473526001 0.015461157076060772 -9999
-9999 0.016276998445391655 0.07162373512983322 0.10316421091556549 0.10223078727722168 0.10065197944641113 0.09847638010978699 0.09618327766656876 0.0943823754787445 0.09311830252408981 0.09238193929195404 0.09214919805526733 0.09237553179264069 0.0928848534822464 0.09354953467845917 0.09423679113388062 0.09482020884752274 0.06584357470273972 0.014964304864406586 -9999
-9999 0.015963884070515633 0.07016047090291977 0.10085643082857132 0.09975647181272507 0.0980539470911026 0.09584435075521469 0.09363313764333725 0.09185704588890076 0.09056451171636581 0.08975248783826828 0.08939740806818008 0.08945728838443756 0.08978991955518723 0.09029731154441833 0.09092038124799728 0.09156499058008194 0.06370612233877182 0.014493635855615139 -9999
-9999 0.015617767348885536 0.06855572015047073 0.09841664880514145 0.09722255915403366 0.09548395872116089 0.09336783736944199 0.09130678325891495 0.08959399163722992 0.08829475194215775 0.08741544932126999 0.08693435788154602 0.08680463582277298 0.08693886548280716 0.08727416396141052 0.08779759705066681 0.08859466016292572 0.061946745961904526 0.014097546227276325 -9999
-9999 0.01526480633765459 0.06692790985107422 0.09595490992069244 0.09469422698020935 0.09296947717666626 0.09099779278039932 0.08911138027906418 0.08749600499868393 0.08622116595506668 0.08529700338840485 0.0847017914056778 0.08439697325229645 0.08432772755622864 0.08445174247026443 0.08475516736507416 0.07072802633047104 0.028717562556266785 0.013804138638079166 -9999
-9999 0.014935550279915333 0.06540638208389282 0.09358737617731094 0.09224189072847366 0.09056266397237778 0.08875099569559097 0.087046317756176 0.08555594831705093 0.0843280702829361 0.08337932080030441 0.08269207179546356 0.0822363868355751 0.08197354525327682 0.08186772465705872 0.08189010620117188 0.056670062243938446 0.012875733897089958 -9999 -9999
-9999 0.014661365188658237 0.06379460543394089 0.09143522381782532 0.08994229137897491 0.08833248913288116 0.08669674396514893 0.0851704478263855 0.08380459249019623 0.08263624459505081 0.08168230950832367 0.0809285044670105 0.0803515836596489 0.07992059737443924 0.07960294932126999 0.07937071472406387 0.05436086654663086 0.012310081161558628 -9999 -9999
-9999 0.014465538784861565 0.03011680766940117 0.07388376444578171 0.08774781227111816 0.08632449805736542 0.08490101248025894 0.08354179561138153 0.08229315280914307 0.08118810504674911 0.08024294674396515 0.07944636046886444 0.07877910137176514 0.07821293920278549 0.07771031558513641 0.07722049206495285 0.06342118233442307 0.024904552847146988 0.011448509991168976 0.01132244523614645
-9999 -9999 0.01382359303534031 0.05994408205151558 0.08591505885124207 0.08466741442680359 0.08343487977981567 0.08222605288028717 0.08108125627040863 0.08003591746091843 0.07910759001970291 0.07828754186630249 0.07755978405475616 0.07689779251813889 0.07626243680715561 0.07558530569076538 0.07472292333841324 0.061152879148721695 0.05008557811379433 0.04975631833076477
-9999 -9999 0.013433116488158703 0.028394076973199844 0.06989964842796326 0.08337473124265671 0.0823635458946228 0.08128878474235535 0.08022856712341309 0.07923199236392975 0.07832147181034088 0.07749117165803909 0.07672875374555588 0.07601287961006165 0.0753137618303299 0.07458813488483429 0.07378552109003067 0.07290506362915039 0.07220690697431564 0.07184860855340958
-9999 -9999 -9999 0.013031428679823875 0.05732015520334244 0.08266229182481766 0.08179706335067749 0.08080379664897919 0.0797923132777214 0.07882318645715714 0.07792223989963531 0.07708843052387238 0.07631068676710129 0.07557191699743271 0.07484981417655945 0.07411962002515793 0.073368139564991 0.07263965904712677 0.07206731289625168 0.07176032662391663
