ncols         20
nrows         20
xllcorner     0
yllcorner     -3.5992928
cellsize      0.17996463
NODATA_value  -9999
-9999.0 -9999 -9999 -9999 -9999 -9999 -9999 -9999 -9999 -9999 -9999 -9999 -9999 -9999 -9999 -9999 -9999 -9999 -9999 -9999
-9999 -9999 -9999 -9999 -9999 -9999 -9999 -9999 -9999 -9999 -9999 19.037416458129883 19.047840118408203 -9999 -9999 19.019390106201172 19.023969650268555 -9999 -9999 -9999
-9999 -9999 -9999 -9999 19.00688362121582 19.01641273498535 19.017236709594727 19.026582717895508 19.035871505737305 19.025297164916992 19.064716339111328 19.051855087280273 19.05008888244629 19.081941604614258 19.0936279296875 19.067537307739258 19.058748245239258 19.07404136657715 -9999 -9999
-9999 -9999 -9999 19.02634620666504 19.006439208984375 19.004844665527344 18.997745513916016 18.991758346557617 18.971532821655273 18.952316284179688 18.9274845123291 18.930953979492188 18.949684143066406 19.002893447875977 19.04124641418457 19.072111129760742 19.102439880371094 19.134119033813477 -9999 -9999
-9999 -9999 -9999 19.04859733581543 19.027557373046875 18.97783851623535 18.927227020263672 18.866182327270508 18.79682731628418 18.705970764160156 18.622764587402344 18.5941104888916 18.632080078125 18.742414474487305 18.863624572753906 18.996938705444336 19.114334106445312 19.15941619873047 -9999 -9999
-9999 -9999 19.13744354248047 19.083608627319336 19.022926330566406 18.934558868408203 18.891281127929688 18.762008666992188 18.60243797302246 18.43041229248047 18.27477264404297 18.21277618408203 18.249645233154297 18.402578353881836 18.622089385986328 18.859670639038086 19.008424758911133 19.153499603271484 19.283092498779297 -9999
-9999 -9999 19.18729019165039 19.12523078918457 19.00851821899414 18.92470359802246 18.751171112060547 18.554948806762695 18.335018157958984 18.112655639648438 17.92342758178711 17.83005142211914 17.85918426513672 18.012121200561523 18.23433494567871 18.539709091186523 18.768850326538086 19.007137298583984 19.139631271362305 -9999
-9999 -9999 19.26948356628418 19.14767837524414 19.033063888549805 18.819931030273438 18.577648162841797 18.328022003173828 18.08519744873047 17.860366821289062 17.692792892456055 17.601173400878906 17.613218307495117 17.730899810791016 17.93351936340332 18.204177856445312 18.49656105041504 18.706331253051758 18.85918426513672 -9999
-9999 19.585763931274414 19.38348960876465 19.23501205444336 18.95431137084961 18.65337562561035 18.357786178588867 18.075326919555664 17.835004806518555 17.648853302001953 17.52837371826172 17.4658145904541 17.464303970336914 17.537046432495117 17.676841735839844 17.870580673217773 18.142942428588867 18.3861026763916 18.486343383789062 -9999
-9999 19.62458038330078 19.471643447875977 19.20588493347168 18.82041358947754 18.448068618774414 18.105783462524414 17.81689453125 17.603561401367188 17.46727180480957 17.395404815673828 17.361167907714844 17.360151290893555 17.39771270751953 17.4835262298584 17.607833862304688 17.820690155029297 18.01205062866211 18.097761154174805 -9999
-9999 19.636051177978516 19.4786319732666 19.111101150512695 18.650678634643555 18.23307991027832 17.876325607299805 17.603534698486328 17.427751541137695 17.33255958557129 17.287612915039062 17.26742935180664 17.261653900146484 17.280746459960938 17.333589553833008 17.42132568359375 17.55510902404785 17.674551010131836 17.756088256835938 -9999
-9999 19.562639236450195 19.33841323852539 18.901325225830078 18.415420532226562 18.008386611938477 17.684810638427734 17.45535659790039 17.32331085205078 17.261241912841797 17.229278564453125 17.2071475982666 17.164548873901367 17.167762756347656 17.219120025634766 17.2489070892334 17.351346969604492 17.434938430786133 17.4950008392334 -9999
-9999 19.33380889892578 19.004133224487305 18.569377899169922 18.126380920410156 17.78081703186035 17.523761749267578 17.355422973632812 17.271991729736328 17.238025665283203 17.221981048583984 17.20439910888672 17.16254425048828 17.157251358032227 17.166263580322266 17.20965576171875 17.241025924682617 17.282135009765625 17.3319091796875 -9999
-9999 18.868419647216797 18.573101043701172 18.202308654785156 17.838741302490234 17.574148178100586 17.394716262817383 17.289875030517578 17.24746322631836 17.235551834106445 17.232093811035156 17.22710609436035 17.2062931060791 17.21029281616211 17.223018646240234 17.246477127075195 17.242225646972656 17.216299057006836 17.298070907592773 -9999
-9999 18.44499969482422 18.201751708984375 17.90422821044922 17.621335983276367 17.430072784423828 17.315942764282227 17.2596435546875 17.240650177001953 17.238737106323242 17.23735237121582 17.24571418762207 17.25861167907715 17.275711059570312 17.28740119934082 17.298828125 17.311555862426758 17.228487014770508 -9999 -9999
-9999 18.15129852294922 17.94399642944336 17.708463668823242 17.489370346069336 17.355453491210938 17.28322982788086 17.254343032836914 17.24081039428711 17.234291076660156 17.216970443725586 17.230249404907227 17.259170532226562 17.30372428894043 17.324132919311523 17.350688934326172 17.371524810791016 17.438777923583984 -9999 -9999
-9999 17.995824813842773 17.772533416748047 17.583602905273438 17.41530990600586 17.32670021057129 17.28049659729004 17.265518188476562 17.25186538696289 17.23294448852539 17.232690811157227 17.250579833984375 17.28251075744629 17.32213592529297 17.353124618530273 17.381925582885742 17.404987335205078 17.428436279296875 17.397062301635742 17.424514770507812
-9999 -9999 17.586599349975586 17.48589324951172 17.372037887573242 17.311481475830078 17.289871215820312 17.281898498535156 17.261003494262695 17.258447647094727 17.26211929321289 17.27889060974121 17.302350997924805 17.340404510498047 17.369901657104492 17.389795303344727 17.413375854492188 17.42943000793457 17.443923950195312 17.4226016998291
-9999 -9999 17.527881622314453 17.422611236572266 17.347963333129883 17.315996170043945 17.3126163482666 17.31488037109375 17.30336570739746 17.301376342773438 17.294776916503906 17.31060218811035 17.33371925354004 17.36607551574707 17.38582992553711 17.40011978149414 17.415786743164062 17.429561614990234 17.410381317138672 17.404170989990234
-9999 -9999 -9999 17.36313819885254 17.329118728637695 17.312206268310547 17.320674896240234 17.327102661132812 17.31545639038086 17.31111717224121 17.309154510498047 17.314496994018555 17.338512420654297 17.369224548339844 17.393892288208008 17.398595809936523 17.42354965209961 17.409225463867188 17.40110206604004 17.39821434020996
