ncols         20
nrows         20
xllcorner     0
yllcorner     -3.5992928
cellsize      0.17996463
NODATA_value  -9999
-9999.0 -9999 -9999 -9999 -9999 -9999 -9999 -9999 -9999 -9999 -9999 -9999 -9999 -9999 -9999 -9999 -9999 -9999 -9999 -9999
-9999 -9999 -9999 -9999 -9999 -9999 -9999 -9999 -9999 -9999 -9999 13.350728988647461 13.361763954162598 -9999 -9999 13.27624225616455 13.36099624633789 -9999 -9999 -9999
-9999 -9999 -9999 -9999 13.307585716247559 13.235987663269043 13.120826721191406 13.069039344787598 13.062679290771484 13.063481330871582 13.17487907409668 13.191242218017578 13.145105361938477 13.10349178314209 13.143775939941406 13.21318531036377 13.310851097106934 13.392279624938965 -9999 -9999
-9999 -9999 -9999 13.29195785522461 13.228843688964844 13.151464462280273 13.070748329162598 13.037957191467285 13.013455390930176 12.993118286132812 12.966602325439453 12.929203987121582 12.878802299499512 12.87553882598877 12.90139102935791 12.98998737335205 13.120010375976562 13.212188720703125 -9999 -9999
-9999 -9999 -9999 13.239418983459473 13.162590980529785 13.048527717590332 13.0043306350708 13.031267166137695 13.06062126159668 13.066354751586914 13.052770614624023 13.01119613647461 12.924304008483887 12.83211898803711 12.7571382522583 12.781377792358398 12.875795364379883 12.881141662597656 -9999 -9999
-9999 -9999 13.303877830505371 13.189465522766113 13.07004165649414 13.01132869720459 13.124937057495117 13.369100570678711 13.544670104980469 13.692138671875 13.804998397827148 13.805999755859375 13.634700775146484 13.348562240600586 13.050346374511719 12.859125137329102 12.79958724975586 12.783407211303711 12.885518074035645 -9999
-9999 -9999 13.222050666809082 13.107434272766113 12.96865463256836 13.04821491241455 13.503175735473633 14.25068473815918 14.631007194519043 14.897836685180664 15.09182071685791 15.07885456085205 14.718314170837402 14.252002716064453 13.751022338867188 13.31334114074707 13.029319763183594 12.90504264831543 12.886957168579102 -9999
-9999 -9999 13.002103805541992 12.865904808044434 12.801785469055176 13.152536392211914 14.146283149719238 15.968992233276367 16.445056915283203 16.62652587890625 16.72988510131836 16.618566513061523 15.789722442626953 15.18239688873291 14.615153312683105 14.064652442932129 13.616959571838379 13.325277328491211 13.198341369628906 -9999
-9999 12.896799087524414 12.72400188446045 12.569870948791504 12.648703575134277 13.259562492370605 14.516131401062012 16.440330505371094 16.97606086730957 17.15001106262207 17.218355178833008 17.104530334472656 16.415830612182617 15.908509254455566 15.440670013427734 14.937284469604492 14.44339370727539 14.068955421447754 13.88671875 -9999
-9999 12.647133827209473 12.487056732177734 12.385676383972168 12.703362464904785 13.584208488464355 14.949381828308105 16.708126068115234 17.223133087158203 17.379615783691406 17.425439834594727 17.33461570739746 16.814157485961914 16.446428298950195 16.11646270751953 15.750035285949707 15.33967113494873 14.990089416503906 14.80979061126709 -9999
-9999 12.392969131469727 12.34394645690918 12.478347778320312 13.076665878295898 14.103976249694824 15.453876495361328 16.981550216674805 17.430789947509766 17.559154510498047 17.59520149230957 17.52703094482422 17.112457275390625 16.84174346923828 16.626087188720703 16.391155242919922 16.12636947631836 15.878257751464844 15.747527122497559 -9999
-9999 12.403242111206055 12.523703575134277 12.946681022644043 13.727391242980957 14.741018295288086 15.922163009643555 17.158447265625 17.53305435180664 17.645479202270508 17.680713653564453 17.637563705444336 17.304122924804688 17.113998413085938 16.981735229492188 16.84061622619629 16.680418014526367 16.53919792175293 16.474939346313477 -9999
-9999 12.890135765075684 13.170275688171387 13.795391082763672 14.583255767822266 15.432018280029297 16.267345428466797 16.97595977783203 17.31260871887207 17.448163986206055 17.496356964111328 17.477102279663086 17.37102508544922 17.291210174560547 17.221355438232422 17.139310836791992 17.02676010131836 16.93560791015625 16.919483184814453 -9999
-9999 13.779891967773438 14.129376411437988 14.798562049865723 15.493597030639648 16.107913970947266 16.62825584411621 17.02850914001465 17.265064239501953 17.376548767089844 17.423450469970703 17.432634353637695 17.419231414794922 17.40872573852539 17.40003776550293 17.36332130432129 17.2841796875 17.175830841064453 17.193622589111328 -9999
-9999 14.667919158935547 15.015545845031738 15.638916969299316 16.20354461669922 16.618980407714844 16.92479705810547 17.150102615356445 17.28771209716797 17.3660945892334 17.406112670898438 17.432180404663086 17.45448112487793 17.47995376586914 17.512393951416016 17.521739959716797 17.492473602294922 17.37724494934082 -9999 -9999
-9999 15.29260540008545 15.631689071655273 16.175983428955078 16.6258602142334 16.931228637695312 17.125158309936523 17.25177001953125 17.326900482177734 17.37484359741211 17.403852462768555 17.433792114257812 17.470125198364258 17.51213836669922 17.557727813720703 17.598735809326172 17.62805938720703 17.69367790222168 -9999 -9999
-9999 15.668033599853516 16.059329986572266 16.50115966796875 16.863466262817383 17.119516372680664 17.255891799926758 17.337862014770508 17.380796432495117 17.40842056274414 17.42811393737793 17.453914642333984 17.48858642578125 17.527738571166992 17.572948455810547 17.617774963378906 17.655414581298828 17.684043884277344 17.636613845825195 17.647981643676758
-9999 -9999 16.472867965698242 16.734548568725586 17.01112174987793 17.224876403808594 17.346885681152344 17.41208267211914 17.44120216369629 17.456398010253906 17.464086532592773 17.4818172454834 17.50822639465332 17.548755645751953 17.585681915283203 17.61583709716797 17.64777183532715 17.666744232177734 17.663101196289062 17.639820098876953
-9999 -9999 16.74279022216797 16.915828704833984 17.118682861328125 17.30608558654785 17.4252872467041 17.487720489501953 17.510967254638672 17.511825561523438 17.502456665039062 17.51324462890625 17.536102294921875 17.56960105895996 17.59311866760254 17.610151290893555 17.630380630493164 17.639652252197266 17.616548538208008 17.602575302124023
-9999 -9999 -9999 17.029266357421875 17.177175521850586 17.340930938720703 17.460203170776367 17.520631790161133 17.53618812561035 17.529277801513672 17.518442153930664 17.51866912841797 17.539838790893555 17.57034683227539 17.59372329711914 17.600231170654297 17.621929168701172 17.606443405151367 17.589529037475586 17.581392288208008
