ncols         20
nrows         20
xllcorner     0
yllcorner     -3.5992928
cellsize      0.17996463
NODATA_value  -9999
-9999.0 -9999 -9999 -9999 -9999 -9999 -9999 -9999 -9999 -9999 -9999 -9999 -9999 -9999 -9999 -9999 -9999 -9999 -9999 -9999
-9999 -9999 -9999 -9999 -9999 -9999 -9999 -9999 -9999 -9999 -9999 1.2648149728775024 1.2622169256210327 -9999 -9999 1.3225340843200684 1.2922828197479248 -9999 -9999 -9999
-9999 -9999 -9999 -9999 1.2585681676864624 1.2795149087905884 1.3133037090301514 1.3242859840393066 1.3228157758712769 1.3270964622497559 1.300254464149475 1.3120712041854858 1.3373823165893555 1.3590795993804932 1.3588982820510864 1.3470040559768677 1.318389892578125 1.2922760248184204 -9999 -9999
-9999 -9999 -9999 1.2828339338302612 1.3020259141921997 1.3242186307907104 1.347947597503662 1.3549038171768188 1.3582698106765747 1.3565833568572998 1.3636106252670288 1.3810011148452759 1.4073431491851807 1.4262622594833374 1.4419724941253662 1.4312288761138916 1.3942251205444336 1.361023187637329 -9999 -9999
-9999 -9999 -9999 1.3173387050628662 1.3440583944320679 1.389925241470337 1.410323977470398 1.406861662864685 1.3860856294631958 1.3427003622055054 1.2900997400283813 1.2697083950042725 1.3033548593521118 1.3803914785385132 1.4581117630004883 1.4940662384033203 1.4817893505096436 1.4868589639663696 -9999 -9999
-9999 -9999 1.322180986404419 1.3597218990325928 1.406626582145691 1.445705533027649 1.4408854246139526 1.401671290397644 1.302954077720642 1.1334315538406372 0.9511944055557251 0.8632545471191406 0.8961543440818787 1.059887170791626 1.2800061702728271 1.4268591403961182 1.4997575283050537 1.5222333669662476 1.4900879859924316 -9999
-9999 -9999 1.3572498559951782 1.4010201692581177 1.4709138870239258 1.493791937828064 1.4547022581100464 1.3387404680252075 1.11505126953125 0.8269731998443604 0.5846301913261414 0.47101134061813354 0.489351361989975 0.6511897444725037 0 1.2083654403686523 1.4001942873001099 1.4827001094818115 1.4998054504394531 -9999
-9999 -9999 1.436334490776062 1.490753412246704 1.541043758392334 1.5149716138839722 1.3966861963272095 1.1573649644851685 0.8412894606590271 0.5400580167770386 0.34401094913482666 0.2540176212787628 0.25588247179985046 0.3509454131126404 0.5593250393867493 0.8478777408599854 1.120405912399292 1.3138797283172607 1.3902801275253296 -9999
-9999 1.4680521488189697 1.5341356992721558 1.5766527652740479 1.5654934644699097 1.4367468357086182 1.1722968816757202 0.8273584246635437 0.5153174996376038 0.3014605641365051 0.18784615397453308 0.13813050091266632 0.1331668496131897 0.17738834023475647 0.2886608839035034 0 0.7451962828636169 0.9716559648513794 1.0904244184494019 -9999
-9999 1.5561606884002686 1.606156349182129 1.6095046997070312 1.476961374282837 1.1804205179214478 0.7964903712272644 0.4548718333244324 0.23953446745872498 0.13240917026996613 0.0863637626171112 0.06655249744653702 0.06449805200099945 0.08037211745977402 0.1278882771730423 0 0.38780009746551514 0.5663816332817078 0.671573281288147 -9999
-9999 1.6382899284362793 1.638037919998169 1.5260521173477173 1.2588495016098022 0.8585151433944702 0.46422308683395386 0.20487581193447113 0.08894503116607666 0.04554498940706253 0.029740139842033386 0.024007342755794525 0.023475281894207 0.028475452214479446 0.04350334778428078 0.0797107145190239 0.1465107500553131 0.24057191610336304 0.3003697395324707 -9999
-9999 1.6125569343566895 1.5406447649002075 1.3096081018447876 0.9486908316612244 0.5567700266838074 0.2480182945728302 0.08777768909931183 0.031252145767211914 0.013599174097180367 0.008101374842226505 0.006164738442748785 0 0 0.009773208759725094 0 0.03820614144206047 0.06955532729625702 0.09078485518693924 -9999
-9999 1.4081542491912842 1.2683565616607666 0.9347124695777893 0.5896129012107849 0.30272942781448364 0.11915487796068192 0.03638751432299614 0.010726196691393852 0.004043676890432835 0.0017087319865822792 0.0010911718709394336 0 0 0 0.0024045982863754034 0.0064004831947386265 0.013662474229931831 0.019794436171650887 -9999
-9999 1.0496779680252075 0.8659059405326843 0.5323130488395691 0.27861258387565613 0.12514972686767578 0.04567216336727142 0.01334166619926691 0.003312310902401805 0.0011641967575997114 0.0005261811893433332 0.00031080967164598405 0 0 0 0.0003184150264132768 0.0006605424568988383 0.0017555640079081059 0.003090346697717905 -9999
-9999 0.7042578458786011 0.5339514017105103 0.2662935256958008 0.10963477939367294 0.04198165982961655 0.014327817596495152 0.003897183109074831 0.001216186792589724 0.00048344337847083807 0.00024636092712171376 0.0001478776684962213 0.00010288332123309374 8.391377923544496E-05 0 0 0.00011226974311284721 0.00023931027681101114 -9999 -9999
-9999 0.49804258346557617 0.3491394817829132 0.1451059728860855 0.04808681085705757 0.014654765836894512 0.004251591395586729 0.0013649278553202748 0.0005449769087135792 0.0002628309594001621 0 0 0 0.00010514795576455072 0 0 0.00016901582421269268 0 -9999 -9999
-9999 0.372728168964386 0.2398787885904312 0.09271365404129028 0.026089925318956375 0.0056188651360571384 0.0016210544854402542 0.0005731985438615084 0.0002663023769855499 0 0 0 0 0.00017392223526258022 0.0002143901219824329 0.00025163113605231047 0.000284791283775121 0.0003225910768378526 0 0
-9999 -9999 0.14775671064853668 0.06299056112766266 0.016337411478161812 0.00310040102340281 0.0007993224426172674 0.00028842699248343706 0 0 0 0 0 0 0 0 0 0 0 0
-9999 -9999 0.07660288363695145 0.038958605378866196 0.010565000586211681 0.0018649229314178228 0.00044551133760251105 0.0001570771710248664 0 0 0 0 0 0 0 0 0 0 0 0
-9999 -9999 -9999 0.0270992498844862 0.007605432067066431 0.001453464850783348 0.0003377245448064059 0.0001190831171697937 0 0 0 0 0 0 0 0 0 0 0 0
