ncols         20
nrows         20
xllcorner     0
yllcorner     -3.5992928
cellsize      0.17996463
NODATA_value  -9999
-9999.0 -9999 -9999 -9999 -9999 -9999 -9999 -9999 -9999 -9999 -9999 -9999 -9999 -9999 -9999 -9999 -9999 -9999 -9999 -9999
-9999 -9999 -9999 -9999 -9999 -9999 -9999 -9999 -9999 -9999 -9999 3.0293335914611816 3.040806293487549 -9999 -9999 3.2605490684509277 3.267770528793335 -9999 -9999 -9999
-9999 -9999 -9999 -9999 3.287243604660034 3.2321841716766357 3.1499156951904297 3.053819417953491 2.9654719829559326 2.9047069549560547 2.8838348388671875 2.9261903762817383 2.964770793914795 3.006369113922119 3.0782856941223145 3.1680421829223633 3.2067697048187256 3.2133266925811768 -9999 -9999
-9999 -9999 -9999 3.328443765640259 3.268263578414917 3.1678216457366943 3.0466299057006836 2.917415142059326 2.806180477142334 2.7313194274902344 2.7032370567321777 2.7246274948120117 2.779876232147217 2.8585259914398193 2.951857805252075 3.041691303253174 3.1086390018463135 3.1501922607421875 -9999 -9999
-9999 -9999 -9999 3.307265281677246 3.2052066326141357 3.04683256149292 2.8548583984375 2.6581618785858154 2.500972270965576 2.400815010070801 2.3626301288604736 2.3874218463897705 2.4679336547851562 2.5856564044952393 2.7204577922821045 2.848534345626831 2.95432186126709 3.023499011993408 -9999 -9999
-9999 -9999 3.376063823699951 3.287583351135254 3.116633176803589 2.8704020977020264 2.566772222518921 2.2594451904296875 2.0434322357177734 1.9208375215530396 1.8807250261306763 1.9231135845184326 2.0457382202148438 2.2118191719055176 2.3955068588256836 2.570737838745117 2.7159430980682373 2.806553363800049 2.7850770950317383 -9999
-9999 -9999 3.369072675704956 3.2406439781188965 2.998605728149414 2.6401782035827637 2.1791276931762695 1.68497633934021 1.4224886894226074 1.306353211402893 1.2895481586456299 1.3728644847869873 1.5813302993774414 1.8002057075500488 2.0205674171447754 2.231266736984253 2.4111640453338623 2.5415916442871094 2.5999014377593994 -9999
-9999 -9999 3.3732056617736816 3.1968321800231934 2.8716349601745605 2.3901278972625732 1.736572265625 0.8252220153808594 0.6150432825088501 0.5676789283752441 0.5925255417823792 0.7135400772094727 1.1492745876312256 1.429722547531128 1.6629558801651 1.8789904117584229 2.0716607570648193 2.2249298095703125 2.3122122287750244 -9999
-9999 3.5168368816375732 3.388075828552246 3.1386845111846924 2.741145610809326 2.1875438690185547 1.4853854179382324 0.625527024269104 0.4075790047645569 0.36068835854530334 0.391631156206131 0.5185161232948303 0.8963711857795715 1.1584986448287964 1.3710790872573853 1.5628554821014404 1.7403314113616943 1.8908367156982422 1.9830923080444336 -9999
-9999 3.460238218307495 3.312687397003174 3.0222692489624023 2.583733320236206 2.0107367038726807 1.3350659608840942 0.5742765665054321 0.36312150955200195 0.3121967315673828 0.338722825050354 0.45228785276412964 0.7561923265457153 0.9767584204673767 1.1540762186050415 1.312869668006897 1.4586341381072998 1.5877063274383545 1.6714653968811035 -9999
-9999 3.3124189376831055 3.146174907684326 2.8297038078308105 2.3821094036102295 1.836614966392517 1.2315956354141235 0.5769689083099365 0.38548463582992554 0.33433133363723755 0.35304945707321167 0.44611722230911255 0.6871079206466675 0.8627505302429199 1.002481460571289 1.128820776939392 1.245603322982788 1.3517005443572998 1.4232069253921509 -9999
-9999 3.051950454711914 2.876420497894287 2.5562944412231445 2.1358017921447754 1.6600464582443237 1.1624630689620972 0.6310585141181946 0.4665955603122711 0.41503629088401794 0.4222862720489502 0.48961901664733887 0.6702650189399719 0.7995222806930542 0.9039410352706909 1.0008628368377686 1.0937429666519165 1.1816340684890747 1.2435675859451294 -9999
-9999 2.6964547634124756 2.52380633354187 2.2245826721191406 1.8646788597106934 1.4894216060638428 1.132385492324829 0.8279908299446106 0.6643683910369873 0.5915511250495911 0.5787005424499512 0.6144702434539795 0.6947296261787415 0.7728258967399597 0.8446879386901855 0.9164523482322693 0.9910431504249573 1.0667322874069214 1.1251122951507568 -9999
-9999 2.3038389682769775 2.146331548690796 1.8901365995407104 1.6096980571746826 1.3336455821990967 1.0830179452896118 0.8833616375923157 0.7574737071990967 0.690314769744873 0.6678104400634766 0.6798710227012634 0.7170220613479614 0.7623237371444702 0.8102669715881348 0.8631457090377808 0.9251083731651306 0.9937911629676819 1.062251329421997 -9999
-9999 1.9544296264648438 1.81952702999115 1.619066596031189 1.4083075523376465 1.2066339254379272 1.0279626846313477 0.8874685168266296 0.79336017370224 0.7385113835334778 0.714622974395752 0.7146604657173157 0.7317227125167847 0.7581252455711365 0.7901732921600342 0.8283579349517822 0.8762097358703613 0.920325517654419 -9999 -9999
-9999 1.703584909439087 1.5840940475463867 1.4218322038650513 1.2590500116348267 1.1085270643234253 0.9773482084274292 0.8737382888793945 0.8027185797691345 0.759373128414154 0.7376492619514465 0.7327407598495483 0.7402033805847168 0.7559494972229004 0.7776241302490234 0.805220901966095 0.841327965259552 0.8744186758995056 -9999 -9999
-9999 1.5658621788024902 1.4243019819259644 1.2846543788909912 1.152216911315918 1.0350291728973389 0.9351035952568054 0.8559014797210693 0.8012915849685669 0.7670077085494995 0.7483487725257874 0.7419158816337585 0.7447399497032166 0.7542824745178223 0.7689427733421326 0.7883391380310059 0.8135098218917847 0.8385323286056519 0.8414885401725769 0.8435289859771729
-9999 -9999 1.2699799537658691 1.1810221672058105 1.0764602422714233 0.9821256399154663 0.9023810625076294 0.839823842048645 0.796704888343811 0.7690151333808899 0.7531323432922363 0.746493399143219 0.746992826461792 0.7528731226921082 0.7627645134925842 0.7758375406265259 0.7914506196975708 0.8076417446136475 0.8162312507629395 0.819403886795044
-9999 -9999 1.1970158815383911 1.1182334423065186 1.0300809144973755 0.9479641914367676 0.8800528645515442 0.8281769156455994 0.7925376296043396 0.7691670656204224 0.7551842331886292 0.7486894130706787 0.7480487823486328 0.7518343925476074 0.7587780356407166 0.7678850293159485 0.7781258821487427 0.7877136468887329 0.7938808798789978 0.7966732382774353
-9999 -9999 -9999 1.0666091442108154 1.0038442611694336 0.9303642511367798 0.8686250448226929 0.8220841884613037 0.7901409268379211 0.7688751816749573 0.755875825881958 0.7495058178901672 0.7483943700790405 0.7512335181236267 0.7568076848983765 0.7640593647956848 0.7719839811325073 0.7790620923042297 0.7839818000793457 0.7864049673080444
