ncols         20
nrows         20
xllcorner     0
yllcorner     -3.5992928
cellsize      0.17996463
NODATA_value  -9999
-9999.0 -9999 -9999 -9999 -9999 -9999 -9999 -9999 -9999 -9999 -9999 -9999 -9999 -9999 -9999 -9999 -9999 -9999 -9999 -9999
-9999 -9999 -9999 -9999 -9999 -9999 -9999 -9999 -9999 -9999 -9999 0.13436570763587952 0.1344853937625885 -9999 -9999 0.13711705803871155 0.13732139766216278 -9999 -9999 -9999
-9999 -9999 -9999 -9999 0.13424374163150787 0.13415074348449707 0.13407044112682343 0.134042426943779 0.13409516215324402 0.13423462212085724 0.13442490994930267 0.12447287887334824 0.12484055012464523 0.13583609461784363 0.13655222952365875 0.12691570818424225 0.12752112746238708 0.1386328786611557 -9999 -9999
-9999 -9999 -9999 0.13472512364387512 0.12436772882938385 0.1057458221912384 0.10569701343774796 0.1057216078042984 0.10582742094993591 0.1060059666633606 0.10624141991138458 0.09844896197319031 0.0988081842660904 0.1074659675359726 0.10807167738676071 0.10056568682193756 0.10958905518054962 0.13986662030220032 -9999 -9999
-9999 -9999 -9999 0.13507920503616333 0.10622212290763855 0.07725565880537033 0.07122129201889038 0.07131686061620712 0.07148511707782745 0.071708083152771 0.07196445763111115 0.066836878657341 0.06714087724685669 0.0729973241686821 0.07351746410131454 0.07423814386129379 0.11152549088001251 0.14238043129444122 -9999 -9999
-9999 -9999 0.13600513339042664 0.12548992037773132 0.09868703037500381 0.06632332503795624 0.04107500985264778 0.041196759790182114 0.041383348405361176 0.041603934019804 0.041839491575956345 0.038814153522253036 0.039071593433618546 0.04272444173693657 0.0431968979537487 0.07060988992452621 0.10588610917329788 0.13576455414295197 0.14922083914279938 -9999
-9999 -9999 0.13661402463912964 0.10749996453523636 0.07832891494035721 0.05278517305850983 0.030173305422067642 0.020407697185873985 0.020557543262839317 0.020728638395667076 0.020909354090690613 0.019477497786283493 0.01969652809202671 0.021657878533005714 0.032703697681427 0.057977862656116486 0.08671621233224869 0.11977318674325943 0.15299852192401886 -9999
-9999 -9999 0.13770891726016998 0.10847636312246323 0.07301156967878342 0.04200959578156471 0.020672867074608803 0.010172453708946705 0.008778458461165428 0.008886231109499931 0.009004241786897182 0.008443751372396946 0.008623236790299416 0.011251751333475113 0.023441392928361893 0.04811449721455574 0.08396118879318237 0.12505850195884705 0.15900373458862305 -9999
-9999 0.140105202794075 0.12898121774196625 0.10157167911529541 0.06856030970811844 0.039439573884010315 0.01949273608624935 0.00824546068906784 0.0032429483253508806 0.0033096270635724068 0.0033816900104284286 0.003191637806594372 0.0035958378575742245 0.010363565757870674 0.024997450411319733 0.05101696029305458 0.08862216025590897 0.1314460188150406 0.16669806838035583 -9999
-9999 0.14193440973758698 0.11173737794160843 0.08160826563835144 0.055229637771844864 0.0319654606282711 0.01580612175166607 0.006705745123326778 0.0024835974909365177 0.0016579340444877744 0.0017146916361525655 0.001765289343893528 0.003890258725732565 0.011081414297223091 0.02657303586602211 0.05407609045505524 0.09374161809682846 0.1387711763381958 0.17571043968200684 -9999
-9999 0.14511093497276306 0.11446864157915115 0.0773148387670517 0.04472054913640022 0.022155215963721275 0.010985898785293102 0.004700215067714453 0.0017569840420037508 0.0017669601365923882 0.0018356901127845049 0.001893181586638093 0.004158565308898687 0.011773405596613884 0.028137655928730965 0.05717553198337555 0.09902411699295044 0.14645105600357056 0.18527960777282715 -9999
-9999 0.14946573972702026 0.11806841939687729 0.07994747906923294 0.04638467729091644 0.02304648421704769 0.009804311208426952 0.003595984075218439 0.0017766404198482633 0.0018656657775864005 0.0019430058309808373 0.002120587043464184 0.006142493337392807 0.014697003178298473 0.029677167534828186 0.060235895216464996 0.104225292801857 0.15392747521400452 0.19441847503185272 -9999
-9999 0.1548636108636856 0.12250716984272003 0.0831160694360733 0.04831487685441971 0.024200746789574623 0.010325341485440731 0.003799779573455453 0.0018589753890410066 0.0019515150925144553 0.002035442739725113 0.0033214197028428316 0.009572776965796947 0.02287175878882408 0.046683937311172485 0.08066379278898239 0.1185561791062355 0.16090351343154907 0.20224246382713318 -9999
-9999 0.16109901666641235 0.12762311100959778 0.08706758171319962 0.05072613060474396 0.025278516113758087 0.010783481411635876 0.003961008042097092 0.0019301202846691012 0.0020215418189764023 0.0021057853009551764 0.004355593118816614 0.012520349584519863 0.030105073004961014 0.06136713922023773 0.10631155967712402 0.15690025687217712 0.19685593247413635 0.20765288174152374 -9999
-9999 0.1676517128944397 0.13301995396614075 0.09087414294481277 0.05297994986176491 0.026408974081277847 0.013185212388634682 0.005666324403136969 0.002097269520163536 0.0020761638879776 0.0021578408777713776 0.004842356778681278 0.013854903168976307 0.033377643674612045 0.06824808567762375 0.11876470595598221 0.17563007771968842 0.2223944514989853 -9999 -9999
-9999 0.17354494333267212 0.13858789205551147 0.10229983180761337 0.0700995922088623 0.040954530239105225 0.020483657717704773 0.0087117999792099 0.0034724539145827293 0.002115198876708746 0.002195437205955386 0.0049185194075107574 0.01408466137945652 0.03399360924959183 0.0696754902601242 0.1216098815202713 0.18099281191825867 0.22951748967170715 -9999 -9999
-9999 0.17767846584320068 0.16803647577762604 0.13452163338661194 0.0918588638305664 0.05356023460626602 0.028872549533843994 0.014347509481012821 0.006130844820290804 0.002255126368254423 0.0022207037545740604 0.0045722052454948425 0.013173244893550873 0.03184887766838074 0.0653906986117363 0.11431659758090973 0.17078785598278046 0.218671977519989 0.24090240895748138 0.24262861907482147
-9999 -9999 0.18787233531475067 0.14983630180358887 0.1102583184838295 0.07519768923521042 0.04369744285941124 0.02175932750105858 0.00921983364969492 0.003399571869522333 0.0022347960621118546 0.003624999662861228 0.010479978285729885 0.025447195395827293 0.052172064781188965 0.09148228913545609 0.1367187798023224 0.17470404505729675 0.190648153424263 0.19151785969734192
-9999 -9999 0.1912883073091507 0.17880187928676605 0.14224480092525482 0.09664101153612137 0.05609751492738724 0.027788514271378517 0.011775259859859943 0.004322124645113945 0.00224127434194088 0.002443281700834632 0.0070850239135324955 0.017172783613204956 0.03546174243092537 0.06189790368080139 0.09288980066776276 0.11844275891780853 0.12864312529563904 0.12899525463581085
-9999 -9999 -9999 0.19611220061779022 0.1555362492799759 0.1054796352982521 0.06109081581234932 0.030220240354537964 0.012790537439286709 0.004705101251602173 0.0022440105676651 0.0023202935699373484 0.0040747919119894505 0.009845479391515255 0.020388450473546982 0.035592664033174515 0.053475186228752136 0.06785845756530762 0.07382941246032715 0.07396450638771057
