ncols         20
nrows         20
xllcorner     0
yllcorner     -3.5992928
cellsize      0.17996463
NODATA_value  -9999
-9999.0 -9999 -9999 -9999 -9999 -9999 -9999 -9999 -9999 -9999 -9999 -9999 -9999 -9999 -9999 -9999 -9999 -9999 -9999 -9999
-9999 -9999 -9999 -9999 -9999 -9999 -9999 -9999 -9999 -9999 -9999 1.8233284950256348 1.821200966835022 -9999 -9999 1.8606882095336914 1.8389209508895874 -9999 -9999 -9999
-9999 -9999 -9999 -9999 1.8185927867889404 1.8344849348068237 1.8597424030303955 1.8686200380325317 1.868434190750122 1.8720782995224 1.8527545928955078 1.859725832939148 1.8767319917678833 1.8911101818084717 1.8892595767974854 1.8790786266326904 1.8579998016357422 1.8390461206436157 -9999 -9999
-9999 -9999 -9999 1.8349964618682861 1.8495662212371826 1.8665133714675903 1.8846104145050049 1.8907246589660645 1.8940505981445312 1.8945789337158203 1.900615930557251 1.9125019311904907 1.9293327331542969 1.9398841857910156 1.9478505849838257 1.9386780261993408 1.912042498588562 1.8883413076400757 -9999 -9999
-9999 -9999 -9999 1.8592932224273682 1.8792170286178589 1.9127596616744995 1.9285584688186646 1.927398681640625 1.9128552675247192 1.8870238065719604 1.8534573316574097 1.8398573398590088 1.8620024919509888 1.9116077423095703 1.9602183103561401 1.9831515550613403 1.9733918905258179 1.9756125211715698 -9999 -9999
-9999 -9999 1.860682725906372 1.888340711593628 1.9225189685821533 1.9512512683868408 1.9499776363372803 1.9241338968276978 1.8612887859344482 1.74369478225708 1.603464961051941 1.529764175415039 1.5562553405761719 1.685775637626648 1.8441065549850464 1.9403619766235352 1.9879692792892456 2.0007331371307373 1.9792115688323975 -9999
-9999 -9999 1.8851369619369507 1.9167696237564087 1.9662984609603882 1.9836918115615845 1.9588816165924072 1.8864341974258423 1.7314937114715576 1.500942349433899 1.2691357135772705 1.1419576406478882 1.1618175506591797 1.3329362869262695 1.611680030822754 1.7934517860412598 1.9232289791107178 1.9747426509857178 1.9867044687271118 -9999
-9999 -9999 1.9392677545547485 1.977683186531067 2.013510227203369 1.997312307357788 1.9244823455810547 1.7620432376861572 1.513303279876709 1.222139835357666 0.9819924235343933 0.8464727401733398 0.8479599952697754 0.9869669675827026 1.2362464666366577 1.5113087892532349 1.7278265953063965 1.8646862506866455 1.9151623249053955 -9999
-9999 1.9576456546783447 2.003600835800171 2.0346686840057373 2.031497001647949 1.9497064352035522 1.7700681686401367 1.497414469718933 1.1914036273956299 0.9188747406005859 0.7302670478820801 0.6281800270080566 0.6156876683235168 0.70635586977005 0.8939791917800903 1.1741513013839722 1.4170796871185303 1.6116271018981934 1.7041387557983398 -9999
-9999 2.0157647132873535 2.0500690937042236 2.0558674335479736 1.9733548164367676 1.7722216844558716 1.4649710655212402 1.1155248880386353 0.8161724209785461 0.6116231083869934 0.4969504773616791 0.4373950958251953 0.4298712909221649 0.47731971740722656 0.5978325605392456 0.7986859083175659 1.0279793739318848 1.2375118732452393 1.3450363874435425 -9999
-9999 2.068934679031372 2.0709047317504883 2.0015578269958496 1.8253968954086304 1.5158195495605469 1.1221843957901 0.7510875463485718 0.49864909052848816 0.3593134582042694 0.2918345034122467 0.26274263858795166 0.2594110369682312 0.28442707657814026 0.34947097301483154 0.47032010555267334 0.6346602439880371 0.810714602470398 0.9044709205627441 -9999
-9999 2.0534050464630127 2.010000228881836 1.8572361469268799 1.588513970375061 1.2238848209381104 0.8220545649528503 0.49226143956184387 0.2956130802631378 0.19614170491695404 0.15203358232975006 0.1328313797712326 0.1300605833530426 0.1385432332754135 0.16560682654380798 0.22648561000823975 0.3248865306377411 0.4374464154243469 0.4992619454860687 -9999
-9999 1.9182485342025757 1.8251569271087646 1.5736265182495117 1.2556043863296509 0.9043317437171936 0.5703616142272949 0.31681275367736816 0.17287078499794006 0.10661530494689941 0.06952065974473953 0.05558965355157852 0.05020757019519806 0.05078389123082161 0.05984390899538994 0.08165345340967178 0.13297194242477417 0.19409862160682678 0.23359018564224243 -9999
-9999 1.6621558666229248 1.5139611959457397 1.1910133361816406 0.865036129951477 0.5821357369422913 0.3530425429344177 0.19150276482105255 0.09573616832494736 0.056879978626966476 0.03824879974126816 0.029348738491535187 0.024717217311263084 0.023112298920750618 0.024017594754695892 0.02948458306491375 0.04250194877386093 0.06939107924699783 0.09231481701135635 -9999
-9999 1.3685263395309448 1.1930427551269531 0.8443624973297119 0.5432724952697754 0.3371037244796753 0.19741365313529968 0.10314389318227768 0.05766438692808151 0.03632931411266327 0.02586260996758938 0.01995120197534561 0.016576780006289482 0.01492259744554758 0.01401977613568306 0.014753548428416252 0.0172478836029768 0.02522199973464012 -9999 -9999
-9999 1.1536345481872559 0.9666274785995483 0.6239503622055054 0.35971298813819885 0.19883039593696594 0.10715270787477493 0.06070069596171379 0.03829798847436905 0.026512902230024338 0.02023395150899887 0.016254059970378876 0.014432407915592194 0.016554683446884155 0.018463334068655968 0.019974537193775177 0.020987510681152344 0.021672915667295456 -9999 -9999
-9999 0.9989467859268188 0.8017847537994385 0.49868398904800415 0.26459625363349915 0.12269546091556549 0.06583164632320404 0.03907017037272453 0.026543181389570236 0.01982039585709572 0.016113052144646645 0.016149086877703667 0.0186422411352396 0.021204516291618347 0.023548629134893417 0.025517147034406662 0.027145840227603912 0.028874441981315613 0.032185785472393036 0.03347204625606537
-9999 -9999 0.6291934847831726 0.41068726778030396 0.20898088812828064 0.09081023186445236 0.04599388316273689 0.02753647416830063 0.01936838962137699 0.015455775894224644 0.0173967108130455 0.019723307341337204 0.02235950529575348 0.02512448839843273 0.027628589421510696 0.0296653863042593 0.03129776194691658 0.03261420503258705 0.03384481370449066 0.034256499260663986
-9999 -9999 0.4526591897010803 0.3225265443325043 0.16769453883171082 0.07020705938339233 0.034198928624391556 0.020216748118400574 0.016260407865047455 0.018119236454367638 0.020149540156126022 0.022515341639518738 0.025200385600328445 0.027984684333205223 0.030424896627664566 0.03230160474777222 0.033666398376226425 0.0344579741358757 0.0347224585711956 0.034758709371089935
-9999 -9999 -9999 0.2685698866844177 0.14191927015781403 0.061845701187849045 0.029708517715334892 0.017559103667736053 0.01764691062271595 0.01959127001464367 0.021651210263371468 0.023988230153918266 0.026659904047846794 0.029415685683488846 0.03180382773280144 0.03352409973740578 0.034730568528175354 0.0351053923368454 0.03508445993065834 0.03500095009803772
