ncols         20
nrows         20
xllcorner     0
yllcorner     -3.5992928
cellsize      0.17996463
NODATA_value  -9999
-9999.0 -9999 -9999 -9999 -9999 -9999 -9999 -9999 -9999 -9999 -9999 -9999 -9999 -9999 -9999 -9999 -9999 -9999 -9999 -9999
-9999 -9999 -9999 -9999 -9999 -9999 -9999 -9999 -9999 -9999 -9999 0 0 -9999 -9999 0 0 -9999 -9999 -9999
-9999 -9999 -9999 -9999 0 0 0 0 0 0 0 0 0 0 0 0 0 0 -9999 -9999
-9999 -9999 -9999 0 0 0 0 0 0 0 0 0 0 0 0 0 0 0 -9999 -9999
-9999 -9999 -9999 0 0 0 0 0 0 0 0 0 0 0 0 0 0 0 -9999 -9999
-9999 -9999 0 0 0 0 3.948826313018799 3.670654773712158 3.468001365661621 3.280463933944702 3.1165988445281982 3.055371046066284 3.1282098293304443 3.347750186920166 3.6644139289855957 4.06759786605835 0 0 0 -9999
-9999 -9999 0 0 0 3.8910717964172363 3.4712390899658203 3.1592514514923096 2.872786283493042 2.5842978954315186 2.3392343521118164 2.2246830463409424 2.279569625854492 2.51572322845459 0.32218435406684875 3.418454647064209 0 0 0 -9999
-9999 -9999 0 0 3.994492530822754 3.5200576782226562 3.1200554370880127 2.749833106994629 2.390104293823242 2.0561397075653076 1.810465931892395 1.6879678964614868 1.7177611589431763 1.9089655876159668 2.2572972774505615 2.7443530559539795 3.3383495807647705 0 0 -9999
-9999 0 0 4.2606353759765625 3.7175800800323486 3.237502098083496 2.7749783992767334 2.328216552734375 1.9323209524154663 1.6237664222717285 1.4278355836868286 1.334702491760254 1.3442492485046387 1.4748921394348145 1.7315125465393066 0.47208550572395325 2.6230649948120117 3.1520698070526123 0 -9999
-9999 0 0 4.138314723968506 3.507845640182495 2.9212582111358643 2.3639638423919678 1.869122862815857 1.4934289455413818 1.252591848373413 1.1248388290405273 1.0680229663848877 1.0765079259872437 1.154914140701294 1.3272957801818848 0.357378214597702 2.0069925785064697 2.4510176181793213 0 -9999
-9999 0 0 4.009947299957275 3.2572033405303955 2.5757217407226562 1.9574453830718994 1.4589619636535645 1.1372705698013306 0.9620872139930725 0.879297137260437 0.849124550819397 0.8568757772445679 0.9060521125793457 1.0128116607666016 1.202856183052063 1.4873589277267456 0 0 -9999
-9999 0 0 3.7587952613830566 2.925013542175293 2.214460849761963 1.608568549156189 1.1624343395233154 0.9021766185760498 0.7700342535972595 0.7123463749885559 0.6909838914871216 0.3092097043991089 0.40124934911727905 0.7811136841773987 0.19862419366836548 1.079643964767456 0 0 -9999
-9999 0 0 3.309546947479248 2.482724189758301 1.8262522220611572 1.3117265701293945 0.9539733529090881 0.754319965839386 0.6606504321098328 0.6138834953308105 0.5975417494773865 0.39823856949806213 0.5433938503265381 0.42945942282676697 0.7043232917785645 0.8152782320976257 0 0 -9999
-9999 0 0 2.7179532051086426 1.963297963142395 1.4268440008163452 1.047909140586853 0.8012372851371765 0.6617710590362549 0.5986890196800232 0.568802535533905 0.5567349791526794 0.24691303074359894 0.43870019912719727 0.38868802785873413 0.6178011298179626 0.6783819198608398 0 0 -9999
-9999 0 0 2.166710138320923 1.5142544507980347 1.1060981750488281 0.8504918813705444 0.6920685172080994 0.6092614531517029 0.5670943856239319 0.5462713837623596 0.5370451807975769 0.5360327363014221 0.5421359539031982 0.37022385001182556 0.32126638293266296 0.6150539517402649 0 -9999 -9999
-9999 0 0 1.7893447875976562 1.235345721244812 0.9115492105484009 0.731238603591919 0.6320284008979797 0.5787724852561951 0.5491461753845215 0.35567355155944824 0.4092882573604584 0.05842820182442665 0.5329059362411499 0.24211744964122772 0.24995554983615875 0.5874850749969482 0.08744485676288605 -9999 -9999
-9999 0 0 1.552394151687622 1.075218915939331 0.7989113926887512 0.6680558323860168 0.5976183414459229 0.559088408946991 0.35793182253837585 0.46642550826072693 0.5207858681678772 0.40645501017570496 0.5281328558921814 0.5372927784919739 0.5502644777297974 0.5674348473548889 0.5840394496917725 0.4172486960887909 0.5849593281745911
-9999 -9999 0 1.3710817098617554 0.972531795501709 0.742047905921936 0.6335422992706299 0.5777475833892822 0.303834468126297 0.47035497426986694 0.522072434425354 0.5195111036300659 0.46281278133392334 0.40831470489501953 0.35464906692504883 0.36085405945777893 0.368195503950119 0.43804576992988586 0.5052993893623352 0.5703838467597961
-9999 -9999 0 0 0.9041462540626526 0.7053866982460022 0.6127521395683289 0.565529465675354 0.3605716824531555 0.5286319851875305 0.521714448928833 0.5190095901489258 0.5197106003761292 0.5231541395187378 0.5286832451820374 0.5356744527816772 0.5433244705200195 0.5502238869667053 0.5544766187667847 0.5563864707946777
-9999 -9999 -9999 0 0.8615867495536804 0.6891964673995972 0.6041865944862366 0.5606887340545654 0.3602806627750397 0.5284847021102905 0.5216494202613831 0.5188546180725098 0.5193207263946533 0.5223272442817688 0.5271432399749756 0.5330384969711304 0.5392501950263977 0.5445941686630249 0.5481918454170227 0.5499409437179565
