ncols         20
nrows         20
xllcorner     0
yllcorner     -3.5992928
cellsize      0.17996463
NODATA_value  -9999
-9999.0 -9999 -9999 -9999 -9999 -9999 -9999 -9999 -9999 -9999 -9999 -9999 -9999 -9999 -9999 -9999 -9999 -9999 -9999 -9999
-9999 -9999 -9999 -9999 -9999 -9999 -9999 -9999 -9999 -9999 -9999 11.918924331665039 11.889164924621582 -9999 -9999 11.876493453979492 11.719208717346191 -9999 -9999 -9999
-9999 -9999 -9999 -9999 11.875194549560547 12.025104522705078 12.264856338500977 12.386869430541992 12.416265487670898 12.427849769592285 12.233511924743652 12.186230659484863 12.252758979797363 12.313912391662598 12.22794246673584 12.053838729858398 11.879361152648926 11.773990631103516 -9999 -9999
-9999 -9999 -9999 11.935710906982422 12.045697212219238 12.1791353225708 12.342777252197266 12.410655975341797 12.440422058105469 12.431610107421875 12.438491821289062 12.46345329284668 12.538783073425293 12.577561378479004 12.577169418334961 12.449409484863281 12.259774208068848 12.13913345336914 -9999 -9999
-9999 -9999 -9999 12.10142707824707 12.211321830749512 12.409897804260254 12.475025177001953 12.377729415893555 12.20922565460205 12.009794235229492 11.815610885620117 11.753822326660156 11.915852546691895 12.243480682373047 12.56978988647461 12.710891723632812 12.672382354736328 12.747709274291992 -9999 -9999
-9999 -9999 12.15805721282959 12.315179824829102 12.486100196838379 12.559737205505371 12.29227352142334 11.703415870666504 11.092299461364746 10.418859481811523 9.739521026611328 9.456657409667969 9.741729736328125 10.572382926940918 11.546476364135742 12.270881652832031 12.647768020629883 12.83669662475586 12.75306510925293 -9999
-9999 -9999 12.401192665100098 12.565025329589844 12.783596992492676 12.576294898986816 11.608433723449707 9.94093132019043 8.70611572265625 7.628683090209961 6.732154369354248 6.396045207977295 6.878540992736816 7.991701126098633 9.460685729980469 10.881871223449707 11.846475601196289 12.35360336303711 12.537293434143066 -9999
-9999 -9999 12.930261611938477 13.130325317382812 13.175168991088867 12.403024673461914 10.314848899841309 6.2144951820373535 4.8061017990112305 4.001247882843018 3.5074830055236816 3.4501571655273438 4.486123561859131 5.588748931884766 7.052182674407959 8.707890510559082 10.12215518951416 11.08984088897705 11.519613265991211 -9999
-9999 13.365686416625977 13.587367057800293 13.737717628479004 13.43465805053711 12.036202430725098 9.214862823486328 4.8770270347595215 3.3246941566467285 2.597614049911499 2.267061471939087 2.2914817333221436 2.9925742149353027 3.7568416595458984 4.816096305847168 6.231395244598389 7.753463268280029 8.955497741699219 9.546354293823242 -9999
-9999 13.87217903137207 14.049574851989746 14.037992477416992 13.144769668579102 11.032955169677734 7.8056721687316895 3.8655636310577393 2.406665086746216 1.7814457416534424 1.5501207113265991 1.5717345476150513 1.9846323728561401 2.402515411376953 3.046084403991699 3.9968161582946777 5.237394332885742 6.3525004386901855 6.932938575744629 -9999
-9999 14.316390037536621 14.249109268188477 13.678990364074707 12.09952449798584 9.499241828918457 6.227092742919922 2.9126055240631104 1.6753596067428589 1.1661686897277832 0.9781535863876343 0.9724656939506531 1.1674937009811401 1.3714139461517334 1.698129653930664 2.253819704055786 3.021010637283325 3.841428518295288 4.287121772766113 -9999
-9999 14.09271240234375 13.660746574401855 12.416686058044434 10.314302444458008 7.616820812225342 4.699422836303711 2.142169713973999 1.1453877687454224 0.7226360440254211 0.559285044670105 0.5149829983711243 0.57761150598526 0.6428818702697754 0.7669853568077087 1.025075912475586 1.4452403783798218 1.9232313632965088 2.1892991065979004 -9999
-9999 12.716300010681152 11.900059700012207 10.079610824584961 7.852055549621582 5.49031925201416 3.3003153800964355 1.6498106718063354 0.8244432210922241 0.47691068053245544 0.3148952126502991 0.2524441182613373 0.23311500251293182 0.2345746010541916 0.2685961127281189 0.3515821397304535 0.5470572710037231 0.7889089584350586 0.9497206211090088 -9999
-9999 10.275647163391113 9.222084045410156 7.167668342590332 5.119625091552734 3.371717929840088 1.9804275035858154 1.0200262069702148 0.49449193477630615 0.27504628896713257 0.17398685216903687 0.12562166154384613 0.10073157399892807 0.08985026180744171 0.08991850167512894 0.10783129930496216 0.15511618554592133 0.2571963369846344 0.3538929522037506 -9999
-9999 7.7423834800720215 6.668447494506836 4.682987689971924 2.977118968963623 1.811960220336914 1.0331220626831055 0.5282366275787354 0.27872589230537415 0.15955843031406403 0.1013529896736145 0.06917551159858704 0.05109967291355133 0.04148692637681961 0.03657253086566925 0.03785863518714905 0.04531696066260338 0.06951991468667984 -9999 -9999
-9999 5.975531578063965 4.9219746589660645 3.1413021087646484 1.7844504117965698 0.9656528830528259 0.5100761651992798 0.2739787697792053 0.15774914622306824 0.09626837819814682 0.06346294283866882 0.04343970865011215 0.033535152673721313 0.03551677241921425 0.0382998026907444 0.04140050709247589 0.04442887008190155 0.046977609395980835 -9999 -9999
-9999 4.862480640411377 3.7379088401794434 2.269965887069702 1.1755549907684326 0.5326996445655823 0.27132686972618103 0.14720872044563293 0.08844820410013199 0.05692300572991371 0.03923477977514267 0.03442785516381264 0.03647707402706146 0.039718810468912125 0.043808698654174805 0.04842042922973633 0.05349504575133324 0.05967612564563751 0.06977944821119308 0.07456789910793304
-9999 -9999 2.6384010314941406 1.6878645420074463 0.8315230011940002 0.3474915027618408 0.16183914244174957 0.08551862090826035 0.051650963723659515 0.034992992877960205 0.03499938175082207 0.03664044290781021 0.03976617008447647 0.04413045197725296 0.0493205189704895 0.054968103766441345 0.060896746814250946 0.06699718534946442 0.07307157665491104 0.07624983042478561
-9999 -9999 1.7771412134170532 1.218292474746704 0.6082407832145691 0.24082247912883759 0.1048419401049614 0.052894167602062225 0.036037273705005646 0.03541077673435211 0.03628084808588028 0.03870881721377373 0.042620949447155 0.0477742925286293 0.053679920732975006 0.059870436787605286 0.06597114354372025 0.07142497599124908 0.07561377435922623 0.07782860100269318
-9999 -9999 -9999 0.9442039132118225 0.487478643655777 0.19894835352897644 0.0842379704117775 0.04167107865214348 0.03590316325426102 0.03578769788146019 0.03709178790450096 0.03989992290735245 0.04421611502766609 0.04977839067578316 0.05605091154575348 0.06243942677974701 0.06853464990854263 0.0734572485089302 0.07694608718156815 0.07875353842973709
