ncols         20
nrows         20
xllcorner     0
yllcorner     -3.5992928
cellsize      0.17996463
NODATA_value  -9999
-9999.0 -9999 -9999 -9999 -9999 -9999 -9999 -9999 -9999 -9999 -9999 -9999 -9999 -9999 -9999 -9999 -9999 -9999 -9999 -9999
-9999 -9999 -9999 -9999 -9999 -9999 -9999 -9999 -9999 -9999 -9999 0.9048083424568176 0.8842247128486633 -9999 -9999 0.7842901349067688 0.7350084185600281 -9999 -9999 -9999
-9999 -9999 -9999 -9999 1.0390620231628418 1.1031652688980103 1.214775800704956 1.2923263311386108 1.3256555795669556 1.3315010070800781 1.1821240186691284 1.0767216682434082 1.0579416751861572 1.041638970375061 0.9416162967681885 0.8330174684524536 0.75312340259552 0.6976962685585022 -9999 -9999
-9999 -9999 -9999 0.9818459749221802 1.056814193725586 1.1447341442108154 1.2632217407226562 1.3667758703231812 1.467947244644165 1.5378910303115845 1.564205288887024 1.519006371498108 1.4648715257644653 1.3335832357406616 1.1651692390441895 0.9835591316223145 0.8433001637458801 0.7666547298431396 -9999 -9999
-9999 -9999 -9999 0.9657634496688843 1.0491257905960083 1.2060070037841797 1.3824706077575684 1.5697832107543945 1.7844228744506836 2.0558929443359375 2.2978451251983643 2.378377914428711 2.2645423412323 1.9416205883026123 1.5981571674346924 1.2607665061950684 1.019873857498169 0.9536741971969604 -9999 -9999
-9999 -9999 0.7747103571891785 0.9007136821746826 1.0461314916610718 1.248586654663086 1.4772028923034668 1.7467296123504639 2.137451171875 2.612659454345703 3.0868446826934814 3.27187180519104 3.1568591594696045 2.69356632232666 2.121964931488037 1.6216113567352295 1.269240379333496 1.116158127784729 0.9868785738945007 -9999
-9999 -9999 0.750043511390686 0.8505099415779114 1.0508127212524414 1.3097721338272095 1.5901343822479248 1.9485822916030884 2.438603162765503 3.019777774810791 3.5629382133483887 3.8215763568878174 3.7223894596099854 3.2770164012908936 2.6994783878326416 2.051180362701416 1.5923588275909424 1.3081103563308716 1.1834051609039307 -9999
-9999 -9999 0.7459614872932434 0.8744595050811768 1.1240158081054688 1.4293221235275269 1.788602352142334 2.2091827392578125 2.682825803756714 3.1900577545166016 3.5769054889678955 3.7843828201293945 3.7294020652770996 3.4234771728515625 2.9535622596740723 2.4037885665893555 1.9307348728179932 1.5906668901443481 1.4494202136993408 -9999
-9999 0.5999699831008911 0.7524932622909546 0.950584352016449 1.2808760404586792 1.680679440498352 2.094409227371216 2.5318970680236816 2.9220075607299805 3.2223570346832275 3.38887619972229 3.4618887901306152 3.439714193344116 3.278454065322876 3.0180015563964844 2.671980142593384 2.1987013816833496 1.8570306301116943 1.7091633081436157 -9999
-9999 0.6591312289237976 0.7999193668365479 1.0943188667297363 1.5127301216125488 1.9841868877410889 2.438182830810547 2.8262765407562256 3.0689072608947754 3.1561150550842285 3.1349761486053467 3.103627920150757 3.0643205642700195 3.0009241104125977 2.8807804584503174 2.7140331268310547 2.343695878982544 2.055953025817871 1.9293731451034546 -9999
-9999 0.7791922092437744 0.9330050945281982 1.2666908502578735 1.7020775079727173 2.171158790588379 2.6040568351745605 2.9067320823669434 2.998678684234619 2.945894718170166 2.8491601943969727 2.7774369716644287 2.7468228340148926 2.7145326137542725 2.655007839202881 2.5545802116394043 2.358062982559204 2.158489942550659 2.0665695667266846 -9999
-9999 0.9700441360473633 1.1264355182647705 1.4715726375579834 1.8713669776916504 2.2544455528259277 2.5774309635162354 2.7421233654022217 2.7128310203552246 2.5931389331817627 2.4816040992736816 2.4307475090026855 2.473482370376587 2.468088388442993 2.403505802154541 2.390254259109497 2.2560274600982666 2.143331527709961 2.0906693935394287 -9999
-9999 1.2326587438583374 1.4000310897827148 1.7368507385253906 2.0386393070220947 2.2822153568267822 2.438901424407959 2.4614412784576416 2.3448877334594727 2.1867570877075195 2.069606065750122 2.020571708679199 2.064578056335449 2.0698063373565674 2.0593836307525635 2.0224757194519043 2.009726047515869 1.9964441061019897 1.980002999305725 -9999
-9999 1.5201739072799683 1.6783146858215332 1.971444845199585 2.1708433628082275 2.258209466934204 2.2516393661499023 2.1528780460357666 1.9884551763534546 1.818183183670044 1.6961419582366943 1.6311898231506348 1.630085825920105 1.6078921556472778 1.5842747688293457 1.5641169548034668 1.6215916872024536 1.7411112785339355 1.796860694885254 -9999
-9999 1.7097513675689697 1.831766128540039 2.058084487915039 2.155139684677124 2.1156883239746094 2.0014219284057617 1.8460804224014282 1.6729061603546143 1.5266413688659668 1.4257469177246094 1.3449796438217163 1.2810059785842896 1.2226136922836304 1.1878677606582642 1.1679270267486572 1.183212161064148 1.3305175304412842 -9999 -9999
-9999 1.7466580867767334 1.8228223323822021 1.97276771068573 1.982843041419983 1.8752124309539795 1.7224478721618652 1.5577826499938965 1.4223889112472534 1.3249303102493286 1.2713980674743652 1.1933369636535645 1.0994824171066284 0.9898025393486023 0.9257529973983765 0.8667883276939392 0.8312550783157349 0.7607342004776001 -9999 -9999
-9999 1.7604748010635376 1.7416287660598755 1.808498501777649 1.7693371772766113 1.630645513534546 1.461618423461914 1.3144396543502808 1.2199914455413818 1.1705507040023804 1.118565320968628 1.0439780950546265 0.9469243288040161 0.8383656740188599 0.7528436779975891 0.6812830567359924 0.628099799156189 0.584628701210022 0.5748836994171143 0.5237526297569275
-9999 -9999 1.5978819131851196 1.633589506149292 1.5781261920928955 1.4256867170333862 1.252767562866211 1.123718023300171 1.064764142036438 1.0184872150421143 0.9740796685218811 0.9116351008415222 0.8322511315345764 0.7318270802497864 0.6490413546562195 0.5884578824043274 0.5320476293563843 0.4966025948524475 0.4733712375164032 0.5004065036773682
-9999 -9999 1.5639837980270386 1.513912320137024 1.4347257614135742 1.2696868181228638 1.0923432111740112 0.9668520092964172 0.912402868270874 0.8761477470397949 0.8547624945640564 0.8035286664962769 0.7315444350242615 0.6429851055145264 0.5756226181983948 0.5278081893920898 0.48695608973503113 0.4654635190963745 0.49909377098083496 0.5185012817382812
-9999 -9999 -9999 1.413368821144104 1.3567262887954712 1.1941810846328735 1.0157157182693481 0.8932884335517883 0.8438763618469238 0.8171820044517517 0.797620952129364 0.7627213597297668 0.6941854953765869 0.6102398037910461 0.5403902530670166 0.5075379014015198 0.46169769763946533 0.4857235252857208 0.5144277215003967 0.5306853652000427
