ncols         20
nrows         20
xllcorner     0
yllcorner     -3.5992928
cellsize      0.17996463
NODATA_value  -9999
-9999.0 -9999 -9999 -9999 -9999 -9999 -9999 -9999 -9999 -9999 -9999 -9999 -9999 -9999 -9999 -9999 -9999 -9999 -9999 -9999
-9999 -9999 -9999 -9999 -9999 -9999 -9999 -9999 -9999 -9999 -9999 27.36557388305664 27.362857818603516 -9999 -9999 27.338851928710938 27.399532318115234 -9999 -9999 -9999
-9999 -9999 -9999 -9999 27.397871017456055 27.31922721862793 27.198898315429688 27.114402770996094 27.080333709716797 27.08913803100586 27.16718101501465 27.228897094726562 27.1920108795166 27.098440170288086 27.115890502929688 27.22126007080078 27.297677993774414 27.31466293334961 -9999 -9999
-9999 -9999 -9999 27.418262481689453 27.38443374633789 27.330001831054688 27.25836944580078 27.21327781677246 27.20641326904297 27.2203369140625 27.238256454467773 27.23346519470215 27.1724910736084 27.095191955566406 27.056724548339844 27.084251403808594 27.10898780822754 27.104167938232422 -9999 -9999
-9999 -9999 -9999 27.402124404907227 27.39940643310547 27.398433685302734 27.431114196777344 27.49637222290039 27.572847366333008 27.640634536743164 27.681407928466797 27.675012588500977 27.594900131225586 27.45849609375 27.29043960571289 27.129253387451172 26.964149475097656 26.827743530273438 -9999 -9999
-9999 -9999 27.399227142333984 27.400972366333008 27.449766159057617 27.581899642944336 27.827045440673828 28.061437606811523 28.281766891479492 28.48105812072754 28.61793327331543 28.65802764892578 28.567638397216797 28.346206665039062 28.00778579711914 27.59459686279297 27.130125045776367 26.785615921020508 26.621150970458984 -9999
-9999 -9999 27.318035125732422 27.39276123046875 27.547563552856445 27.854103088378906 28.256668090820312 28.67807388305664 29.08846092224121 29.444040298461914 29.67668342590332 29.755281448364258 29.67139434814453 29.40677261352539 28.936996459960938 28.35390853881836 27.687318801879883 27.161521911621094 26.881437301635742 -9999
-9999 -9999 27.105815887451172 27.30487632751465 27.639328002929688 28.11947250366211 28.698440551757812 29.3175106048584 29.90131950378418 30.364404678344727 30.649200439453125 30.74622917175293 30.67669105529785 30.430091857910156 29.970603942871094 29.33211326599121 28.601211547851562 27.93597984313965 27.547643661499023 -9999
-9999 26.464920043945312 26.760744094848633 27.20038604736328 27.735509872436523 28.424345016479492 29.213407516479492 29.99863052368164 30.67227554321289 31.161657333374023 31.451749801635742 31.554576873779297 31.4959716796875 31.282546997070312 30.886409759521484 30.309480667114258 29.66071319580078 29.025312423706055 28.598834991455078 -9999
-9999 26.20578956604004 26.514041900634766 27.142955780029297 27.946815490722656 28.881919860839844 29.845741271972656 30.70223617553711 31.362485885620117 31.812713623046875 32.07723617553711 32.17236328125 32.12203598022461 31.94561767578125 31.637849807739258 31.19163703918457 30.689987182617188 30.170644760131836 29.80671501159668 -9999
-9999 25.96135711669922 26.391822814941406 27.29004669189453 28.36832618713379 29.49763298034668 30.53748893737793 31.36813735961914 31.9619083404541 32.355403900146484 32.582279205322266 32.655967712402344 32.59911346435547 32.45820617675781 32.241119384765625 31.93269920349121 31.57475471496582 31.196016311645508 30.937726974487305 -9999
-9999 26.02239227294922 26.61635398864746 27.741924285888672 29.002479553222656 30.205806732177734 31.219152450561523 31.978544235229492 32.51558303833008 32.87797164916992 33.08505630493164 33.13743591308594 33.0565185546875 32.941104888916016 32.798919677734375 32.57453918457031 32.3218994140625 32.04982376098633 31.863079071044922 -9999
-9999 26.595117568969727 27.287338256835938 28.5228214263916 29.816516876220703 30.96040916442871 31.87150001525879 32.55470657348633 33.06667709350586 33.43103790283203 33.66178512573242 33.736629486083984 33.68788146972656 33.614471435546875 33.51093292236328 33.351966857910156 33.09760665893555 32.821380615234375 32.603126525878906 -9999
-9999 27.576562881469727 28.29331398010254 29.503570556640625 30.70365333557129 31.7089900970459 32.498863220214844 33.12084197998047 33.62361526489258 33.98503875732422 34.2308464050293 34.3701171875 34.421241760253906 34.442535400390625 34.41331100463867 34.29853820800781 34.05068588256836 33.693260192871094 33.194610595703125 -9999
-9999 28.660356521606445 29.35101890563965 30.460487365722656 31.52634048461914 32.40639114379883 33.11050796508789 33.68876266479492 34.13462448120117 34.47395706176758 34.73229217529297 34.94871139526367 35.13105392456055 35.277835845947266 35.35103988647461 35.32713317871094 35.193607330322266 34.9677848815918 -9999 -9999
-9999 29.55878448486328 30.246028900146484 31.250864028930664 32.209930419921875 33.02876281738281 33.69925308227539 34.21570587158203 34.60396957397461 34.899871826171875 35.145286560058594 35.4104118347168 35.69285583496094 35.9601936340332 36.144046783447266 36.24708557128906 36.282562255859375 36.325279235839844 -9999 -9999
-9999 30.13428497314453 30.97865104675293 31.879234313964844 32.7620964050293 33.57487106323242 34.217674255371094 34.70811080932617 35.05694580078125 35.31834030151367 35.5668830871582 35.855979919433594 36.18155288696289 36.502559661865234 36.75682067871094 36.936073303222656 37.06474685668945 37.2171630859375 37.54978942871094 37.69607162475586
-9999 -9999 31.832578659057617 32.43761444091797 33.207237243652344 33.9963264465332 34.65615463256836 35.15428924560547 35.4888801574707 35.7452278137207 35.987266540527344 36.27256774902344 36.59811782836914 36.933326721191406 37.20690155029297 37.40156555175781 37.546871185302734 37.66423416137695 37.78437423706055 37.82185363769531
-9999 -9999 32.302947998046875 32.85501480102539 33.542659759521484 34.317176818847656 35.00779724121094 35.53427505493164 35.87710952758789 36.12338638305664 36.34144973754883 36.60973358154297 36.92576217651367 37.25261688232422 37.51724624633789 37.70348358154297 37.83505630493164 37.906864166259766 37.921531677246094 37.92089080810547
-9999 -9999 -9999 33.224609375 33.769126892089844 34.49634552001953 35.198936462402344 35.73931121826172 36.08305358886719 36.32051467895508 36.528987884521484 36.7768669128418 37.085426330566406 37.40790939331055 37.67411422729492 37.85174560546875 37.98121643066406 38.00910568237305 37.99861145019531 37.988197326660156
