ncols         20
nrows         20
xllcorner     0
yllcorner     -3.5992928
cellsize      0.17996463
NODATA_value  -9999
-9999.0 -9999 -9999 -9999 -9999 -9999 -9999 -9999 -9999 -9999 -9999 -9999 -9999 -9999 -9999 -9999 -9999 -9999 -9999 -9999
-9999 -9999 -9999 -9999 -9999 -9999 -9999 -9999 -9999 -9999 -9999 0 0 -9999 -9999 0 0 -9999 -9999 -9999
-9999 -9999 -9999 -9999 0 0 0 0 0 0 0 0 0 0 0 0 0 0 -9999 -9999
-9999 -9999 -9999 0 0 0 0 0 0 0 0 0 0 0 0 0 0 0 -9999 -9999
-9999 -9999 -9999 0 0 0 0 0 0 0 0 0 0 0 0 0 0 0 -9999 -9999
-9999 -9999 0 0 0 0 3.904170513153076 3.660428524017334 3.4868950843811035 3.3207833766937256 3.168513298034668 3.1080641746520996 3.17256760597229 3.375115156173706 3.6677346229553223 4.044596195220947 0 0 0 -9999
-9999 -9999 0 0 0 3.837188482284546 3.4566526412963867 3.177978515625 2.918208122253418 2.6471168994903564 2.4089159965515137 2.2931649684906006 2.342744827270508 2.5693325996398926 0.3263618052005768 3.435384511947632 0 0 0 -9999
-9999 -9999 0 0 3.925750732421875 3.4926486015319824 3.129023313522339 2.7880804538726807 2.449399709701538 2.125624895095825 1.8807587623596191 1.7540919780731201 1.7799347639083862 1.967464566230774 2.309177875518799 2.7857484817504883 3.3666129112243652 0 0 -9999
-9999 0 0 4.1700568199157715 3.6707119941711426 3.229827642440796 2.7996389865875244 2.3757755756378174 1.9919350147247314 1.685640811920166 1.4866300821304321 1.3886449337005615 1.3945889472961426 1.5243951082229614 1.7805598974227905 0.4825955927371979 2.66740345954895 3.1927084922790527 0 -9999
-9999 0 0 4.061526775360107 3.4761171340942383 2.926738977432251 2.394923686981201 1.9131256341934204 1.5396203994750977 1.2957061529159546 1.1642417907714844 1.1036931276321411 1.1098464727401733 1.1879795789718628 1.3625595569610596 0.36599576473236084 2.0504181385040283 2.499026298522949 0 -9999
-9999 0 0 3.945044755935669 3.2366812229156494 2.5868546962738037 1.9855340719223022 1.490054965019226 1.1638540029525757 0.9833701848983765 0.8969212174415588 0.8643763661384583 0.8707880973815918 0.9202123880386353 1.029471516609192 1.224759578704834 1.5168585777282715 0 0 -9999
-9999 0 0 3.707580089569092 2.9127650260925293 2.2254741191864014 1.6283267736434937 1.1791695356369019 0.9121313691139221 0.7743493318557739 0.7133705019950867 0.6899629831314087 0.30832043290138245 0.40009796619415283 0.7804927229881287 0.19931431114673615 1.0891032218933105 0 0 -9999
-9999 0 0 3.2741665840148926 2.475971221923828 1.8334670066833496 1.3214222192764282 0.9586970210075378 0.7528562545776367 0.6547953486442566 0.6050750017166138 0.5869580507278442 0.39045244455337524 0.5326528549194336 0.4217240810394287 0.6942073702812195 0.8081677556037903 0 0 -9999
-9999 0 0 2.6962099075317383 1.9579702615737915 1.427593469619751 1.0477933883666992 0.7969872355461121 0.6532583832740784 0.587054431438446 0.5550885200500488 0.5416470766067505 0.23978348076343536 0.42576339840888977 0.37737950682640076 0.6008003950119019 0.6616081595420837 0 0 -9999
-9999 0 0 2.1516990661621094 1.5069363117218018 1.1001055240631104 0.8428124785423279 0.6817046999931335 0.5962560176849365 0.5521049499511719 0.5298929810523987 0.519661545753479 0.5178961753845215 0.5233915448188782 0.3573349416255951 0.31016287207603455 0.594127893447876 0 -9999 -9999
-9999 0 0 1.7743825912475586 1.2241953611373901 0.9003866314888 0.7187565565109253 0.6177343130111694 0.5629269480705261 0.5320874452590942 0.3436962962150574 0.3947644531726837 0.056291013956069946 0.513249933719635 0.2331637591123581 0.24071301519870758 0.5657253265380859 0.08418796956539154 -9999 -9999
-9999 0 0 1.5348308086395264 1.060286283493042 0.7842222452163696 0.6523550152778625 0.5808239579200745 0.5413795709609985 0.3456415832042694 0.4495328962802887 0.5013540983200073 0.39106860756874084 0.5079985857009888 0.5167415142059326 0.5291680097579956 0.5455725193023682 0.5612847208976746 0.4006056785583496 0.5614317655563354
-9999 -9999 0 1.350001573562622 0.9543060064315796 0.7246304750442505 0.6157460808753967 0.5593814849853516 0.2933458387851715 0.4532025456428528 0.5024600028991699 0.4996210038661957 0.4448961615562439 0.39242061972618103 0.3408101499080658 0.34674906730651855 0.35375672578811646 0.42075297236442566 0.48516470193862915 0.5475536584854126
-9999 -9999 0 0 0.8834311962127686 0.6861555576324463 0.5936710238456726 0.5462349057197571 0.3475329875946045 0.5088375806808472 0.5017192959785461 0.498819500207901 0.499319851398468 0.5025464296340942 0.5078302621841431 0.5145357251167297 0.521858274936676 0.528427004814148 0.5324351787567139 0.53422611951828
-9999 -9999 -9999 0 0.8396682739257812 0.6690561771392822 0.5844836831092834 0.5409685969352722 0.34702396392822266 0.5084445476531982 0.5014663338661194 0.49852097034454346 0.4988216161727905 0.5016447305679321 0.5062569379806519 0.5119245052337646 0.517888605594635 0.5230002403259277 0.5264248847961426 0.5280852317810059
