ncols         20
nrows         20
xllcorner     0
yllcorner     -3.5992928
cellsize      0.17996463
NODATA_value  -9999
-9999.0 -9999 -9999 -9999 -9999 -9999 -9999 -9999 -9999 -9999 -9999 -9999 -9999 -9999 -9999 -9999 -9999 -9999 -9999 -9999
-9999 -9999 -9999 -9999 -9999 -9999 -9999 -9999 -9999 -9999 -9999 13.375804901123047 13.377995491027832 -9999 -9999 13.136475563049316 13.203765869140625 -9999 -9999 -9999
-9999 -9999 -9999 -9999 13.199581146240234 13.183483123779297 13.144371032714844 13.161706924438477 13.205985069274902 13.233790397644043 13.342841148376465 13.314308166503906 13.244905471801758 13.18877124786377 13.17165756225586 13.148988723754883 13.186479568481445 13.236248016357422 -9999 -9999
-9999 -9999 -9999 13.138750076293945 13.142122268676758 13.168731689453125 13.203126907348633 13.251363754272461 13.275907516479492 13.283773422241211 13.266425132751465 13.219324111938477 13.153663635253906 13.12351131439209 13.088722229003906 13.071855545043945 13.082300186157227 13.10188102722168 -9999 -9999
-9999 -9999 -9999 13.116796493530273 13.16468334197998 13.243293762207031 13.398470878601074 13.499848365783691 13.555764198303223 13.573751449584961 13.56675910949707 13.537611961364746 13.473678588867188 13.396394729614258 13.283788681030273 13.168882369995117 13.012425422668457 12.863579750061035 -9999 -9999
-9999 -9999 13.081134796142578 13.115406036376953 13.253419876098633 13.534273147583008 13.974479675292969 14.180883407592773 14.292511940002441 14.398711204528809 14.500092506408691 14.548612594604492 14.493195533752441 14.33617115020752 14.097267150878906 13.766369819641113 13.188295364379883 12.866094589233398 12.835267066955566 -9999
-9999 -9999 13.062323570251465 13.19767951965332 13.477851867675781 13.976751327514648 14.346038818359375 14.598647117614746 14.827881813049316 15.076018333435059 15.290684700012207 15.399702072143555 15.364171981811523 15.168221473693848 14.809755325317383 14.319128036499023 13.583037376403809 13.095685958862305 12.890547752380371 -9999
-9999 -9999 12.938292503356934 13.262191772460938 13.79411506652832 14.210987091064453 14.564055442810059 14.913677215576172 15.280306816101074 15.625839233398438 15.884378433227539 16.012941360473633 15.998784065246582 15.829466819763184 15.48961067199707 14.992405891418457 14.35353946685791 13.658184051513672 13.280792236328125 -9999
-9999 12.367581367492676 12.663139343261719 13.391043663024902 13.89543342590332 14.334692001342773 14.803071022033691 15.289624214172363 15.741198539733887 16.09957504272461 16.335546493530273 16.45073127746582 16.4506893157959 16.328861236572266 16.0650691986084 15.643133163452148 15.124556541442871 14.547754287719727 14.049153327941895 -9999
-9999 12.053548812866211 12.400896072387695 13.296690940856934 13.94124698638916 14.558562278747559 15.18777847290039 15.76754379272461 16.21858787536621 16.519826889038086 16.695581436157227 16.778322219848633 16.78049659729004 16.703384399414062 16.525047302246094 16.218040466308594 15.82131290435791 15.353287696838379 14.947128295898438 -9999
-9999 11.713728904724121 12.14896297454834 13.254409790039062 14.123038291931152 14.912983894348145 15.646064758300781 16.242095947265625 16.637731552124023 16.866113662719727 16.98310089111328 17.029077529907227 17.021095275878906 16.975305557250977 16.876789093017578 16.68846321105957 16.41765785217285 16.060142517089844 15.822084426879883 -9999
-9999 11.563678741455078 12.143882751464844 13.448270797729492 14.480351448059082 15.344715118408203 16.077451705932617 16.618440628051758 16.947738647460938 17.124841690063477 17.202022552490234 17.217777252197266 17.177350997924805 17.149784088134766 17.121007919311523 17.01422119140625 16.872955322265625 16.670297622680664 16.553524017333984 -9999
-9999 11.894412994384766 12.599650382995605 13.985992431640625 15.035021781921387 15.839653015136719 16.461877822875977 16.89992332458496 17.164928436279297 17.301694869995117 17.3653507232666 17.37279510498047 17.33524513244629 17.318382263183594 17.302350997924805 17.276582717895508 17.187664031982422 17.073631286621094 17.033540725708008 -9999
-9999 12.757061958312988 13.474328994750977 14.776398658752441 15.719444274902344 16.362821578979492 16.81203269958496 17.11766815185547 17.310375213623047 17.409055709838867 17.454978942871094 17.468467712402344 17.456953048706055 17.46256446838379 17.472368240356445 17.471765518188477 17.415142059326172 17.310359954833984 17.32691764831543 -9999
-9999 13.722233772277832 14.379764556884766 15.52757740020752 16.326515197753906 16.80403709411621 17.097003936767578 17.288013458251953 17.399097442626953 17.458898544311523 17.485326766967773 17.50840950012207 17.531570434570312 17.559553146362305 17.58243751525879 17.59477996826172 17.5806941986084 17.473268508911133 -9999 -9999
-9999 14.423263549804688 15.03367805480957 16.037843704223633 16.71492576599121 17.09391975402832 17.290668487548828 17.39798927307129 17.448606491088867 17.469554901123047 17.469009399414062 17.492277145385742 17.53316879272461 17.585742950439453 17.620441436767578 17.655324935913086 17.68346405029297 17.74028205871582 -9999 -9999
-9999 14.877799034118652 15.513235092163086 16.35091209411621 16.9339599609375 17.26908302307129 17.410053253173828 17.47395133972168 17.48886489868164 17.48249053955078 17.483779907226562 17.505178451538086 17.54386329650879 17.592201232910156 17.633241653442383 17.67072296142578 17.700876235961914 17.72088623046875 17.663921356201172 17.671772003173828
-9999 -9999 16.03750228881836 16.584976196289062 17.068565368652344 17.35934066772461 17.485424041748047 17.530515670776367 17.525150299072266 17.519765853881836 17.51654624938965 17.531145095825195 17.558513641357422 17.602306365966797 17.63707733154297 17.66177749633789 17.687910079956055 17.70126724243164 17.69245147705078 17.665363311767578
-9999 -9999 16.453508377075195 16.791622161865234 17.171138763427734 17.429243087768555 17.55034065246582 17.59296417236328 17.585113525390625 17.571325302124023 17.554685592651367 17.56349754333496 17.586904525756836 17.62185287475586 17.643386840820312 17.65608787536621 17.67157554626465 17.675743103027344 17.647401809692383 17.63067054748535
-9999 -9999 -9999 16.935108184814453 17.226472854614258 17.455528259277344 17.576316833496094 17.617992401123047 17.604106903076172 17.58554458618164 17.569629669189453 17.567596435546875 17.589664459228516 17.621807098388672 17.644325256347656 17.64657974243164 17.664636611938477 17.643413543701172 17.622264862060547 17.612064361572266
