ncols         20
nrows         20
xllcorner     0
yllcorner     -3.5992928
cellsize      0.17996463
NODATA_value  -9999
-9999.0 -9999 -9999 -9999 -9999 -9999 -9999 -9999 -9999 -9999 -9999 -9999 -9999 -9999 -9999 -9999 -9999 -9999 -9999 -9999
-9999 -9999 -9999 -9999 -9999 -9999 -9999 -9999 -9999 -9999 -9999 0 0 -9999 -9999 0 0 -9999 -9999 -9999
-9999 -9999 -9999 -9999 0 0 0 0 0 0 0 0 0 0 0 0 0 0 -9999 -9999
-9999 -9999 -9999 0 0 0 0 0 0 0 0 0 0 0 0 0 0 0 -9999 -9999
-9999 -9999 -9999 0 0 0 0 0 0 0 0 0 0 0 0 0 0 0 -9999 -9999
-9999 -9999 0 0 0 0 3.9018681049346924 3.662454605102539 3.492567539215088 3.3290200233459473 3.1778998374938965 3.1171839237213135 3.1802778244018555 3.3803515434265137 3.6696972846984863 4.0431904792785645 0 0 0 -9999
-9999 -9999 0 0 0 3.833134174346924 3.4574289321899414 3.1829304695129395 2.926431894302368 2.657383441925049 2.4197397232055664 2.303511619567871 2.3521108627319336 2.5771851539611816 0.3269844949245453 3.4383163452148438 0 0 0 -9999
-9999 -9999 0 0 3.919203758239746 3.491201400756836 3.1321475505828857 2.7948873043060303 2.4586105346679688 2.1359241008758545 1.8909069299697876 1.7634600400924683 1.788541316986084 1.975319266319275 2.31595516204834 2.7910513877868652 3.3702752590179443 0 0 -9999
-9999 0 0 4.16002893447876 3.666053533554077 3.2301218509674072 2.8040199279785156 2.3828847408294678 2.0004231929779053 1.6942899227142334 1.4947199821472168 1.3959388732910156 1.4012248516082764 1.5306670665740967 1.7864843606948853 0.4837999641895294 2.672252655029297 3.1969594955444336 0 -9999
-9999 0 0 4.052290916442871 3.472525119781494 2.9278392791748047 2.3991682529449463 1.918988585472107 1.5457653999328613 1.3014503717422485 1.1694334745407104 1.108301043510437 1.1140121221542358 1.191912055015564 1.3664828538894653 0.36688515543937683 2.054561138153076 2.5033857822418213 0 -9999
-9999 0 0 3.9362635612487793 3.233572483062744 2.587801456451416 1.9886375665664673 1.493717908859253 1.167128562927246 0.9860718846321106 0.8991577625274658 0.8662616610527039 0.872418224811554 0.9217345118522644 1.0310752391815186 1.226643443107605 1.5191729068756104 0 0 -9999
-9999 0 0 3.6994080543518066 2.9097111225128174 2.2255163192749023 1.6297982931137085 1.1806988716125488 0.9131453633308411 0.7748379707336426 0.7134969830513 0.6898380517959595 0.3081962466239929 0.39990225434303284 0.7801851034164429 0.19928805530071259 1.089318871498108 0 0 -9999
-9999 0 0 3.266986846923828 2.4728150367736816 1.832489013671875 1.3213424682617188 0.958605170249939 0.7524080276489258 0.6540026664733887 0.6039983034133911 0.5856997966766357 0.3895339071750641 0.5313736200332642 0.4207623302936554 0.6928133964538574 0.8068844676017761 0 0 -9999
-9999 0 0 2.6900124549865723 1.9546308517456055 1.4257451295852661 1.0465489625930786 0.7958210706710815 0.6519383192062378 0.5855487585067749 0.5534246563911438 0.5398672223091125 0.23895542323589325 0.424268901348114 0.3760688304901123 0.5987895727157593 0.6595308780670166 0 0 -9999
-9999 0 0 2.146029233932495 1.5034668445587158 1.0977163314819336 0.8408848643302917 0.6799132823944092 0.5944346785545349 0.5502064824104309 0.5279107689857483 0.5176066756248474 0.5157821774482727 0.5212223529815674 0.35584932565689087 0.3088807463645935 0.5916964411735535 0 -9999 -9999
-9999 0 0 1.768540859222412 1.2204312086105347 0.8976562023162842 0.7164562344551086 0.6155962347984314 0.5608158707618713 0.5299562811851501 0.3422481119632721 0.3930429518222809 0.056040022522211075 0.510932981967926 0.23210547864437103 0.23961834609508514 0.5631465315818787 0.0838022530078888 -9999 -9999
-9999 0 0 1.5285766124725342 1.0561721324920654 0.7812585830688477 0.6498393416404724 0.578494668006897 0.5391061902046204 0.3441304862499237 0.44750428199768066 0.4990348815917969 0.3892282545566559 0.5055844783782959 0.5142722129821777 0.5266290307044983 0.5429383516311646 0.5585376620292664 0.3985794186592102 0.5585564970970154
-9999 -9999 0 1.343338966369629 0.9499040842056274 0.7214614152908325 0.6130988001823425 0.556942343711853 0.2920316159725189 0.4511190354824066 0.5000852346420288 0.4972151815891266 0.44272834062576294 0.3904951512813568 0.33913150429725647 0.3450361490249634 0.3520013093948364 0.41864722967147827 0.4827049672603607 0.5447579026222229
-9999 -9999 0 0 0.8788695335388184 0.68289715051651 0.5909634232521057 0.5437437295913696 0.34591490030288696 0.50640469789505 0.49927404522895813 0.4963568150997162 0.49683454632759094 0.5000337958335876 0.5052862763404846 0.5119551420211792 0.5192356705665588 0.5257611870765686 0.5297349691390991 0.5315073132514954
-9999 -9999 -9999 0 0.8350147008895874 0.6657263040542603 0.5817331671714783 0.5384442210197449 0.3453662395477295 0.5059651136398315 0.49898433685302734 0.49602895975112915 0.49631267786026 0.4991138279438019 0.5037004351615906 0.5093391537666321 0.5152715444564819 0.5203527808189392 0.5237534642219543 0.5254001617431641
