ncols         20
nrows         20
xllcorner     0
yllcorner     -3.5992928
cellsize      0.17996463
NODATA_value  -9999
-9999.0 -9999 -9999 -9999 -9999 -9999 -9999 -9999 -9999 -9999 -9999 -9999 -9999 -9999 -9999 -9999 -9999 -9999 -9999 -9999
-9999 -9999 -9999 -9999 -9999 -9999 -9999 -9999 -9999 -9999 -9999 19.11444091796875 19.121915817260742 -9999 -9999 19.054664611816406 19.054140090942383 -9999 -9999 -9999
-9999 -9999 -9999 -9999 19.05460548400879 19.07581901550293 19.09617042541504 19.12530517578125 19.150787353515625 19.15045928955078 19.182647705078125 19.15549087524414 19.147911071777344 19.1756591796875 19.17032814025879 19.1215763092041 19.100976943969727 19.112548828125 -9999 -9999
-9999 -9999 -9999 19.068811416625977 19.059057235717773 19.07398223876953 19.08885383605957 19.105976104736328 19.108732223510742 19.10665512084961 19.087793350219727 19.084630966186523 19.09409523010254 19.130468368530273 19.147794723510742 19.155534744262695 19.169353485107422 19.192487716674805 -9999 -9999
-9999 -9999 -9999 19.09731101989746 19.090333938598633 19.064075469970703 19.040843963623047 19.012924194335938 18.97492218017578 18.904918670654297 18.83311653137207 18.804357528686523 18.83319091796875 18.92386817932129 19.020832061767578 19.12198257446289 19.220191955566406 19.260093688964844 -9999 -9999
-9999 -9999 19.181644439697266 19.14020347595215 19.100814819335938 19.039958953857422 19.033174514770508 18.939638137817383 18.805479049682617 18.653169631958008 18.514812469482422 18.454355239868164 18.48419761657715 18.615346908569336 18.811511993408203 19.03272819519043 19.161222457885742 19.305023193359375 19.44475746154785 -9999
-9999 -9999 19.241588592529297 19.19496726989746 19.104280471801758 19.05478286743164 18.918851852416992 18.744274139404297 18.541545867919922 18.334871292114258 18.162269592285156 18.074745178222656 18.097253799438477 18.231204986572266 18.433591842651367 18.730026245117188 18.95691680908203 19.200048446655273 19.336288452148438 -9999
-9999 -9999 19.340774536132812 19.23721694946289 19.152475357055664 18.975778579711914 18.757286071777344 18.51991081237793 18.283336639404297 18.067007064819336 17.90469741821289 17.818037033081055 17.826889038085938 17.935142517089844 18.126873016357422 18.391517639160156 18.69261360168457 18.91199493408203 19.08062171936035 -9999
-9999 19.58617401123047 19.46720314025879 19.347248077392578 19.099040985107422 18.82670783996582 18.540237426757812 18.26173973083496 18.021648406982422 17.834636688232422 17.709774017333984 17.64537811279297 17.645614624023438 17.716384887695312 17.855575561523438 18.04572105407715 18.322660446166992 18.579547882080078 18.691614151000977 -9999
-9999 19.61992645263672 19.575769424438477 19.341611862182617 18.988222122192383 18.626676559448242 18.2867488861084 17.997852325439453 17.781803131103516 17.63766860961914 17.553550720214844 17.513965606689453 17.512351989746094 17.55420684814453 17.64314079284668 17.76968002319336 17.982101440429688 18.179237365722656 18.272796630859375 -9999
-9999 19.632099151611328 19.609285354614258 19.271007537841797 18.818803787231445 18.40106964111328 18.04602813720703 17.776939392089844 17.596805572509766 17.49089241027832 17.435413360595703 17.40913963317871 17.40293312072754 17.425050735473633 17.482589721679688 17.57284164428711 17.707292556762695 17.821672439575195 17.907424926757812 -9999
-9999 19.56882095336914 19.493162155151367 19.065690994262695 18.571380615234375 18.15981674194336 17.8393497467041 17.613746643066406 17.475257873535156 17.403175354003906 17.363235473632812 17.339027404785156 17.299333572387695 17.30613136291504 17.362329483032227 17.39944839477539 17.501434326171875 17.579341888427734 17.639114379882812 -9999
-9999 19.396549224853516 19.166732788085938 18.72595977783203 18.269695281982422 17.920175552368164 17.665489196777344 17.498586654663086 17.405536651611328 17.358718872070312 17.335216522216797 17.31591796875 17.277151107788086 17.274343490600586 17.289697647094727 17.341651916503906 17.383310317993164 17.42520523071289 17.468961715698242 -9999
-9999 19.035297393798828 18.731441497802734 18.351015090942383 17.980764389038086 17.712520599365234 17.53097152709961 17.41944122314453 17.36347007751465 17.338960647583008 17.327648162841797 17.318771362304688 17.296232223510742 17.298446655273438 17.311491012573242 17.342208862304688 17.35396957397461 17.347362518310547 17.41585350036621 -9999
-9999 18.60133934020996 18.343320846557617 18.047731399536133 17.76354217529297 17.56560707092285 17.442651748657227 17.374536514282227 17.342668533325195 17.3304500579834 17.3227481842041 17.324716567993164 17.33106231689453 17.34259796142578 17.34770965576172 17.36002540588379 17.380300521850586 17.330686569213867 -9999 -9999
-9999 18.28603172302246 18.069673538208008 17.84307289123535 17.621761322021484 17.478364944458008 17.39457893371582 17.35447883605957 17.332637786865234 17.319486618041992 17.297826766967773 17.30310821533203 17.322298049926758 17.35701560974121 17.368345260620117 17.388551712036133 17.408302307128906 17.4552059173584 -9999 -9999
-9999 18.125865936279297 17.88667106628418 17.707029342651367 17.5374755859375 17.43645477294922 17.37750816345215 17.3521728515625 17.332687377929688 17.30904197692871 17.30291748046875 17.311931610107422 17.33356285095215 17.3659725189209 17.388450622558594 17.4096736907959 17.42689323425293 17.443527221679688 17.416139602661133 17.43889617919922
-9999 -9999 17.684764862060547 17.598947525024414 17.487112045288086 17.41241455078125 17.375499725341797 17.35698127746582 17.33103370666504 17.32223892211914 17.31951904296875 17.328426361083984 17.344087600708008 17.37212371826172 17.39435577392578 17.409822463989258 17.428157806396484 17.441024780273438 17.453575134277344 17.435972213745117
-9999 -9999 17.637359619140625 17.53151512145996 17.456645965576172 17.40816307067871 17.38607406616211 17.3757266998291 17.356822967529297 17.349258422851562 17.3408203125 17.349672317504883 17.365243911743164 17.389019012451172 17.40416717529297 17.415538787841797 17.428197860717773 17.439613342285156 17.423686981201172 17.418527603149414
-9999 -9999 -9999 17.464981079101562 17.433490753173828 17.401029586791992 17.389259338378906 17.382427215576172 17.363710403442383 17.355464935302734 17.35053825378418 17.351869583129883 17.368083953857422 17.390625 17.409597396850586 17.413375854492188 17.433734893798828 17.421829223632812 17.41503143310547 17.412593841552734
