ncols         20
nrows         20
xllcorner     0
yllcorner     -3.5992928
cellsize      0.17996463
NODATA_value  -9999
-9999.0 -9999 -9999 -9999 -9999 -9999 -9999 -9999 -9999 -9999 -9999 -9999 -9999 -9999 -9999 -9999 -9999 -9999 -9999 -9999
-9999 -9999 -9999 -9999 -9999 -9999 -9999 -9999 -9999 -9999 -9999 1.1355856657028198 1.1181093454360962 -9999 -9999 1.0761902332305908 1.011777639389038 -9999 -9999 -9999
-9999 -9999 -9999 -9999 1.157081127166748 1.231742024421692 1.3638010025024414 1.4639551639556885 1.522721767425537 1.5593246221542358 1.4196112155914307 1.3341506719589233 1.3429661989212036 1.3576877117156982 1.2574326992034912 1.1358656883239746 1.0377932786941528 0.9673570990562439 -9999 -9999
-9999 -9999 -9999 1.079279899597168 1.1660387516021729 1.265324354171753 1.4004265069961548 1.5250076055526733 1.6590195894241333 1.774147391319275 1.8548247814178467 1.8589258193969727 1.84929358959198 1.734877109527588 1.5562291145324707 1.341843843460083 1.1664175987243652 1.0680861473083496 -9999 -9999
-9999 -9999 -9999 1.0505231618881226 1.1396307945251465 1.3045177459716797 1.487709641456604 1.685699224472046 1.9314770698547363 2.2738564014434814 2.629361152648926 2.8339478969573975 2.812479019165039 2.5084097385406494 2.1329658031463623 1.7267937660217285 1.4219776391983032 1.342904806137085 -9999 -9999
-9999 -9999 0.8251795768737793 0.962205171585083 1.1087363958358765 1.3014947175979614 1.5036840438842773 1.7349529266357422 2.109142780303955 2.6299827098846436 3.245983600616455 3.6504268646240234 3.7633652687072754 3.409902572631836 2.8107707500457764 2.228189468383789 1.787901759147644 1.5985801219940186 1.4336261749267578 -9999
-9999 -9999 0.7923223972320557 0.8916712403297424 1.0777685642242432 1.2896136045455933 1.4666624069213867 1.648034930229187 1.9782986640930176 2.471306324005127 3.077040433883667 3.631251096725464 4.057379722595215 3.9673681259155273 3.476759672164917 2.8079538345336914 2.2608866691589355 1.8981616497039795 1.7375074625015259 -9999
-9999 -9999 0.7824287414550781 0.9009932279586792 1.1112512350082397 1.3068933486938477 1.414224624633789 1.2993639707565308 1.384526252746582 1.5897657871246338 1.8568309545516968 2.2856898307800293 3.4795923233032227 3.8953354358673096 3.748175621032715 3.2670629024505615 2.75349760055542 2.3337085247039795 2.1547043323516846 -9999
-9999 0.6442629098892212 0.7940022349357605 0.9729121327400208 1.2333654165267944 1.4466339349746704 1.4649773836135864 1.164696455001831 1.0991052389144897 1.1488614082336426 1.28767991065979 1.6581999063491821 2.863173723220825 3.521574020385742 3.7181332111358643 3.5253560543060303 3.1194908618927 2.739001989364624 2.5626444816589355 -9999
-9999 0.7207912802696228 0.859519898891449 1.1328483819961548 1.457003116607666 1.673893928527832 1.603576421737671 1.1105204820632935 0.9328989386558533 0.894160270690918 0.9678959250450134 1.2825185060501099 2.3527300357818604 3.0729854106903076 3.4478113651275635 3.51013445854187 3.2983200550079346 3.0281994342803955 2.896444082260132 -9999
-9999 0.8839146494865417 1.0400346517562866 1.357588768005371 1.692413330078125 1.8789359331130981 1.7260465621948242 1.065772294998169 0.8207361102104187 0.739444375038147 0.7826493978500366 1.0461227893829346 1.9983919858932495 2.6690847873687744 3.097386598587036 3.2942826747894287 3.287116050720215 3.1519103050231934 3.0799102783203125 -9999
-9999 1.1579992771148682 1.3227736949920654 1.6654839515686035 1.974085807800293 2.088280200958252 1.862277865409851 1.0980745553970337 0.8326461911201477 0.7316538095474243 0.7475736737251282 0.9510008096694946 1.7581077814102173 2.314091682434082 2.710625410079956 2.9724907875061035 3.088886022567749 3.0869781970977783 3.077155828475952 -9999
-9999 1.5549166202545166 1.7418735027313232 2.094576597213745 2.315380573272705 2.333592653274536 2.1022207736968994 1.6570675373077393 1.3288649320602417 1.145504117012024 1.119134783744812 1.2637311220169067 1.6146057844161987 1.9501116275787354 2.251488447189331 2.517146587371826 2.725358247756958 2.841616630554199 2.88139271736145 -9999
-9999 2.0101451873779297 2.1947667598724365 2.513441801071167 2.635526418685913 2.5277280807495117 2.241976022720337 1.8634065389633179 1.538219928741455 1.3269215822219849 1.249005913734436 1.2900896072387695 1.4208780527114868 1.5754258632659912 1.733931064605713 1.9285799264907837 2.169422149658203 2.4434478282928467 2.5931880474090576 -9999
-9999 2.3351950645446777 2.478145122528076 2.725945472717285 2.742644786834717 2.5297863483428955 2.20284366607666 1.854478120803833 1.5542043447494507 1.3525506258010864 1.2530189752578735 1.2245235443115234 1.2418500185012817 1.2792001962661743 1.3189622163772583 1.4012116193771362 1.5382962226867676 1.799723744392395 -9999 -9999
-9999 2.429126501083374 2.5130791664123535 2.6713624000549316 2.600254535675049 2.3461289405822754 2.029243230819702 1.715491533279419 1.471351981163025 1.3039093017578125 1.2075631618499756 1.1486960649490356 1.1070846319198608 1.0700020790100098 1.0414600372314453 1.0274300575256348 1.0413457155227661 0.9642067551612854 -9999 -9999
-9999 2.4675745964050293 2.4201200008392334 2.4764294624328613 2.364516019821167 2.104334831237793 1.7989622354507446 1.5285148620605469 1.3334600925445557 1.2000048160552979 1.1148483753204346 1.046146035194397 0.9803305864334106 0.9206594824790955 0.8604098558425903 0.8063011169433594 0.7632119059562683 0.7117345333099365 0.679673433303833 0.6127994060516357
-9999 -9999 2.2161593437194824 2.245034694671631 2.1320321559906006 1.8746616840362549 1.5827133655548096 1.344010591506958 1.1805368661880493 1.0728895664215088 1.0016205310821533 0.9376606941223145 0.8730596899986267 0.793590784072876 0.725890576839447 0.675460159778595 0.6218198537826538 0.5834124088287354 0.552510142326355 0.5817602276802063
-9999 -9999 2.1649246215820312 2.0806612968444824 1.94857656955719 1.6871733665466309 1.400670051574707 1.1756458282470703 1.0272636413574219 0.9404357671737671 0.8963304758071899 0.8397852778434753 0.7736896276473999 0.6949799060821533 0.6369745135307312 0.5961930751800537 0.55833500623703 0.5374569892883301 0.5767800807952881 0.5988945960998535
-9999 -9999 -9999 1.9373464584350586 1.8453941345214844 1.594024419784546 1.3110978603363037 1.0945794582366943 0.9580360054969788 0.8853541016578674 0.8441872000694275 0.8030673265457153 0.7370376586914062 0.6591112613677979 0.5955187678337097 0.5694817900657654 0.5253342986106873 0.5569254755973816 0.5915642976760864 0.6107155680656433
