ncols         20
nrows         20
xllcorner     0
yllcorner     -3.5992928
cellsize      0.17996463
NODATA_value  -9999
-9999.0 -9999 -9999 -9999 -9999 -9999 -9999 -9999 -9999 -9999 -9999 -9999 -9999 -9999 -9999 -9999 -9999 -9999 -9999 -9999
-9999 -9999 -9999 -9999 -9999 -9999 -9999 -9999 -9999 -9999 -9999 0.1346968710422516 0.13480433821678162 -9999 -9999 0.13714121282100677 0.13732007145881653 -9999 -9999 -9999
-9999 -9999 -9999 -9999 0.13416239619255066 0.13413259387016296 0.13413392007350922 0.13418835401535034 0.13431315124034882 0.1345060020685196 0.1347227841615677 0.12475243210792542 0.12508629262447357 0.1360100656747818 0.13663747906684875 0.1269146353006363 0.1274474710226059 0.1384672373533249 -9999 -9999
-9999 -9999 -9999 0.13444869220256805 0.1242031380534172 0.10568677634000778 0.10571947693824768 0.10581830888986588 0.1059858500957489 0.10620804131031036 0.10646198689937592 0.09864480793476105 0.09896668791770935 0.10756519436836243 0.10808771848678589 0.10049117356538773 0.1094147339463234 0.13957248628139496 -9999 -9999
-9999 -9999 -9999 0.1346805989742279 0.10597242414951324 0.0771445706486702 0.07119406014680862 0.07135267555713654 0.07156995683908463 0.07182539999485016 0.07209267467260361 0.06694307923316956 0.06721124053001404 0.07300974428653717 0.07345086336135864 0.07407553493976593 0.11117006838321686 0.1418508142232895 -9999 -9999
-9999 -9999 0.13520507514476776 0.12489733099937439 0.09830941259860992 0.06613551080226898 0.04101245105266571 0.04118448495864868 0.04140666127204895 0.041648127138614655 0.0418885163962841 0.03884648159146309 0.03907352685928345 0.042673565447330475 0.04307792708277702 0.0703083723783493 0.10532594472169876 0.13493065536022186 0.14810872077941895 -9999
-9999 -9999 0.1356232762336731 0.10678733140230179 0.0778757631778717 0.05253547802567482 0.03007206693291664 0.020371470600366592 0.0205443874001503 0.020726917311549187 0.020907681435346603 0.01946459896862507 0.019660990685224533 0.021581260487437248 0.03252488002181053 0.057580698281526566 0.0860482007265091 0.11878591775894165 0.15166659653186798 -9999
-9999 -9999 0.13641788065433502 0.10751786082983017 0.07242012768983841 0.041706930845975876 0.02054722234606743 0.01012655720114708 0.008753026835620403 0.00886615552008152 0.0089824628084898 0.00841517187654972 0.008579179644584656 0.011165876872837543 0.02322555147111416 0.047642920166254044 0.08311879634857178 0.12379010766744614 0.15737700462341309 -9999
-9999 0.13816499710083008 0.12739261984825134 0.10041113197803497 0.06782963126897812 0.03905148059129715 0.01931837387382984 0.008180077187716961 0.0032207793556153774 0.003288860432803631 0.0033590171951800585 0.003165730508044362 0.0035582322161644697 0.010238192044198513 0.024682631716132164 0.05038095638155937 0.08755175769329071 0.1299026757478714 0.16476881504058838 -9999
-9999 0.1397980898618698 0.11009098589420319 0.08044224232435226 0.054475087672472 0.031553059816360474 0.015613728202879429 0.00662852032110095 0.0024556193966418505 0.001638024696148932 0.0016927875112742186 0.0017408636631444097 0.0038315141573548317 0.010908004827797413 0.026162466034293175 0.05327712371945381 0.09244203567504883 0.13696587085723877 0.17351649701595306 -9999
-9999 0.14269547164440155 0.11255867779254913 0.07600074261426926 0.04396432265639305 0.021788060665130615 0.010809633880853653 0.004626734647899866 0.0017286671791225672 0.0017373176524415612 0.0018037387635558844 0.0018589763203635812 0.004081301856786013 0.011556706391274929 0.027639830484986305 0.05622653663158417 0.09750841557979584 0.14438457787036896 0.18280400335788727 -9999
-9999 0.1467619240283966 0.11590263247489929 0.07842475175857544 0.04549110680818558 0.022601304575800896 0.009614995680749416 0.003525889478623867 0.0017410189611837268 0.001827311352826655 0.0019023311324417591 0.0020755769219249487 0.006012461148202419 0.01439735759049654 0.02910635806620121 0.05916222557425499 0.10252519696950912 0.15162527561187744 0.19167384505271912 -9999
-9999 0.1519322395324707 0.12013944983482361 0.08147254586219788 0.047343019396066666 0.023701775819063187 0.010106602683663368 0.003716557053849101 0.0018166872905567288 0.001906204386614263 0.0019879972096532583 0.0032445236574858427 0.009358651004731655 0.02238505147397518 0.04575300216674805 0.07917941361665726 0.11656029522418976 0.15841393172740936 0.19928233325481415 -9999
-9999 0.15806682407855988 0.12524190545082092 0.08544845879077911 0.04975401237607002 0.02476552315056324 0.010551128536462784 0.0038704059552401304 0.0018835123628377914 0.001971670426428318 0.002054263139143586 0.004252563696354628 0.012239914387464523 0.029471205547451973 0.060163334012031555 0.10438410192728043 0.15427863597869873 0.19379344582557678 0.20457252860069275 -9999
-9999 0.16470254957675934 0.1307046115398407 0.08931037038564682 0.05205249786376953 0.02590923383831978 0.01291277352720499 0.0055390833877027035 0.002046565292403102 0.002024510409682989 0.0021049468778073788 0.0047297668643295765 0.01355447806417942 0.032704226672649384 0.06697185337543488 0.11671067774295807 0.17280682921409607 0.21899746358394623 -9999 -9999
-9999 0.17063795030117035 0.1363144814968109 0.10065913945436478 0.06897035241127014 0.0402519516646862 0.020094064995646477 0.008528160862624645 0.003392766695469618 0.0020644061733037233 0.0021434929221868515 0.0048090796917676926 0.013795699924230576 0.03334968164563179 0.0684574618935585 0.11964569240808487 0.1782734990119934 0.22624269127845764 -9999 -9999
-9999 0.17481155693531036 0.1654413789510727 0.13250035047531128 0.09047511219978333 0.05271027237176895 0.0283662099391222 0.01406773366034031 0.006000329740345478 0.0022042414639145136 0.0021711760200560093 0.004476522095501423 0.012921382673084736 0.03128984570503235 0.0643351748585701 0.11261781305074692 0.16844892501831055 0.21592238545417786 0.2382146418094635 0.2400626242160797
-9999 -9999 0.1851690113544464 0.14770859479904175 0.10867928713560104 0.07406625151634216 0.0429808609187603 0.021362673491239548 0.009035823866724968 0.0033278432674705982 0.0021880909334868193 0.003553994232788682 0.010294316336512566 0.02503502182662487 0.05139623582363129 0.09022997319698334 0.13499030470848083 0.1726551502943039 0.18856966495513916 0.1895148605108261
-9999 -9999 0.18865685164928436 0.17637723684310913 0.1402844786643982 0.09523363411426544 0.055209238082170486 0.027303041890263557 0.011550290510058403 0.004234988708049059 0.0021968474611639977 0.0023981076665222645 0.006967880763113499 0.016914384439587593 0.034971605986356735 0.061106279492378235 0.09178268164396286 0.11711762100458145 0.12727892398834229 0.12766964733600616
-9999 -9999 -9999 0.1935366690158844 0.15344248712062836 0.10397396981716156 0.06014223024249077 0.02970435470342636 0.012552187778055668 0.0046127550303936005 0.0022009469103068113 0.00227889372035861 0.004010066855698824 0.009704726748168468 0.02012021094560623 0.035157348960638046 0.05286175012588501 0.06712275743484497 0.07306338101625443 0.07321622967720032
