ncols         20
nrows         20
xllcorner     0
yllcorner     -3.5992928
cellsize      0.17996463
NODATA_value  -9999
-9999.0 -9999 -9999 -9999 -9999 -9999 -9999 -9999 -9999 -9999 -9999 -9999 -9999 -9999 -9999 -9999 -9999 -9999 -9999 -9999
-9999 -9999 -9999 -9999 -9999 -9999 -9999 -9999 -9999 -9999 -9999 3.1795082092285156 3.1914470195770264 -9999 -9999 3.365567207336426 3.3673627376556396 -9999 -9999 -9999
-9999 -9999 -9999 -9999 3.3314266204833984 3.292884588241577 3.235602855682373 3.1653189659118652 3.0995471477508545 3.055800199508667 3.043698310852051 3.0878758430480957 3.1296801567077637 3.1750307083129883 3.2372279167175293 3.303633689880371 3.3318066596984863 3.340724468231201 -9999 -9999
-9999 -9999 -9999 3.3694419860839844 3.318871021270752 3.2368526458740234 3.1390528678894043 3.0330071449279785 2.942272901535034 2.8837008476257324 2.8669521808624268 2.8961362838745117 2.958314895629883 3.0414178371429443 3.1321301460266113 3.2126033306121826 3.2724273204803467 3.3124494552612305 -9999 -9999
-9999 -9999 -9999 3.3638854026794434 3.272256851196289 3.13091778755188 2.9569742679595947 2.7764694690704346 2.633693218231201 2.545776844024658 2.5177507400512695 2.5526154041290283 2.6449458599090576 2.7747573852539062 2.9188036918640137 3.052093744277954 3.1619021892547607 3.23671293258667 -9999 -9999
-9999 -9999 3.4608216285705566 3.3704047203063965 3.207650661468506 2.9714441299438477 2.674469470977783 2.3709378242492676 2.160041093826294 2.0431504249572754 2.009415626525879 2.0617527961730957 2.200934410095215 2.3874826431274414 2.592334270477295 2.7878172397613525 2.952005624771118 3.0627293586730957 3.0684545040130615 -9999
-9999 -9999 3.482435703277588 3.355829954147339 3.116999626159668 2.756107807159424 2.284996271133423 1.7767419815063477 1.509771704673767 1.393937587738037 1.3809300661087036 1.4748615026474 1.7083518505096436 1.9531961679458618 2.1982550621032715 2.436979055404663 2.6450347900390625 2.800560474395752 2.8769524097442627 -9999
-9999 -9999 3.5312652587890625 3.3521151542663574 3.0180273056030273 2.516946792602539 1.8339968919754028 0.8764006495475769 0.6559970378875732 0.6066874861717224 0.6336585879325867 0.764668345451355 1.2439357042312622 1.5592544078826904 1.8192843198776245 2.058206558227539 2.2781639099121094 2.456895112991333 2.5600078105926514 -9999
-9999 3.7330405712127686 3.5888993740081787 3.3280856609344482 2.9075334072113037 2.320011854171753 1.5794200897216797 0.670792281627655 0.43911921977996826 0.3883899450302124 0.42072850465774536 0.5570762753486633 0.9696685671806335 1.2636408805847168 1.503555178642273 1.7168858051300049 1.9109821319580078 2.0804965496063232 2.185244083404541 -9999
-9999 3.6880602836608887 3.532160758972168 3.2242588996887207 2.75171160697937 2.1371591091156006 1.4229893684387207 0.6186969876289368 0.3932199478149414 0.3373202383518219 0.36427128314971924 0.48544710874557495 0.8150243759155273 1.058884620666504 1.2608494758605957 1.4386330842971802 1.5996413230895996 1.7410447597503662 1.8322019577026367 -9999
-9999 3.5406975746154785 3.3626177310943604 3.019880771636963 2.531249761581421 1.9453768730163574 1.308929204940796 0.620186984539032 0.41568413376808167 0.3591184914112091 0.3772136867046356 0.47556793689727783 0.7347649335861206 0.9266117811203003 1.0857317447662354 1.2268003225326538 1.3553818464279175 1.4715033769607544 1.5497362613677979 -9999
-9999 3.2565295696258545 3.0643651485443115 2.7119874954223633 2.2528321743011475 1.7469347715377808 1.227818489074707 0.6727828979492188 0.49741238355636597 0.44043007493019104 0.4461391270160675 0.5164995193481445 0.70937579870224 0.8494906425476074 0.9673043489456177 1.0749764442443848 1.1763871908187866 1.2723091840744019 1.3405861854553223 -9999
-9999 2.8534224033355713 2.6632325649261475 2.3360259532928467 1.9538544416427612 1.564638376235962 1.1926578283309937 0.8719189167022705 0.6987480521202087 0.6204437613487244 0.6054219007492065 0.6425039768218994 0.7278763651847839 0.8124277591705322 0.8931400775909424 0.9721312522888184 1.0527359247207642 1.135198950767517 1.200264811515808 -9999
-9999 2.406662702560425 2.237912178039551 1.976854681968689 1.686583161354065 1.3992390632629395 1.1372194290161133 0.9252220392227173 0.7903169393539429 0.7182445526123047 0.6934589743614197 0.7055928707122803 0.7449542284011841 0.7939453721046448 0.8474361896514893 0.9056052565574646 0.9720478057861328 1.046774983406067 1.1247421503067017 -9999
-9999 2.029966115951538 1.8939642906188965 1.6884022951126099 1.4687144756317139 1.2580046653747559 1.0717437267303467 0.9241840243339539 0.8227835893630981 0.7638088464736938 0.7377676367759705 0.7372557520866394 0.7551280856132507 0.7834228873252869 0.8184130787849426 0.8604416847229004 0.9115644693374634 0.9583237171173096 -9999 -9999
-9999 1.768410563468933 1.6437585353851318 1.4742059707641602 1.3031842708587646 1.145307183265686 1.0099596977233887 0.9039031267166138 0.8283844590187073 0.7816760540008545 0.7580649256706238 0.7523627281188965 0.7599198818206787 0.7764803171157837 0.7995829582214355 0.829090416431427 0.8673481941223145 0.9015268087387085 -9999 -9999
-9999 1.6219618320465088 1.4707257747650146 1.3225864171981812 1.1825249195098877 1.059974193572998 0.958895206451416 0.88010573387146 0.8230485320091248 0.7864207625389099 0.766276478767395 0.7590321898460388 0.761613130569458 0.7713844776153564 0.7866299152374268 0.8067909479141235 0.8325717449188232 0.8572693467140198 0.8564538955688477 0.8570252656936646
-9999 -9999 1.3023231029510498 1.2072824239730835 1.0965259075164795 0.9993377923965454 0.9206758737564087 0.8596159815788269 0.815120279788971 0.7859978079795837 0.7690303921699524 0.761682391166687 0.7618262767791748 0.7676534652709961 0.7777179479598999 0.7910462021827698 0.806756854057312 0.8225277662277222 0.8298381567001343 0.8322984576225281
-9999 -9999 1.2225234508514404 1.1378682851791382 1.0443392992019653 0.961138129234314 0.8956286907196045 0.8452838659286499 0.8087522983551025 0.7844411134719849 0.7696688175201416 0.7625859975814819 0.761576235294342 0.7651992440223694 0.7721462249755859 0.7813228368759155 0.7915533781051636 0.800916314125061 0.8066287040710449 0.8091236352920532
-9999 -9999 -9999 1.0814517736434937 1.015069842338562 0.941709041595459 0.8830710649490356 0.8379467725753784 0.8053083419799805 0.7833065390586853 0.7696582078933716 0.7627744674682617 0.7613039016723633 0.7639458775520325 0.7694633603096008 0.7767293453216553 0.7846338748931885 0.791602611541748 0.7963260412216187 0.7986087203025818
