ncols         20
nrows         20
xllcorner     0
yllcorner     -3.5992928
cellsize      0.17996463
NODATA_value  -9999
-9999.0 -9999 -9999 -9999 -9999 -9999 -9999 -9999 -9999 -9999 -9999 -9999 -9999 -9999 -9999 -9999 -9999 -9999 -9999 -9999
-9999 -9999 -9999 -9999 -9999 -9999 -9999 -9999 -9999 -9999 -9999 0.018023336306214333 0.018021726980805397 -9999 -9999 0.018100637942552567 0.018107261508703232 -9999 -9999 -9999
-9999 -9999 -9999 -9999 0.018178753554821014 0.018139462918043137 0.01808122918009758 0.0180099755525589 0.017938530072569847 0.017881158739328384 0.017851026728749275 0.037853457033634186 0.03784411773085594 0.017831891775131226 0.017854511737823486 0.03798583149909973 0.038029350340366364 0.0179436095058918 -9999 -9999
-9999 -9999 -9999 0.01807623729109764 0.03825737163424492 0.0795477032661438 0.0792699083685875 0.07890687137842178 0.0785360187292099 0.07822611927986145 0.07802889496088028 0.09390391409397125 0.09385833144187927 0.0778953954577446 0.07799186557531357 0.09417988359928131 0.0783689022064209 0.017776047810912132 -9999 -9999
-9999 -9999 -9999 0.01793528161942959 0.07904902845621109 0.11414938420057297 0.113658607006073 0.11302430182695389 0.11238457262516022 0.11184769123792648 0.11148889362812042 0.11135692149400711 0.11128710955381393 0.11125940829515457 0.11141509562730789 0.11168757826089859 0.07730457186698914 0.01749328151345253 -9999 -9999
-9999 -9999 0.017668312415480614 0.03747618943452835 0.0940832570195198 0.11275980621576309 0.11209901422262192 0.1112888902425766 0.11049699038267136 0.10984630882740021 0.10939706861972809 0.10916128009557724 0.10908249020576477 0.10913894325494766 0.10933330655097961 0.1095590740442276 0.09115173667669296 0.03614097088575363 0.016959642991423607 -9999
-9999 -9999 0.017491914331912994 0.07704643160104752 0.11135397851467133 0.1108333095908165 0.10993041098117828 0.10888759791851044 0.10791933536529541 0.10714426636695862 0.10661804676055908 0.10632767528295517 0.10622698813676834 0.10630155354738235 0.10654239356517792 0.1068369522690773 0.10691410303115845 0.07369794696569443 0.016709499061107635 -9999
-9999 -9999 0.017220888286828995 0.07589639723300934 0.10938230156898499 0.10855382680892944 0.10738404840230942 0.10615314543247223 0.10511026531457901 0.10428984463214874 0.10370585322380066 0.10334784537553787 0.10318762063980103 0.10320982336997986 0.10340747237205505 0.10376164317131042 0.10409750789403915 0.07205835729837418 0.016347771510481834 -9999
-9999 0.016819102689623833 0.03569585457444191 0.0895749107003212 0.10711954534053802 0.10604962706565857 0.10467254370450974 0.10338403284549713 0.10229530185461044 0.10143528133630753 0.10080211609601974 0.10038704425096512 0.10017053037881851 0.1001361757516861 0.10027121007442474 0.10055004060268402 0.10090869665145874 0.06997247040271759 0.01589594967663288 -9999
-9999 0.016632743179798126 0.07312705367803574 0.10553097724914551 0.10476572066545486 0.10344751924276352 0.10196615010499954 0.10064388066530228 0.09953170269727707 0.09864263236522675 0.09796804189682007 0.09750362485647202 0.09723556786775589 0.09714800119400024 0.09722336381673813 0.0974326878786087 0.09771355241537094 0.06774679571390152 0.01540073286741972 -9999
-9999 0.016376391053199768 0.07193917036056519 0.10342218726873398 0.10233168303966522 0.1007973700761795 0.0992998331785202 0.09797453135251999 0.09685559570789337 0.09594661742448807 0.09523943066596985 0.09473434090614319 0.09442193061113358 0.09428732097148895 0.09431500732898712 0.09448131173849106 0.09473095089197159 0.0656607523560524 0.014917746186256409 -9999
-9999 0.01606309972703457 0.07046221196651459 0.10107170790433884 0.0997944101691246 0.09819722920656204 0.09671385586261749 0.0954064428806305 0.09429169446229935 0.09337101876735687 0.09263896942138672 0.09210047870874405 0.09174952656030655 0.09157209098339081 0.09156229346990585 0.09171859174966812 0.09201040863990784 0.06384125351905823 0.014501574449241161 -9999
-9999 0.01571602001786232 0.0688360333442688 0.09857112914323807 0.09719213098287582 0.09566221386194229 0.0942370817065239 0.09296750277280807 0.09186804294586182 0.0909445509314537 0.09019224345684052 0.08962170779705048 0.08922729641199112 0.08899987488985062 0.08894726634025574 0.08910238742828369 0.08956131339073181 0.06239147111773491 0.014171146787703037 -9999
-9999 0.015360414981842041 0.06717909872531891 0.09604968130588531 0.09467490762472153 0.09325402975082397 0.09191034734249115 0.09069280326366425 0.08961963653564453 0.08870594203472137 0.08794459700584412 0.08734094351530075 0.0868922770023346 0.08659384399652481 0.0864558145403862 0.08650704473257065 0.07197094708681107 0.029101494699716568 0.01393131073564291 -9999
-9999 0.015026740729808807 0.06563467532396317 0.09367380291223526 0.09236470609903336 0.09103730320930481 0.08977730572223663 0.08862138539552689 0.08759436011314392 0.08670089393854141 0.08593495935201645 0.08529806137084961 0.08478697389364243 0.08439922332763672 0.08413942903280258 0.08401355892419815 0.05804020166397095 0.013160448521375656 -9999 -9999
-9999 0.014750050380825996 0.06402603536844254 0.09161873161792755 0.0902877151966095 0.08904484659433365 0.08787470310926437 0.08679850399494171 0.08582621067762375 0.08496219664812088 0.0841987133026123 0.08353378623723984 0.08296208083629608 0.08247940987348557 0.08208589255809784 0.08177927881479263 0.05597155541181564 0.012669902294874191 -9999 -9999
-9999 0.014554710127413273 0.030254345387220383 0.0742020383477211 0.08836953341960907 0.08729177713394165 0.08624514192342758 0.08525815606117249 0.08434701710939407 0.08351737260818481 0.08276016265153885 0.08207381516695023 0.08145071566104889 0.08088213950395584 0.08035647869110107 0.07984521239995956 0.06560037285089493 0.02580288052558899 0.011898700147867203 0.011782636865973473
-9999 -9999 0.013901475816965103 0.060364317148923874 0.08680576086044312 0.08585555106401443 0.08493401110172272 0.08403878659009933 0.08318880945444107 0.08239289373159409 0.08164555579423904 0.08094624429941177 0.0802864134311676 0.07965392619371414 0.0790291428565979 0.07836326956748962 0.07753605395555496 0.06355717778205872 0.05213221535086632 0.051824212074279785
-9999 -9999 0.013529406860470772 0.028676128014922142 0.07084688544273376 0.08474937081336975 0.08398602157831192 0.08318047225475311 0.08238378167152405 0.08161706477403641 0.08088083565235138 0.08017587661743164 0.07949450612068176 0.07882621884346008 0.07815595716238022 0.0774555578827858 0.0766877830028534 0.07585767656564713 0.0752035453915596 0.07486488670110703
-9999 -9999 -9999 0.01319691352546215 0.05820610001683235 0.0841347724199295 0.08347902446985245 0.08273064345121384 0.0819658413529396 0.0812157392501831 0.08048711717128754 0.0797811895608902 0.07909074425697327 0.07840776443481445 0.07772255688905716 0.07702288031578064 0.07630476355552673 0.07561483234167099 0.07507568597793579 0.07478494942188263
