ncols         20
nrows         20
xllcorner     0
yllcorner     -3.5992928
cellsize      0.17996463
NODATA_value  -9999
-9999.0 -9999 -9999 -9999 -9999 -9999 -9999 -9999 -9999 -9999 -9999 -9999 -9999 -9999 -9999 -9999 -9999 -9999 -9999 -9999
-9999 -9999 -9999 -9999 -9999 -9999 -9999 -9999 -9999 -9999 -9999 0 0 -9999 -9999 0 0 -9999 -9999 -9999
-9999 -9999 -9999 -9999 0 0 0 0 0 0 0 0 0 0 0 0 0 0 -9999 -9999
-9999 -9999 -9999 0 0 0 0 0 0 0 0 0 0 0 0 0 0 0 -9999 -9999
-9999 -9999 -9999 0 0 0 0 0 0 0 0 0 0 0 0 0 0 0 -9999 -9999
-9999 -9999 0 0 0 0 3.455765962600708 3.2982239723205566 3.142772674560547 2.947755813598633 2.7421395778656006 2.6448211669921875 2.7024648189544678 2.9261317253112793 3.226203441619873 3.5424702167510986 0 0 0 -9999
-9999 -9999 0 0 0 3.5089926719665527 3.2536909580230713 3.009021759033203 2.715331792831421 2.364961624145508 2.0388219356536865 1.8685730695724487 1.9112051725387573 2.1752657890319824 0.28787392377853394 3.0920333862304688 0 0 0 -9999
-9999 -9999 0 0 3.6810123920440674 3.3896703720092773 3.073435068130493 2.7027735710144043 2.2816381454467773 1.8528447151184082 1.5190997123718262 1.3376250267028809 1.3519595861434937 1.5686570405960083 1.9654171466827393 2.4885683059692383 3.056149482727051 0 0 -9999
-9999 0 0 3.9783730506896973 3.638483762741089 3.2521591186523438 2.789919137954712 2.2757108211517334 1.7819737195968628 1.3773860931396484 1.1096644401550293 0.9707229733467102 0.9617320895195007 1.105473279953003 1.3988053798675537 0.40927720069885254 2.375488519668579 2.8887922763824463 0 -9999
-9999 0 0 4.044312477111816 3.545496702194214 2.9659416675567627 2.333308696746826 1.7252013683319092 1.244023084640503 0.9278770685195923 0.7553581595420837 0.6699666380882263 0.6645290851593018 0.7432470917701721 0.9350056052207947 0.2780662477016449 1.6945399045944214 2.1497254371643066 0 -9999
-9999 0 0 4.010617256164551 3.314098596572876 2.5731678009033203 1.8302621841430664 1.1994508504867554 0.7847862839698792 0.5577491521835327 0.4485433101654053 0.40313398838043213 0.40074995160102844 0.4447632431983948 0.5544112324714661 0.7593929171562195 1.0625213384628296 0 0 -9999
-9999 0 0 3.764772653579712 2.92454195022583 2.1196646690368652 1.3776075839996338 0.8104292154312134 0.47763791680336 0.3096378743648529 0.23601461946964264 0.20454105734825134 0.08932030946016312 0.12085454165935516 0.2663861811161041 0.08284876495599747 0.5539966225624084 0 0 -9999
-9999 0 0 3.22241473197937 2.357325315475464 1.6069108247756958 0.9817124605178833 0.5335937142372131 0.2841712534427643 0.17020180821418762 0.11196564882993698 0.08884473145008087 0.05367034673690796 0.07367460429668427 0.06687773764133453 0.14011581242084503 0.22841881215572357 0 0 -9999
-9999 0 0 2.472745895385742 1.669888973236084 1.0677181482315063 0.6240295171737671 0.3292302191257477 0.16359740495681763 0.09299909323453903 0.059653207659721375 0.04377295449376106 0.015977125614881516 0.026181761175394058 0.024009305983781815 0.04645766690373421 0.07118731737136841 0 0 -9999
-9999 0 0 1.7757306098937988 1.0774753093719482 0.6360658407211304 0.3572002053260803 0.18334932625293732 0.09741578996181488 0.05636080726981163 0.036362212151288986 0.025473011657595634 0.019575754180550575 0.016775919124484062 0.01043866015970707 0.009491796605288982 0.021479757502675056 0 -9999 -9999
-9999 0 0 1.3149688243865967 0.72194904088974 0.38138455152511597 0.19970755279064178 0.10633303225040436 0.06085989624261856 0.03714030236005783 0.01649022474884987 0.01352828461676836 0.001549413544125855 0.015274242497980595 0.007532963529229164 0.008339199237525463 0.020496027544140816 0.0031199376098811626 -9999 -9999
-9999 0 0 1.041020154953003 0.5291799902915955 0.23977495729923248 0.12085605412721634 0.06452934443950653 0.038151953369379044 0.016210461035370827 0.014969971030950546 0.014939327724277973 0.012459025718271732 0.01762927509844303 0.019575653597712517 0.021693114191293716 0.023896055296063423 0.02633247897028923 0.02140400931239128 0.03165743872523308
-9999 -9999 0 0.8418940305709839 0.41143107414245605 0.17427361011505127 0.08068355917930603 0.04181262478232384 0.013711103238165379 0.014594992622733116 0.01617366448044777 0.016743255779147148 0.016017267480492592 0.01543979812413454 0.014674371108412743 0.016206888481974602 0.017757399007678032 0.022492418065667152 0.027636932209134102 0.03220762684941292
-9999 -9999 0 0 0.3269541561603546 0.13151249289512634 0.05699974298477173 0.028085002675652504 0.012340771034359932 0.01760089583694935 0.0175066739320755 0.018210720270872116 0.019630953669548035 0.021605417132377625 0.02388211153447628 0.026238325983285904 0.028506675735116005 0.030477426946163177 0.031950194388628006 0.032717976719141006
-9999 -9999 -9999 0 0.27901461720466614 0.11440262943506241 0.048001859337091446 0.023058274760842323 0.012723741121590137 0.018273811787366867 0.018255379050970078 0.019020505249500275 0.020511558279395103 0.022555937990546227 0.024888839572668076 0.02724498137831688 0.029453296214342117 0.03119661659002304 0.032404880970716476 0.03302270546555519
