ncols         20
nrows         20
xllcorner     0
yllcorner     -3.5992928
cellsize      0.17996463
NODATA_value  -9999
-9999.0 -9999 -9999 -9999 -9999 -9999 -9999 -9999 -9999 -9999 -9999 -9999 -9999 -9999 -9999 -9999 -9999 -9999 -9999 -9999
-9999 -9999 -9999 -9999 -9999 -9999 -9999 -9999 -9999 -9999 -9999 1.134407877922058 1.1169288158416748 -9999 -9999 1.0737431049346924 1.0094057321548462 -9999 -9999 -9999
-9999 -9999 -9999 -9999 1.1550925970077515 1.2297601699829102 1.3619344234466553 1.4624234437942505 1.5216546058654785 1.5586754083633423 1.4192173480987549 1.333575963973999 1.342281699180603 1.356916069984436 1.2562452554702759 1.1340579986572266 1.0358856916427612 0.9656467437744141 -9999 -9999
-9999 -9999 -9999 1.078112244606018 1.1646009683609009 1.2639045715332031 1.3992453813552856 1.5243033170700073 1.6589645147323608 1.7747751474380493 1.8559900522232056 1.8602144718170166 1.8503787517547607 1.7354161739349365 1.5560137033462524 1.3409444093704224 1.1652178764343262 1.0668572187423706 -9999 -9999
-9999 -9999 -9999 1.0501503944396973 1.1392321586608887 1.3043524026870728 1.4881314039230347 1.6871291399002075 1.9343163967132568 2.2785112857818604 2.6357321739196777 2.8410420417785645 2.819028377532959 2.513106346130371 2.1356217861175537 1.7278562784194946 1.4221714735031128 1.3428175449371338 -9999 -9999
-9999 -9999 0.8266419172286987 0.9632635712623596 1.109955072402954 1.3034027814865112 1.506905198097229 1.740254282951355 2.117527961730957 2.642306327819824 3.262498140335083 3.6686182022094727 3.7800955772399902 3.4225168228149414 2.8188586235046387 2.2328805923461914 1.7905962467193604 1.6006267070770264 1.4359453916549683 -9999
-9999 -9999 0.7946854829788208 0.8942157626152039 1.0811349153518677 1.2945773601531982 1.4741570949554443 1.6595139503479004 1.9947264194488525 2.4939463138580322 3.106053352355957 3.6633565425872803 4.086233615875244 3.9897074699401855 3.492288589477539 2.8178629875183105 2.267266035079956 1.9027270078659058 1.7415523529052734 -9999
-9999 -9999 0.786419153213501 0.9057338237762451 1.1177873611450195 1.3162685632705688 1.4280383586883545 1.320089340209961 1.4102863073349 1.621666431427002 1.8953990936279297 2.3299896717071533 3.517639398574829 3.925487756729126 3.7704765796661377 3.282583713531494 2.7642571926116943 2.341585874557495 2.161475658416748 -9999
-9999 0.6500939726829529 0.8003273010253906 0.9808504581451416 1.244612693786621 1.4624830484390259 1.4861664772033691 1.1912058591842651 1.1286317110061646 1.1818031072616577 1.3247209787368774 1.6998014450073242 2.903146266937256 3.5558457374572754 3.7455594539642334 3.545961856842041 3.1344332695007324 2.750291347503662 2.5723981857299805 -9999
-9999 0.7282060980796814 0.8682975769042969 1.1451215744018555 1.4746438264846802 1.6977994441986084 1.6330689191818237 1.1420198678970337 0.964676022529602 0.9267284274101257 1.0022820234298706 1.3204107284545898 2.3922998905181885 3.109365701675415 3.4787817001342773 3.534783363342285 3.3169288635253906 3.042635440826416 2.909046173095703 -9999
-9999 0.8941304087638855 1.0523790121078491 1.3748201131820679 1.716293215751648 1.9098315238952637 1.7621312141418457 1.1006532907485962 0.8537495136260986 0.7716508507728577 0.8155658841133118 1.081954002380371 2.0384089946746826 2.7075817584991455 3.1316580772399902 3.3226332664489746 3.3094215393066406 3.1694979667663574 3.0952906608581543 -9999
-9999 1.1721186637878418 1.3394246101379395 1.6878883838653564 2.0034019947052 2.1241183280944824 1.9024310111999512 1.135528802871704 0.8674304485321045 0.7650887370109558 0.78118896484375 0.9870163798332214 1.799045443534851 2.3542983531951904 2.7475051879882812 3.004444122314453 3.115177631378174 3.1083507537841797 3.0958588123321533 -9999
-9999 1.5734351873397827 1.763285756111145 2.121990919113159 2.3486952781677246 2.37215518951416 2.1445491313934326 1.700164556503296 1.3707857131958008 1.1861040592193604 1.1593042612075806 1.3043773174285889 1.655644416809082 1.9897385835647583 2.2884349822998047 2.5505032539367676 2.754789352416992 2.866914987564087 2.9034037590026855 -9999
-9999 2.0319602489471436 2.219303607940674 2.5432989597320557 2.6700351238250732 2.5660195350646973 2.283224105834961 1.9058998823165894 1.5803784132003784 1.3683369159698486 1.289829969406128 1.330363154411316 1.4600074291229248 1.6125831604003906 1.7685099840164185 1.9608086347579956 2.1995935440063477 2.4716289043426514 2.616614580154419 -9999
-9999 2.3571956157684326 2.502230167388916 2.7542810440063477 2.774481773376465 2.5643067359924316 2.239907741546631 1.8931541442871094 1.5935776233673096 1.3921018838882446 1.292414665222168 1.2630513906478882 1.2786448001861572 1.3136143684387207 1.3505542278289795 1.430861473083496 1.56704843044281 1.8299269676208496 -9999 -9999
-9999 2.4487457275390625 2.5340027809143066 2.6955244541168213 2.627256155014038 2.375154972076416 2.060687780380249 1.7492806911468506 1.507006049156189 1.3407838344573975 1.2449753284454346 1.1854510307312012 1.1419100761413574 1.10200834274292 1.0705572366714478 1.0541415214538574 1.0668152570724487 0.9870487451553345 -9999 -9999
-9999 2.4852285385131836 2.4374990463256836 2.496110200881958 2.386884927749634 2.1287949085235596 1.8254804611206055 1.5576868057250977 1.3650628328323364 1.2334403991699219 1.1492985486984253 1.080214023590088 1.012629508972168 0.9504923820495605 0.8874238729476929 0.8308189511299133 0.786036491394043 0.7335342168807983 0.7027092576026917 0.6343545913696289
-9999 -9999 2.2300713062286377 2.2610740661621094 2.150820732116699 1.8956689834594727 1.6057333946228027 1.3694016933441162 1.2083303928375244 1.1026850938796997 1.0326752662658691 0.9686943888664246 0.9028493165969849 0.8208358287811279 0.7506200075149536 0.6982349753379822 0.642744779586792 0.6033602952957153 0.5720710158348083 0.6027110815048218
-9999 -9999 2.1774168014526367 2.0946044921875 1.9649747610092163 1.7057583332061768 1.4211292266845703 1.1978996992111206 1.0514931678771973 0.9666045308113098 0.9242615103721619 0.8679243326187134 0.8007124662399292 0.7197246551513672 0.659765362739563 0.617518424987793 0.57834792137146 0.5568928122520447 0.5978867411613464 0.6209595799446106
-9999 -9999 -9999 1.950566053390503 1.8606141805648804 1.6114752292633057 1.330308198928833 1.1153689622879028 0.9806645512580872 0.910014271736145 0.8705612421035767 0.830121636390686 0.7630429267883301 0.6829537749290466 0.6172897815704346 0.5903778672218323 0.5446742177009583 0.5775234699249268 0.6135590076446533 0.6334928870201111
