ncols         20
nrows         20
xllcorner     0
yllcorner     -3.5992928
cellsize      0.17996463
NODATA_value  -9999
-9999.0 -9999 -9999 -9999 -9999 -9999 -9999 -9999 -9999 -9999 -9999 -9999 -9999 -9999 -9999 -9999 -9999 -9999 -9999 -9999
-9999 -9999 -9999 -9999 -9999 -9999 -9999 -9999 -9999 -9999 -9999 1.1335890293121338 1.1161624193191528 -9999 -9999 1.074621558189392 1.0103166103363037 -9999 -9999 -9999
-9999 -9999 -9999 -9999 1.1546049118041992 1.2291388511657715 1.36097252368927 1.4609848260879517 1.51970636844635 1.55631422996521 1.416948676109314 1.3317430019378662 1.3406171798706055 1.3554047346115112 1.2554197311401367 1.1341485977172852 1.036270260810852 0.9659538269042969 -9999 -9999
-9999 -9999 -9999 1.0768373012542725 1.1634607315063477 1.2625794410705566 1.3974577188491821 1.5218557119369507 1.6556850671768188 1.7706727981567383 1.8512773513793945 1.8554729223251343 1.8459755182266235 1.7318962812423706 1.553684949874878 1.3397578001022339 1.1646732091903687 1.066523790359497 -9999 -9999
-9999 -9999 -9999 1.0480482578277588 1.1369917392730713 1.3015657663345337 1.484440803527832 1.6821080446243286 1.9274846315383911 2.269277334213257 2.624196767807007 2.8285226821899414 2.8072752952575684 2.5039803981781006 2.129404306411743 1.7240604162216187 1.4198309183120728 1.3409361839294434 -9999 -9999
-9999 -9999 0.8229774236679077 0.959757924079895 1.1059964895248413 1.298379898071289 1.5002137422561646 1.7310999631881714 2.104617118835449 2.62451171875 3.2394115924835205 3.643303632736206 3.756337881088257 3.4038543701171875 2.806051731109619 2.2246553897857666 1.7852210998535156 1.5962814092636108 1.431626558303833 -9999
-9999 -9999 0.7900934815406799 0.8892213702201843 1.0748893022537231 1.2862910032272339 1.4630433320999146 1.644164800643921 1.9738606214523315 2.4659574031829834 3.070638656616211 3.6240732669830322 4.0498528480529785 3.960468292236328 3.4710750579833984 2.8036246299743652 2.257584571838379 1.8955122232437134 1.7351528406143188 -9999
-9999 -9999 0.7800343036651611 0.8982822895050049 1.1079962253570557 1.3031988143920898 1.4103994369506836 1.2960938215255737 1.3812536001205444 1.5861703157424927 1.852799654006958 2.281010389328003 3.4732160568237305 3.888766050338745 3.7423224449157715 3.2623038291931152 2.7497262954711914 2.33066987991333 2.151988983154297 -9999
-9999 0.6419637203216553 0.7913087010383606 0.9696915149688721 1.2293823957443237 1.4421002864837646 1.4605598449707031 1.161443829536438 1.0962731838226318 1.1460981369018555 1.2847872972488403 1.6547960042953491 2.858004093170166 3.5157628059387207 3.7125627994537354 3.5205471515655518 3.1155776977539062 2.7357985973358154 2.5597739219665527 -9999
-9999 0.7181485891342163 0.8564205169677734 1.128823161125183 1.451918601989746 1.6681901216506958 1.5982640981674194 1.107056975364685 0.9301957488059998 0.8917670845985413 0.965546190738678 1.2797690629959106 2.348315954208374 3.067816734313965 3.44260311126709 3.5054681301116943 3.2944576740264893 3.0250258445739746 2.8936126232147217 -9999
-9999 0.880642294883728 1.0361993312835693 1.3526228666305542 1.6862961053848267 1.8722482919692993 1.7200080156326294 1.0621381998062134 0.8180229663848877 0.7371194362640381 0.7804190516471863 1.0435521602630615 1.9941060543060303 2.664015293121338 3.092176914215088 3.2895379066467285 3.2831356525421143 3.1486904621124268 3.077106237411499 -9999
-9999 1.1538379192352295 1.3180166482925415 1.6595090627670288 1.9670405387878418 2.0808522701263428 1.8556489944458008 1.094098687171936 0.8295267224311829 0.7288800477981567 0.7448998689651489 0.9480467438697815 1.753423810005188 2.308706283569336 2.705132246017456 2.967285394668579 3.0843844413757324 3.0833070278167725 3.0740301609039307 -9999
-9999 1.549762487411499 1.7360752820968628 2.087578296661377 2.3075942993164062 2.3256187438964844 2.0947911739349365 1.6508798599243164 1.3235182762145996 1.140628695487976 1.1144050359725952 1.258811116218567 1.6091289520263672 1.9443477392196655 2.245701313018799 2.511512279510498 2.720151424407959 2.8371481895446777 2.8776562213897705 -9999
-9999 2.004303216934204 2.1883366107940674 2.5059762001037598 2.627502679824829 2.519655227661133 2.234251022338867 1.8563990592956543 1.531822681427002 1.3208813667297363 1.2430986166000366 1.2841464281082153 1.4148385524749756 1.5693905353546143 1.728015422821045 1.922781229019165 2.1637635231018066 2.4381942749023438 2.589081287384033 -9999
-9999 2.329469919204712 2.4719669818878174 2.7189178466796875 2.7351479530334473 2.5222418308258057 2.1954452991485596 1.847463846206665 1.5474729537963867 1.3459601402282715 1.2464673519134521 1.2180067300796509 1.2354302406311035 1.2729607820510864 1.3129892349243164 1.3953797817230225 1.532468318939209 1.7935398817062378 -9999 -9999
-9999 2.4241559505462646 2.5078043937683105 2.6653664112091064 2.5937459468841553 2.339409828186035 2.022520065307617 1.7088195085525513 1.4646327495574951 1.2970921993255615 1.2006486654281616 1.1418009996414185 1.1003777980804443 1.0636255741119385 1.0354360342025757 1.0216825008392334 1.0356789827346802 0.9589952826499939 -9999 -9999
-9999 2.4631919860839844 2.415790319442749 2.4714949131011963 2.3589415550231934 2.098417043685913 1.7928805351257324 1.522279143333435 1.326982855796814 1.193274736404419 1.1079256534576416 1.0392159223556519 0.973608672618866 0.914257824420929 0.8543980717658997 0.8006312847137451 0.7577221393585205 0.7062669992446899 0.6735966801643372 0.6070107817649841
-9999 -9999 2.212674617767334 2.2409133911132812 2.1271450519561768 1.8693000078201294 1.5770628452301025 1.3382015228271484 1.1744431257247925 1.0664842128753662 0.9949718713760376 0.9309563040733337 0.8664991855621338 0.7874224781990051 0.7201005220413208 0.6699327826499939 0.616551399230957 0.5782172083854675 0.5472703576087952 0.5760828256607056
-9999 -9999 2.16174578666687 2.0769734382629395 1.944146752357483 1.6822201013565063 1.3954368829727173 1.1703083515167236 1.021700382232666 0.9345535635948181 0.8900933265686035 0.8334604501724243 0.7675133347511292 0.6891804337501526 0.6314632296562195 0.5908612608909607 0.5531642436981201 0.5322903990745544 0.5710585713386536 0.5928627848625183
-9999 -9999 -9999 1.9337486028671265 1.8412052392959595 1.5892709493637085 1.3060810565948486 1.089484453201294 0.9527278542518616 0.8797012567520142 0.8381874561309814 0.7968801259994507 0.7309969067573547 0.6534371376037598 0.5901789665222168 0.5641932487487793 0.5202842950820923 0.5514107942581177 0.5855751633644104 0.6044650673866272
