ncols         20
nrows         20
xllcorner     0
yllcorner     -3.5992928
cellsize      0.17996463
NODATA_value  -9999
-9999.0 -9999 -9999 -9999 -9999 -9999 -9999 -9999 -9999 -9999 -9999 -9999 -9999 -9999 -9999 -9999 -9999 -9999 -9999 -9999
-9999 -9999 -9999 -9999 -9999 -9999 -9999 -9999 -9999 -9999 -9999 13.35923957824707 13.361507415771484 -9999 -9999 13.12471866607666 13.192508697509766 -9999 -9999 -9999
-9999 -9999 -9999 -9999 13.18668270111084 13.169750213623047 13.129369735717773 13.145434379577637 13.188730239868164 13.216041564941406 13.324542999267578 13.295904159545898 13.22652530670166 13.17055892944336 13.154796600341797 13.134575843811035 13.173218727111816 13.223039627075195 -9999 -9999
-9999 -9999 -9999 13.125679016113281 13.128535270690918 13.154172897338867 13.187312126159668 13.234232902526855 13.257759094238281 13.264552116394043 13.24621295928955 13.198582649230957 13.132936477661133 13.103275299072266 13.069295883178711 13.054058074951172 13.065675735473633 13.085787773132324 -9999 -9999
-9999 -9999 -9999 13.102853775024414 13.149986267089844 13.227442741394043 13.381691932678223 13.48179817199707 13.536463737487793 13.553500175476074 13.546025276184082 13.516596794128418 13.452383041381836 13.374788284301758 13.262361526489258 13.14805793762207 12.99148178100586 12.842720985412598 -9999 -9999
-9999 -9999 13.066511154174805 13.100284576416016 13.237211227416992 13.517095565795898 13.957096099853516 14.162674903869629 14.273819923400879 14.3805513381958 14.483409881591797 14.532737731933594 14.476875305175781 14.317890167236328 14.076953887939453 13.744522094726562 13.163944244384766 12.84044361114502 12.806878089904785 -9999
-9999 -9999 13.046588897705078 13.181109428405762 13.460081100463867 13.958625793457031 14.32740592956543 14.579622268676758 14.809561729431152 15.060054779052734 15.278013229370117 15.389147758483887 15.35316276550293 15.154088973999023 14.791394233703613 14.29708480834961 13.556727409362793 13.066798210144043 12.860109329223633 -9999
-9999 -9999 12.92060661315918 13.243520736694336 13.774674415588379 14.191278457641602 14.544207572937012 14.894508361816406 15.263171195983887 15.61223316192627 15.874338150024414 16.005380630493164 15.99118709564209 15.819133758544922 15.474836349487305 14.972723960876465 14.329184532165527 13.62890625 13.248992919921875 -9999
-9999 12.348365783691406 12.6431245803833 13.370256423950195 13.874441146850586 14.314044952392578 14.783600807189941 15.272663116455078 15.727673530578613 16.089614868164062 16.32822036743164 16.44513702392578 16.445512771606445 16.32204818725586 16.05483627319336 15.62769889831543 15.104155540466309 14.522216796875 14.019355773925781 -9999
-9999 12.032859802246094 12.378259658813477 13.273921012878418 13.91927719116211 14.538715362548828 15.171455383300781 15.755849838256836 16.211151123046875 16.515188217163086 16.692110061645508 16.775562286376953 16.777944564819336 16.70029640197754 16.51986312866211 16.208702087402344 15.807096481323242 15.333564758300781 14.92315673828125 -9999
-9999 11.6988525390625 12.123977661132812 13.229909896850586 14.100942611694336 14.895034790039062 15.634047508239746 16.236452102661133 16.636432647705078 16.866764068603516 16.98418426513672 17.030210494995117 17.022140502929688 16.976314544677734 16.877220153808594 16.686542510986328 16.411985397338867 16.04911231994629 15.80787467956543 -9999
-9999 11.547147750854492 12.116938591003418 13.423479080200195 14.45972728729248 15.329704284667969 16.06959342956543 16.617155075073242 16.950096130371094 17.12847900390625 17.20580291748047 17.221460342407227 17.180370330810547 17.153194427490234 17.125621795654297 17.018455505371094 16.875986099243164 16.67003631591797 16.551097869873047 -9999
-9999 11.865903854370117 12.571798324584961 13.96390438079834 15.018579483032227 15.829294204711914 16.458086013793945 16.901416778564453 17.168718338012695 17.305830001831055 17.36940574645996 17.376707077026367 17.338485717773438 17.322099685668945 17.307659149169922 17.28422737121582 17.196483612060547 17.081584930419922 17.039817810058594 -9999
-9999 12.729005813598633 13.449731826782227 14.760249137878418 15.710001945495605 16.358768463134766 16.81246566772461 17.120901107788086 17.314334869384766 17.412717819213867 17.458274841308594 17.47150421142578 17.4593448638916 17.465232849121094 17.476211547851562 17.47838592529297 17.424528121948242 17.32147979736328 17.336637496948242 -9999
-9999 13.697770118713379 14.36000919342041 15.51783275604248 16.32377052307129 16.805177688598633 17.100173950195312 17.291889190673828 17.402708053588867 17.461933135986328 17.487855911254883 17.510658264160156 17.533647537231445 17.561830520629883 17.58487892150879 17.598779678344727 17.587278366088867 17.48288917541504 -9999 -9999
-9999 14.401715278625488 15.017441749572754 16.032054901123047 16.715675354003906 17.097274780273438 17.29452896118164 17.401569366455078 17.451662063598633 17.471921920776367 17.47060775756836 17.49358367919922 17.53446388244629 17.587444305419922 17.622161865234375 17.657760620117188 17.687076568603516 17.743627548217773 -9999 -9999
-9999 14.859333992004395 15.499845504760742 16.34714698791504 16.936203002929688 17.273059844970703 17.413667678833008 17.47678565979004 17.49095344543457 17.483722686767578 17.48461151123047 17.505836486816406 17.544578552246094 17.593486785888672 17.634836196899414 17.67281150817871 17.703651428222656 17.72421646118164 17.668720245361328 17.676950454711914
-9999 -9999 16.0277099609375 16.58275032043457 17.071731567382812 17.36347770690918 17.488542556762695 17.53243637084961 17.525985717773438 17.520103454589844 17.51673126220703 17.531333923339844 17.558822631835938 17.602834701538086 17.638019561767578 17.663368225097656 17.69021224975586 17.704345703125 17.69643783569336 17.669910430908203
-9999 -9999 16.44923973083496 16.791513442993164 17.17496109008789 17.43328285217285 17.55275535583496 17.593870162963867 17.584850311279297 17.57080078125 17.55440330505371 17.563325881958008 17.586843490600586 17.6219539642334 17.64398765563965 17.657405853271484 17.673690795898438 17.67856216430664 17.65093421936035 17.634532928466797
-9999 -9999 -9999 16.936084747314453 17.230510711669922 17.459510803222656 17.57840347290039 17.618511199951172 17.60350799560547 17.584857940673828 17.569229125976562 17.56741714477539 17.589563369750977 17.621870040893555 17.644866943359375 17.647918701171875 17.666597366333008 17.646080017089844 17.62541389465332 17.61541175842285
