ncols         20
nrows         20
xllcorner     0
yllcorner     -3.5992928
cellsize      0.17996463
NODATA_value  -9999
-9999.0 -9999 -9999 -9999 -9999 -9999 -9999 -9999 -9999 -9999 -9999 -9999 -9999 -9999 -9999 -9999 -9999 -9999 -9999 -9999
-9999 -9999 -9999 -9999 -9999 -9999 -9999 -9999 -9999 -9999 -9999 0.01156104076653719 0.01115211471915245 -9999 -9999 0.009312129579484463 0.008192887529730797 -9999 -9999 -9999
-9999 -9999 -9999 -9999 0.011600655503571033 0.013408469036221504 0.017019852995872498 0.02041349932551384 0.022880952805280685 0.02450905553996563 0.020301708951592445 0.017313720658421516 0.017257288098335266 0.017579788342118263 0.014630055986344814 0.011266164481639862 0.009249829687178135 0.008182654157280922 -9999 -9999
-9999 -9999 -9999 0.010831243358552456 0.012538920156657696 0.015153869055211544 0.0194262508302927 0.024278217926621437 0.030111582949757576 0.03548693656921387 0.03915613517165184 0.03878626227378845 0.03747401013970375 0.032040804624557495 0.02489490807056427 0.01778823882341385 0.013135676272213459 0.010972660966217518 -9999 -9999
-9999 -9999 -9999 0.011245973408222198 0.01346773374825716 0.018566058948636055 0.026014303788542747 0.03633349761366844 0.05127006024122238 0.07424628734588623 0.10035740584135056 0.11424317210912704 0.10806602239608765 0.08190248906612396 0.05661635100841522 0.03549285978078842 0.023381030187010765 0.020692836493253708 -9999 -9999
-9999 -9999 0.00866603385657072 0.011194842867553234 0.015382756479084492 0.023144682869315147 0.0350579097867012 0.05393851548433304 0.08963212370872498 0.14855241775512695 0.22726427018642426 0.2736404240131378 0.2673149108886719 0.20140421390533447 0.12775103747844696 0.07538546621799469 0.0468178354203701 0.03737994283437729 0.0323185995221138 -9999
-9999 -9999 0.009154205210506916 0.011790938675403595 0.018758054822683334 0.031354669481515884 0.050788309425115585 0.0850285142660141 0.14987723529338837 0.2579219937324524 0.3972674608230591 0.49478140473365784 0.4958517551422119 0.39984163641929626 0 0.16247978806495667 0.09829746931791306 0.06692926585674286 0.0562228187918663 -9999
-9999 -9999 0.01118514034897089 0.015708405524492264 0.02757728286087513 0.04877665266394615 0.08514043688774109 0.14690206944942474 0.24582338333129883 0.39242663979530334 0.548901379108429 0.6710181832313538 0.6945593357086182 0.6119420528411865 0.4683346748352051 0.3147561550140381 0.20204414427280426 0.13613510131835938 0.11304453015327454 -9999
-9999 0.010752622969448566 0.015276285819709301 0.024761803448200226 0.04834003001451492 0.09252971410751343 0.16287247836589813 0.2730790078639984 0.417158842086792 0.5764875411987305 0.714028537273407 0.8201954364776611 0.8722084760665894 0.8338919878005981 0.728559672832489 0 0.3841540217399597 0.2678395211696625 0.22392648458480835 -9999
-9999 0.01566345803439617 0.022808775305747986 0.04461739957332611 0.09324535727500916 0.18116234242916107 0.3161797523498535 0.49673640727996826 0.6829213500022888 0.8314626812934875 0.9290218353271484 1.0139482021331787 1.076183557510376 1.091021180152893 1.0310494899749756 0 0.663987934589386 0.49362340569496155 0.42534151673316956 -9999
-9999 0.028895147144794464 0.04214538633823395 0.08211225271224976 0.16365951299667358 0.3051546812057495 0.5179824829101562 0.7716281414031982 0.9758334755897522 1.1023365259170532 1.1868845224380493 1.2761890888214111 1.3813302516937256 1.4291503429412842 1.386954665184021 1.2703286409378052 1.0425190925598145 0.8363674879074097 0.7445420026779175 -9999
-9999 0.060690753161907196 0.08405932039022446 0.1531105935573578 0.2764500379562378 0.46582576632499695 0.7293088436126709 1.0007109642028809 1.177028775215149 1.271517038345337 1.352173924446106 1.4853850603103638 0 0 1.7462388277053833 0 1.4494655132293701 1.2449169158935547 1.141810655593872 -9999
-9999 0.13125161826610565 0.1756121963262558 0.29465189576148987 0.46099039912223816 0.6796774864196777 0.9366523623466492 1.1593328714370728 1.2627531290054321 1.2957597970962524 1.3463144302368164 1.4666913747787476 0 0 0 1.6889699697494507 1.6071887016296387 1.513841986656189 1.416415810585022 -9999
-9999 0.2594046890735626 0.3348190486431122 0.5181796550750732 0.7309053540229797 0.9421718716621399 1.1306955814361572 1.2458112239837646 1.265395164489746 1.2538034915924072 1.2646414041519165 1.317043662071228 0 0 0 1.3427484035491943 1.3715912103652954 1.4799214601516724 1.4120718240737915 -9999
-9999 0.4172861576080322 0.5183732509613037 0.7557841539382935 0.9854845404624939 1.1403394937515259 1.22559654712677 1.246382474899292 1.2281287908554077 1.210654616355896 1.2121461629867554 1.18458092212677 1.133631944656372 1.0535160303115845 0 0 0.9169260263442993 1.107328176498413 -9999 -9999
-9999 0.5358069539070129 0.6530978679656982 0.908004105091095 1.1063232421875 1.1884658336639404 1.1982674598693848 1.1807475090026855 1.1804959774017334 1.2041058540344238 0 0 0 0.8221628665924072 0 0 0.5274199843406677 0 -9999 -9999
-9999 0.6302101612091064 0.750740110874176 0.9794321060180664 1.1335965394973755 1.1469168663024902 1.1068369150161743 1.0765528678894043 1.1043591499328613 0 0 0 0 0.6631933450698853 0.5134965777397156 0.40128952264785767 0.32391077280044556 0.2685256004333496 0 0
-9999 -9999 0.8464208841323853 1.0166085958480835 1.1241602897644043 1.0831276178359985 0.9970718622207642 0.9559285044670105 0 0 0 0 0 0 0 0 0 0 0 0
-9999 -9999 0.9657527804374695 1.0527448654174805 1.0988833904266357 1.0046428442001343 0.8753771781921387 0.8056865930557251 0 0 0 0 0 0 0 0 0 0 0 0
-9999 -9999 -9999 1.0657416582107544 1.0814549922943115 0.9661905169487 0.8146440982818604 0.7329185009002686 0 0 0 0 0 0 0 0 0 0 0 0
