ncols         20
nrows         20
xllcorner     0
yllcorner     -3.5992928
cellsize      0.17996463
NODATA_value  -9999
-9999.0 -9999 -9999 -9999 -9999 -9999 -9999 -9999 -9999 -9999 -9999 -9999 -9999 -9999 -9999 -9999 -9999 -9999 -9999 -9999
-9999 -9999 -9999 -9999 -9999 -9999 -9999 -9999 -9999 -9999 -9999 0.04669804126024246 0.04472079128026962 -9999 -9999 0.03569021448493004 0.03135470300912857 -9999 -9999 -9999
-9999 -9999 -9999 -9999 0.057076651602983475 0.06478512287139893 0.07956283539533615 0.0915210098028183 0.09803999215364456 0.10061482340097427 0.08043700456619263 0.06724157184362411 0.0655025914311409 0.0644039735198021 0.05286819487810135 0.041129037737846375 0.03364143893122673 0.029128113761544228 -9999 -9999
-9999 -9999 -9999 0.05153879523277283 0.059718236327171326 0.0706566572189331 0.08729776740074158 0.10412070155143738 0.12265610694885254 0.1374739408493042 0.1449606865644455 0.13870815932750702 0.13045021891593933 0.10906925052404404 0.08362587541341782 0.059574194252491 0.04382101073861122 0.036324042826890945 -9999 -9999
-9999 -9999 -9999 0.05080780014395714 0.060219164937734604 0.08055363595485687 0.10784510523080826 0.14237497746944427 0.18893232941627502 0.2576742172241211 0.3299548923969269 0.3602858781814575 0.3309181332588196 0.24541445076465607 0.16711051762104034 0.10412782430648804 0.06822718679904938 0.05986906960606575 -9999 -9999
-9999 -9999 0.03435181453824043 0.04586014896631241 0.06222276762127876 0.09010443836450577 0.12917792797088623 0.18604676425457 0.2880210876464844 0.44509926438331604 0.640407919883728 0.7361758947372437 0.6961840391159058 0.5122119784355164 0.3197360932826996 0.18721124529838562 0.11514221131801605 0.08998952060937881 0.07285294681787491 -9999
-9999 -9999 0.033337876200675964 0.04290609434247017 0.06635504961013794 0.10549326986074448 0.16025760769844055 0.24941952526569366 0.4064282774925232 0.6482529044151306 0.9345985054969788 1.1053723096847534 1.0687857866287231 0.8391809463500977 0 0.33238548040390015 0.20056681334972382 0.13576839864253998 0.11217574030160904 -9999
-9999 -9999 0.03517131134867668 0.04869101941585541 0.08208892494440079 0.13678038120269775 0.2222812920808792 0.35391613841056824 0.5457304120063782 0.805878758430481 1.0531917810440063 1.2176297903060913 1.2105075120925903 1.0365287065505981 0.7787244319915771 0.5182477235794067 0.3337855935096741 0.2259896695613861 0.18768087029457092 -9999
-9999 0.0258969496935606 0.03937888890504837 0.06323742121458054 0.11783377826213837 0.21067281067371368 0.3422892391681671 0.5260123610496521 0.7371270060539246 0.9405667185783386 1.0861306190490723 1.1760976314544678 1.1949464082717896 1.1070142984390259 0.9485114216804504 0 0.5020217299461365 0.3552694022655487 0.29954081773757935 -9999
-9999 0.03336912766098976 0.048997558653354645 0.09331455826759338 0.18443326652050018 0.33215007185935974 0.5298424363136292 0.7559084296226501 0.9460623264312744 1.0576015710830688 1.0964641571044922 1.1220574378967285 1.131946325302124 1.110172986984253 1.033014178276062 0 0.6764827370643616 0.5139543414115906 0.4488927721977234 -9999
-9999 0.05160373076796532 0.07453916221857071 0.14059646427631378 0.2639618515968323 0.4530614912509918 0.6957224011421204 0.9309121370315552 1.0623482465744019 1.0935184955596924 1.0840078592300415 1.0840728282928467 1.1054216623306274 1.1060131788253784 1.0650198459625244 0.9815515279769897 0.8245720863342285 0.679163932800293 0.6152960062026978 -9999
-9999 0.08990159630775452 0.12261375039815903 0.21515300869941711 0.3639063239097595 0.5610730051994324 0.7893617749214172 0.9673149585723877 1.0222914218902588 1.0023702383041382 0.9778034687042236 0.9927642941474915 0 0 1.0497064590454102 0 0.9047904014587402 0.8006293773651123 0.7503136992454529 -9999
-9999 0.1633032262325287 0.21400043368339539 0.3416007161140442 0.4961210787296295 0.6651931405067444 0.8218737244606018 0.9091651439666748 0.8920474052429199 0.8329492807388306 0.795109212398529 0.8018508553504944 0 0 0 0.8545752167701721 0.8327964544296265 0.8064888119697571 0.7766591310501099 -9999
-9999 0.2771022617816925 0.34601446986198425 0.5010717511177063 0.6475768089294434 0.754755437374115 0.8133174180984497 0.8059173822402954 0.7416075468063354 0.6676056981086731 0.6193833947181702 0.6025674939155579 0 0 0 0.5800868272781372 0.6114677786827087 0.6856593489646912 0.6964607834815979 -9999
-9999 0.388017475605011 0.46053987741470337 0.6181394457817078 0.7300553917884827 0.7613800168037415 0.7378222942352295 0.6785995364189148 0.6035351753234863 0.541038453578949 0.5009415149688721 0.46409982442855835 0.43048596382141113 0.39533257484436035 0 0 0.3594759702682495 0.4459330141544342 -9999 -9999
-9999 0.44240546226501465 0.5056344866752625 0.6377133131027222 0.6989205479621887 0.6772767901420593 0.6179088354110718 0.5484921932220459 0.49509507417678833 0.4606114625930786 0 0 0 0.27990293502807617 0 0 0.1889323592185974 0 -9999 -9999
-9999 0.47868168354034424 0.5101020336151123 0.5977795124053955 0.6220453381538391 0.5707699060440063 0.497193843126297 0.43598198890686035 0.40494921803474426 0 0 0 0 0.21103248000144958 0.1668660193681717 0.13355624675750732 0.11063066869974136 0.09345019608736038 0 0
-9999 -9999 0.4881158471107483 0.5425273180007935 0.545932948589325 0.47963136434555054 0.4002087414264679 0.3474486470222473 0 0 0 0 0 0 0 0 0 0 0 0
-9999 -9999 0.5052944421768188 0.5065089464187622 0.48652273416519165 0.40820345282554626 0.32462766766548157 0.272543728351593 0 0 0 0 0 0 0 0 0 0 0 0
-9999 -9999 -9999 0.4721595346927643 0.4542771875858307 0.3750072717666626 0.29015350341796875 0.23936262726783752 0 0 0 0 0 0 0 0 0 0 0 0
