ncols         20
nrows         20
xllcorner     0
yllcorner     -3.5992928
cellsize      0.17996463
NODATA_value  -9999
-9999.0 -9999 -9999 -9999 -9999 -9999 -9999 -9999 -9999 -9999 -9999 -9999 -9999 -9999 -9999 -9999 -9999 -9999 -9999 -9999
-9999 -9999 -9999 -9999 -9999 -9999 -9999 -9999 -9999 -9999 -9999 0.22583888471126556 0.2222704291343689 -9999 -9999 0.19784867763519287 0.18500667810440063 -9999 -9999 -9999
-9999 -9999 -9999 -9999 0.19707871973514557 0.21568116545677185 0.2506416440010071 0.2846102714538574 0.312195360660553 0.3328341245651245 0.3088952302932739 0.286386102437973 0.2878913879394531 0.29407086968421936 0.26638227701187134 0.22765307128429413 0.20450541377067566 0.19416533410549164 -9999 -9999
-9999 -9999 -9999 0.19445982575416565 0.20991669595241547 0.2358037382364273 0.2762505114078522 0.3212481439113617 0.3721752166748047 0.41840624809265137 0.45152175426483154 0.45648637413978577 0.4522111415863037 0.4186192452907562 0.3661019504070282 0.30489403009414673 0.25940483808517456 0.2367786318063736 -9999 -9999
-9999 -9999 -9999 0.20607659220695496 0.22829322516918182 0.2759656310081482 0.33979272842407227 0.41977494955062866 0.5221592783927917 0.6560983061790466 0.7877283096313477 0.856606125831604 0.8389574885368347 0.7279991507530212 0.5983614921569824 0.46782147884368896 0.3763071298599243 0.35369256138801575 -9999 -9999
-9999 -9999 0.19735850393772125 0.22047775983810425 0.26249030232429504 0.3330767750740051 0.42791637778282166 0.5573830604553223 0.7564038038253784 1.0175403356552124 1.2998676300048828 1.4526227712631226 1.4443589448928833 1.24767005443573 0.9804621338844299 0.7444149255752563 0.5823843479156494 0.5227556228637695 0.4996015429496765 -9999
-9999 -9999 0.21492011845111847 0.2452142983675003 0.31733858585357666 0.42655378580093384 0.5685203075408936 0.7740998268127441 1.0782943964004517 1.4722474813461304 1.8801302909851074 2.132594347000122 2.144016742706299 1.9123435020446777 1.5687617063522339 1.1880662441253662 0.9178404808044434 0.7556864023208618 0.6960147619247437 -9999
-9999 -9999 0.2604762613773346 0.31282955408096313 0.4276473820209503 0.5925690531730652 0.8209787011146545 1.1297760009765625 1.5220409631729126 1.98626708984375 2.401575803756714 2.688539505004883 2.7427477836608887 2.5590248107910156 2.2088277339935303 1.7867215871810913 1.422226071357727 1.163826584815979 1.0604537725448608 -9999
-9999 0.29250067472457886 0.3390563726425171 0.437043696641922 0.631497323513031 0.9107681512832642 1.2618101835250854 1.700927495956421 2.1723804473876953 2.6153311729431152 2.9539709091186523 3.187774658203125 3.2865617275238037 3.1922824382781982 2.9448201656341553 2.5745394229888916 2.098820686340332 1.752736210823059 1.6030669212341309 -9999
-9999 0.373473197221756 0.45196452736854553 0.6467908620834351 0.9673012495040894 1.4018683433532715 1.9257261753082275 2.4973855018615723 3.004361152648926 3.3693621158599854 3.5877797603607178 3.7485220432281494 3.841221332550049 3.838020086288452 3.691256046295166 3.4261741638183594 2.9307525157928467 2.5348048210144043 2.3565852642059326 -9999
-9999 0.5454680323600769 0.6663306951522827 0.9541797637939453 1.3903858661651611 1.9658211469650269 2.6494827270507812 3.3254642486572266 3.8103890419006348 4.086418628692627 4.23879861831665 4.3579583168029785 4.469821929931641 4.50617790222168 4.427135467529297 4.221245765686035 3.8516640663146973 3.469428062438965 3.283752202987671 -9999
-9999 0.8501667380332947 1.0135583877563477 1.402389645576477 1.9369398355484009 2.587836742401123 3.325540065765381 3.9743990898132324 4.356638431549072 4.532260894775391 4.631532192230225 4.759172439575195 4.97305154800415 5.053554534912109 4.986313343048096 4.939578056335449 4.653502464294434 4.366520881652832 4.209137916564941 -9999
-9999 1.338305115699768 1.568995475769043 2.0740301609039307 2.6518664360046387 3.2904882431030273 3.9320456981658936 4.421069145202637 4.620328426361084 4.643617153167725 4.652637004852295 4.725903511047363 4.909782409667969 4.981481075286865 5.001058101654053 4.949699401855469 4.93789529800415 4.8689470291137695 4.763561248779297 -9999
-9999 1.9967467784881592 2.291147470474243 2.896188735961914 3.498750686645508 4.028696060180664 4.449530601501465 4.6708502769470215 4.665499210357666 4.563830375671387 4.471039295196533 4.4243550300598145 4.4488301277160645 4.40315580368042 4.3499345779418945 4.329592227935791 4.486175537109375 4.75510835647583 4.7602434158325195 -9999
-9999 2.6433634757995605 2.9716854095458984 3.6362898349761963 4.203191757202148 4.551119327545166 4.711078643798828 4.699535846710205 4.569854736328125 4.405962944030762 4.2592926025390625 4.081325054168701 3.8867034912109375 3.683990955352783 3.5294594764709473 3.452092409133911 3.4928746223449707 3.8986523151397705 -9999 -9999
-9999 3.0857431888580322 3.438945770263672 4.0998992919921875 4.557613849639893 4.719235897064209 4.685903072357178 4.546802520751953 4.391219615936279 4.240039348602295 4.116402626037598 3.8615481853485107 3.5202081203460693 3.127131462097168 2.8458569049835205 2.607846260070801 2.458233118057251 2.1909518241882324 -9999 -9999
-9999 3.4064981937408447 3.774702548980713 4.348288059234619 4.685429573059082 4.672857761383057 4.4940667152404785 4.274832248687744 4.113911151885986 3.993633985519409 3.8039050102233887 3.4970295429229736 3.0988407135009766 2.6765289306640625 2.3170197010040283 2.0154402256011963 1.777970790863037 1.559378981590271 1.4052143096923828 1.2296737432479858
-9999 -9999 4.100977897644043 4.502410411834717 4.714536666870117 4.555996417999268 4.237663269042969 3.9486749172210693 3.788670063018799 3.6115684509277344 3.3959522247314453 3.0900444984436035 2.719542980194092 2.290809392929077 1.9339349269866943 1.6643823385238647 1.4231961965560913 1.2516850233078003 1.1270606517791748 1.1577483415603638
-9999 -9999 4.431715965270996 4.627693176269531 4.690459251403809 4.391761779785156 3.945631980895996 3.5712132453918457 3.355710744857788 3.1694273948669434 3.008197784423828 2.7230114936828613 2.3661904335021973 1.9700695276260376 1.6632901430130005 1.4368544816970825 1.248877763748169 1.1291851997375488 1.1610255241394043 1.1798994541168213
-9999 -9999 -9999 4.6769185066223145 4.664959907531738 4.306572914123535 3.7921202182769775 3.379387378692627 3.1505773067474365 2.979832887649536 2.8134243488311768 2.5784337520599365 2.2286951541900635 1.8462283611297607 1.5342283248901367 1.353921890258789 1.1575884819030762 1.1567211151123047 1.180588960647583 1.1945741176605225
