ncols         20
nrows         20
xllcorner     0
yllcorner     -3.5992928
cellsize      0.17996463
NODATA_value  -9999
-9999.0 -9999 -9999 -9999 -9999 -9999 -9999 -9999 -9999 -9999 -9999 -9999 -9999 -9999 -9999 -9999 -9999 -9999 -9999 -9999
-9999 -9999 -9999 -9999 -9999 -9999 -9999 -9999 -9999 -9999 -9999 2.4115943908691406 2.4069578647613525 -9999 -9999 2.4931325912475586 2.4663593769073486 -9999 -9999 -9999
-9999 -9999 -9999 -9999 2.52152419090271 2.5336055755615234 2.5495166778564453 2.534320592880249 2.502591133117676 2.4775493144989014 2.430091142654419 2.43330979347229 2.450270891189575 2.463061809539795 2.473902702331543 2.486680507659912 2.468449831008911 2.4402713775634766 -9999 -9999
-9999 -9999 -9999 2.553853988647461 2.5662646293640137 2.574530839920044 2.5733344554901123 2.544445037841797 2.506927967071533 2.4668281078338623 2.441988229751587 2.437373399734497 2.45049786567688 2.4689090251922607 2.500253677368164 2.5144155025482178 2.4961507320404053 2.4709291458129883 -9999 -9999
-9999 -9999 -9999 2.585780382156372 2.6030778884887695 2.6256182193756104 2.603670835494995 2.5380029678344727 2.453040838241577 2.35807204246521 2.2700016498565674 2.222886323928833 2.2393710613250732 2.3135430812835693 2.412747383117676 2.481450080871582 2.495587110519409 2.50994873046875 -9999 -9999
-9999 -9999 2.586648464202881 2.6206092834472656 2.650294542312622 2.646375894546509 2.558391809463501 2.3921475410461426 2.2215418815612793 2.0330746173858643 1.8493305444717407 1.747145414352417 1.7662793397903442 1.9078389406204224 2.119123697280884 2.2920031547546387 2.38716721534729 2.4170145988464355 2.3592724800109863 -9999
-9999 -9999 2.6117324829101562 2.646944999694824 2.684331178665161 2.621641159057617 2.3885388374328613 1.9819636344909668 1.7149890661239624 1.4681087732315063 1.2489099502563477 1.1466315984725952 1.2208435535430908 1.414068579673767 1.681395173072815 1.9452348947525024 2.141596555709839 2.237602710723877 2.257873296737671 -9999
-9999 -9999 2.6671767234802246 2.7078819274902344 2.706463098526001 2.5288500785827637 2.047121286392212 0.900133490562439 0.661226749420166 0.5555187463760376 0.4923555254936218 0.4999685287475586 0.7582641839981079 0.9653527736663818 1.225868582725525 1.5210673809051514 1.7680981159210205 1.9323906898498535 2.002324104309082 -9999
-9999 2.6466922760009766 2.715595245361328 2.7432265281677246 2.6666884422302246 2.3779690265655518 1.7966958284378052 0.6691197156906128 0.4098013639450073 0.32277968525886536 0.2939183712005615 0.3207687735557556 0.49283456802368164 0.6317156553268433 0.8096422553062439 1.0538599491119385 1.3213517665863037 1.52863609790802 1.6235952377319336 -9999
-9999 2.672337293624878 2.7068581581115723 2.6850883960723877 2.488659620285034 2.0820183753967285 1.4741877317428589 0.5384676456451416 0.3042181134223938 0.2282617837190628 0.2095242440700531 0.22903144359588623 0.324251264333725 0.39280107617378235 0.4898204207420349 0.641392707824707 0.8506990075111389 1.0422403812408447 1.139172077178955 -9999
-9999 2.6316182613372803 2.608654022216797 2.4762122631073 2.1648850440979004 1.718458890914917 1.126758337020874 0.4184076488018036 0.22901703417301178 0.1652192324399948 0.14655770361423492 0.1530192792415619 0.19148963689804077 0.21827442944049835 0.25967687368392944 0.3381121754646301 0.45504486560821533 0.5848917365074158 0.6551198363304138 -9999
-9999 2.4364449977874756 2.3471791744232178 2.103602409362793 1.73773193359375 1.3059699535369873 0.8052283525466919 0.31824570894241333 0.17081721127033234 0.11428604274988174 0.09324169903993607 0.08776804804801941 0.0954810380935669 0.09988205879926682 0.11164411902427673 0.1431676745414734 0.19991044700145721 0.26623421907424927 0.302693635225296 -9999
-9999 2.047449827194214 1.9002411365509033 1.596899151802063 1.2455273866653442 0.8778054118156433 0.5291855931282043 0.25765904784202576 0.13009656965732574 0.07837600260972977 0.05226801708340645 0.04176777973771095 0.03668118640780449 0.03399686887860298 0.035643570125103 0.04410587623715401 0.0703386664390564 0.10004004091024399 0.11848526448011398 -9999
-9999 1.5621594190597534 1.3929634094238281 1.0632458925247192 0.7482550740242004 0.49156495928764343 0.29072287678718567 0.1500663012266159 0.07205314189195633 0.0422317311167717 0.028342410922050476 0.021279266104102135 0.016983460634946823 0.014487755484879017 0.013470427133142948 0.014784698374569416 0.0196616742759943 0.029990876093506813 0.03767020255327225 -9999
-9999 1.1229184865951538 0.9517984986305237 0.6435551047325134 0.3960503041744232 0.23882301151752472 0.13682162761688232 0.06845070421695709 0.03761761263012886 0.023844152688980103 0.017196008935570717 0.013269946910440922 0.010802067816257477 0.009402158670127392 0.00853230431675911 0.008616027422249317 0.009563806466758251 0.013165741227567196 -9999 -9999
-9999 0.8279281854629517 0.6653633713722229 0.40353477001190186 0.21930399537086487 0.11574230343103409 0.05876751244068146 0.03257269412279129 0.020900005474686623 0.015192463994026184 0.012306338176131248 0.01036395039409399 0.009486431255936623 0.011018728837370872 0.012387242168188095 0.013455728068947792 0.014210337772965431 0.014873803593218327 -9999 -9999
-9999 0.6495803594589233 0.48125505447387695 0.2770731747150421 0.13631373643875122 0.05676042288541794 0.028913073241710663 0.017360907047986984 0.012677970342338085 0.01055061537772417 0.009567724540829659 0.010433021932840347 0.012729757465422153 0.01501704752445221 0.017166856676340103 0.01907905749976635 0.02086397260427475 0.023097913712263107 0.027530113235116005 0.029387233778834343
-9999 -9999 0.3201315999031067 0.19739365577697754 0.09292259067296982 0.03545258194208145 0.017200417816638947 0.010940592736005783 0.008807449601590633 0.008242025971412659 0.010525193996727467 0.013127336278557777 0.015938209369778633 0.018818525597453117 0.021504126489162445 0.023832764476537704 0.02588229812681675 0.027760662138462067 0.02966194786131382 0.030438119545578957
-9999 -9999 0.20586878061294556 0.13687647879123688 0.06552596390247345 0.02422761172056198 0.011650274507701397 0.0077547235414385796 0.007495561148971319 0.009833762422204018 0.012466316111385822 0.015402603894472122 0.018574610352516174 0.02180699072778225 0.02473357506096363 0.027136338874697685 0.029028724879026413 0.030306993052363396 0.030961565673351288 0.031196996569633484
-9999 -9999 -9999 0.10183544456958771 0.04867208003997803 0.01963605359196663 0.00969255343079567 0.006747683044523001 0.008220558054745197 0.010764029808342457 0.013579089194536209 0.016660209745168686 0.019997024908661842 0.023383302614092827 0.026414738968014717 0.028759948909282684 0.03051156923174858 0.03129212185740471 0.03153179958462715 0.03157147392630577
