ncols         20
nrows         20
xllcorner     0
yllcorner     -3.5992928
cellsize      0.17996463
NODATA_value  -9999
-9999.0 -9999 -9999 -9999 -9999 -9999 -9999 -9999 -9999 -9999 -9999 -9999 -9999 -9999 -9999 -9999 -9999 -9999 -9999 -9999
-9999 -9999 -9999 -9999 -9999 -9999 -9999 -9999 -9999 -9999 -9999 0.035949308425188065 0.03443337604403496 -9999 -9999 0.02722863480448723 0.023898456245660782 -9999 -9999 -9999
-9999 -9999 -9999 -9999 0.04289980232715607 0.0488535612821579 0.06032884120941162 0.06983038783073425 0.07526130229234695 0.07762928307056427 0.06225833296775818 0.05206058546900749 0.05074407160282135 0.049937907606363297 0.040879130363464355 0.031608469784259796 0.025788739323616028 0.022346720099449158 -9999 -9999
-9999 -9999 -9999 0.038762856274843216 0.04498005285859108 0.05343359708786011 0.06641631573438644 0.07976479828357697 0.09463653713464737 0.10674939304590225 0.11312630772590637 0.108527772128582 0.10214387625455856 0.08531617373228073 0.0651966780424118 0.046236563473939896 0.03390446677803993 0.028080066666007042 -9999 -9999
-9999 -9999 -9999 0.038362059742212296 0.04557865113019943 0.061286114156246185 0.08262494951486588 0.10996245592832565 0.14725427329540253 0.20270463824272156 0.2613535523414612 0.28644275665283203 0.26326078176498413 0.19476601481437683 0.1319645345211029 0.08187119662761688 0.053473446518182755 0.046885740011930466 -9999 -9999
-9999 -9999 0.02615068107843399 0.03487585484981537 0.047475069761276245 0.0691748633980751 0.09995317459106445 0.14533717930316925 0.227511465549469 0.3549800217151642 0.5143712162971497 0.5934792757034302 0.5615530014038086 0.41199836134910583 0.2556999623775482 0.14918504655361176 0.09152396023273468 0.07156366854906082 0.05820566788315773 -9999
-9999 -9999 0.02556098811328411 0.03294605389237404 0.05120479315519333 0.08200860768556595 0.12569910287857056 0.19775328040122986 0.32554417848587036 0.5236251950263977 0.7593283653259277 0.900783121585846 0.8711487054824829 0.6816574931144714 0 0.2677824795246124 0.16154560446739197 0.10937349498271942 0.09048362821340561 -9999
-9999 -9999 0.027315737679600716 0.03792159631848335 0.0643344298005104 0.10808049887418747 0.17740418016910553 0.285200834274292 0.4432564079761505 0.6583861112594604 0.8636946678161621 1.0004864931106567 0.9946697354316711 0.8498443365097046 0.6354889869689941 0.4215819835662842 0.2718290090560913 0.184317946434021 0.15325751900672913 -9999
-9999 0.020555047318339348 0.031117195263504982 0.0501287467777729 0.09409986436367035 0.16972753405570984 0.27819541096687317 0.43063101172447205 0.6064857840538025 0.7761818766593933 0.8976718187332153 0.9723634719848633 0.9871601462364197 0.9125279784202576 0.7782794237136841 0 0.41156521439552307 0.2926621735095978 0.24736398458480835 -9999
-9999 0.02676176279783249 0.03933842480182648 0.07534664124250412 0.1500612050294876 0.27241015434265137 0.4375442564487457 0.627045750617981 0.7864984273910522 0.879581093788147 0.911078929901123 0.9304729700088501 0.9360663890838623 0.9157426357269287 0.8491492867469788 0 0.5577973127365112 0.42664211988449097 0.37391552329063416 -9999
-9999 0.04196440428495407 0.06080995127558708 0.11544830352067947 0.21824607253074646 0.37693944573402405 0.581315279006958 0.7792301177978516 0.888968288898468 0.9131955504417419 0.9018637537956238 0.8966692090034485 0.9074207544326782 0.9051703810691833 0.8729398250579834 0.8051369786262512 0.6824828386306763 0.5661592483520508 0.5149098038673401 -9999
-9999 0.07422973215579987 0.10160695761442184 0.17937207221984863 0.304888516664505 0.47175318002700806 0.6645509004592896 0.8135993480682373 0.8574673533439636 0.836914598941803 0.810602068901062 0.8133605122566223 0 0 0.8478022813796997 0 0.7461223602294922 0.6668158173561096 0.6279876232147217 -9999
-9999 0.13698247075080872 0.18009640276432037 0.2884383797645569 0.4197632074356079 0.5630313754081726 0.6944140195846558 0.765400767326355 0.7470959424972534 0.6926924586296082 0.6546673774719238 0.6502676010131836 0 0 0 0.6902807354927063 0.6837130784988403 0.6689345240592957 0.6482287645339966 -9999
-9999 0.2355213165283203 0.29440149664878845 0.4266093075275421 0.5509530901908875 0.6404489874839783 0.6870562434196472 0.6766743063926697 0.6178749203681946 0.5506806969642639 0.5046268105506897 0.48330575227737427 0 0 0 0.46278271079063416 0.49648311734199524 0.5634060502052307 0.578984260559082 -9999
-9999 0.33210086822509766 0.3940345346927643 0.5280770659446716 0.6217498779296875 0.6452186703681946 0.6210767030715942 0.5663070678710938 0.4978984594345093 0.44001305103302 0.40092864632606506 0.36645838618278503 0.3360483646392822 0.3069482147693634 0 0 0.28516945242881775 0.3573254942893982 -9999 -9999
-9999 0.37960630655288696 0.433245986700058 0.54465651512146 0.5939357876777649 0.5716738700866699 0.5169421434402466 0.4531542956829071 0.40218833088874817 0.36614322662353516 0 0 0 0.21373343467712402 0 0 0.1448565125465393 0 -9999 -9999
-9999 0.41083213686943054 0.436544805765152 0.5091770887374878 0.5264742374420166 0.4791739881038666 0.41243720054626465 0.35542747378349304 0.322108656167984 0 0 0 0 0.15766070783138275 0.12438929826021194 0.09924785047769547 0.08180813491344452 0.06792772561311722 0 0
-9999 -9999 0.4157100021839142 0.46000799536705017 0.45975470542907715 0.40013131499290466 0.3289766013622284 0.27914565801620483 0 0 0 0 0 0 0 0 0 0 0 0
-9999 -9999 0.42860254645347595 0.42748787999153137 0.40786096453666687 0.3387150764465332 0.2649349570274353 0.2167229950428009 0 0 0 0 0 0 0 0 0 0 0 0
-9999 -9999 -9999 0.39671778678894043 0.3797571659088135 0.3102153241634369 0.23588494956493378 0.1893494725227356 0 0 0 0 0 0 0 0 0 0 0 0
