ncols         20
nrows         20
xllcorner     0
yllcorner     -3.5992928
cellsize      0.17996463
NODATA_value  -9999
-9999.0 -9999 -9999 -9999 -9999 -9999 -9999 -9999 -9999 -9999 -9999 -9999 -9999 -9999 -9999 -9999 -9999 -9999 -9999 -9999
-9999 -9999 -9999 -9999 -9999 -9999 -9999 -9999 -9999 -9999 -9999 11.717046737670898 11.688881874084473 -9999 -9999 11.650918006896973 11.493310928344727 -9999 -9999 -9999
-9999 -9999 -9999 -9999 11.512628555297852 11.6723051071167 11.92894172668457 12.079828262329102 12.145491600036621 12.192668914794922 12.028982162475586 11.994540214538574 12.063940048217773 12.122668266296387 12.0243501663208 11.834797859191895 11.65127182006836 11.538923263549805 -9999 -9999
-9999 -9999 -9999 11.517695426940918 11.64901351928711 11.804159164428711 11.996058464050293 12.103951454162598 12.180246353149414 12.217902183532715 12.262273788452148 12.309365272521973 12.390050888061523 12.419036865234375 12.396829605102539 12.244956970214844 12.036457061767578 11.904062271118164 -9999 -9999
-9999 -9999 -9999 11.637535095214844 11.768134117126465 11.995929718017578 12.107227325439453 12.072253227233887 11.972825050354004 11.840730667114258 11.701761245727539 11.67459774017334 11.846570014953613 12.15842056274414 12.449318885803223 12.548686027526855 12.474944114685059 12.527161598205566 -9999 -9999
-9999 -9999 11.57377815246582 11.769323348999023 11.973689079284668 12.095800399780273 11.904200553894043 11.411784172058105 10.895599365234375 10.308505058288574 9.698156356811523 9.459230422973633 9.762839317321777 10.580643653869629 11.514862060546875 12.186529159545898 12.51374626159668 12.670317649841309 12.587835311889648 -9999
-9999 -9999 11.753440856933594 11.938631057739258 12.192255020141602 12.057682037353516 11.207550048828125 9.686100006103516 8.561861038208008 7.568156719207764 6.730695724487305 6.43385124206543 6.946537971496582 8.068408012390137 9.515697479248047 10.889781951904297 11.803977966308594 12.271979331970215 12.438078880310059 -9999
-9999 -9999 12.172381401062012 12.394460678100586 12.492132186889648 11.83002758026123 9.91396427154541 6.053503036499023 4.732879161834717 3.9749860763549805 3.5099191665649414 3.474823474884033 4.551337242126465 5.681717872619629 7.1513447761535645 8.787901878356934 10.170306205749512 11.105031967163086 11.516453742980957 -9999
-9999 12.421218872070312 12.688007354736328 12.885501861572266 12.667844772338867 11.418527603149414 8.805227279663086 4.7193450927734375 3.257664442062378 2.5733375549316406 2.2664377689361572 2.3092517852783203 3.0421504974365234 3.832653760910034 4.910345554351807 6.333904266357422 7.8508405685424805 9.043041229248047 9.62595272064209 -9999
-9999 12.858370780944824 13.060586929321289 13.10815715789795 12.338315963745117 10.412331581115723 7.4094438552856445 3.7057948112487793 2.335596799850464 1.751981496810913 1.5430952310562134 1.5807503461837769 2.0152266025543213 2.4499552249908447 3.109541893005371 4.075231075286865 5.330738544464111 6.456142425537109 7.039499759674072 -9999
-9999 13.247820854187012 13.217670440673828 12.739527702331543 11.315701484680176 8.918089866638184 5.865752696990967 2.7607624530792236 1.6048221588134766 1.1336010694503784 0.965470552444458 0.9725397229194641 1.180109977722168 1.393103003501892 1.7286404371261597 2.294513702392578 3.0746662616729736 3.908980369567871 4.361732482910156 -9999
-9999 13.0475435256958 12.669904708862305 11.544880867004395 9.611053466796875 7.107335090637207 4.38757848739624 2.004357099533081 1.0800039768218994 0.6912376284599304 0.5442697405815125 0.5095047950744629 0.5789320468902588 0.6484588980674744 0.7759531736373901 1.0379853248596191 1.4643642902374268 1.9493407011032104 2.219078540802002 -9999
-9999 11.789336204528809 11.03701400756836 9.34891128540039 7.2809906005859375 5.086561679840088 3.051765203475952 1.5238900184631348 0.764867901802063 0.44773226976394653 0.2996736168861389 0.24477580189704895 0.22969616949558258 0.23331424593925476 0.2684166431427002 0.3522387444972992 0.5508116483688354 0.7944393157958984 0.9555745720863342 -9999
-9999 9.522418975830078 8.53510570526123 6.6192708015441895 4.711156845092773 3.090733289718628 1.8088884353637695 0.9284377694129944 0.44867274165153503 0.2522691488265991 0.16265065968036652 0.12027404457330704 0.09858478605747223 0.08930318057537079 0.09014303237199783 0.10839437693357468 0.1557673066854477 0.2571069598197937 0.35132503509521484 -9999
-9999 7.157768726348877 6.147798538208008 4.289923191070557 2.7067759037017822 1.636857509613037 0.9277246594429016 0.4696909189224243 0.24817389249801636 0.1443071812391281 0.09414234012365341 0.06646428257226944 0.05085058510303497 0.04257418215274811 0.03838058188557625 0.04016992449760437 0.04811887443065643 0.07326412945985794 -9999 -9999
-9999 5.501783847808838 4.509885787963867 2.8511219024658203 1.6024633646011353 0.8579054474830627 0.4464987516403198 0.23893633484840393 0.13892146944999695 0.08695702254772186 0.059606678783893585 0.04287192225456238 0.03482087701559067 0.03825416788458824 0.04231676831841469 0.04650980979204178 0.050454579293727875 0.053754352033138275 -9999 -9999
-9999 4.45760440826416 3.4009759426116943 2.043091297149658 1.0443434715270996 0.46271538734436035 0.23320934176445007 0.12711666524410248 0.07805228233337402 0.05228123441338539 0.038130905479192734 0.03547387570142746 0.039447955787181854 0.0445234552025795 0.050368815660476685 0.05667595937848091 0.06350716203451157 0.07191348820924759 0.08600203692913055 0.09261579811573029
-9999 -9999 2.3747575283050537 1.5065891742706299 0.7326276898384094 0.2985106110572815 0.1381014585494995 0.07407087832689285 0.04639594629406929 0.03331204131245613 0.03536522388458252 0.039112549275159836 0.04438116401433945 0.05090702325105667 0.05823324993252754 0.06596689671278 0.07398104667663574 0.08225381374359131 0.0905895084142685 0.09495558589696884
-9999 -9999 1.586331844329834 1.0784275531768799 0.5312175750732422 0.20555563271045685 0.08954599499702454 0.04639039188623428 0.03325467184185982 0.03467874974012375 0.03767192363739014 0.04232204705476761 0.04855697602033615 0.05610538274049759 0.06439109146595001 0.07286500185728073 0.08111207187175751 0.08847462385892868 0.0941653847694397 0.09718088060617447
-9999 -9999 -9999 0.8274545073509216 0.41886642575263977 0.1686842143535614 0.07201268523931503 0.03694353252649307 0.03361118584871292 0.03556950390338898 0.03904334083199501 0.04413757473230362 0.05087309330701828 0.058951154351234436 0.06772386282682419 0.0764639750123024 0.08469805866479874 0.09133157879114151 0.0960436463356018 0.09848887473344803
