ncols         20
nrows         20
xllcorner     0
yllcorner     -3.5992928
cellsize      0.17996463
NODATA_value  -9999
-9999.0 -9999 -9999 -9999 -9999 -9999 -9999 -9999 -9999 -9999 -9999 -9999 -9999 -9999 -9999 -9999 -9999 -9999 -9999 -9999
-9999 -9999 -9999 -9999 -9999 -9999 -9999 -9999 -9999 -9999 -9999 0.13342878222465515 0.1323518007993698 -9999 -9999 0.13092458248138428 0.12323165684938431 -9999 -9999 -9999
-9999 -9999 -9999 -9999 0.11988870799541473 0.12864333391189575 0.14509427547454834 0.16004496812820435 0.17201700806617737 0.18218664824962616 0.17078648507595062 0.16327233612537384 0.16833440959453583 0.1765514314174652 0.1654045730829239 0.14692460000514984 0.1346382349729538 0.128699392080307 -9999 -9999
-9999 -9999 -9999 0.11733418703079224 0.12521710991859436 0.1365692913532257 0.15378497540950775 0.17211297154426575 0.19410279393196106 0.2162291556596756 0.2358350157737732 0.24538291990756989 0.2524696886539459 0.24384844303131104 0.222563698887825 0.19273388385772705 0.1684514284133911 0.15573932230472565 -9999 -9999
-9999 -9999 -9999 0.12117983400821686 0.13078105449676514 0.1504397988319397 0.17405924201011658 0.20226389169692993 0.2408004254102707 0.297731876373291 0.3643183708190918 0.41487231850624084 0.43215885758399963 0.4014309346675873 0.35174697637557983 0.2896594703197479 0.24179412424564362 0.2316613495349884 -9999 -9999
-9999 -9999 0.11364000290632248 0.12519612908363342 0.14204737544059753 0.16639167070388794 0.19291090965270996 0.22527247667312622 0.2827928364276886 0.37298670411109924 0.4946257770061493 0.6012875437736511 0.6673626899719238 0.6424895524978638 0.5529049634933472 0.4517720937728882 0.37249165773391724 0.34465962648391724 0.3346819579601288 -9999
-9999 -9999 0.12191396951675415 0.13457371294498444 0.16128383576869965 0.19152873754501343 0.2142418622970581 0.2348211407661438 0.28484052419662476 0.3768599033355713 0.516421377658844 0.685738205909729 0.8604507446289062 0.9148290157318115 0.8481634855270386 0.7101888656616211 0.5863330364227295 0.5021135210990906 0.470836341381073 -9999
-9999 -9999 0.14647290110588074 0.16760924458503723 0.20639458298683167 0.24027681350708008 0.2505713403224945 0.21142444014549255 0.21942079067230225 0.2654307782649994 0.3513270914554596 0.519094705581665 0.9457200169563293 1.1615197658538818 1.1827359199523926 1.0666967630386353 0.9173151254653931 0.786167323589325 0.7313746213912964 -9999
-9999 0.17201542854309082 0.19336716830730438 0.23391284048557281 0.298659086227417 0.3506011366844177 0.3442234992980957 0.25225841999053955 0.23006881773471832 0.25408974289894104 0.33065736293792725 0.524195671081543 1.0725358724594116 1.4323303699493408 1.5877434015274048 1.5445631742477417 1.3799251317977905 1.2140697240829468 1.136168122291565 -9999
-9999 0.22359274327754974 0.26325082778930664 0.35283562541007996 0.4663345217704773 0.548338770866394 0.5278007984161377 0.3558485805988312 0.30322545766830444 0.3130004405975342 0.38777628540992737 0.6079418063163757 1.2668296098709106 1.7577104568481445 2.041928768157959 2.112389087677002 1.9880363941192627 1.8155627250671387 1.7284717559814453 -9999
-9999 0.336539626121521 0.4011010229587555 0.5415198802947998 0.7055431604385376 0.8251506686210632 0.8054395914077759 0.5311232805252075 0.4535207152366638 0.4535674750804901 0.5266421437263489 0.7654613256454468 1.5567377805709839 2.1425325870513916 2.534862518310547 2.7173688411712646 2.705936908721924 2.5706968307495117 2.492727756500244 -9999
-9999 0.542976975440979 0.6348351240158081 0.8375412821769714 1.0584789514541626 1.2197413444519043 1.2238296270370483 0.8553720712661743 0.7684283256530762 0.7584059238433838 0.8172542452812195 1.043278694152832 1.892348051071167 2.4866597652435303 2.9292328357696533 3.2282943725585938 3.3510801792144775 3.3216795921325684 3.2828235626220703 -9999
-9999 0.8834190964698792 1.022076964378357 1.3082088232040405 1.576972246170044 1.7835087776184082 1.86101233959198 1.7547707557678223 1.6388429403305054 1.5673904418945312 1.6054151058197021 1.8026517629623413 2.2147397994995117 2.6175360679626465 2.9964404106140137 3.3433997631073 3.6277778148651123 3.764371871948242 3.7759053707122803 -9999
-9999 1.3553966283798218 1.5457086563110352 1.924533724784851 2.247903347015381 2.4460127353668213 2.497739315032959 2.397562026977539 2.2328333854675293 2.1071648597717285 2.073424816131592 2.143472909927368 2.300713300704956 2.488440990447998 2.694345474243164 2.969938039779663 3.3175721168518066 3.687051773071289 3.7945291996002197 -9999
-9999 1.840977668762207 2.071321964263916 2.5232605934143066 2.86010479927063 2.98602294921875 2.938086986541748 2.768979787826538 2.564927577972412 2.397057294845581 2.2991585731506348 2.248845338821411 2.2334511280059814 2.240743398666382 2.258779287338257 2.3613643646240234 2.560133457183838 2.9651124477386475 -9999 -9999
-9999 2.1971380710601807 2.460635185241699 2.9354679584503174 3.2236549854278564 3.25292706489563 3.1123785972595215 2.89294695854187 2.680117130279541 2.499849796295166 2.366602659225464 2.2411534786224365 2.111659049987793 1.9805172681808472 1.8722560405731201 1.8020578622817993 1.788551926612854 1.6271452903747559 -9999 -9999
-9999 2.460462808609009 2.7550785541534424 3.182166576385498 3.399399995803833 3.320626974105835 3.0940098762512207 2.8289008140563965 2.6057605743408203 2.4213905334472656 2.269785165786743 2.104304313659668 1.918823003768921 1.7404628992080688 1.5696741342544556 1.423328161239624 1.30609929561615 1.1794822216033936 1.088420033454895 0.9644456505775452
-9999 -9999 3.0485751628875732 3.346463918685913 3.4761853218078613 3.295004367828369 2.971454381942749 2.655930519104004 2.413283586502075 2.2279319763183594 2.0748744010925293 1.905540108680725 1.7186744213104248 1.50169038772583 1.3184467554092407 1.1806904077529907 1.0487656593322754 0.9520715475082397 0.8772903680801392 0.9115334153175354
-9999 -9999 3.327049970626831 3.4715397357940674 3.4904658794403076 3.205806255340576 2.7912628650665283 2.4209482669830322 2.1534781455993652 1.9782520532608032 1.8660345077514648 1.706649661064148 1.5175899267196655 1.3057392835617065 1.144641637802124 1.027726173400879 0.9268800020217896 0.8645360469818115 0.9079461693763733 0.9325261116027832
-9999 -9999 -9999 3.523027181625366 3.4861581325531006 3.1567955017089844 2.6928651332855225 2.298916816711426 2.030613422393799 1.8713219165802002 1.7585569620132446 1.6292850971221924 1.4405916929244995 1.231787919998169 1.0621144771575928 0.9730961918830872 0.8631687760353088 0.8884918689727783 0.9253451824188232 0.9458485841751099
