ncols         20
nrows         20
xllcorner     0
yllcorner     -3.5992928
cellsize      0.17996463
NODATA_value  -9999
-9999.0 -9999 -9999 -9999 -9999 -9999 -9999 -9999 -9999 -9999 -9999 -9999 -9999 -9999 -9999 -9999 -9999 -9999 -9999 -9999
-9999 -9999 -9999 -9999 -9999 -9999 -9999 -9999 -9999 -9999 -9999 1.1583367586135864 1.1572595834732056 -9999 -9999 1.1889686584472656 1.1759669780731201 -9999 -9999 -9999
-9999 -9999 -9999 -9999 1.1556100845336914 1.1637812852859497 1.1770433187484741 1.1802159547805786 1.1785151958465576 1.180466890335083 1.1695208549499512 1.1765424013137817 1.1880682706832886 1.1972365379333496 1.1991857290267944 1.1972455978393555 1.186378002166748 1.1753383874893188 -9999 -9999
-9999 -9999 -9999 1.168156623840332 1.1753989458084106 1.1832352876663208 1.1914361715316772 1.1926828622817993 1.1928147077560425 1.1923106908798218 1.1954514980316162 1.2028355598449707 1.213651180267334 1.2211811542510986 1.2309457063674927 1.2299211025238037 1.216981053352356 1.2039759159088135 -9999 -9999
-9999 -9999 -9999 1.1837490797042847 1.1936450004577637 1.2107895612716675 1.216817855834961 1.2141059637069702 1.1991400718688965 1.1713629961013794 1.1413909196853638 1.1298868656158447 1.14738929271698 1.1881818771362305 1.2309954166412354 1.2500691413879395 1.2498294115066528 1.2542712688446045 -9999 -9999
-9999 -9999 1.188530445098877 1.2029728889465332 1.2200874090194702 1.2327537536621094 1.2275328636169434 1.202822208404541 1.1446596384048462 1.0519033670425415 0.9516156911849976 0.9018533825874329 0.9227356314659119 1.0158668756484985 1.1335492134094238 1.2123456001281738 1.2523720264434814 1.2644367218017578 1.2516834735870361 -9999
-9999 -9999 1.2036317586898804 1.2202043533325195 1.2456406354904175 1.2499257326126099 1.226179838180542 1.1591355800628662 1.0370219945907593 0.8733288049697876 0.719972550868988 0.6402859091758728 0.6561812162399292 0.7706910371780396 0 1.0959255695343018 1.1975901126861572 1.2433983087539673 1.2535358667373657 -9999
-9999 -9999 1.2369617223739624 1.2565439939498901 1.2718595266342163 1.255003571510315 1.187941551208496 1.0591962337493896 0.8801897764205933 0.6856531500816345 0.5338343977928162 0.45300206542015076 0.457194983959198 0.5468844175338745 0.7097666263580322 0.8964003324508667 1.0514116287231445 1.1535450220108032 1.193683385848999 -9999
-9999 1.2523117065429688 1.2769465446472168 1.28892183303833 1.2784544229507446 1.2105801105499268 1.0722007751464844 0.8780405521392822 0.6726773381233215 0.498767226934433 0.3834367096424103 0.32438212633132935 0.32011279463768005 0.37742510437965393 0.495537132024765 0 0.8372206687927246 0.9708110690116882 1.035958170890808 -9999
-9999 1.2873220443725586 1.3035396337509155 1.2971782684326172 1.2334126234054565 1.0835925340652466 0.868853747844696 0.637810468673706 0.44837579131126404 0.3231247663497925 0.2544926702976227 0.2206660658121109 0.21826417744159698 0.2484363168478012 0.32194679975509644 0 0.5886409282684326 0.7223430275917053 0.7924328446388245 -9999
-9999 1.3175153732299805 1.3129973411560059 1.2602041959762573 1.1279112100601196 0.9115135073661804 0.6523891687393188 0.4203280210494995 0.2683396637439728 0.1864546835422516 0.14731650054454803 0.13101619482040405 0.13017472624778748 0.14582274854183197 0.18448121845722198 0.2555514872074127 0.35310256481170654 0.45842164754867554 0.5155493021011353 -9999
-9999 1.3026543855667114 1.2703131437301636 1.1573866605758667 0.9672984480857849 0.7237963080406189 0.46997594833374023 0.2714528441429138 0.15727666020393372 0.10100122541189194 0.07638999074697495 0.06609336286783218 0 0 0.08650653809309006 0 0.17678950726985931 0.24077053368091583 0.2762603163719177 -9999
-9999 1.2108014822006226 1.1401433944702148 0.9650868773460388 0.7517169117927551 0.526240348815918 0.32183361053466797 0.17320936918258667 0.09156672656536102 0.05489238724112511 0.034914955496788025 0.02773883379995823 0 0 0 0.04316816106438637 0.07141286134719849 0.10487097501754761 0.12633943557739258 -9999
-9999 1.0286881923675537 0.9272287487983704 0.7168406844139099 0.5088560581207275 0.33387187123298645 0.19728533923625946 0.10419323295354843 0.05053861811757088 0.029439017176628113 0.019640032202005386 0.015164904296398163 0 0 0 0.015976684167981148 0.02298080548644066 0.03725723549723625 0.04889164865016937 -9999
-9999 0.8287293910980225 0.7165159583091736 0.4992403984069824 0.31487226486206055 0.1913217306137085 0.10967431217432022 0.055943310260772705 0.03077113628387451 0.019324101507663727 0.013917891308665276 0.010973330587148666 0.009348515421152115 0.008611457422375679 0 0 0.01010038796812296 0.014627579599618912 -9999 -9999
-9999 0.6875664591789246 0.571710467338562 0.3641658127307892 0.20662429928779602 0.11228819191455841 0.0593990758061409 0.033250998705625534 0.020969631150364876 0.01471987646073103 0 0 0 0.010071012191474438 0 0 0.012981082312762737 0 -9999 -9999
-9999 0.5899730324745178 0.46928396821022034 0.2888554334640503 0.15149912238121033 0.06925848126411438 0.03682857006788254 0.021880298852920532 0.015079601667821407 0 0 0 0 0.01328958012163639 0.014847490936517715 0.01616762764751911 0.017287051305174828 0.0185325238853693 0 0
-9999 -9999 0.3646327555179596 0.23682549595832825 0.11971879005432129 0.051623713225126266 0.026142409071326256 0.01585228182375431 0 0 0 0 0 0 0 0 0 0 0 0
-9999 -9999 0.26135799288749695 0.18568475544452667 0.09623783081769943 0.040228456258773804 0.01973760686814785 0.011924094520509243 0 0 0 0 0 0 0 0 0 0 0 0
-9999 -9999 -9999 0.15442831814289093 0.08150257915258408 0.03559904173016548 0.017303675413131714 0.010491497814655304 0 0 0 0 0 0 0 0 0 0 0 0
