ncols         20
nrows         20
xllcorner     0
yllcorner     -3.5992928
cellsize      0.17996463
NODATA_value  -9999
-9999.0 -9999 -9999 -9999 -9999 -9999 -9999 -9999 -9999 -9999 -9999 -9999 -9999 -9999 -9999 -9999 -9999 -9999 -9999 -9999
-9999 -9999 -9999 -9999 -9999 -9999 -9999 -9999 -9999 -9999 -9999 26.528730392456055 26.528034210205078 -9999 -9999 26.6217041015625 26.701196670532227 -9999 -9999 -9999
-9999 -9999 -9999 -9999 26.586097717285156 26.475454330444336 26.316234588623047 26.201906204223633 26.145360946655273 26.138233184814453 26.220134735107422 26.31141471862793 26.276844024658203 26.170289993286133 26.226116180419922 26.41745376586914 26.548282623291016 26.5856990814209 -9999 -9999
-9999 -9999 -9999 26.59490966796875 26.53602409362793 26.436220169067383 26.322101593017578 26.253725051879883 26.217327117919922 26.202495574951172 26.198591232299805 26.17865753173828 26.099205017089844 26.022279739379883 26.032018661499023 26.142553329467773 26.25786590576172 26.30720329284668 -9999 -9999
-9999 -9999 -9999 26.517648696899414 26.46392059326172 26.402149200439453 26.401485443115234 26.47905921936035 26.56910514831543 26.63065528869629 26.64019012451172 26.559127807617188 26.36808204650879 26.14812469482422 25.991548538208008 25.945009231567383 25.94486427307129 25.917329788208008 -9999 -9999
-9999 -9999 26.465219497680664 26.418664932250977 26.378978729248047 26.456523895263672 26.751026153564453 27.21796226501465 27.63502311706543 27.953857421875 28.11357879638672 27.980915069580078 27.542272567749023 26.96970558166504 26.46259117126465 26.098060607910156 25.882068634033203 25.74860191345215 25.679759979248047 -9999
-9999 -9999 26.289962768554688 26.260574340820312 26.306150436401367 26.6594295501709 27.51093101501465 28.830825805664062 29.871475219726562 30.49204444885254 30.68758773803711 30.36436653137207 29.5092830657959 28.512737274169922 27.560291290283203 26.76585578918457 26.24823760986328 25.944854736328125 25.804901123046875 -9999
-9999 -9999 25.95549964904785 25.97742462158203 26.213314056396484 27.007482528686523 28.70686149597168 31.417959213256836 32.95518493652344 33.64168930053711 33.70930862426758 33.0963249206543 31.639759063720703 30.23982810974121 28.998620986938477 27.931438446044922 27.097055435180664 26.547521591186523 26.29126739501953 -9999
-9999 25.488744735717773 25.564373016357422 25.686859130859375 26.17745018005371 27.417476654052734 29.783828735351562 33.0045280456543 34.789710998535156 35.52632522583008 35.54061508178711 34.81612014770508 33.21247100830078 31.677173614501953 30.353256225585938 29.221187591552734 28.288114547729492 27.61520004272461 27.26427459716797 -9999
-9999 25.2393856048584 25.297727584838867 25.558963775634766 26.35601806640625 27.99273681640625 30.710298538208008 33.950584411621094 35.755550384521484 36.49650192260742 36.503013610839844 35.7832145690918 34.215145111083984 32.701072692871094 31.416568756103516 30.348350524902344 29.4762020111084 28.831754684448242 28.48149871826172 -9999
-9999 25.02785301208496 25.193899154663086 25.697433471679688 26.808753967285156 28.726438522338867 31.468074798583984 34.477481842041016 36.1659049987793 36.87529373168945 36.901710510253906 36.246742248535156 34.77384948730469 33.35662078857422 32.166290283203125 31.197288513183594 30.42997169494629 29.876516342163086 29.573352813720703 -9999
-9999 25.10972785949707 25.42251205444336 26.168607711791992 27.485652923583984 29.446317672729492 31.912885665893555 34.49861145019531 35.99324035644531 36.670989990234375 36.75606918334961 36.24042892456055 34.98385238647461 33.77653121948242 32.740631103515625 31.867759704589844 31.162006378173828 30.655576705932617 30.373071670532227 -9999
-9999 25.628128051757812 26.064382553100586 26.97447967529297 28.33637809753418 30.043439865112305 31.962608337402344 33.82002639770508 35.08759689331055 35.77107620239258 35.96705627441406 35.68559646606445 34.9653205871582 34.15523910522461 33.36555862426758 32.615196228027344 31.918977737426758 31.368783950805664 31.003347396850586 -9999
-9999 26.538999557495117 27.049135208129883 27.9849910736084 29.17926788330078 30.531530380249023 31.96055793762207 33.32072448730469 34.38233184814453 35.0439453125 35.344940185546875 35.3223876953125 35.03882598876953 34.629608154296875 34.15003967285156 33.588497161865234 32.96333694458008 32.322330474853516 31.577449798583984 -9999
-9999 27.614065170288086 28.10173988342285 28.919485092163086 29.883493423461914 30.943798065185547 32.06150817871094 33.14424133300781 34.02701950073242 34.66002655029297 35.04948425292969 35.23878860473633 35.270851135253906 35.19272994995117 35.02212905883789 34.729393005371094 34.33944320678711 33.93830490112305 -9999 -9999
-9999 28.46938705444336 28.933273315429688 29.624082565307617 30.432523727416992 31.34228515625 32.317562103271484 33.233097076416016 34.00436782836914 34.603759765625 35.04069519042969 35.362579345703125 35.596275329589844 35.74916458129883 35.8125 35.77809524536133 35.683555603027344 35.66120910644531 -9999 -9999
-9999 28.972089767456055 29.539644241333008 30.140777587890625 30.877901077270508 31.770404815673828 32.67778396606445 33.53264236450195 34.24933624267578 34.81999969482422 35.26968002319336 35.651519775390625 35.98420333862305 36.25698471069336 36.45452880859375 36.5716438293457 36.648475646972656 36.79439163208008 37.20964813232422 37.382633209228516
-9999 -9999 30.159452438354492 30.57530975341797 31.249361038208008 32.14737319946289 33.083072662353516 33.941864013671875 34.643314361572266 35.18888854980469 35.622074127197266 36.011329650878906 36.37449645996094 36.70545196533203 36.95823287963867 37.1252326965332 37.248619079589844 37.36107635498047 37.49830627441406 37.54459762573242
-9999 -9999 30.468469619750977 30.889009475708008 31.539133071899414 32.465736389160156 33.46051025390625 34.35149383544922 35.05238342285156 35.56890106201172 35.96394729614258 36.336280822753906 36.703460693359375 37.04731750488281 37.31083679199219 37.48652267456055 37.60586929321289 37.669498443603516 37.68338394165039 37.683990478515625
-9999 -9999 -9999 31.177143096923828 31.739627838134766 32.64926528930664 33.67461013793945 34.58507537841797 35.27940368652344 35.775386810302734 36.15300369262695 36.503047943115234 36.8685302734375 37.21730041503906 37.490638732910156 37.6640739440918 37.785552978515625 37.80519104003906 37.790618896484375 37.779319763183594
