ncols         20
nrows         20
xllcorner     0
yllcorner     -3.5992928
cellsize      0.17996463
NODATA_value  -9999
-9999.0 -9999 -9999 -9999 -9999 -9999 -9999 -9999 -9999 -9999 -9999 -9999 -9999 -9999 -9999 -9999 -9999 -9999 -9999 -9999
-9999 -9999 -9999 -9999 -9999 -9999 -9999 -9999 -9999 -9999 -9999 13.299825668334961 13.311267852783203 -9999 -9999 13.193331718444824 13.276992797851562 -9999 -9999 -9999
-9999 -9999 -9999 -9999 13.163153648376465 13.101068496704102 13.001529693603516 12.970523834228516 12.986335754394531 13.006338119506836 13.131706237792969 13.151138305664062 13.105704307556152 13.063602447509766 13.094724655151367 13.148152351379395 13.239625930786133 13.322012901306152 -9999 -9999
-9999 -9999 -9999 13.133638381958008 13.079625129699707 13.016334533691406 12.95488452911377 12.945805549621582 12.945987701416016 12.947660446166992 12.937507629394531 12.909244537353516 12.861821174621582 12.856433868408203 12.873847007751465 12.95091438293457 13.072959899902344 13.162111282348633 -9999 -9999
-9999 -9999 -9999 13.079115867614746 13.012569427490234 12.915342330932617 12.894427299499512 12.949078559875488 13.006848335266113 13.03638744354248 13.040999412536621 13.011868476867676 12.93254566192627 12.844256401062012 12.766523361206055 12.78368854522705 12.871249198913574 12.873424530029297 -9999 -9999
-9999 -9999 13.134795188903809 13.027169227600098 12.921158790588379 12.882752418518066 13.022917747497559 13.29760456085205 13.503250122070312 13.671035766601562 13.800168991088867 13.81436824798584 13.655025482177734 13.384166717529297 13.097373008728027 12.911149024963379 12.852788925170898 12.84292221069336 12.972220420837402 -9999
-9999 -9999 13.058526039123535 12.950897216796875 12.825831413269043 12.926135063171387 13.40770435333252 14.187728881835938 14.600723266601562 14.891671180725098 15.102385520935059 15.102205276489258 14.756068229675293 14.306390762329102 13.820924758911133 13.403663635253906 13.132238388061523 13.020779609680176 13.014228820800781 -9999
-9999 -9999 12.85000991821289 12.721115112304688 12.670188903808594 13.038768768310547 14.057730674743652 15.93024730682373 16.43460464477539 16.632314682006836 16.747472763061523 16.648555755615234 15.836709976196289 15.246761322021484 14.699243545532227 14.169425964355469 13.741376876831055 13.475568771362305 13.361058235168457 -9999
-9999 12.757832527160645 12.585310935974121 12.44518756866455 12.535995483398438 13.159516334533691 14.441873550415039 16.414594650268555 16.976123809814453 17.163497924804688 17.24212646484375 17.140361785888672 16.46318817138672 15.96965217590332 15.520682334899902 15.040441513061523 14.571932792663574 14.22148323059082 14.051525115966797 -9999
-9999 12.524435043334961 12.371795654296875 12.287883758544922 12.613118171691895 13.502644538879395 14.895990371704102 16.696197509765625 17.231773376464844 17.398590087890625 17.45330810546875 17.373104095458984 16.85515785217285 16.493667602539062 16.177244186401367 15.831746101379395 15.448728561401367 15.124689102172852 14.957453727722168 -9999
-9999 12.30774211883545 12.269037246704102 12.415739059448242 13.009282112121582 14.043800354003906 15.423065185546875 16.988370895385742 17.451231002807617 17.585220336914062 17.627456665039062 17.566680908203125 17.14132308959961 16.868610382080078 16.659000396728516 16.43891143798828 16.195598602294922 15.970917701721191 15.852804183959961 -9999
-9999 12.377778053283691 12.501567840576172 12.916376113891602 13.684813499450684 14.706555366516113 15.910304069519043 17.183128356933594 17.564533233642578 17.67751693725586 17.71536636352539 17.675363540649414 17.318912506103516 17.12075424194336 16.98821449279785 16.85422706604004 16.7073974609375 16.58283805847168 16.528873443603516 -9999
-9999 12.916141510009766 13.183321952819824 13.783276557922363 14.562520980834961 15.414368629455566 16.25811767578125 16.979473114013672 17.31951141357422 17.455219268798828 17.50293731689453 17.48231315612793 17.36841583251953 17.28506851196289 17.214019775390625 17.133703231811523 17.02579689025879 16.943410873413086 16.937108993530273 -9999
-9999 13.816801071166992 14.149654388427734 14.799483299255371 15.485280990600586 16.09626007080078 16.615619659423828 17.018056869506836 17.256790161132812 17.368438720703125 17.414913177490234 17.423566818237305 17.409223556518555 17.399309158325195 17.391862869262695 17.355762481689453 17.275407791137695 17.166746139526367 17.197269439697266 -9999
-9999 14.710639953613281 15.043721199035645 15.646709442138672 16.198427200317383 16.607162475585938 16.90929412841797 17.133493423461914 17.272502899169922 17.350955963134766 17.390830993652344 17.417936325073242 17.442508697509766 17.471317291259766 17.50796890258789 17.519025802612305 17.4886417388916 17.365686416625977 -9999 -9999
-9999 15.340214729309082 15.663918495178223 16.184791564941406 16.620098114013672 16.918947219848633 17.109325408935547 17.23445701599121 17.308887481689453 17.356304168701172 17.38512420654297 17.417049407958984 17.457271575927734 17.504501342773438 17.55530548095703 17.600557327270508 17.63217544555664 17.703676223754883 -9999 -9999
-9999 15.714067459106445 16.088708877563477 16.507278442382812 16.85516357421875 17.107086181640625 17.242080688476562 17.323091506958008 17.36444854736328 17.390893936157227 17.410198211669922 17.438247680664062 17.477252960205078 17.521183013916016 17.57131576538086 17.6204891204834 17.661361694335938 17.69192123413086 17.639812469482422 17.651872634887695
-9999 -9999 16.491865158081055 16.73552703857422 16.999588012695312 17.2121639251709 17.336284637451172 17.40191078186035 17.429729461669922 17.443056106567383 17.449867248535156 17.469337463378906 17.4991455078125 17.544677734375 17.585668563842773 17.61867332458496 17.653444290161133 17.67388343811035 17.669628143310547 17.644344329833984
-9999 -9999 16.75079345703125 16.910808563232422 17.104904174804688 17.295228958129883 17.420307159423828 17.48493194580078 17.507307052612305 17.50535774230957 17.49299430847168 17.504682540893555 17.530550003051758 17.568376541137695 17.594709396362305 17.613462448120117 17.63559913635254 17.64573860168457 17.620771408081055 17.605743408203125
-9999 -9999 -9999 17.01828956604004 17.161130905151367 17.33019256591797 17.457509994506836 17.520936965942383 17.53518295288086 17.524673461914062 17.510847091674805 17.510669708251953 17.53479766845703 17.569522857666016 17.59592628479004 17.603267669677734 17.627216339111328 17.61053466796875 17.592437744140625 17.583831787109375
