ncols         20
nrows         20
xllcorner     0
yllcorner     -3.5992928
cellsize      0.17996463
NODATA_value  -9999
-9999.0 -9999 -9999 -9999 -9999 -9999 -9999 -9999 -9999 -9999 -9999 -9999 -9999 -9999 -9999 -9999 -9999 -9999 -9999 -9999
-9999 -9999 -9999 -9999 -9999 -9999 -9999 -9999 -9999 -9999 -9999 26.548776626586914 26.548328399658203 -9999 -9999 26.641799926757812 26.720979690551758 -9999 -9999 -9999
-9999 -9999 -9999 -9999 26.609086990356445 26.4982967376709 26.338726043701172 26.223684310913086 26.166467666625977 26.15904426574707 26.241165161132812 26.33291244506836 26.29925537109375 26.19382667541504 26.24942398071289 26.439525604248047 26.569644927978516 26.607032775878906 -9999 -9999
-9999 -9999 -9999 26.616592407226562 26.55816650390625 26.458467483520508 26.344003677368164 26.274784088134766 26.23805046081543 26.223291397094727 26.220348358154297 26.20264434814453 26.125463485717773 26.049720764160156 26.059268951416016 26.168664932250977 26.282821655273438 26.331581115722656 -9999 -9999
-9999 -9999 -9999 26.537643432617188 26.484498977661133 26.42303466796875 26.422340393066406 26.5000057220459 26.590303421020508 26.65254783630371 26.66411590576172 26.586217880249023 26.400177001953125 26.18270492553711 26.02623748779297 25.978221893310547 25.976333618164062 25.948030471801758 -9999 -9999
-9999 -9999 26.480121612548828 26.435632705688477 26.397262573242188 26.475616455078125 26.771076202392578 27.238515853881836 27.655872344970703 27.97531509399414 28.139263153076172 28.012554168701172 27.58108139038086 27.013341903686523 26.50746726989746 26.141508102416992 25.92326545715332 25.788911819458008 25.722219467163086 -9999
-9999 -9999 26.303159713745117 26.275245666503906 26.322044372558594 26.67725372314453 27.530101776123047 28.849807739257812 29.889572143554688 30.509979248046875 30.70744514465332 30.391218185424805 29.54974937438965 28.56468963623047 27.617504119873047 26.82265281677246 26.302013397216797 25.996179580688477 25.85554313659668 -9999
-9999 -9999 25.966981887817383 25.9908390045166 26.22834587097168 27.02487564086914 28.725326538085938 31.432527542114258 32.96332550048828 33.64472961425781 33.7110481262207 33.105777740478516 31.67396354675293 30.295141220092773 29.066265106201172 28.002750396728516 27.166425704956055 26.612751007080078 26.35470199584961 -9999
-9999 25.4969482421875 25.575428009033203 25.701292037963867 26.19384002685547 27.435955047607422 29.802410125732422 33.012542724609375 34.7877082824707 35.51797103881836 35.53108215332031 34.81583786010742 33.24148178100586 31.73331069946289 30.427663803100586 29.304235458374023 28.372167587280273 27.69671630859375 27.34380340576172 -9999
-9999 25.25153160095215 25.313085556030273 25.57883071899414 26.3782958984375 28.01546287536621 30.730016708374023 33.952980041503906 35.745849609375 36.480926513671875 36.4874267578125 35.77805709838867 34.24123001098633 32.75705337524414 31.494159698486328 30.437969207763672 29.569717407226562 28.924531936645508 28.57263946533203 -9999
-9999 25.048046112060547 25.21785545349121 25.72736358642578 26.843503952026367 28.761674880981445 31.492156982421875 34.47758102416992 36.15249252319336 36.85653305053711 36.88359832763672 36.23945999145508 34.798919677734375 33.41219711303711 32.243995666503906 31.287946701049805 30.52586555480957 29.972806930541992 29.668455123901367 -9999
-9999 25.141637802124023 25.45867919921875 26.211957931518555 27.53567123413086 29.495250701904297 31.946979522705078 34.505313873291016 35.985816955566406 36.658226013183594 36.743812561035156 36.23808670043945 35.01211166381836 33.832096099853516 32.815486907958984 31.953975677490234 31.253110885620117 30.747474670410156 30.464248657226562 -9999
-9999 25.674224853515625 26.115291595458984 27.034271240234375 28.40317153930664 30.1090030670166 32.015419006347656 33.852783203125 35.10678482055664 35.784080505371094 35.979984283447266 35.70611572265625 35.00358200073242 34.21088790893555 33.433963775634766 32.691287994384766 31.998729705810547 31.449914932250977 31.085384368896484 -9999
-9999 26.59823226928711 27.11292839050293 28.05573081970215 29.257898330688477 30.610553741455078 32.02983093261719 33.375484466552734 34.425472259521484 35.080448150634766 35.37944793701172 35.359886169433594 35.08369445800781 34.682159423828125 34.207679748535156 33.649314880371094 33.02614212036133 32.38763427734375 31.649778366088867 -9999
-9999 27.673070907592773 28.162551879882812 28.983200073242188 29.956512451171875 31.026857376098633 32.138938903808594 33.210906982421875 34.08366012573242 34.70982360839844 35.09531021118164 35.283504486083984 35.31584548950195 35.238059997558594 35.06689453125 34.7733039855957 34.38276672363281 33.98145294189453 -9999 -9999
-9999 28.533864974975586 28.99766731262207 29.686908721923828 30.49591827392578 31.42026710510254 32.393924713134766 33.30085754394531 34.063392639160156 34.65597915649414 35.0876579284668 35.40568161010742 35.635658264160156 35.78486633300781 35.844417572021484 35.80649185180664 35.70896911621094 35.68402099609375 -9999 -9999
-9999 29.04056167602539 29.607473373413086 30.204341888427734 30.93617057800293 31.8288516998291 32.74390411376953 33.59314727783203 34.3022346496582 34.8663330078125 35.31044006347656 35.687255859375 36.01483917236328 36.28260803222656 36.4754753112793 36.5882682800293 36.660892486572266 36.8010139465332 37.20833969116211 37.379581451416016
-9999 -9999 30.228973388671875 30.63930892944336 31.304798126220703 32.195247650146484 33.13309097290039 33.990814208984375 34.68621063232422 35.22591781616211 35.65359115600586 36.03782653808594 36.39597702026367 36.72202682495117 36.970272064208984 37.133243560791016 37.25193405151367 37.36103439331055 37.4960823059082 37.5415153503418
-9999 -9999 30.537498474121094 30.95182991027832 31.59235382080078 32.50785446166992 33.495826721191406 34.387916564941406 35.08620834350586 35.597686767578125 35.98767852783203 36.355403900146484 36.71791458129883 37.05721664428711 37.31581497192383 37.487464904785156 37.60464096069336 37.6673698425293 37.680511474609375 37.68073654174805
-9999 -9999 -9999 31.237031936645508 31.79084587097168 32.68846130371094 33.70341110229492 34.613494873046875 35.30728530883789 35.799232482910156 36.172367095947266 36.518035888671875 36.87832260131836 37.222015380859375 37.49105453491211 37.66194534301758 37.782989501953125 37.80232620239258 37.78741455078125 37.77591323852539
