ncols         20
nrows         20
xllcorner     0
yllcorner     -3.5992928
cellsize      0.17996463
NODATA_value  -9999
-9999.0 -9999 -9999 -9999 -9999 -9999 -9999 -9999 -9999 -9999 -9999 -9999 -9999 -9999 -9999 -9999 -9999 -9999 -9999 -9999
-9999 -9999 -9999 -9999 -9999 -9999 -9999 -9999 -9999 -9999 -9999 0 0 -9999 -9999 0 0 -9999 -9999 -9999
-9999 -9999 -9999 -9999 0 0 0 0 0 0 0 0 0 0 0 0 0 0 -9999 -9999
-9999 -9999 -9999 0 0 0 0 0 0 0 0 0 0 0 0 0 0 0 -9999 -9999
-9999 -9999 -9999 0 0 0 0 0 0 0 0 0 0 0 0 0 0 0 -9999 -9999
-9999 -9999 0 0 0 0 3.976327657699585 3.6853201389312744 3.4717180728912354 3.275682210922241 3.1066081523895264 3.044170379638672 3.119297981262207 3.3444974422454834 3.6694912910461426 4.0817694664001465 0 0 0 -9999
-9999 -9999 0 0 0 3.918412446975708 3.4839470386505127 3.1597049236297607 2.86344575881958 2.567805290222168 2.319225549697876 2.204127311706543 2.2601115703582764 2.4989492893218994 0.32088086009025574 3.4133598804473877 0 0 0 -9999
-9999 -9999 0 0 4.023791790008545 3.534104108810425 3.120915412902832 2.740088701248169 2.3724396228790283 2.0343289375305176 1.7877719402313232 1.6660996675491333 1.6965175867080688 1.8880140781402588 2.237502098083496 2.7269883155822754 3.3241260051727295 0 0 -9999
-9999 0 0 4.294528007507324 3.7351162433624268 3.240943670272827 2.767138957977295 2.3121941089630127 1.9121246337890625 1.602833867073059 1.4078418016433716 1.3160473108291626 1.3262134790420532 1.456095576286316 1.7114050388336182 0.46734678745269775 2.6006321907043457 3.1286780834198 0 -9999
-9999 0 0 4.163520812988281 3.5163767337799072 2.916710615158081 2.3509442806243896 1.8523210287094116 1.4766889810562134 1.2374690771102905 1.1111329793930054 1.0554386377334595 1.0642409324645996 1.1418629884719849 1.3120543956756592 0.3532696068286896 1.9841437339782715 2.4237873554229736 0 -9999
-9999 0 0 4.026995658874512 3.2583374977111816 2.566567897796631 1.9436787366867065 1.4459413290023804 1.1272392272949219 0.9546824097633362 0.8734170198440552 0.8440022468566895 0.851897656917572 0.9003459811210632 1.0051143169403076 1.1915050745010376 1.470719575881958 0 0 -9999
-9999 0 0 3.766801357269287 2.9202659130096436 2.2033843994140625 1.5970134735107422 1.1545264720916748 0.8983521461486816 0.769053041934967 0.712818443775177 0.6922146677970886 0.30984020233154297 0.4018539488315582 0.7810153365135193 0.19804206490516663 1.0728293657302856 0 0 -9999
-9999 0 0 3.3083882331848145 2.474353551864624 1.8160181045532227 1.3039584159851074 0.9507988691329956 0.7550371289253235 0.6637054681777954 0.6183146238327026 0.602702260017395 0.40192291140556335 0.5482969284057617 0.43279483914375305 0.7081975936889648 0.8170336484909058 0 0 -9999
-9999 0 0 2.7103829383850098 1.9546440839767456 1.4200302362442017 1.0447514057159424 0.801976203918457 0.6654355525970459 0.6041326522827148 0.5752791166305542 0.563819944858551 0.25022557377815247 0.4446215331554413 0.39376530051231384 0.6252191662788391 0.6853700876235962 0 0 -9999
-9999 0 0 2.1571710109710693 1.5080848932266235 1.1036393642425537 0.8514330387115479 0.69576495885849 0.6149104833602905 0.5739704370498657 0.5538806915283203 0.5451305508613586 0.5444347262382507 0.5507525205612183 0.37609532475471497 0.3262670636177063 0.6243717670440674 0 -9999 -9999
-9999 0 0 1.780608892440796 1.2321275472640991 0.9124886989593506 0.7349376082420349 0.6377180814743042 0.5857318639755249 0.5569316744804382 0.36121001839637756 0.4160284101963043 0.05941734090447426 0.5419063568115234 0.24617578089237213 0.25410839915275574 0.5972164273262024 0.08890055865049362 -9999 -9999
-9999 0 0 1.5455909967422485 1.074453592300415 0.8021446466445923 0.6736265420913696 0.604634165763855 0.5669718980789185 0.363559365272522 0.4742467403411865 0.5297709107398987 0.4135156273841858 0.5372945070266724 0.5465686321258545 0.5597208142280579 0.5771953463554382 0.5941887497901917 0.4246600270271301 0.595417320728302
-9999 -9999 0 1.3668546676635742 0.9738832712173462 0.7469040751457214 0.6403425931930542 0.5856252312660217 0.3085552752017975 0.47824567556381226 0.5310919284820557 0.5286291837692261 0.4709832966327667 0.41551604866981506 0.3608781099319458 0.3671654760837555 0.3746281564235687 0.4457322061061859 0.5142327547073364 0.5804963707923889
-9999 -9999 0 0 0.907279372215271 0.711458146572113 0.6203685402870178 0.5739603638648987 0.3664643466472626 0.5376448631286621 0.5308356285095215 0.5282074213027954 0.528965175151825 0.53246009349823 0.5380480885505676 0.5451180338859558 0.552871823310852 0.5598863363265991 0.5642256140708923 0.5661728382110596
-9999 -9999 -9999 0 0.8656384348869324 0.6958177089691162 0.6121640801429749 0.5693506002426147 0.3662285804748535 0.5375530123710632 0.5308109521865845 0.5280804634094238 0.5285946726799011 0.5316435694694519 0.5365051031112671 0.5424562692642212 0.5487360954284668 0.5541502237319946 0.5578033924102783 0.5595791339874268
