ncols         20
nrows         20
xllcorner     0
yllcorner     -3.5992928
cellsize      0.17996463
NODATA_value  -9999
-9999.0 -9999 -9999 -9999 -9999 -9999 -9999 -9999 -9999 -9999 -9999 -9999 -9999 -9999 -9999 -9999 -9999 -9999 -9999 -9999
-9999 -9999 -9999 -9999 -9999 -9999 -9999 -9999 -9999 -9999 -9999 19.07081413269043 19.080141067504883 -9999 -9999 19.035663604736328 19.038219451904297 -9999 -9999 -9999
-9999 -9999 -9999 -9999 19.026615142822266 19.040802001953125 19.049522399902344 19.06705665588379 19.083303451538086 19.077529907226562 19.11438751220703 19.09607696533203 19.092199325561523 19.122251510620117 19.127025604248047 19.09170913696289 19.078222274780273 19.09220314025879 -9999 -9999
-9999 -9999 -9999 19.044221878051758 19.02818489074707 19.033218383789062 19.03506088256836 19.03897476196289 19.029233932495117 19.019515991210938 18.996789932250977 18.99785041809082 19.013607025146484 19.05787467956543 19.087003707885742 19.10852813720703 19.132381439208984 19.160747528076172 -9999 -9999
-9999 -9999 -9999 19.069252014160156 19.053680419921875 19.013301849365234 18.97435188293457 18.92967987060547 18.870601654052734 18.788427352905273 18.710660934448242 18.682674407958984 18.717247009277344 18.81912612915039 18.931636810302734 19.051191329956055 19.160808563232422 19.20391845703125 -9999 -9999
-9999 -9999 19.157718658447266 19.108156204223633 19.055593490600586 18.97838020324707 18.952184677124023 18.835533142089844 18.686540603637695 18.52393341064453 18.37761688232422 18.317630767822266 18.35201644897461 18.49500274658203 18.704029083251953 18.934497833251953 19.07724380493164 19.22014617919922 19.354360580444336 -9999
-9999 -9999 19.212352752685547 19.15592384338379 19.049150466918945 18.979724884033203 18.820470809936523 18.633237838745117 18.421527862548828 18.208065032958984 18.02882194519043 17.93996810913086 17.966751098632812 18.110368728637695 18.321897506713867 18.623258590698242 18.851037979125977 19.09264373779297 19.228755950927734 -9999
-9999 -9999 19.302671432495117 19.187393188476562 19.08446502685547 18.88629722595215 18.652563095092773 18.408662796020508 18.169818878173828 17.95119285583496 17.788490295410156 17.701061248779297 17.712406158447266 17.825361251831055 18.021873474121094 18.2886905670166 18.584285736083984 18.79711151123047 18.956520080566406 -9999
-9999 19.587186813354492 19.423337936401367 19.285627365112305 19.019819259643555 18.72746467590332 18.435871124267578 18.15622901916504 17.917911529541016 17.733482360839844 17.612716674804688 17.550628662109375 17.55072593688965 17.622543334960938 17.761335372924805 17.951316833496094 18.22591209411621 18.474390029907227 18.57883071899414 -9999
-9999 19.62002182006836 19.52109146118164 19.26751708984375 18.894317626953125 18.526891708374023 18.186786651611328 17.89986228942871 17.687217712402344 17.548633575439453 17.47177505493164 17.435623168945312 17.43476676940918 17.47462272644043 17.561630249023438 17.68503761291504 17.898208618164062 18.091432571411133 18.17995834350586 -9999
-9999 19.63129425048828 19.541776657104492 19.185842514038086 18.727006912231445 18.31045913696289 17.956300735473633 17.687543869018555 17.511186599731445 17.41151237487793 17.36166000366211 17.338573455810547 17.332433700561523 17.35318374633789 17.40874481201172 17.497373580932617 17.631507873535156 17.74772071838379 17.83086395263672 -9999
-9999 19.563400268554688 19.41545867919922 18.979297637939453 18.489540100097656 18.08132553100586 17.76114845275879 17.53531837463379 17.400897979736328 17.3339900970459 17.297828674316406 17.274099349975586 17.230154037475586 17.235027313232422 17.291446685791016 17.324064254760742 17.428686141967773 17.509584426879883 17.569435119628906 -9999
-9999 19.371353149414062 19.084552764892578 18.647085189819336 18.198026657104492 17.85124397277832 17.59652328491211 17.42974090576172 17.341503143310547 17.3006534576416 17.28032875061035 17.26102066040039 17.217498779296875 17.21293067932129 17.22612190246582 17.27716636657715 17.31523895263672 17.35736083984375 17.404293060302734 -9999
-9999 18.95367431640625 18.654098510742188 18.28028678894043 17.913339614868164 17.646991729736328 17.46662139892578 17.35820198059082 17.30829620361328 17.289226531982422 17.281015396118164 17.273128509521484 17.248836517333984 17.251493453979492 17.264759063720703 17.294702529907227 17.300046920776367 17.28506088256836 17.361083984375 -9999
-9999 18.528148651123047 18.278257369995117 17.982542037963867 17.69852066040039 17.503143310546875 17.383729934692383 17.320518493652344 17.293928146362305 17.285749435424805 17.28017234802246 17.2844181060791 17.29347038269043 17.30768394470215 17.314868927001953 17.327346801757812 17.345809936523438 17.28036117553711 -9999 -9999
-9999 18.226245880126953 18.0140380859375 17.7835693359375 17.562440872192383 17.422391891479492 17.342941284179688 17.307064056396484 17.288021087646484 17.276639938354492 17.25442886352539 17.262943267822266 17.2872257232666 17.328414916992188 17.343624114990234 17.367448806762695 17.38870620727539 17.44581413269043 -9999 -9999
-9999 18.069705963134766 17.837190628051758 17.653308868408203 17.48324966430664 17.386667251586914 17.332258224487305 17.31047821044922 17.29217529296875 17.268020629882812 17.263566970825195 17.2767333984375 17.3040714263916 17.341737747192383 17.368911743164062 17.39434051513672 17.414840698242188 17.435087203979492 17.4055233001709 17.431421279907227
-9999 -9999 17.642349243164062 17.549938201904297 17.436185836791992 17.366497039794922 17.33514404296875 17.3200626373291 17.293663024902344 17.286563873291016 17.286298751831055 17.299095153808594 17.319133758544922 17.353145599365234 17.379756927490234 17.397979736328125 17.419557571411133 17.434494018554688 17.44862174987793 17.429227828979492
-9999 -9999 17.590797424316406 17.48418426513672 17.408550262451172 17.366113662719727 17.351118087768555 17.345182418823242 17.327421188354492 17.32166862487793 17.313575744628906 17.326045989990234 17.34589385986328 17.37480926513672 17.392871856689453 17.406190872192383 17.420883178710938 17.434040069580078 17.416662216186523 17.411283493041992
-9999 -9999 -9999 17.420101165771484 17.387142181396484 17.36036491394043 17.35647964477539 17.35439109802246 17.336841583251953 17.329689025878906 17.325838088989258 17.32912826538086 17.349781036376953 17.377260208129883 17.399826049804688 17.404348373413086 17.42779541015625 17.414779663085938 17.407747268676758 17.405393600463867
