ncols         20
nrows         20
xllcorner     0
yllcorner     -3.5992928
cellsize      0.17996463
NODATA_value  -9999
-9999.0 -9999 -9999 -9999 -9999 -9999 -9999 -9999 -9999 -9999 -9999 -9999 -9999 -9999 -9999 -9999 -9999 -9999 -9999 -9999
-9999 -9999 -9999 -9999 -9999 -9999 -9999 -9999 -9999 -9999 -9999 2.7262487411499023 2.7422051429748535 -9999 -9999 3.1185545921325684 3.143681526184082 -9999 -9999 -9999
-9999 -9999 -9999 -9999 2.914473533630371 2.8316986560821533 2.7165229320526123 2.603724479675293 2.516757011413574 2.47052001953125 2.476249933242798 2.5587880611419678 2.6076619625091553 2.6455368995666504 2.755183219909668 2.929560661315918 3.0161163806915283 3.032027006149292 -9999 -9999
-9999 -9999 -9999 2.8877832889556885 2.823244094848633 2.68886661529541 2.535158634185791 2.4021782875061035 2.306211471557617 2.252678394317627 2.2443268299102783 2.278768539428711 2.3313138484954834 2.405886650085449 2.5215296745300293 2.6701595783233643 2.8049817085266113 2.8847692012786865 -9999 -9999
-9999 -9999 -9999 2.754594087600708 2.6210100650787354 2.4126532077789307 2.1865408420562744 2.024364471435547 1.9197216033935547 1.8612821102142334 1.8430390357971191 1.8602004051208496 1.906680941581726 1.985676884651184 2.1079161167144775 2.279794216156006 2.4926998615264893 2.6283140182495117 -9999 -9999
-9999 -9999 2.6148366928100586 2.5440919399261475 2.3239355087280273 2.015194892883301 1.6528786420822144 1.4799247980117798 1.3880339860916138 1.3413246870040894 1.325440526008606 1.334304928779602 1.3666179180145264 1.427627444267273 1.5327892303466797 1.7188483476638794 2.0898869037628174 2.291731595993042 2.2894234657287598 -9999
-9999 -9999 2.4467997550964355 2.268803596496582 1.950589895248413 1.5451583862304688 1.2949081659317017 1.1549187898635864 1.0795217752456665 1.0419831275939941 1.028761386871338 1.0345733165740967 1.0595275163650513 1.1095612049102783 1.2008278369903564 1.3707853555679321 1.710724115371704 1.9585237503051758 2.070486545562744 -9999
-9999 -9999 2.217805862426758 1.9406546354293823 1.5198949575424194 1.2387595176696777 1.0593085289001465 0.9535052180290222 0.894750714302063 0.8652285933494568 0.8547897338867188 0.8592845797538757 0.8790790438652039 0.9189192652702332 0.9896520972251892 1.111507773399353 1.3143997192382812 1.601135015487671 1.7633514404296875 -9999
-9999 2.208979845046997 2.02839994430542 1.5747318267822266 1.2559840679168701 1.0437591075897217 0.9088690876960754 0.827893078327179 0.7818844318389893 0.7582488656044006 0.7497597932815552 0.7533393502235413 0.7691335082054138 0.8003069758415222 0.8534462451934814 0.9388704895973206 1.068577766418457 1.2474284172058105 1.4529914855957031 -9999
-9999 2.1201012134552 1.8795064687728882 1.3944551944732666 1.1047261953353882 0.9254658222198486 0.816137969493866 0.7507002353668213 0.7128763794898987 0.6929047703742981 0.6853883266448975 0.6879342794418335 0.7004714608192444 0.7250674366950989 0.7659752368927002 0.8297545313835144 0.9248896241188049 1.060152530670166 1.2245324850082397 -9999
-9999 2.0041470527648926 1.7557966709136963 1.2855167388916016 1.0151019096374512 0.8549540042877197 0.7600846886634827 0.7036536931991577 0.6706717610359192 0.6528449058532715 0.6456954479217529 0.6471621990203857 0.6570606827735901 0.676895797252655 0.7098855376243591 0.7616214156150818 0.8421632647514343 0.9728982448577881 1.0728528499603271 -9999
-9999 1.8783975839614868 1.6420310735702515 1.2068787813186646 0.9572535753250122 0.8115126490592957 0.7257229089736938 0.6746951937675476 0.6446878910064697 0.6281734108924866 0.6211326718330383 0.621608555316925 0.629357635974884 0.6456257700920105 0.6729785203933716 0.7159755229949951 0.7829914689064026 0.8892674446105957 0.9631718397140503 -9999
-9999 1.7446269989013672 1.5285584926605225 1.1407537460327148 0.9146899580955505 0.7822731137275696 0.7035232186317444 0.6563920378684998 0.6285116076469421 0.6128599047660828 0.6059344410896301 0.6055604815483093 0.6116117835044861 0.625092625617981 0.6480812430381775 0.6843451857566833 0.7401772141456604 0.8268619179725647 0.8896768093109131 -9999
-9999 1.6045246124267578 1.412035346031189 1.0778037309646606 0.8786360621452332 0.7596720457077026 0.687781035900116 0.644263505935669 0.6183255910873413 0.6031269431114197 0.5957990288734436 0.5946757197380066 0.5993546843528748 0.610499382019043 0.6297756433486938 0.6605187654495239 0.7093418836593628 0.783857524394989 0.8504348993301392 -9999
-9999 1.4693506956100464 1.2988295555114746 1.016144037246704 0.8446105718612671 0.7399048805236816 0.6754224300384521 0.6357333064079285 0.6109567284584045 0.5962235927581787 0.5887347459793091 0.5870007276535034 0.5904858708381653 0.5994777679443359 0.6150956749916077 0.6397053003311157 0.6776916980743408 0.7244988679885864 -9999 -9999
-9999 1.3572057485580444 1.2002633810043335 0.9605656862258911 0.8136088252067566 0.7225221395492554 0.6654220819473267 0.6287114024162292 0.6053941249847412 0.5912107825279236 0.5836605429649353 0.5813896059989929 0.5837540030479431 0.5907089710235596 0.6027708053588867 0.6212385296821594 0.648246705532074 0.6751200556755066 -9999 -9999
-9999 1.285295844078064 1.116877794265747 0.9141829013824463 0.787350058555603 0.7082783579826355 0.6567525863647461 0.6230601668357849 0.6012366414070129 0.5876549482345581 0.5801442861557007 0.5774126052856445 0.5787345170974731 0.5838044881820679 0.5926561951637268 0.6056792736053467 0.6234354376792908 0.6404688358306885 0.638053297996521 0.637739360332489
-9999 -9999 1.0016697645187378 0.8710706830024719 0.7663609981536865 0.6967054009437561 0.649975061416626 0.6188454627990723 0.5983235836029053 0.5853142142295837 0.577862024307251 0.5747429132461548 0.5751796364784241 0.5786929130554199 0.5849489569664001 0.5936963558197021 0.6043695211410522 0.6150056719779968 0.6193638443946838 0.6207021474838257
-9999 -9999 0.9558223485946655 0.8616480827331543 0.7573820948600769 0.6898153424263 0.6456156373023987 0.6161590814590454 0.5965657830238342 0.5839641094207764 0.5765358209609985 0.573130190372467 0.5729384422302246 0.5753609538078308 0.5798661708831787 0.5859418511390686 0.5928298234939575 0.5991112589836121 0.6027926802635193 0.6043567061424255
-9999 -9999 -9999 0.8266492486000061 0.7482602000236511 0.6854884028434753 0.6432735919952393 0.6148067116737366 0.5957178473472595 0.5833300352096558 0.5759184956550598 0.5723536610603333 0.5718380808830261 0.5737110376358032 0.5773650407791138 0.5821951031684875 0.5874888896942139 0.5921636819839478 0.5952854752540588 0.5967751741409302
