ncols         20
nrows         20
xllcorner     0
yllcorner     -3.5992928
cellsize      0.17996463
NODATA_value  -9999
-9999.0 -9999 -9999 -9999 -9999 -9999 -9999 -9999 -9999 -9999 -9999 -9999 -9999 -9999 -9999 -9999 -9999 -9999 -9999 -9999
-9999 -9999 -9999 -9999 -9999 -9999 -9999 -9999 -9999 -9999 -9999 13.34161376953125 13.352745056152344 -9999 -9999 13.226576805114746 13.309148788452148 -9999 -9999 -9999
-9999 -9999 -9999 -9999 13.214914321899414 13.152358055114746 13.051636695861816 13.01908016204834 13.033539772033691 13.052436828613281 13.1775484085083 13.195303916931152 13.148539543151855 13.10460090637207 13.132163047790527 13.181070327758789 13.268595695495605 13.34715747833252 -9999 -9999
-9999 -9999 -9999 13.180168151855469 13.126993179321289 13.062921524047852 13.000044822692871 12.989534378051758 12.988566398620605 12.989398002624512 12.978926658630371 12.950462341308594 12.90221118927002 12.894876480102539 12.908145904541016 12.979690551757812 13.09615707397461 13.181294441223145 -9999 -9999
-9999 -9999 -9999 13.118067741394043 13.050413131713867 12.950888633728027 12.92776870727539 12.980875015258789 13.03712272644043 13.064218521118164 13.066959381103516 13.036961555480957 12.95766544342041 12.869308471679688 12.789067268371582 12.801015853881836 12.881757736206055 12.877113342285156 -9999 -9999
-9999 -9999 13.155698776245117 13.05059814453125 12.941447257995605 12.89852237701416 13.035724639892578 13.308950424194336 13.512078285217285 13.67458724975586 13.800806999206543 13.814311027526855 13.653371810913086 13.382393836975098 13.09693717956543 12.906778335571289 12.840527534484863 12.819522857666016 12.934929847717285 -9999
-9999 -9999 13.06396770477295 12.952072143554688 12.818282127380371 12.911208152770996 13.391180038452148 14.173787117004395 14.587148666381836 14.878003120422363 15.088578224182129 15.087005615234375 14.732976913452148 14.27847671508789 13.79049301147461 13.36967658996582 13.09092903137207 12.9703369140625 12.955883026123047 -9999
-9999 -9999 12.825632095336914 12.686605453491211 12.620505332946777 12.981348991394043 14.008355140686035 15.900750160217285 16.411375045776367 16.614118576049805 16.736539840698242 16.642662048339844 15.805265426635742 15.201146125793457 14.645877838134766 14.109007835388184 13.671646118164062 13.396255493164062 13.275177955627441 -9999
-9999 12.68476676940918 12.514418601989746 12.357772827148438 12.428555488586426 13.0496244430542 14.358515739440918 16.379003524780273 16.951618194580078 17.143783569335938 17.22907257080078 17.132198333740234 16.425506591796875 15.914939880371094 15.455251693725586 14.965356826782227 14.485679626464844 14.124282836914062 13.9473295211792 -9999
-9999 12.40674114227295 12.24181079864502 12.133508682250977 12.44129467010498 13.341123580932617 14.784025192260742 16.6595458984375 17.210630416870117 17.38153839111328 17.44154167175293 17.365846633911133 16.817035675048828 16.438940048217773 16.112564086914062 15.757463455200195 15.362588882446289 15.026738166809082 14.852192878723145 -9999
-9999 12.113070487976074 12.060986518859863 12.191295623779297 12.784018516540527 13.849363327026367 15.293801307678223 16.958417892456055 17.440711975097656 17.578933715820312 17.62677574157715 17.571022033691406 17.111534118652344 16.822864532470703 16.606016159057617 16.3790283203125 16.126304626464844 15.891082763671875 15.766942977905273 -9999
-9999 12.091986656188965 12.212681770324707 12.63325309753418 13.427034378051758 14.492389678955078 15.772995948791504 17.15972900390625 17.564640045166016 17.68389892578125 17.728496551513672 17.694561004638672 17.300769805908203 17.089380264282227 16.95356559753418 16.816679000854492 16.664220809936523 16.53314208984375 16.476518630981445 -9999
-9999 12.555257797241211 12.836679458618164 13.475912094116211 14.299772262573242 15.204987525939941 16.115718841552734 16.90787696838379 17.28203010559082 17.432811737060547 17.488977432250977 17.472400665283203 17.351560592651367 17.267248153686523 17.19795036315918 17.118745803833008 17.00806999206543 16.9224796295166 16.9179630279541 -9999
-9999 13.425467491149902 13.789345741271973 14.50216293334961 15.255115509033203 15.92664623260498 16.500896453857422 16.948942184448242 17.21521759033203 17.340490341186523 17.394529342651367 17.408405303955078 17.397884368896484 17.393360137939453 17.391887664794922 17.35873794555664 17.277484893798828 17.164531707763672 17.203216552734375 -9999
-9999 14.301971435546875 14.680545806884766 15.373149871826172 16.015775680541992 16.492595672607422 16.83819007873535 17.090543746948242 17.244266510009766 17.330793380737305 17.375646591186523 17.40804672241211 17.43830108642578 17.473407745361328 17.516965866088867 17.531984329223633 17.50201988220215 17.3709774017334 -9999 -9999
-9999 14.92803955078125 15.307025909423828 15.936111450195312 16.474618911743164 16.847518920898438 17.07562828063965 17.217914581298828 17.297563552856445 17.34746742248535 17.378021240234375 17.41327667236328 17.457834243774414 17.509302139282227 17.564538955688477 17.613313674926758 17.646509170532227 17.720951080322266 -9999 -9999
-9999 15.313299179077148 15.748350143432617 16.277048110961914 16.730579376220703 17.057964324951172 17.231678009033203 17.326873779296875 17.369617462158203 17.394935607910156 17.412792205810547 17.440505981445312 17.480472564697266 17.52614402770996 17.578433990478516 17.62906265258789 17.66964340209961 17.696640014648438 17.632247924804688 17.640071868896484
-9999 -9999 16.190185546875 16.523975372314453 16.888139724731445 17.172536849975586 17.336284637451172 17.418291091918945 17.44723892211914 17.457256317138672 17.458669662475586 17.4750919342041 17.50365447998047 17.54954719543457 17.590423583984375 17.622180938720703 17.65452766418457 17.6709041595459 17.660934448242188 17.63201332092285
-9999 -9999 16.504430770874023 16.727750778198242 17.005956649780273 17.263198852539062 17.426965713500977 17.508363723754883 17.532209396362305 17.524354934692383 17.504955291748047 17.512521743774414 17.535991668701172 17.57231903076172 17.596342086791992 17.612346649169922 17.631637573242188 17.638399124145508 17.60944366455078 17.59217071533203
-9999 -9999 -9999 16.857025146484375 17.068187713623047 17.299972534179688 17.465625762939453 17.54490852355957 17.559282302856445 17.543073654174805 17.52263641357422 17.51729393005371 17.538421630859375 17.571096420288086 17.59514617919922 17.599403381347656 17.621002197265625 17.600873947143555 17.57990837097168 17.569721221923828
