ncols         20
nrows         20
xllcorner     0
yllcorner     -3.5992928
cellsize      0.17996463
NODATA_value  -9999
-9999.0 -9999 -9999 -9999 -9999 -9999 -9999 -9999 -9999 -9999 -9999 -9999 -9999 -9999 -9999 -9999 -9999 -9999 -9999 -9999
-9999 -9999 -9999 -9999 -9999 -9999 -9999 -9999 -9999 -9999 -9999 1.1365245580673218 1.119017481803894 -9999 -9999 1.0763622522354126 1.0119049549102783 -9999 -9999 -9999
-9999 -9999 -9999 -9999 1.1578041315078735 1.2325536012649536 1.3648123741149902 1.4652034044265747 1.5241985321044922 1.5609797239303589 1.4211666584014893 1.3355156183242798 1.3442683219909668 1.3589133024215698 1.2583357095718384 1.1363554000854492 1.0381200313568115 0.9676754474639893 -9999 -9999
-9999 -9999 -9999 1.0802409648895264 1.1669868230819702 1.266378402709961 1.4017019271850586 1.5265671014785767 1.6609283685684204 1.7763967514038086 1.8573192358016968 1.8614352941513062 1.8516921997070312 1.7369191646575928 1.5577634572982788 1.3428635597229004 1.1671216487884521 1.0686687231063843 -9999 -9999
-9999 -9999 -9999 1.0517604351043701 1.1409357786178589 1.3060476779937744 1.4895637035369873 1.6879998445510864 1.9344053268432617 2.2776601314544678 2.634016990661621 2.8390350341796875 2.817429304122925 2.512483596801758 2.1359703540802 1.7288274765014648 1.423386812210083 1.3441224098205566 -9999 -9999
-9999 -9999 0.8268883228302002 0.9638957381248474 1.1105945110321045 1.3036847114562988 1.5062997341156006 1.738141417503357 2.1133432388305664 2.6355955600738525 3.2532131671905518 3.6585748195648193 3.771536111831665 3.4168591499328613 2.815955400466919 2.2317895889282227 1.7904220819473267 1.600691556930542 1.4356533288955688 -9999
-9999 -9999 0.7943438291549683 0.8938412666320801 1.080345869064331 1.2927056550979614 1.470200777053833 1.6520394086837769 1.9832507371902466 2.477745771408081 3.0852081775665283 3.6408004760742188 4.0676093101501465 3.9767448902130127 3.484314441680908 2.8134636878967285 2.264878988265991 1.9012634754180908 1.7402923107147217 -9999
-9999 -9999 0.7850830554962158 0.9040156602859497 1.1149827241897583 1.3113011121749878 1.4189622402191162 1.3035244941711426 1.3888663053512573 1.5948406457901 1.8629188537597656 2.293220281600952 3.4897890090942383 3.905747175216675 3.7572789192199707 3.2742412090301514 2.758979320526123 2.338007926940918 2.1585159301757812 -9999
-9999 0.6475085616111755 0.7976058125495911 0.9772549867630005 1.2389436960220337 1.453265905380249 1.4716520309448242 1.1697235107421875 1.1036521196365356 1.1535677909851074 1.2929420471191406 1.6647545099258423 2.8730084896087646 3.5323750972747803 3.728213310241699 3.5337908267974854 3.126124858856201 2.7443082332611084 2.567357063293457 -9999
-9999 0.7247583270072937 0.8641644716262817 1.1390471458435059 1.4651751518249512 1.6834790706634521 1.6128382682800293 1.1167705059051514 0.9380650520324707 0.899071991443634 0.9730399250984192 1.2888003587722778 2.3626296520233154 3.084273338317871 3.4587323665618896 3.5195631980895996 3.305861473083496 3.034283399581909 2.9018518924713135 -9999
-9999 0.8891691565513611 1.046274185180664 1.3659194707870483 1.703113317489624 1.8911627531051636 1.7376216650009155 1.0731035470962524 0.8266638517379761 0.7449578046798706 0.7882643342018127 1.0527862310409546 2.0092148780822754 2.681530714035034 3.1096389293670654 3.305022954940796 3.2958574295043945 3.1589195728302 3.0860612392425537 -9999
-9999 1.1650583744049072 1.330956220626831 1.6760616302490234 1.9870502948760986 2.1025729179382324 1.87574303150177 1.106748342514038 0.8400618433952332 0.7387346625328064 0.7547075152397156 0.9590322971343994 1.7705272436141968 2.3280444145202637 2.7244107723236084 2.984992742538452 3.0994133949279785 3.0955708026885986 3.08461594581604 -9999
-9999 1.5640078783035278 1.7522244453430176 2.1073803901672363 2.330141305923462 2.349428176879883 2.1178946495056152 1.671142578125 1.341903805732727 1.1580158472061157 1.131600022315979 1.2767986059188843 1.629032850265503 1.9650375843048096 2.266079902648926 2.530778169631958 2.7376363277435303 2.8521921634674072 2.890475034713745 -9999
-9999 2.020758867263794 2.2065560817718506 2.5273959636688232 2.6510252952575684 2.5440561771392822 2.258546829223633 1.8795093297958374 1.5537469387054443 1.3421274423599243 1.264111042022705 1.3053100109100342 1.436217188835144 1.5905086994171143 1.7483793497085571 1.9423508644104004 2.182513475418091 2.4556596279144287 2.603095531463623 -9999
-9999 2.345912456512451 2.4897866249084473 2.739389657974243 2.7573904991149902 2.545219898223877 2.2187907695770264 1.8705112934112549 1.5702447891235352 1.3686262369155884 1.2691055536270142 1.240453839302063 1.2573524713516235 1.293993592262268 1.3327995538711548 1.4144009351730347 1.55122709274292 1.8133517503738403 -9999 -9999
-9999 2.43880033493042 2.523402452468872 2.6831960678100586 2.613295555114746 2.359825611114502 2.0436220169067383 1.7304739952087402 1.4868955612182617 1.3198946714401245 1.2237846851348877 1.1647366285324097 1.1224520206451416 1.084313988685608 1.054652452468872 1.0397002696990967 1.053174614906311 0.9748992919921875 -9999 -9999
-9999 2.4764297008514404 2.4290196895599365 2.4865469932556152 2.3759093284606934 2.1165294647216797 1.811798095703125 1.542147159576416 1.347909927368164 1.2151334285736084 1.1303716897964478 1.0615310668945312 0.9950156807899475 0.9343540072441101 0.8729500770568848 0.8178214430809021 0.7740699052810669 0.7222436666488647 0.6909568905830383 0.6234127283096313
-9999 -9999 2.223766565322876 2.253798484802246 2.1421456336975098 1.885666847229004 1.5944123268127441 1.3563414812088013 1.193662405014038 1.08675217628479 1.0159616470336914 0.9519797563552856 0.8868576884269714 0.8063037395477295 0.7375435829162598 0.6863124370574951 0.6319071054458618 0.593135416507721 0.5621330142021179 0.592100203037262
-9999 -9999 2.172121524810791 2.088686227798462 1.9578007459640503 1.6972497701644897 1.4113101959228516 1.186702847480774 1.0389294624328613 0.9528152346611023 0.9094164371490479 0.8529325723648071 0.7863430976867676 0.7066382169723511 0.6478081941604614 0.6064379215240479 0.568053126335144 0.5469856858253479 0.5871959924697876 0.6098084449768066
-9999 -9999 -9999 1.9451595544815063 1.854145884513855 1.6036368608474731 1.3211901187896729 1.1049976348876953 0.9690117239952087 0.8970893025398254 0.8566079139709473 0.8157625794410706 0.7492581605911255 0.6703797578811646 0.6058998107910156 0.5795455574989319 0.5347458720207214 0.5670350193977356 0.6024223566055298 0.6219871640205383
