ncols         20
nrows         20
xllcorner     0
yllcorner     -3.5992928
cellsize      0.17996463
NODATA_value  -9999
-9999.0 -9999 -9999 -9999 -9999 -9999 -9999 -9999 -9999 -9999 -9999 -9999 -9999 -9999 -9999 -9999 -9999 -9999 -9999 -9999
-9999 -9999 -9999 -9999 -9999 -9999 -9999 -9999 -9999 -9999 -9999 18.985416412353516 18.993175506591797 -9999 -9999 18.911487579345703 18.913427352905273 -9999 -9999 -9999
-9999 -9999 -9999 -9999 18.904733657836914 18.930278778076172 18.954505920410156 18.98805046081543 19.017684936523438 19.02000617980957 19.05951499938965 19.03130340576172 19.02019500732422 19.043949127197266 19.035005569458008 18.98031234741211 18.954980850219727 18.961833953857422 -9999 -9999
-9999 -9999 -9999 18.90267562866211 18.904541015625 18.93434715270996 18.963300704956055 18.988510131835938 18.99494743347168 18.99623680114746 18.979019165039062 18.97749137878418 18.985694885253906 19.0197811126709 19.02931785583496 19.02335548400879 19.018232345581055 19.028284072875977 -9999 -9999
-9999 -9999 -9999 18.925735473632812 18.942625045776367 18.949039459228516 18.951047897338867 18.93132781982422 18.89593505859375 18.833518981933594 18.765186309814453 18.738758087158203 18.771686553955078 18.865304946899414 18.951236724853516 19.02533531188965 19.07667350769043 19.071060180664062 -9999 -9999
-9999 -9999 18.964738845825195 18.96162223815918 18.97642707824707 18.965801239013672 18.910728454589844 18.808191299438477 18.681936264038086 18.547393798828125 18.41118621826172 18.35270118713379 18.39516830444336 18.545907974243164 18.739965438842773 18.91339874267578 19.038969039916992 19.0950927734375 19.180700302124023 -9999
-9999 -9999 19.02105140686035 19.03520393371582 19.020790100097656 18.947370529174805 18.784975051879883 18.566600799560547 18.346172332763672 18.17910385131836 18.050683975219727 17.985441207885742 17.99579620361328 18.139915466308594 18.376455307006836 18.642250061035156 18.852455139160156 19.00065803527832 19.07002830505371 -9999
-9999 -9999 19.11141014099121 19.110029220581055 19.051565170288086 18.88780403137207 18.60088348388672 18.610843658447266 18.284725189208984 18.1121826171875 18.036277770996094 18.033477783203125 17.759180068969727 17.81711196899414 18.00606918334961 18.269060134887695 18.52826690673828 18.731430053710938 18.830604553222656 -9999
-9999 19.23556137084961 19.192712783813477 19.175870895385742 19.04591178894043 18.769866943359375 18.385461807250977 18.289522171020508 17.979740142822266 17.840463638305664 17.795024871826172 17.803356170654297 17.58692169189453 17.589731216430664 17.695249557495117 17.888080596923828 18.125118255615234 18.33548355102539 18.450973510742188 -9999
-9999 19.289941787719727 19.268999099731445 19.175249099731445 18.9487361907959 18.5935115814209 18.186199188232422 18.082374572753906 17.815143585205078 17.700437545776367 17.666162490844727 17.670501708984375 17.47036361694336 17.429527282714844 17.462894439697266 17.57293701171875 17.742910385131836 17.912921905517578 18.01106071472168 -9999
-9999 19.320499420166016 19.255691528320312 19.071699142456055 18.75196075439453 18.34519386291504 17.986431121826172 17.936840057373047 17.720394134521484 17.624971389770508 17.59685707092285 17.59430694580078 17.377779006958008 17.304729461669922 17.288658142089844 17.332019805908203 17.42881965637207 17.545747756958008 17.616722106933594 -9999
-9999 19.219646453857422 19.091867446899414 18.810401916503906 18.441673278808594 18.057540893554688 17.779605865478516 17.814483642578125 17.6480770111084 17.570585250854492 17.546470642089844 17.54051971435547 17.301715850830078 17.217227935791016 17.1759033203125 17.16798210144043 17.20261001586914 17.268741607666016 17.317028045654297 -9999
-9999 18.914173126220703 18.731666564941406 18.400978088378906 18.052995681762695 17.749671936035156 17.53531837463379 17.435510635375977 17.374404907226562 17.348814010620117 17.33159828186035 17.303754806518555 17.2393856048584 17.192941665649414 17.149456024169922 17.115516662597656 17.092287063598633 17.106159210205078 17.14505958557129 -9999
-9999 18.461631774902344 18.266368865966797 17.954837799072266 17.674663543701172 17.464832305908203 17.33179473876953 17.2718448638916 17.258180618286133 17.2589168548584 17.258092880249023 17.249174118041992 17.235092163085938 17.22214698791504 17.210315704345703 17.1805419921875 17.13090705871582 17.063079833984375 17.13059425354004 -9999
-9999 18.04610252380371 17.8718318939209 17.60792350769043 17.3956356048584 17.265480041503906 17.203590393066406 17.191564559936523 17.204683303833008 17.221694946289062 17.231781005859375 17.241071701049805 17.250234603881836 17.259864807128906 17.27704429626465 17.274959564208984 17.255327224731445 17.135738372802734 -9999 -9999
-9999 17.77479362487793 17.62032699584961 17.400144577026367 17.243444442749023 17.171737670898438 17.15384292602539 17.167953491210938 17.18758773803711 17.207393646240234 17.220550537109375 17.23842430114746 17.261863708496094 17.289804458618164 17.316734313964844 17.34050941467285 17.351085662841797 17.42983627319336 -9999 -9999
-9999 17.622501373291016 17.46904182434082 17.2894229888916 17.173954010009766 17.146820068359375 17.154747009277344 17.18166160583496 17.202421188354492 17.22093391418457 17.235942840576172 17.25755500793457 17.285682678222656 17.312002182006836 17.342113494873047 17.371429443359375 17.395519256591797 17.42153549194336 17.391115188598633 17.41983985900879
-9999 -9999 17.337814331054688 17.222864151000977 17.143678665161133 17.14338493347168 17.176374435424805 17.21028709411621 17.232906341552734 17.250368118286133 17.264163970947266 17.284099578857422 17.306427001953125 17.340436935424805 17.367952346801758 17.387025833129883 17.41055679321289 17.42665672302246 17.440956115722656 17.419654846191406
-9999 -9999 17.256912231445312 17.18366241455078 17.134641647338867 17.161766052246094 17.213886260986328 17.256805419921875 17.283226013183594 17.29550552368164 17.295574188232422 17.313884735107422 17.336524963378906 17.36664581298828 17.384862899780273 17.39814567565918 17.413158416748047 17.42672348022461 17.40760612487793 17.4017276763916
-9999 -9999 -9999 17.156864166259766 17.130569458007812 17.166715621948242 17.23013687133789 17.27560806274414 17.2987117767334 17.305953979492188 17.309619903564453 17.31761932373047 17.341245651245117 17.369903564453125 17.3927001953125 17.39665985107422 17.42062759399414 17.406341552734375 17.39849281311035 17.395912170410156
