ncols         20
nrows         20
xllcorner     0
yllcorner     -3.5992928
cellsize      0.17996463
NODATA_value  -9999
-9999.0 -9999 -9999 -9999 -9999 -9999 -9999 -9999 -9999 -9999 -9999 -9999 -9999 -9999 -9999 -9999 -9999 -9999 -9999 -9999
-9999 -9999 -9999 -9999 -9999 -9999 -9999 -9999 -9999 -9999 -9999 0.8691626191139221 0.849716067314148 -9999 -9999 0.7435003519058228 0.6955447793006897 -9999 -9999 -9999
-9999 -9999 -9999 -9999 0.9790037870407104 1.0425965785980225 1.1539027690887451 1.234612226486206 1.2740569114685059 1.2867683172225952 1.1467100381851196 1.0446046590805054 1.0281938314437866 1.0152204036712646 0.9137294888496399 0.7994695901870728 0.7188669443130493 0.6658523678779602 -9999 -9999
-9999 -9999 -9999 0.9239357709884644 0.9961578845977783 1.0825201272964478 1.1995768547058105 1.3041791915893555 1.4097174406051636 1.488829493522644 1.5279523134231567 1.4950990676879883 1.449806571006775 1.3218568563461304 1.1498749256134033 0.9619035720825195 0.8180999159812927 0.7409271597862244 -9999 -9999
-9999 -9999 -9999 0.9101343154907227 0.9899915456771851 1.1396358013153076 1.3064401149749756 1.4830811023712158 1.6932414770126343 1.9726603031158447 2.243152618408203 2.3649027347564697 2.286198616027832 1.9748886823654175 1.6222418546676636 1.2684342861175537 1.0154271125793457 0.944189190864563 -9999 -9999
-9999 -9999 0.7324376106262207 0.8509892821311951 0.9875099062919617 1.1721889972686768 1.3682998418807983 1.5880578756332397 1.929218053817749 2.3843584060668945 2.8950560092926025 3.1838197708129883 3.1934332847595215 2.795290470123291 2.2146451473236084 1.6863515377044678 1.3071315288543701 1.1422033309936523 1.0160775184631348 -9999
-9999 -9999 0.7124837636947632 0.8070288300514221 0.9907745122909546 1.2083876132965088 1.3977751731872559 1.5884804725646973 1.9097390174865723 2.366833209991455 2.899789810180664 3.341219186782837 3.608978509902954 3.3955276012420654 2.8514530658721924 2.202362298965454 1.7025620937347412 1.386915922164917 1.2511444091796875 -9999
-9999 -9999 0.7160677313804626 0.8373948931694031 1.0601669549942017 1.2839876413345337 1.430279016494751 1.3613187074661255 1.461330771446228 1.6726089715957642 1.938307762145996 2.336137294769287 3.274759292602539 3.491873025894165 3.2083418369293213 2.668527126312256 2.153205156326294 1.7634925842285156 1.5993471145629883 -9999
-9999 0.5893217325210571 0.7356719374656677 0.9266130924224854 1.2203991413116455 1.4931162595748901 1.5803797245025635 1.3351976871490479 1.2867366075515747 1.3448899984359741 1.4894126653671265 1.846323847770691 2.8583531379699707 3.3208224773406982 3.337998151779175 3.016469717025757 2.5522098541259766 2.163508892059326 1.9860880374908447 -9999
-9999 0.6587942838668823 0.8010661602020264 1.0969206094741821 1.4811608791351318 1.7965980768203735 1.8325692415237427 1.4018113613128662 1.2329500913619995 1.190836787223816 1.2600972652435303 1.565729022026062 2.5039756298065186 3.061061382293701 3.258687973022461 3.1608524322509766 2.8417344093322754 2.5211610794067383 2.367783308029175 -9999
-9999 0.8037095665931702 0.9678447246551514 1.3214147090911865 1.7423306703567505 2.0626065731048584 2.0534331798553467 1.475145697593689 1.2287060022354126 1.1301085948944092 1.158258080482483 1.4114611148834229 2.271348714828491 2.808793067932129 3.081407070159912 3.1219019889831543 2.9879567623138428 2.776219367980957 2.668443202972412 -9999
-9999 1.0451312065124512 1.2241489887237549 1.6169172525405884 2.0344583988189697 2.3077328205108643 2.2529351711273193 1.6059290170669556 1.3328499794006348 1.2037467956542969 1.1936910152435303 1.3794747591018677 2.105100154876709 2.5472161769866943 2.811994791030884 2.938734531402588 2.9375834465026855 2.856492280960083 2.8085999488830566 -9999
-9999 1.398848533630371 1.6075299978256226 2.0268423557281494 2.377107620239258 2.5672311782836914 2.5092995166778564 2.179636001586914 1.8763236999511719 1.6707359552383423 1.6047821044921875 1.697047472000122 1.967526912689209 2.2032248973846436 2.3961918354034424 2.5532798767089844 2.665097236633301 2.714704751968384 2.723130464553833 -9999
-9999 1.8188339471817017 2.03477144241333 2.436933994293213 2.701077461242676 2.762561798095703 2.630751132965088 2.34773325920105 2.0473625659942627 1.8151538372039795 1.6921412944793701 1.6711984872817993 1.7228281497955322 1.7894805669784546 1.8602333068847656 1.9744523763656616 2.1453866958618164 2.3670384883880615 2.490464448928833 -9999
-9999 2.141179323196411 2.3250339031219482 2.66412353515625 2.817659616470337 2.749051332473755 2.5401735305786133 2.260463237762451 1.9777659177780151 1.7570335865020752 1.615752100944519 1.5268548727035522 1.4716345071792603 1.4333045482635498 1.4014116525650024 1.4246611595153809 1.514665961265564 1.742363691329956 -9999 -9999
-9999 2.263216495513916 2.3947789669036865 2.640878200531006 2.6822705268859863 2.532947063446045 2.295797109603882 2.0271987915039062 1.7949514389038086 1.612643837928772 1.4823983907699585 1.372279167175293 1.2688863277435303 1.1687556505203247 1.0845236778259277 1.026421308517456 1.0087075233459473 0.9166630506515503 -9999 -9999
-9999 2.3287997245788574 2.34942889213562 2.4819610118865967 2.4502944946289062 2.2558236122131348 1.997085452079773 1.7513699531555176 1.5614713430404663 1.4160977602005005 1.305100679397583 1.196889877319336 1.0836061239242554 0.9769757390022278 0.8754791021347046 0.789644181728363 0.7244970202445984 0.6591042876243591 0.6145053505897522 0.5489327907562256
-9999 -9999 2.2181484699249268 2.2884294986724854 2.221536159515381 1.9984718561172485 1.7269607782363892 1.4971017837524414 1.3328337669372559 1.2152985334396362 1.1253149509429932 1.0332179069519043 0.934919536113739 0.8207113742828369 0.7236695885658264 0.6509481072425842 0.5823283195495605 0.5344323515892029 0.49817049503326416 0.5209536552429199
-9999 -9999 2.2059597969055176 2.150622844696045 2.0410332679748535 1.7915022373199463 1.507947325706482 1.2809982299804688 1.1277402639389038 1.0331095457077026 0.9772355556488037 0.9005606770515442 0.8096432685852051 0.7054919004440308 0.6260187029838562 0.5685003995895386 0.518852710723877 0.48986244201660156 0.5194000601768494 0.5363523364067078
-9999 -9999 -9999 2.0265448093414307 1.9413622617721558 1.6898038387298584 1.4015779495239258 1.1787867546081543 1.0365036725997925 0.9575098752975464 0.9064668416976929 0.849565863609314 0.7625353932380676 0.6630703210830688 0.581215500831604 0.5404279828071594 0.48644691705703735 0.5067748427391052 0.5325523614883423 0.5470691323280334
