ncols         20
nrows         20
xllcorner     0
yllcorner     -3.5992928
cellsize      0.17996463
NODATA_value  -9999
-9999.0 -9999 -9999 -9999 -9999 -9999 -9999 -9999 -9999 -9999 -9999 -9999 -9999 -9999 -9999 -9999 -9999 -9999 -9999 -9999
-9999 -9999 -9999 -9999 -9999 -9999 -9999 -9999 -9999 -9999 -9999 11.863056182861328 11.853174209594727 -9999 -9999 12.101987838745117 11.96484375 -9999 -9999 -9999
-9999 -9999 -9999 -9999 11.920104026794434 11.989825248718262 12.117837905883789 12.136984825134277 12.091564178466797 12.069572448730469 11.906149864196777 11.962708473205566 12.091440200805664 12.203775405883789 12.223578453063965 12.187932014465332 12.099496841430664 12.043709754943848 -9999 -9999
-9999 -9999 -9999 12.061126708984375 12.066574096679688 12.040803909301758 12.024598121643066 11.956080436706543 11.889514923095703 11.827027320861816 11.833030700683594 11.91105842590332 12.059375762939453 12.197978019714355 12.34164047241211 12.399491310119629 12.39729118347168 12.388936996459961 -9999 -9999
-9999 -9999 -9999 12.198887825012207 12.110677719116211 11.99963092803955 11.72387409210205 11.460229873657227 11.194853782653809 10.928670883178711 10.718192100524902 10.678498268127441 10.88082218170166 11.284627914428711 11.77169132232666 12.21172046661377 12.610076904296875 12.948095321655273 -9999 -9999
-9999 -9999 12.474596977233887 12.375533103942871 12.123120307922363 11.618042945861816 10.65039348602295 10.058870315551758 9.485807418823242 8.815265655517578 8.14452075958252 7.839390277862549 8.036764144897461 8.769676208496094 9.762364387512207 10.81609058380127 12.23211669921875 12.979562759399414 13.170815467834473 -9999
-9999 -9999 12.66061782836914 12.409461975097656 11.907417297363281 10.820481300354004 9.912388801574707 9.050832748413086 8.060907363891602 6.930150985717773 5.91134786605835 5.394103050231934 5.536688327789307 6.366352558135986 7.681838035583496 9.278252601623535 11.171281814575195 12.3539400100708 12.893263816833496 -9999
-9999 -9999 13.108854293823242 12.52535629272461 11.372138977050781 10.346395492553711 9.256240844726562 8.021535873413086 6.6641154289245605 5.324744701385498 4.30751371383667 3.7692275047302246 3.8219525814056396 4.485286712646484 5.7057108879089355 7.328821659088135 9.099264144897461 10.876590728759766 11.76674747467041 -9999
-9999 14.418643951416016 13.83523941040039 12.324345588684082 11.143753051757812 9.833002090454102 8.31273365020752 6.6680402755737305 5.127747535705566 3.8937275409698486 3.092249631881714 2.6862051486968994 2.6680595874786377 3.100212335586548 3.982628583908081 5.322933197021484 6.944760322570801 8.506738662719727 9.716570854187012 -9999
-9999 15.04909896850586 14.364495277404785 12.44973373413086 10.780868530273438 8.892200469970703 6.8831071853637695 4.997500419616699 3.536151885986328 2.591261148452759 2.0806665420532227 1.8330035209655762 1.8214727640151978 2.0559535026550293 2.620786428451538 3.554617166519165 4.864080905914307 6.2116875648498535 7.226315498352051 -9999
-9999 15.697010040283203 14.741315841674805 12.275219917297363 10.012529373168945 7.659149169921875 5.355393886566162 3.4453821182250977 2.213270902633667 1.5469926595687866 1.2282805442810059 1.097015142440796 1.0919098854064941 1.2205013036727905 1.536949872970581 2.126894235610962 2.9991981983184814 4.065173625946045 4.7079620361328125 -9999
-9999 15.723588943481445 14.441059112548828 11.452310562133789 8.780295372009277 6.269195079803467 4.007115364074707 2.3170409202575684 1.342765212059021 0.8570454120635986 0.6451705694198608 0.5557380318641663 0.546618640422821 0.5947901010513306 0.7333314418792725 1.0334582328796387 1.5431063175201416 2.1851353645324707 2.5591602325439453 -9999
-9999 14.581324577331543 13.01157283782959 9.732726097106934 7.030719757080078 4.725071907043457 2.843656063079834 1.5222455263137817 0.7981101274490356 0.4709048569202423 0.305055171251297 0.24041402339935303 0.21804173290729523 0.2253054827451706 0.2737252414226532 0.3836531639099121 0.6290287971496582 0.9610324501991272 1.1864571571350098 -9999
-9999 12.279297828674316 10.599907875061035 7.408163547515869 4.945786952972412 3.122927665710449 1.801771640777588 0.9374999403953552 0.4578249454498291 0.2566379904747009 0.1627243161201477 0.11867175251245499 0.09743340313434601 0.09138190746307373 0.09789394587278366 0.12631496787071228 0.1936018168926239 0.3406657874584198 0.4799696207046509 -9999
-9999 9.779313087463379 8.183521270751953 5.277095794677734 3.170884847640991 1.8523074388504028 1.0282717943191528 0.5199390053749084 0.2725628912448883 0.1559419333934784 0.09976434707641602 0.0695306584239006 0.053371913731098175 0.04578858241438866 0.042794518172740936 0.04667266085743904 0.05855659767985344 0.09380314499139786 -9999 -9999
-9999 8.005013465881348 6.480480194091797 3.8816890716552734 2.1144514083862305 1.1066712141036987 0.5723015069961548 0.301288902759552 0.17074640095233917 0.10338221490383148 0.06847187131643295 0.048008695244789124 0.03846996650099754 0.0421321764588356 0.04678426682949066 0.05181140825152397 0.056613028049468994 0.06039441376924515 -9999 -9999
-9999 6.804615020751953 5.247948169708252 3.0576138496398926 1.5445516109466553 0.6927371621131897 0.3459692597389221 0.18321742117404938 0.10759886354207993 0.06822429597377777 0.047102633863687515 0.041706763207912445 0.044669657945632935 0.04912872239947319 0.05457746982574463 0.060553207993507385 0.06684786826372147 0.07397894561290741 0.08488642424345016 0.08995860815048218
-9999 -9999 3.9522151947021484 2.4625322818756104 1.1979997158050537 0.5031198263168335 0.23128408193588257 0.1191740483045578 0.07001881301403046 0.046423330903053284 0.04561726748943329 0.047153815627098083 0.050696827471256256 0.05581706389784813 0.061913084238767624 0.06846462935209274 0.07517563551664352 0.08186943829059601 0.08834170550107956 0.09168323129415512
-9999 -9999 2.800339698791504 1.9249608516693115 0.9500194787979126 0.37964150309562683 0.1636771261692047 0.08029257506132126 0.0527384877204895 0.05000993236899376 0.049645040184259415 0.0515788234770298 0.055544789880514145 0.061101365834474564 0.06756274402141571 0.07431241124868393 0.08087825775146484 0.08665125072002411 0.09101977944374084 0.09331017732620239
-9999 -9999 -9999 1.567136526107788 0.8081194162368774 0.33002975583076477 0.13799981772899628 0.06602337956428528 0.05448583886027336 0.052044954150915146 0.051904674619436264 0.05401616916060448 0.0581931471824646 0.06396499276161194 0.07060354948043823 0.07736653834581375 0.0837632343173027 0.0888669341802597 0.09244080632925034 0.0942791998386383
