ncols         20
nrows         20
xllcorner     0
yllcorner     -3.5992928
cellsize      0.17996463
NODATA_value  -9999
-9999.0 -9999 -9999 -9999 -9999 -9999 -9999 -9999 -9999 -9999 -9999 -9999 -9999 -9999 -9999 -9999 -9999 -9999 -9999 -9999
-9999 -9999 -9999 -9999 -9999 -9999 -9999 -9999 -9999 -9999 -9999 1.2719192504882812 1.2689671516418457 -9999 -9999 1.324784278869629 1.2939903736114502 -9999 -9999 -9999
-9999 -9999 -9999 -9999 1.2653313875198364 1.2875010967254639 1.3231384754180908 1.3357441425323486 1.3354345560073853 1.340612530708313 1.3130921125411987 1.3230682611465454 1.3474223613739014 1.3681856393814087 1.365594744682312 1.351028561592102 1.3209493160247803 1.2941651344299316 -9999 -9999
-9999 -9999 -9999 1.2883176803588867 1.3088096380233765 1.332840085029602 1.3587383031845093 1.3675084114074707 1.3722782135009766 1.3729511499404907 1.3816498517990112 1.3989957571029663 1.4237949848175049 1.4395197629928589 1.4514799118041992 1.4379805326461792 1.3988374471664429 1.3644251823425293 -9999 -9999
-9999 -9999 -9999 1.3226746320724487 1.351111650466919 1.3996837139129639 1.422812581062317 1.4210530519485474 1.3997303247451782 1.3619598150253296 1.3137437105178833 1.2944761514663696 1.3259176015853882 1.3976949453353882 1.4697540998458862 1.5045580863952637 1.4899263381958008 1.4933608770370483 -9999 -9999
-9999 -9999 1.3247648477554321 1.3643628358840942 1.4140949249267578 1.4565598964691162 1.454573631286621 1.4162620306015015 1.3249603509902954 1.1624691486358643 0.9827525019645691 0.8943971395492554 0.9257374405860901 1.0865209102630615 1.300581455230713 1.4402767419815063 1.5119260549545288 1.5315186977386475 1.4988188743591309 -9999
-9999 -9999 1.3598228693008423 1.4057587385177612 1.4792101383209229 1.505353569984436 1.467925786972046 1.3610106706619263 1.146169900894165 0.8608718514442444 0.6152613162994385 0.4980502724647522 0.5155923962593079 0.6789083480834961 0 1.2300927639007568 1.4149082899093628 1.491864800453186 1.5101170539855957 -9999
-9999 -9999 1.4390463829040527 1.4965097904205322 1.5510343313217163 1.5259580612182617 1.416533350944519 1.1870577335357666 0.8751360177993774 0.5704673528671265 0.3681375980377197 0.2734852731227875 0.2744862139225006 0.37201398611068726 0.583976686000824 0.8731735348701477 1.141701579093933 1.3300344944000244 1.4032695293426514 -9999
-9999 1.466625690460205 1.5361648797988892 1.5839970111846924 1.5788496732711792 1.4540292024612427 1.1980446577072144 0.8569912910461426 0.5422175526618958 0.32234886288642883 0.20350977778434753 0.1505594402551651 0.14465124905109406 0.19047091901302338 0.3052580952644348 0 0.7676993012428284 0.9932267665863037 1.1106791496276855 -9999
-9999 1.554984211921692 1.6082359552383423 1.617148756980896 1.4898033142089844 1.2011680603027344 0.820431113243103 0.4754723906517029 0.25438782572746277 0.1427830010652542 0.09422564506530762 0.07298372685909271 0.07050410658121109 0.08695948868989944 0.1364784687757492 0 0.40386033058166504 0.5854230523109436 0.6916592121124268 -9999
-9999 1.6380606889724731 1.641039490699768 1.5327402353286743 1.2745295763015747 0.8785766959190369 0.4813125729560852 0.2155134677886963 0.09494577348232269 0.04927681386470795 0.032496389001607895 0.02633759379386902 0.02567715011537075 0.030877863988280296 0.04663371294736862 0.08449403196573257 0.153903990983963 0.2511809766292572 0.3126668930053711 -9999
-9999 1.6135475635528564 1.5458954572677612 1.3196548223495483 0.9650720357894897 0.5726705193519592 0.25826042890548706 0.09257175773382187 0.03337102755904198 0.014686315320432186 0.008821630850434303 0.006733470596373081 0 0 0.010473393835127354 0 0.04032784700393677 0.07312118262052536 0.0952523872256279 -9999
-9999 1.4082070589065552 1.2746315002441406 0.9472146034240723 0.6028726696968079 0.3126394748687744 0.12432526797056198 0.03834811598062515 0.011414840817451477 0.004340800456702709 0.001845524413511157 0.0011800031643360853 0 0 0 0.002547593554481864 0.006756487302482128 0.01439664140343666 0.02085099369287491 -9999
-9999 1.0570733547210693 0.8768606781959534 0.5425277948379517 0.28612467646598816 0.12955056130886078 0.04763893410563469 0.014015025459229946 0.003502404782921076 0.0012362898560240865 0.0005590803339146078 0.00032921860110946 0 0 0 0.00033239947515539825 0.0006906354101374745 0.0018407271709293127 0.0032571961637586355 -9999
-9999 0.7163060307502747 0.5443709492683411 0.27264654636383057 0.11285600811243057 0.043447911739349365 0.014899368397891521 0.0040674274787306786 0.0012714230688288808 0.0005047289305366576 0.00025585657567717135 0.0001523079990874976 0.00010516619659028947 8.523585711373016E-05 0 0 0.00011385521793272346 0.00024344332632608712 -9999 -9999
-9999 0.5089519619941711 0.357322633266449 0.1488809436559677 0.04948202520608902 0.015118604525923729 0.004391479771584272 0.0014094968792051077 0.0005612081149592996 0.0002690326073206961 0 0 0 0.00010495422611711547 0 0 0.00016864870849531144 0 -9999 -9999
-9999 0.38160717487335205 0.24584689736366272 0.0951097309589386 0.026778260245919228 0.0057594068348407745 0.0016584096010774374 0.0005842833779752254 0.0002697522868402302 0 0 0 0 0.0001722221204545349 0.00021237994951661676 0.0002493477368261665 0.00028217604267410934 0.0003192502772435546 0 0
-9999 -9999 0.15141375362873077 0.06451459974050522 0.01670786365866661 0.003156043589115143 0.000809867458883673 0.0002903802087530494 0 0 0 0 0 0 0 0 0 0 0 0
-9999 -9999 0.07837831974029541 0.03979632630944252 0.010760826990008354 0.0018869548803195357 0.00044790058746002614 0.00015657853509765118 0 0 0 0 0 0 0 0 0 0 0 0
-9999 -9999 -9999 0.027600206434726715 0.007709329482167959 0.0014645701739937067 0.00033806366263888776 0.00011813743913080543 0 0 0 0 0 0 0 0 0 0 0 0
