ncols         20
nrows         20
xllcorner     0
yllcorner     -3.5992928
cellsize      0.17996463
NODATA_value  -9999
-9999.0 -9999 -9999 -9999 -9999 -9999 -9999 -9999 -9999 -9999 -9999 -9999 -9999 -9999 -9999 -9999 -9999 -9999 -9999 -9999
-9999 -9999 -9999 -9999 -9999 -9999 -9999 -9999 -9999 -9999 -9999 13.335128784179688 13.346010208129883 -9999 -9999 13.228312492370605 13.311690330505371 -9999 -9999 -9999
-9999 -9999 -9999 -9999 13.221779823303223 13.15877628326416 13.057744979858398 13.023648262023926 13.035177230834961 13.050585746765137 13.170896530151367 13.187129020690918 13.140419960021973 13.097671508789062 13.128802299499512 13.182777404785156 13.274604797363281 13.357393264770508 -9999 -9999
-9999 -9999 -9999 13.199748039245605 13.143179893493652 13.077777862548828 13.013618469238281 13.000341415405273 12.995430946350098 12.991754531860352 12.97674560546875 12.94483470916748 12.895563125610352 12.88947868347168 12.907176971435547 12.984999656677246 13.107858657836914 13.197671890258789 -9999 -9999
-9999 -9999 -9999 13.151561737060547 13.083135604858398 12.98349380493164 12.958230972290039 13.006422996520996 13.057005882263184 13.079854965209961 13.078651428222656 13.045225143432617 12.963583946228027 12.87449836730957 12.797133445739746 12.81546688079834 12.904537200927734 12.908337593078613 -9999 -9999
-9999 -9999 13.222694396972656 13.11083984375 13.002240180969238 12.959901809692383 13.092325210571289 13.355884552001953 13.551199913024902 13.710824012756348 13.833063125610352 13.842493057250977 13.681121826171875 13.409875869750977 13.122899055480957 12.938056945800781 12.881730079650879 12.873452186584473 13.001437187194824 -9999
-9999 -9999 13.15500259399414 13.046204566955566 12.919609069824219 13.013858795166016 13.481247901916504 14.240494728088379 14.639262199401855 14.920294761657715 15.124066352844238 15.120080947875977 14.773470878601074 14.324462890625 13.840500831604004 13.424715042114258 13.155499458312988 13.045406341552734 13.039299011230469 -9999
-9999 -9999 12.961328506469727 12.832361221313477 12.779472351074219 13.13758659362793 14.131443977355957 15.963815689086914 16.454288482666016 16.645610809326172 16.756458282470703 16.655012130737305 15.846053123474121 15.258047103881836 14.712248802185059 14.18483829498291 13.759475708007812 13.494440078735352 13.380587577819824 -9999
-9999 12.89156723022461 12.71538257598877 12.574079513549805 12.660737991333008 13.268257141113281 14.516953468322754 16.4434871673584 16.989866256713867 17.171403884887695 17.246503829956055 17.14250373840332 16.468612670898438 15.976892471313477 15.52920913696289 15.05047607421875 14.583868026733398 14.2347993850708 14.065718650817871 -9999
-9999 12.667988777160645 12.515483856201172 12.430593490600586 12.747591972351074 13.61397647857666 14.967535018920898 16.721223831176758 17.241891860961914 17.403390884399414 17.45502471923828 17.372669219970703 16.858592987060547 16.49909019470215 16.183597564697266 15.838632583618164 15.456226348876953 15.132660865783691 14.965840339660645 -9999
-9999 12.460969924926758 12.42164421081543 12.563963890075684 13.143084526062012 14.147552490234375 15.485871315002441 17.006603240966797 17.456134796142578 17.585832595825195 17.625507354736328 17.562942504882812 17.14333724975586 16.87330436706543 16.664764404296875 16.444847106933594 16.201519012451172 15.97662353515625 15.858479499816895 -9999
-9999 12.53327465057373 12.653738021850586 13.058012962341309 13.804824829101562 14.79581356048584 15.96212387084961 17.194520950317383 17.564537048339844 17.674156188964844 17.710046768188477 17.668807983398438 17.320255279541016 17.12522315979004 16.993898391723633 16.86016082763672 16.713266372680664 16.588258743286133 16.533790588378906 -9999
-9999 13.062829971313477 13.322887420654297 13.904359817504883 14.659666061401367 15.484575271606445 16.300779342651367 16.99799919128418 17.327043533325195 17.458541870117188 17.504484176635742 17.483444213867188 17.371660232543945 17.289274215698242 17.218830108642578 17.138778686523438 17.031309127807617 16.94879913330078 16.941272735595703 -9999
-9999 13.940605163574219 14.262892723083496 14.890999794006348 15.55429744720459 16.144878387451172 16.64677619934082 17.035207748413086 17.26625633239746 17.374584197998047 17.419593811035156 17.427574157714844 17.413042068481445 17.402585983276367 17.3946475982666 17.358503341674805 17.278953552246094 17.171480178833008 17.199501037597656 -9999
-9999 14.807918548583984 15.129793167114258 15.711318969726562 16.243186950683594 16.637435913085938 16.929489135742188 17.146570205688477 17.281164169311523 17.35757064819336 17.39642333984375 17.42257308959961 17.446096420288086 17.473655700683594 17.508880615234375 17.51939582824707 17.489315032958984 17.368762969970703 -9999 -9999
-9999 15.418655395507812 15.730835914611816 16.231464385986328 16.64963722229004 16.9373836517334 17.121782302856445 17.243526458740234 17.316064834594727 17.362627029418945 17.390926361083984 17.421913146972656 17.460790634155273 17.50642967224121 17.55565643310547 17.599599838256836 17.630565643310547 17.70038414001465 -9999 -9999
-9999 15.780631065368652 16.142623901367188 16.543502807617188 16.876461029052734 17.118637084960938 17.249473571777344 17.328720092773438 17.36946678161621 17.395936965942383 17.41518211364746 17.442541122436523 17.480295181274414 17.52283477783203 17.57151985168457 17.619401931762695 17.659317016601562 17.689373016357422 17.638614654541016 17.650535583496094
-9999 -9999 16.533065795898438 16.764665603637695 17.016145706176758 17.22006607055664 17.340200424194336 17.40452003479004 17.43238639831543 17.44631576538086 17.45357322692871 17.47266387939453 17.501544952392578 17.54564666748047 17.585477828979492 17.61766242980957 17.651615142822266 17.67164421081543 17.66756820678711 17.642797470092773
-9999 -9999 16.780860900878906 16.933626174926758 17.118051528930664 17.30022430419922 17.420970916748047 17.484445571899414 17.507265090942383 17.506526947021484 17.495290756225586 17.506868362426758 17.531949996948242 17.56858253479004 17.594148635864258 17.61240577697754 17.633975982666016 17.64384651184082 17.619312286376953 17.604524612426758
-9999 -9999 -9999 17.037818908691406 17.172924041748047 17.334247589111328 17.45696258544922 17.51919174194336 17.534332275390625 17.525304794311523 17.51261329650879 17.512704849243164 17.536069869995117 17.569664001464844 17.59523582458496 17.602313995361328 17.625598907470703 17.609174728393555 17.591318130493164 17.582786560058594
