ncols         20
nrows         20
xllcorner     0
yllcorner     -3.5992928
cellsize      0.17996463
NODATA_value  -9999
-9999.0 -9999 -9999 -9999 -9999 -9999 -9999 -9999 -9999 -9999 -9999 -9999 -9999 -9999 -9999 -9999 -9999 -9999 -9999 -9999
-9999 -9999 -9999 -9999 -9999 -9999 -9999 -9999 -9999 -9999 -9999 0.13812874257564545 0.13827216625213623 -9999 -9999 0.14091897010803223 0.1411125659942627 -9999 -9999 -9999
-9999 -9999 -9999 -9999 0.13773763179779053 0.13762935996055603 0.1375315934419632 0.13749879598617554 0.13757391273975372 0.13777075707912445 0.13804472982883453 0.12791964411735535 0.12835918366909027 0.13971088826656342 0.1404418796300888 0.13047726452350616 0.13106055557727814 0.142454132437706 -9999 -9999
-9999 -9999 -9999 0.13824506103992462 0.1275995969772339 0.10846591740846634 0.10838700085878372 0.10839426517486572 0.10851116478443146 0.10873724520206451 0.10904794931411743 0.10113321244716644 0.10157543420791626 0.11052975058555603 0.11116164177656174 0.10341357439756393 0.11265316605567932 0.1437353491783142 -9999 -9999
-9999 -9999 -9999 0.13860446214675903 0.1089610606431961 0.07919798791408539 0.07296368479728699 0.07302587479352951 0.07319136708974838 0.0734487920999527 0.07376858592033386 0.06858637928962708 0.06897184252738953 0.07505017518997192 0.07561036199331284 0.07634508609771729 0.11465615034103394 0.14632384479045868 -9999 -9999
-9999 -9999 0.13957704603672028 0.12875477969646454 0.10119184851646423 0.06792650371789932 0.041999451816082 0.042081568390131 0.042256370186805725 0.042497795075178146 0.04278053715825081 0.03974370285868645 0.040067609399557114 0.04387105256319046 0.044390831142663956 0.07258967310190201 0.10885144770145416 0.13949845731258392 0.1532716304063797 -9999
-9999 -9999 0.1401740163564682 0.1102597713470459 0.08025740087032318 0.053986985236406326 0.030785754323005676 0.02078012190759182 0.020916003733873367 0.021097002550959587 0.021306419745087624 0.019883176311850548 0.020146124064922333 0.02219400368630886 0.03356754407286644 0.059570882469415665 0.08912961184978485 0.12305277585983276 0.15715204179286957 -9999
-9999 -9999 0.14123614132404327 0.1112002283334732 0.0747450664639473 0.04291069135069847 0.021049680188298225 0.010324998758733273 0.008898364380002022 0.009009506553411484 0.009141524322330952 0.008590804412961006 0.008793388493359089 0.011500831693410873 0.02401847206056118 0.049387287348508835 0.08626292645931244 0.12848301231861115 0.16334687173366547 -9999
-9999 0.14353983104228973 0.13218967616558075 0.10404671728610992 0.07014192640781403 0.04025423526763916 0.019827071577310562 0.008355692028999329 0.003277507610619068 0.0033436273224651814 0.003420422552153468 0.003235729644075036 0.0036559966392815113 0.0105748875066638 0.02557680383324623 0.05231054872274399 0.09100394695997238 0.1350814402103424 0.1713198721408844 -9999
-9999 0.1453705132007599 0.11446219682693481 0.08356349915266037 0.05649181827902794 0.0326206348836422 0.016074804589152336 0.0067932563833892345 0.0025070090778172016 0.0016711506759747863 0.0017297465819865465 0.00178538600448519 0.0039504035376012325 0.011295593343675137 0.027164746075868607 0.05540531128644943 0.09621111303567886 0.1425994485616684 0.18067139387130737 -9999
-9999 0.14857633411884308 0.11723027378320694 0.07916844636201859 0.04575600102543831 0.022621046751737595 0.011180577799677849 0.004764948971569538 0.001773720607161522 0.0017804802628234029 0.001850684522651136 0.00191351433750242 0.004220956936478615 0.011995297856628895 0.028751613572239876 0.058557651937007904 0.10159798711538315 0.15046089887619019 0.1904957890510559 -9999
-9999 0.15300589799880981 0.12091969698667526 0.08188069611787796 0.047476641833782196 0.02354804053902626 0.0099899647757411 0.003650481579825282 0.001795840566046536 0.0018818957032635808 0.0019603793043643236 0.002144549274817109 0.006236102432012558 0.014970703981816769 0.030314486473798752 0.061671726405620575 0.10689987242221832 0.15810343623161316 0.19987685978412628 -9999
-9999 0.158514603972435 0.12547002732753754 0.08512541651725769 0.04945708066225052 0.02474036253988743 0.010532726533710957 0.0038634580560028553 0.0018824830185621977 0.0019718781113624573 0.0020565090235322714 0.0033623964991420507 0.009720906615257263 0.023291364312171936 0.04765887185931206 0.08252052962779999 0.12149905413389206 0.16516339778900146 0.20789563655853271 -9999
-9999 0.16488441824913025 0.13065236806869507 0.08912442624568939 0.05191193148493767 0.025850899517536163 0.01101164985448122 0.004034395329654217 0.0019586000125855207 0.0020466188434511423 0.002130792010575533 0.004412737675011158 0.012712803669273853 0.030635610222816467 0.06257633119821548 0.10859354585409164 0.1605067253112793 0.20170453190803528 0.2133667767047882 -9999
-9999 0.17146046459674835 0.13607877492904663 0.09297536313533783 0.05421465262770653 0.027020173147320747 0.013479362241923809 0.0057824342511594296 0.0021329030860215425 0.0021057750564068556 0.002186112105846405 0.004907183814793825 0.014059117995202541 0.03392120078206062 0.06946182996034622 0.12102414667606354 0.17912819981575012 0.22693704068660736 -9999 -9999
-9999 0.17742305994033813 0.14176905155181885 0.10469525307416916 0.07177739590406418 0.04194268211722374 0.020966684445738792 0.008904044516384602 0.0035392954014241695 0.002148549072444439 0.0022258192766457796 0.004983171820640564 0.01427697017788887 0.03448658436536789 0.07074598968029022 0.12355654686689377 0.1839427798986435 0.2332572340965271 -9999 -9999
-9999 0.18167553842067719 0.17205339670181274 0.13782894611358643 0.09416709840297699 0.054913412779569626 0.02958502247929573 0.014680599793791771 0.006258003413677216 0.0022930281702429056 0.002251998521387577 0.0046294815838336945 0.013334861025214195 0.032247092574834824 0.0662265196442604 0.11578412353992462 0.17290930449962616 0.2211012840270996 0.2427593469619751 0.24417182803153992
-9999 -9999 0.19274276494979858 0.15376491844654083 0.11318174749612808 0.07718539983034134 0.044817667454481125 0.02228134125471115 0.009417550638318062 0.0034594866447150707 0.002266249619424343 0.0036678111646324396 0.01059334073215723 0.025716330856084824 0.05271598696708679 0.09240740537643433 0.13801223039627075 0.17615573108196259 0.19192129373550415 0.1926288604736328
-9999 -9999 0.19646014273166656 0.18374696373939514 0.14619140326976776 0.0992858037352562 0.057574667036533356 0.028469059616327286 0.01203226950019598 0.0044001005589962006 0.0022725656162947416 0.00247081252746284 0.007152904290705919 0.017326656728982925 0.035764433443546295 0.0623958595097065 0.09357500076293945 0.11921333521604538 0.12935936450958252 0.12964516878128052
-9999 -9999 -9999 0.2017650008201599 0.15997812151908875 0.1084313839673996 0.06272852420806885 0.030971191823482513 0.013073359616100788 0.004791333340108395 0.0022753444500267506 0.002345838351175189 0.004111217334866524 0.009923838078975677 0.020538920536637306 0.03583524003624916 0.053805962204933167 0.0682300329208374 0.07418607175350189 0.07429514825344086
