ncols         20
nrows         20
xllcorner     0
yllcorner     -3.5992928
cellsize      0.17996463
NODATA_value  -9999
-9999.0 -9999 -9999 -9999 -9999 -9999 -9999 -9999 -9999 -9999 -9999 -9999 -9999 -9999 -9999 -9999 -9999 -9999 -9999 -9999
-9999 -9999 -9999 -9999 -9999 -9999 -9999 -9999 -9999 -9999 -9999 1.2631253004074097 1.2607771158218384 -9999 -9999 1.3308148384094238 1.3018683195114136 -9999 -9999 -9999
-9999 -9999 -9999 -9999 1.2571855783462524 1.2750271558761597 1.3042526245117188 1.3112928867340088 1.3075165748596191 1.311850666999817 1.2876348495483398 1.3031426668167114 1.3287999629974365 1.349387526512146 1.3537850379943848 1.3494079113006592 1.3250216245651245 1.3004769086837769 -9999 -9999
-9999 -9999 -9999 1.2846325635910034 1.300610899925232 1.318010926246643 1.3363442420959473 1.3391423225402832 1.339438557624817 1.3383069038391113 1.3453668355941772 1.3620381355285645 1.3866426944732666 1.4039024114608765 1.4264434576034546 1.424069881439209 1.3942620754241943 1.364621877670288 -9999 -9999
-9999 -9999 -9999 1.3191559314727783 1.341303825378418 1.3801114559173584 1.3938881158828735 1.3876820802688599 1.3536818027496338 1.2916945219039917 1.2264379262924194 1.2018400430679321 1.239362359046936 1.3290539979934692 1.4265587329864502 1.4711090326309204 1.470544695854187 1.481015920639038 -9999 -9999
-9999 -9999 1.3298338651657104 1.3623493909835815 1.4013888835906982 1.430637001991272 1.418544888496399 1.3620080947875977 1.2334725856781006 1.04166579246521 0.852510929107666 0.7656823992729187 0.801551342010498 0.9715169668197632 1.209643840789795 1.383660912513733 1.4765340089797974 1.5051195621490479 1.4749109745025635 -9999
-9999 -9999 1.3638420104980469 1.4016574621200562 1.4607043266296387 1.4707714319229126 1.4154194593429565 1.264868140220642 1.0124014616012573 0.7180129885673523 0.4879874885082245 0.38594433665275574 0.40534457564353943 0.5591616630554199 0 1.1306777000427246 1.3501845598220825 1.455450177192688 1.4792797565460205 -9999
-9999 -9999 1.4404206275939941 1.4863879680633545 1.5228426456451416 1.4827457666397095 1.3285164833068848 1.0561598539352417 0.7293390035629272 0.44257381558418274 0.268280953168869 0.19318664073944092 0.19677941501140594 0.28155797719955444 0.4742506444454193 0.7564510107040405 1.0406922101974487 1.2526965141296387 1.3413901329040527 -9999
-9999 1.4763920307159424 1.5350488424301147 1.5639755725860596 1.5386762619018555 1.3796337842941284 1.0822535753250122 0.7257814407348633 0.4259811043739319 0.23419229686260223 0.13840894401073456 0.09905824065208435 0.09646789729595184 0.1341029554605484 0.23116877675056458 0 0.6598673462867737 0.8872504234313965 1.010325312614441 -9999
-9999 1.5600954294204712 1.5996509790420532 1.584076166152954 1.4321668148040771 1.1053729057312012 0.7106735110282898 0.38296589255332947 0.18926097452640533 0.0982917994260788 0.060971569269895554 0.04584035277366638 0.04484786093235016 0.058104123920202255 0.09757645428180695 0 0.32619529962539673 0.4912060797214508 0.591155469417572 -9999
-9999 1.6341357231140137 1.6229475736618042 1.4950600862503052 1.1976407766342163 0.7821732759475708 0.40067315101623535 0.1663234531879425 0.06778701394796371 0.03272829204797745 0.02043052762746811 0.016159456223249435 0.01595255173742771 0.020018305629491806 0.032039158046245575 0.06147995963692665 0.11737581342458725 0.19783678650856018 0.2502172291278839 -9999
-9999 1.597478985786438 1.5191419124603271 1.2610540390014648 0.8808414936065674 0.49318456649780273 0.20793521404266357 0.06936902552843094 0.02328655868768692 0.009603511542081833 0.005493507720530033 0.004112372174859047 0 0 0.007044896483421326 0 0.029423192143440247 0.054573703557252884 0.07184785604476929 -9999
-9999 1.3801383972167969 1.2237584590911865 0.8768182992935181 0.5319678783416748 0.2607024312019348 0.09750784933567047 0.028243567794561386 0.007893183268606663 0.0028366190381348133 0.0011476243380457163 0.0007243578438647091 0 0 0 0.0017543002031743526 0.004800976719707251 0.010353504680097103 0.015026388689875603 -9999
-9999 0.9961948990821838 0.8093764185905457 0.4837512671947479 0.24376238882541656 0.10493887960910797 0.036640919744968414 0.010220116935670376 0.002404492814093828 0.0008158744894899428 0.0003631291911005974 0.00021649914560839534 0 0 0 0.00024029794440139085 0.0004971727030351758 0.0013067666441202164 0.002250329591333866 -9999
-9999 0.6465502381324768 0.48331308364868164 0.23463685810565948 0.09333522617816925 0.03445921465754509 0.011323655024170876 0.0029462738893926144 0.00089138193288818 0.00035154051147401333 0.0001823575294110924 0.00011335839371895418 8.227389480452985E-05 6.981199840083718E-05 0 0 9.604015940567479E-05 0.00020142884750384837 -9999 -9999
-9999 0.4450472593307495 0.30770111083984375 0.12484613806009293 0.04019199684262276 0.011869841255247593 0.0033215144649147987 0.001040845294483006 0.0004139599623158574 0.000203978837816976 0 0 0 9.548232628731057E-05 0 0 0.00015863483713474125 0 -9999 -9999
-9999 0.3276733160018921 0.2073233425617218 0.07854848355054855 0.021607128903269768 0.004515674896538258 0.001276869443245232 0.00045069557381793857 0.00021407034364528954 0 0 0 0 0.000166264406288974 0.00020753096032422036 0.00024607605882920325 0.0002813316532410681 0.0003233299357816577 0 0
-9999 -9999 0.12516650557518005 0.05279996991157532 0.013492779806256294 0.0025088530965149403 0.0006433807429857552 0.0002365703840041533 0 0 0 0 0 0 0 0 0 0 0 0
-9999 -9999 0.06430552899837494 0.03245856240391731 0.008719034492969513 0.001523503684438765 0.0003667463315650821 0.00013385283818934113 0 0 0 0 0 0 0 0 0 0 0 0
-9999 -9999 -9999 0.02245074138045311 0.006253447383642197 0.0011930355103686452 0.00028187298448756337 0.0001036219546222128 0 0 0 0 0 0 0 0 0 0 0 0
