ncols         20
nrows         20
xllcorner     0
yllcorner     -3.5992928
cellsize      0.17996463
NODATA_value  -9999
-9999.0 -9999 -9999 -9999 -9999 -9999 -9999 -9999 -9999 -9999 -9999 -9999 -9999 -9999 -9999 -9999 -9999 -9999 -9999 -9999
-9999 -9999 -9999 -9999 -9999 -9999 -9999 -9999 -9999 -9999 -9999 0.017885735258460045 0.017883408814668655 -9999 -9999 0.017947891727089882 0.017954101786017418 -9999 -9999 -9999
-9999 -9999 -9999 -9999 0.018051372841000557 0.01801321841776371 0.017956247553229332 0.01788582280278206 0.01781409978866577 0.017754944041371346 0.01772163435816765 0.037569254636764526 0.037555065006017685 0.01769169233739376 0.017710231244564056 0.037670545279979706 0.037711113691329956 0.01779259368777275 -9999 -9999
-9999 -9999 -9999 0.01794922910630703 0.03799174726009369 0.07900302857160568 0.07873256504535675 0.07837489247322083 0.07800345867872238 0.07768529653549194 0.077473483979702 0.09321199357509613 0.09314785897731781 0.07728896290063858 0.07736904174089432 0.09341132640838623 0.07772119343280792 0.017627336084842682 -9999 -9999
-9999 -9999 -9999 0.0178097914904356 0.07850716263055801 0.11338023096323013 0.11290571093559265 0.11228300631046295 0.11164285242557526 0.11109165102243423 0.11070806533098221 0.11054658144712448 0.11045075953006744 0.1104002594947815 0.11053357273340225 0.11078595370054245 0.07667037844657898 0.017347676679491997 -9999 -9999
-9999 -9999 0.017541613429784775 0.03721405565738678 0.09344413131475449 0.11201463639736176 0.11137998104095459 0.11058647930622101 0.10979284346103668 0.10911969840526581 0.10863600671291351 0.10836544632911682 0.10825996100902557 0.10829716920852661 0.1084732934832573 0.1086803451180458 0.09040635824203491 0.03584029898047447 0.01681702584028244 -9999
-9999 -9999 0.017365356907248497 0.0765068531036377 0.1106012761592865 0.1101146936416626 0.10924671590328217 0.10821941494941711 0.10723542422056198 0.10641977190971375 0.10584236681461334 0.1055092141032219 0.10538457334041595 0.10545088350772858 0.10568626970052719 0.10597141087055206 0.10603291541337967 0.07308097183704376 0.01656811498105526 -9999
-9999 -9999 0.01709298975765705 0.07535673677921295 0.10863851010799408 0.10785098373889923 0.10671338438987732 0.1054636538028717 0.10435742884874344 0.10348184406757355 0.10284925252199173 0.10245463252067566 0.10227475315332413 0.10229407995939255 0.10250245034694672 0.10288290679454803 0.1032182052731514 0.07144412398338318 0.0162071343511343 -9999
-9999 0.016680795699357986 0.035415928810834885 0.08891196548938751 0.10636608302593231 0.10533683001995087 0.10397017002105713 0.1026141569018364 0.10146073997020721 0.10054408013820648 0.09986579418182373 0.09941878169775009 0.09918572753667831 0.09915073961019516 0.09929993003606796 0.09960658848285675 0.10000209510326385 0.06935063749551773 0.015754401683807373 -9999
-9999 0.016492029651999474 0.07252731919288635 0.10470404475927353 0.10398107022047043 0.10269278287887573 0.10116951167583466 0.09978591650724411 0.09861297905445099 0.09767143428325653 0.09695667028427124 0.09646438807249069 0.09618175029754639 0.09609324485063553 0.09618081152439117 0.09641373157501221 0.09672527760267258 0.06709236651659012 0.015254463069140911 -9999
-9999 0.016232050955295563 0.07132167369127274 0.10256150364875793 0.10150478780269623 0.09998387843370438 0.09842132031917572 0.09703391790390015 0.09585890173912048 0.09490297734737396 0.09416039288043976 0.09363061934709549 0.09330461919307709 0.0931677520275116 0.09320411086082458 0.09338828176259995 0.09366095811128616 0.06494110077619553 0.014760984107851982 -9999
-9999 0.0159143079072237 0.06982187926769257 0.1001705676317215 0.09891336411237717 0.09728898853063583 0.095753014087677 0.09439056366682053 0.093226358294487 0.09226444363594055 0.0915011614561081 0.09094041585922241 0.09057629108428955 0.09039517492055893 0.09039086848497391 0.0905601978302002 0.09086979925632477 0.06306827068328857 0.014330537989735603 -9999
-9999 0.015562623739242554 0.06817156821489334 0.0976279005408287 0.0962560623884201 0.09467963129281998 0.0932045727968216 0.0918864756822586 0.09074395149946213 0.0897844135761261 0.08900442719459534 0.08841380476951599 0.08800683915615082 0.0877748504281044 0.08772538602352142 0.08789053559303284 0.08836599439382553 0.06158148869872093 0.013990308158099651 -9999
-9999 0.015202997252345085 0.06649114191532135 0.09506125748157501 0.09366368502378464 0.09220296889543533 0.09081573784351349 0.08955633640289307 0.08844580501317978 0.08750061690807343 0.08671501278877258 0.0860934853553772 0.08563335984945297 0.08533024042844772 0.08519363403320312 0.08525136113166809 0.07094066590070724 0.028697296977043152 0.013744574040174484 -9999
-9999 0.014865829609334469 0.06492546945810318 0.09264163672924042 0.09129547327756882 0.0899294838309288 0.08863101899623871 0.08743873983621597 0.08637922257184982 0.0854579508304596 0.08467045426368713 0.08401783555746078 0.08349680155515671 0.08310481160879135 0.08284541219472885 0.08272324502468109 0.057153139263391495 0.012961325235664845 -9999 -9999
-9999 0.01458626240491867 0.06330173462629318 0.09053372591733932 0.08916774392127991 0.08789011090993881 0.08668628334999084 0.08557847887277603 0.08457739651203156 0.08368827402591705 0.08290518820285797 0.08222603797912598 0.0816459059715271 0.08116006851196289 0.08076697587966919 0.08046287298202515 0.055069684982299805 0.012465238571166992 -9999 -9999
-9999 0.014388779178261757 0.02989506907761097 0.07326460629701614 0.08720573037862778 0.08609871566295624 0.08502337336540222 0.08400876820087433 0.08307167887687683 0.08221893012523651 0.08144345879554749 0.0807441845536232 0.08011391758918762 0.07954324036836624 0.07901851087808609 0.07850930839776993 0.06449423730373383 0.025359420105814934 0.011687740683555603 0.01157102920114994
-9999 -9999 0.013724615797400475 0.05956149101257324 0.0856078714132309 0.08463285863399506 0.08368705958127975 0.08276764303445816 0.08189409226179123 0.081076480448246 0.08031193912029266 0.07960054278373718 0.07893432676792145 0.07830041646957397 0.07767710834741592 0.07701347768306732 0.07618684321641922 0.06243274360895157 0.051196109503507614 0.05088695138692856
-9999 -9999 0.013349652290344238 0.028279686346650124 0.06983184814453125 0.08350465446710587 0.08272189646959305 0.08189526200294495 0.08107670396566391 0.08028939366340637 0.07953657954931259 0.07881996035575867 0.07813260704278946 0.07746322453022003 0.0767948180437088 0.07609714567661285 0.07533123344182968 0.0745009034872055 0.07384561002254486 0.0735064372420311
-9999 -9999 -9999 0.013008524663746357 0.05735369771718979 0.08287870138883591 0.08220674097537994 0.0814390629529953 0.08065343648195267 0.07988336682319641 0.07913830876350403 0.07842081040143967 0.07772444188594818 0.07704045623540878 0.07635724544525146 0.07566051930189133 0.0749448835849762 0.07425571233034134 0.07371649891138077 0.07342581450939178
