ncols         20
nrows         20
xllcorner     0
yllcorner     -3.5992928
cellsize      0.17996463
NODATA_value  -9999
-9999.0 -9999 -9999 -9999 -9999 -9999 -9999 -9999 -9999 -9999 -9999 -9999 -9999 -9999 -9999 -9999 -9999 -9999 -9999 -9999
-9999 -9999 -9999 -9999 -9999 -9999 -9999 -9999 -9999 -9999 -9999 0.42192187905311584 0.4134874939918518 -9999 -9999 0.3716887831687927 0.348396897315979 -9999 -9999 -9999
-9999 -9999 -9999 -9999 0.44729557633399963 0.4784371852874756 0.5340338349342346 0.5780143141746521 0.6042419075965881 0.6179457306861877 0.5567972660064697 0.5110902786254883 0.5068171620368958 0.5063086748123169 0.4596591591835022 0.4038580656051636 0.3652791380882263 0.341510534286499 -9999 -9999
-9999 -9999 -9999 0.4277169406414032 0.4604666233062744 0.5032550692558289 0.5639898777008057 0.6224181652069092 0.6835234761238098 0.7320649027824402 0.7596538066864014 0.7489315867424011 0.73056560754776 0.6710036993026733 0.5886653661727905 0.49652719497680664 0.4258255660533905 0.388245165348053 -9999 -9999
-9999 -9999 -9999 0.4291703402996063 0.46839821338653564 0.5455037355422974 0.637851893901825 0.7426430583000183 0.8683441877365112 1.0295137166976929 1.1809701919555664 1.2468401193618774 1.2031432390213013 1.0405703783035278 0.860466718673706 0.6792804002761841 0.5499741435050964 0.5160534381866455 -9999 -9999
-9999 -9999 0.3627519905567169 0.4162619709968567 0.4864870607852936 0.5908914804458618 0.7171088457107544 0.8750273585319519 1.1092839241027832 1.405152440071106 1.713776707649231 1.860373616218567 1.8240303993225098 1.5725822448730469 1.245379090309143 0.9535443782806396 0.7489153146743774 0.6656461954116821 0.6102964282035828 -9999
-9999 -9999 0.36431369185447693 0.413556307554245 0.5181334018707275 0.6618820428848267 0.8297930359840393 1.0562864542007446 1.378611445426941 1.779592514038086 2.178277015686035 2.404489755630493 2.3876893520355225 2.1290340423583984 0 1.3451827764511108 1.0448142290115356 0.8605995178222656 0.7860827445983887 -9999
-9999 -9999 0.38773196935653687 0.45819154381752014 0.6018255949020386 0.7901602387428284 1.028633952140808 1.3294548988342285 1.6923964023590088 2.106605291366577 2.459620952606201 2.6906638145446777 2.715305805206299 2.532080888748169 2.203249454498291 1.799836277961731 1.4419225454330444 1.1841917037963867 1.0790069103240967 -9999
-9999 0.3569052219390869 0.43224844336509705 0.5500088930130005 0.7620853781700134 1.0410611629486084 1.361177921295166 1.735396385192871 2.1129441261291504 2.4503061771392822 2.6948258876800537 2.8591692447662354 2.924482822418213 2.8415777683258057 2.6426901817321777 0 1.915930151939392 1.6040699481964111 1.4688689708709717 -9999
-9999 0.4196244478225708 0.507989227771759 0.7086067199707031 1.0158329010009766 1.3989856243133545 1.8220120668411255 2.249677896499634 2.600275754928589 2.8325302600860596 2.9604039192199707 3.062051296234131 3.1287286281585693 3.1321144104003906 3.0337393283843994 0 2.4373624324798584 2.109346866607666 1.9623850584030151 -9999
-9999 0.55069899559021 0.6652042865753174 0.9272032380104065 1.2996561527252197 1.7547234296798706 2.2546145915985107 2.7118005752563477 3.007966995239258 3.1575424671173096 3.239495038986206 3.324021339416504 3.426091194152832 3.4669859409332275 3.411513328552246 3.2656936645507812 2.9702365398406982 2.6712303161621094 2.5269577503204346 -9999
-9999 0.7744207978248596 0.9111388325691223 1.2284674644470215 1.6395463943481445 2.1056578159332275 2.6003880500793457 3.0047144889831543 3.217179775238037 3.30444073677063 3.3696227073669434 3.4915168285369873 0 0 3.727128744125366 0 3.421579599380493 3.186677932739258 3.061767816543579 -9999
-9999 1.1141009330749512 1.2884979248046875 1.6632680892944336 2.064728021621704 2.4810330867767334 2.877457857131958 3.161835193634033 3.2614030838012695 3.267174243927002 3.294145107269287 3.3995583057403564 0 0 0 3.610959053039551 3.5423383712768555 3.4548451900482178 3.3568925857543945 -9999
-9999 1.5444380044937134 1.7497988939285278 2.1631383895874023 2.546452045440674 2.861222267150879 3.0994575023651123 3.216822624206543 3.2061684131622314 3.155028820037842 3.1340315341949463 3.165480136871338 0 0 0 3.166010856628418 3.220306873321533 3.3661041259765625 3.31994891166687 -9999
-9999 1.9343647956848145 2.146362066268921 2.570871114730835 2.9075536727905273 3.0956876277923584 3.1753084659576416 3.1668336391448975 3.105649471282959 3.0456621646881104 3.0129082202911377 2.9523935317993164 2.869582414627075 2.7562990188598633 0 0 2.58286190032959 2.850245475769043 -9999 -9999
-9999 2.1689493656158447 2.379819631576538 2.780670404434204 3.0392537117004395 3.118553638458252 3.098032236099243 3.0376241207122803 2.9964733123779297 2.984077215194702 0 0 0 2.4007694721221924 0 0 1.9179089069366455 0 -9999 -9999
-9999 2.3355190753936768 2.523732900619507 2.8555803298950195 3.042788505554199 3.0307986736297607 2.942779779434204 2.862715482711792 2.854936122894287 0 0 0 0 2.127331018447876 1.8673685789108276 1.6463109254837036 1.4739549160003662 1.331215739250183 0 0
-9999 -9999 2.645810604095459 2.880580186843872 3.003415584564209 2.9194164276123047 2.7666068077087402 2.6681511402130127 0 0 0 0 0 0 0 0 0 0 0 0
-9999 -9999 2.8069190979003906 2.910522937774658 2.9508891105651855 2.7942593097686768 2.5753440856933594 2.4318180084228516 0 0 0 0 0 0 0 0 0 0 0 0
-9999 -9999 -9999 2.911893606185913 2.9172677993774414 2.7315385341644287 2.4762721061706543 2.3112189769744873 0 0 0 0 0 0 0 0 0 0 0 0
