ncols         20
nrows         20
xllcorner     0
yllcorner     -3.5992928
cellsize      0.17996463
NODATA_value  -9999
-9999.0 -9999 -9999 -9999 -9999 -9999 -9999 -9999 -9999 -9999 -9999 -9999 -9999 -9999 -9999 -9999 -9999 -9999 -9999 -9999
-9999 -9999 -9999 -9999 -9999 -9999 -9999 -9999 -9999 -9999 -9999 13.008981704711914 13.01793384552002 -9999 -9999 12.93680191040039 13.025200843811035 -9999 -9999 -9999
-9999 -9999 -9999 -9999 12.932293891906738 12.861652374267578 12.744232177734375 12.690670013427734 12.682819366455078 12.681897163391113 12.796551704406738 12.818195343017578 12.762948989868164 12.700889587402344 12.741277694702148 12.830607414245605 12.93242073059082 13.001279830932617 -9999 -9999
-9999 -9999 -9999 12.860568046569824 12.817293167114258 12.751072883605957 12.676079750061035 12.646119117736816 12.621105194091797 12.5972900390625 12.564800262451172 12.518030166625977 12.45193099975586 12.43167495727539 12.449875831604004 12.539997100830078 12.667831420898438 12.753146171569824 -9999 -9999
-9999 -9999 -9999 12.755370140075684 12.697998046875 12.602622032165527 12.57580280303955 12.615524291992188 12.652706146240234 12.660932540893555 12.645681381225586 12.591797828674316 12.478403091430664 12.350314140319824 12.244564056396484 12.244705200195312 12.314663887023926 12.296326637268066 -9999 -9999
-9999 -9999 12.670618057250977 12.609426498413086 12.527900695800781 12.503911018371582 12.65425968170166 12.935474395751953 13.142373085021973 13.313776969909668 13.446741104125977 13.444082260131836 13.235457420349121 12.878440856933594 12.504039764404297 12.243791580200195 12.117841720581055 12.037768363952637 12.051169395446777 -9999
-9999 -9999 12.51175308227539 12.43285083770752 12.33527660369873 12.461790084838867 12.982118606567383 13.8335542678833 14.289226531982422 14.606943130493164 14.83308219909668 14.819281578063965 14.40941333770752 13.85059642791748 13.22801399230957 12.65653133392334 12.25976276397705 12.046947479248047 11.969078063964844 -9999
-9999 -9999 12.160472869873047 12.065014839172363 12.055378913879395 12.471593856811523 13.599177360534668 15.669997215270996 16.23926544189453 16.462251663208008 16.582569122314453 16.459779739379883 15.564167022705078 14.862646102905273 14.161050796508789 13.446277618408203 12.837922096252441 12.41727066040039 12.220412254333496 -9999
-9999 11.908330917358398 11.778749465942383 11.6278715133667 11.775707244873047 12.493562698364258 13.953638076782227 16.169275283813477 16.810626983642578 17.024932861328125 17.10315704345703 16.975120544433594 16.2437686920166 15.66832160949707 15.08987045288086 14.427568435668945 13.75157642364502 13.22341251373291 12.952554702758789 -9999
-9999 11.602775573730469 11.45135498046875 11.339309692382812 11.728404998779297 12.783833503723145 14.412178039550781 16.45905303955078 17.08002471923828 17.274991989135742 17.327098846435547 17.224332809448242 16.688772201538086 16.285430908203125 15.880935668945312 15.391226768493652 14.810519218444824 14.299407958984375 14.029287338256836 -9999
-9999 11.254447937011719 11.194835662841797 11.307633399963379 12.048072814941406 13.32959270477295 14.976716041564941 16.762657165527344 17.309213638305664 17.47263526916504 17.51463508605957 17.440404891967773 17.040205001831055 16.76197052001953 16.508769989013672 16.1956844329834 15.809478759765625 15.424644470214844 15.216318130493164 -9999
-9999 11.119277954101562 11.218728065490723 11.684280395507812 12.727540969848633 14.048742294311523 15.527324676513672 16.97146224975586 17.4327449798584 17.57831573486328 17.62093734741211 17.578598022460938 17.280229568481445 17.102445602416992 16.96210289001465 16.788742065429688 16.56057357788086 16.330419540405273 16.212326049804688 -9999
-9999 11.414445877075195 11.705185890197754 12.609243392944336 13.72504997253418 14.887834548950195 15.983589172363281 16.860807418823242 17.271873474121094 17.43260383605957 17.489660263061523 17.47624969482422 17.385658264160156 17.316158294677734 17.24987030029297 17.164705276489258 17.031225204467773 16.89760398864746 16.84409523010254 -9999
-9999 12.25265884399414 12.80659008026123 13.848430633544922 14.88670825958252 15.766640663146973 16.473718643188477 16.9836483001709 17.267587661743164 17.392507553100586 17.443513870239258 17.455411911010742 17.446468353271484 17.439739227294922 17.43394660949707 17.401824951171875 17.328283309936523 17.215057373046875 17.20341682434082 -9999
-9999 13.354599952697754 13.927868843078613 14.953551292419434 15.84272575378418 16.457412719726562 16.873743057250977 17.155044555664062 17.31342887878418 17.396108627319336 17.436717987060547 17.462360382080078 17.48387336730957 17.508041381835938 17.538766860961914 17.549100875854492 17.526338577270508 17.428199768066406 -9999 -9999
-9999 14.153614044189453 14.726027488708496 15.67045783996582 16.41301918029785 16.870704650878906 17.12839698791504 17.279525756835938 17.36250114440918 17.411148071289062 17.43939971923828 17.466854095458984 17.49904441833496 17.535282135009766 17.575380325317383 17.612035751342773 17.638639450073242 17.69497299194336 -9999 -9999
-9999 14.671611785888672 15.299086570739746 16.09939956665039 16.724069595336914 17.10565185546875 17.28030014038086 17.372926712036133 17.418771743774414 17.445756912231445 17.463544845581055 17.48472785949707 17.513294219970703 17.546703338623047 17.58612060546875 17.62563133239746 17.65914535522461 17.684465408325195 17.644195556640625 17.654855728149414
-9999 -9999 15.890686988830566 16.411865234375 16.914329528808594 17.229904174804688 17.37700080871582 17.446598052978516 17.475963592529297 17.489437103271484 17.49393653869629 17.507171630859375 17.528505325317383 17.56281089782715 17.59494400024414 17.621788024902344 17.650306701660156 17.6678466796875 17.665876388549805 17.645954132080078
-9999 -9999 16.352798461914062 16.683223724365234 17.05426597595215 17.320520401000977 17.45408821105957 17.51523208618164 17.5351505279541 17.533750534057617 17.52478790283203 17.5325870513916 17.550914764404297 17.579124450683594 17.59967803955078 17.615163803100586 17.633590698242188 17.642465591430664 17.622774124145508 17.610755920410156
-9999 -9999 -9999 16.852705001831055 17.128522872924805 17.358661651611328 17.487913131713867 17.544612884521484 17.55511474609375 17.547500610351562 17.537551879882812 17.536638259887695 17.553457260131836 17.579038619995117 17.59937858581543 17.605655670166016 17.62528419494629 17.612302780151367 17.5977725982666 17.590761184692383
