ncols         20
nrows         20
xllcorner     0
yllcorner     -3.5992928
cellsize      0.17996463
NODATA_value  -9999
-9999.0 -9999 -9999 -9999 -9999 -9999 -9999 -9999 -9999 -9999 -9999 -9999 -9999 -9999 -9999 -9999 -9999 -9999 -9999 -9999
-9999 -9999 -9999 -9999 -9999 -9999 -9999 -9999 -9999 -9999 -9999 26.523847579956055 26.523134231567383 -9999 -9999 26.61920928955078 26.698930740356445 -9999 -9999 -9999
-9999 -9999 -9999 -9999 26.58597755432129 26.47473907470703 26.31454086303711 26.198997497558594 26.141185760498047 26.13285255432129 26.213966369628906 26.30514907836914 26.27039909362793 26.16362953186035 26.220184326171875 26.413002014160156 26.544435501098633 26.581716537475586 -9999 -9999
-9999 -9999 -9999 26.59441566467285 26.53528594970703 26.434782028198242 26.319690704345703 26.250133514404297 26.212560653686523 26.19627571105957 26.190908432006836 26.169952392578125 26.089906692504883 26.013004302978516 26.02349090576172 26.135128021240234 26.251245498657227 26.300933837890625 -9999 -9999
-9999 -9999 -9999 26.516061782836914 26.461898803710938 26.3994083404541 26.397897720336914 26.474037170410156 26.56243896484375 26.622045516967773 26.629812240600586 26.547061920166016 26.354427337646484 26.134235382080078 25.978471755981445 25.933095932006836 25.933931350708008 25.906814575195312 -9999 -9999
-9999 -9999 26.461347579956055 26.41510581970215 26.375022888183594 26.451942443847656 26.745159149169922 27.210371017456055 27.62556266784668 27.941219329833984 28.098264694213867 27.963258743286133 27.52263832092285 26.949382781982422 26.443601608276367 26.080293655395508 25.865421295166016 25.732118606567383 25.661401748657227 -9999
-9999 -9999 26.28425407409668 26.254554748535156 26.299659729003906 26.651958465576172 27.501781463623047 28.819217681884766 29.85866355895996 30.477495193481445 30.67110824584961 30.345191955566406 29.48666763305664 28.487611770629883 27.53449249267578 26.740890502929688 26.225231170654297 25.922765731811523 25.782752990722656 -9999
-9999 -9999 25.946683883666992 25.968109130859375 26.20343780517578 26.996288299560547 28.693134307861328 31.404285430908203 32.94226837158203 33.62871551513672 33.695194244384766 33.079246520996094 31.617324829101562 30.212848663330078 28.96892738342285 27.900968551635742 27.06723976135254 26.51962661743164 26.263904571533203 -9999
-9999 25.474855422973633 25.551372528076172 25.6733341217041 26.16330909729004 27.40226936340332 29.76675796508789 32.99006652832031 34.77753829956055 35.514930725097656 35.528411865234375 34.800907135009766 33.19141387939453 31.65073013305664 30.322874069213867 29.188453674316406 28.254440307617188 27.581613540649414 27.231019973754883 -9999
-9999 25.222515106201172 25.28037452697754 25.54054832458496 26.336652755737305 27.973102569580078 30.690387725830078 33.935455322265625 35.743804931640625 36.48603820800781 36.492000579833984 35.76951217651367 34.19607162475586 32.67695236206055 31.388408660888672 30.317218780517578 29.443065643310547 28.79758071899414 28.447101593017578 -9999
-9999 25.00631332397461 25.171491622924805 25.67367935180664 26.7838077545166 28.700794219970703 31.445478439331055 34.46144485473633 36.154075622558594 36.86524963378906 36.891605377197266 36.2346305847168 34.7574348449707 33.33611297607422 32.142478942871094 31.17085838317871 30.40146827697754 29.846590042114258 29.542909622192383 -9999
-9999 25.082557678222656 25.394533157348633 26.13933563232422 27.454877853393555 29.416732788085938 31.888118743896484 34.48117446899414 35.9805793762207 36.660736083984375 36.74647521972656 36.22982406616211 34.97037124633789 33.76033401489258 32.72227478027344 31.847694396972656 31.14044952392578 30.632850646972656 30.349817276000977 -9999
-9999 25.595062255859375 26.031002044677734 26.940017700195312 28.301921844482422 30.011735916137695 31.93647003173828 33.80066680908203 35.073326110839844 35.759857177734375 35.957359313964844 35.67599868774414 34.95469665527344 34.143428802490234 33.35279083251953 32.60166931152344 31.904661178588867 31.35364532470703 30.987457275390625 -9999
-9999 26.50039291381836 27.01206398010254 27.951007843017578 29.145029067993164 30.50056266784668 31.935232162475586 33.30146026611328 34.36796569824219 35.03285598754883 35.33583068847656 35.31421661376953 35.0308837890625 34.62166213989258 34.14210891723633 33.58058547973633 32.955291748046875 32.313663482666016 31.56667137145996 -9999
-9999 27.576141357421875 28.066207885742188 28.88850212097168 29.856246948242188 30.916643142700195 32.038848876953125 33.1268310546875 34.01401138305664 34.65020751953125 35.041847229003906 35.23246765136719 35.26544189453125 35.187984466552734 35.017921447753906 34.725616455078125 34.33599853515625 33.93509292602539 -9999 -9999
-9999 28.431976318359375 28.89927864074707 29.596050262451172 30.41006851196289 31.321544647216797 32.29869842529297 33.21852111816406 33.99367904663086 34.59608459472656 35.03522491455078 35.35857009887695 35.59339141845703 35.747039794921875 35.810951232910156 35.77700424194336 35.68287658691406 35.660892486572266 -9999 -9999
-9999 28.935606002807617 29.507736206054688 30.115320205688477 30.85904884338379 31.756126403808594 32.66343688964844 33.521453857421875 34.241519927978516 34.8149299621582 35.26666259765625 35.649906158447266 35.983516693115234 36.25691604614258 36.45484924316406 36.57220458984375 36.64940643310547 36.796531677246094 37.212825775146484 37.385868072509766
-9999 -9999 30.131328582763672 30.55238914489746 31.233013153076172 32.136722564697266 33.07561492919922 33.9346923828125 34.638450622558594 35.186309814453125 35.62116241455078 36.011539459228516 36.375396728515625 36.706817626953125 36.959835052490234 37.12739181518555 37.251075744628906 37.36369705200195 37.501136779785156 37.54756164550781
-9999 -9999 30.44318389892578 30.86859893798828 31.524677276611328 32.457061767578125 33.45600128173828 34.34926986694336 35.0502815246582 35.56831741333008 35.964691162109375 36.33795166015625 36.70563507080078 37.050350189208984 37.31396484375 37.489498138427734 37.60862350463867 37.67218780517578 37.68623733520508 37.68698501586914
-9999 -9999 -9999 31.15945816040039 31.726560592651367 32.64154052734375 33.671199798583984 34.58447265625 35.280357360839844 35.77694320678711 36.15563201904297 36.50684356689453 36.87253952026367 37.22114944458008 37.49409103393555 37.66718292236328 37.788333892822266 37.80799102783203 37.79359436035156 37.782413482666016
