ncols         20
nrows         20
xllcorner     0
yllcorner     -3.5992928
cellsize      0.17996463
NODATA_value  -9999
-9999.0 -9999 -9999 -9999 -9999 -9999 -9999 -9999 -9999 -9999 -9999 -9999 -9999 -9999 -9999 -9999 -9999 -9999 -9999 -9999
-9999 -9999 -9999 -9999 -9999 -9999 -9999 -9999 -9999 -9999 -9999 0.01826915517449379 0.018268300220370293 -9999 -9999 0.01836198940873146 0.01836904138326645 -9999 -9999 -9999
-9999 -9999 -9999 -9999 0.01840941607952118 0.018369145691394806 0.018309999257326126 0.018238497897982597 0.018168127164244652 0.018113447353243828 0.018087321892380714 0.03836577758193016 0.03836151584982872 0.018079696223139763 0.018106352537870407 0.038529444485902786 0.03857601433992386 0.018202340230345726 -9999 -9999
-9999 -9999 -9999 0.018305474892258644 0.03874007612466812 0.08054596185684204 0.08026238530874252 0.0798969492316246 0.07953110337257385 0.07923449575901031 0.0790557861328125 0.09516656398773193 0.09513983130455017 0.07897484302520752 0.07908658683300018 0.0955163910984993 0.07948846369981766 0.01803164929151535 -9999 -9999
-9999 -9999 -9999 0.01816217228770256 0.08003916591405869 0.11556882411241531 0.11506416648626328 0.11442356556653976 0.11379250884056091 0.11327989399433136 0.11295303702354431 0.1128535345196724 0.11280877888202667 0.11280025541782379 0.11297476291656494 0.11326545476913452 0.07840574532747269 0.01774446666240692 -9999 -9999
-9999 -9999 0.017894882708787918 0.03795032948255539 0.0952557846903801 0.11414724588394165 0.11346273124217987 0.11264288425445557 0.11186444014310837 0.11125380545854568 0.11084874719381332 0.11064975708723068 0.11059403419494629 0.11066173017024994 0.1108659878373146 0.11110571026802063 0.09245151281356812 0.03666144981980324 0.017205409705638885 -9999
-9999 -9999 0.01771775260567665 0.07802338153123856 0.11273960769176483 0.11218541115522385 0.1112525463104248 0.11020763218402863 0.1092732846736908 0.10857415199279785 0.10810494422912598 0.1078534945845604 0.10777008533477783 0.10784020274877548 0.10807128995656967 0.10836462676525116 0.10845361649990082 0.07476802915334702 0.016953321173787117 -9999
-9999 -9999 0.017447492107748985 0.0768701583147049 0.11075279116630554 0.10988637059926987 0.10870093107223511 0.10753125697374344 0.10655015707015991 0.10579811036586761 0.10526964068412781 0.10494864732027054 0.10480362176895142 0.10481933504343033 0.10499309748411179 0.1053045243024826 0.1056319996714592 0.07312308251857758 0.016590213403105736 -9999
-9999 0.017056554555892944 0.03618432581424713 0.09075801074504852 0.10849737375974655 0.10739654302597046 0.10605465620756149 0.10483913123607635 0.10382129997015 0.10302672535181046 0.10244471579790115 0.10206335037946701 0.10186101496219635 0.10182090103626251 0.10193178802728653 0.1021699458360672 0.10247719287872314 0.07104598730802536 0.016139332205057144 -9999
-9999 0.016872644424438477 0.07416190207004547 0.10698390007019043 0.10617668926715851 0.10484123229980469 0.1034320816397667 0.1021856740117073 0.10114406049251556 0.10031518340110779 0.09968598186969757 0.09925152361392975 0.09899702668190002 0.09890637546777725 0.09896273910999298 0.09913962334394455 0.09938011318445206 0.06886232644319534 0.015650443732738495 -9999
-9999 0.016620133072137833 0.07299299538135529 0.10491219907999039 0.10379352420568466 0.10228124260902405 0.10085467994213104 0.09960228949785233 0.09854847192764282 0.09769286960363388 0.09702518582344055 0.09654651582241058 0.09624730795621872 0.0961124449968338 0.09612713009119034 0.09627004712820053 0.09649090468883514 0.0668530985713005 0.015181063674390316 -9999
-9999 0.016311636194586754 0.07154060900211334 0.10260484367609024 0.10131201893091202 0.09976790845394135 0.09835266321897507 0.09711191058158875 0.09605467319488525 0.09518013149499893 0.09448207914829254 0.09396670758724213 0.09362825751304626 0.09345247596502304 0.09343421459197998 0.09357421100139618 0.09384552389383316 0.06509262323379517 0.01478067971765995 -9999
-9999 0.015969621017575264 0.06994117796421051 0.10015158355236053 0.09877247363328934 0.09731081873178482 0.09595099836587906 0.09474022686481476 0.0936899185180664 0.09280532598495483 0.09208159893751144 0.09153039753437042 0.09114664047956467 0.09092099964618683 0.0908621996641159 0.09100494533777237 0.09144716709852219 0.06367992609739304 0.014460439793765545 -9999
-9999 0.01561820600181818 0.06831137835979462 0.09768567234277725 0.09634636342525482 0.09497995674610138 0.09369120746850967 0.09252264350652695 0.0914902314543724 0.0906083956360817 0.08986983448266983 0.08928100764751434 0.08883951604366302 0.08854085206985474 0.08839655667543411 0.08843793720006943 0.07356057316064835 0.02973111905157566 0.014225920662283897 -9999
-9999 0.015288334339857101 0.06679286062717438 0.09536749869585037 0.09410685300827026 0.09282833337783813 0.09161396324634552 0.09049802273511887 0.08950400352478027 0.08863627910614014 0.08788789808750153 0.08726111054420471 0.08675269782543182 0.08636096119880676 0.08609268814325333 0.08595667034387589 0.059375010430812836 0.013460271060466766 -9999 -9999
-9999 0.01501494087278843 0.065201036632061 0.09337549656629562 0.09208973497152328 0.0908886045217514 0.0897558182477951 0.08871184289455414 0.08776640146970749 0.08692330867052078 0.08617335557937622 0.0855141207575798 0.08494014292955399 0.08444845676422119 0.0840422585606575 0.08372227102518082 0.057296689599752426 0.01296858862042427 -9999 -9999
-9999 0.014822311699390411 0.030834026634693146 0.07570432871580124 0.09022246301174164 0.08917754143476486 0.08816026896238327 0.08719903230667114 0.08630989491939545 0.08549760282039642 0.08475050330162048 0.0840660110116005 0.08343613892793655 0.08285365998744965 0.08231022208929062 0.08178021013736725 0.06718723475933075 0.0264278631657362 0.012188517488539219 0.012069858610630035
-9999 -9999 0.01418602280318737 0.06164104864001274 0.08869748562574387 0.08777284622192383 0.08687379956245422 0.08599891513586044 0.0851672887802124 0.08438581973314285 0.08364591747522354 0.08294553309679031 0.08227559179067612 0.08162540942430496 0.08097834885120392 0.08028805255889893 0.07943504303693771 0.06511197239160538 0.05340539664030075 0.05308742821216583
-9999 -9999 0.01381593942642212 0.029302580282092094 0.07243894785642624 0.08668933063745499 0.08594196289777756 0.08515245467424393 0.08437126129865646 0.08361689001321793 0.08288642019033432 0.08217857778072357 0.08148504793643951 0.08079665154218674 0.08010135591030121 0.07937346398830414 0.07857722043991089 0.07771875709295273 0.07704086601734161 0.07668814063072205
-9999 -9999 -9999 0.013492909260094166 0.05953769385814667 0.08608616888523102 0.0854424461722374 0.08470774441957474 0.08395688235759735 0.0832180380821228 0.08249447494745255 0.08178499341011047 0.08108150213956833 0.08037734031677246 0.07966581732034683 0.07893744856119156 0.0781899020075798 0.07747220993041992 0.0769096240401268 0.07660514861345291
