ncols         20
nrows         20
xllcorner     0
yllcorner     -3.5992928
cellsize      0.17996463
NODATA_value  -9999
-9999.0 -9999 -9999 -9999 -9999 -9999 -9999 -9999 -9999 -9999 -9999 -9999 -9999 -9999 -9999 -9999 -9999 -9999 -9999 -9999
-9999 -9999 -9999 -9999 -9999 -9999 -9999 -9999 -9999 -9999 -9999 2.7678964138031006 2.784137725830078 -9999 -9999 3.1617367267608643 3.1869096755981445 -9999 -9999 -9999
-9999 -9999 -9999 -9999 2.951476573944092 2.8684492111206055 2.7529635429382324 2.639983654022217 2.553121566772461 2.5073797702789307 2.514108657836914 2.598388671875 2.6481711864471436 2.686478614807129 2.796952486038208 2.972318649291992 3.0595555305480957 3.0760440826416016 -9999 -9999
-9999 -9999 -9999 2.923511028289795 2.858971357345581 2.7240326404571533 2.5695371627807617 2.436016082763672 2.339919090270996 2.2867000102996826 2.2791407108306885 2.3147523403167725 2.3683793544769287 2.44400691986084 2.56101393699646 2.7112836837768555 2.8477187156677246 2.9285037517547607 -9999 -9999
-9999 -9999 -9999 2.788347005844116 2.6541080474853516 2.444328784942627 2.2163796424865723 2.0530006885528564 1.9477888345718384 1.889315128326416 1.871501088142395 1.8894600868225098 1.9370278120040894 2.0174720287323 2.14170503616333 2.31632399559021 2.532611131668091 2.6703124046325684 -9999 -9999
-9999 -9999 2.6447975635528564 2.5743918418884277 2.352877378463745 2.041424512863159 1.6753466129302979 1.500496745109558 1.4075983762741089 1.3604483604431152 1.3445833921432495 1.3538717031478882 1.3870652914047241 1.449539303779602 1.5569759607315063 1.7467024326324463 2.1244399547576904 2.3300633430480957 2.3286476135253906 -9999
-9999 -9999 2.474047899246216 2.29508900642395 1.9743762016296387 1.5649447441101074 1.3118070363998413 1.169947862625122 1.0933197736740112 1.0552014112472534 1.0418567657470703 1.0479222536087036 1.0736041069030762 1.125005841255188 1.2185497283935547 1.3922836780548096 1.7389817237854004 1.9916324615478516 2.1058316230773926 -9999
-9999 -9999 2.241060256958008 1.9621617794036865 1.5378992557525635 1.2538092136383057 1.072052240371704 0.9645522236824036 0.9047658443450928 0.8746992349624634 0.8641119599342346 0.868792712688446 0.8891640901565552 0.9300976395606995 1.0026564598083496 1.1274720430374146 1.334804654121399 1.627269983291626 1.7925529479980469 -9999
-9999 2.2276456356048584 2.0475306510925293 1.5913035869598389 1.269934892654419 1.0553843975067139 0.918545126914978 0.8362377285957336 0.7893856763839722 0.7652831673622131 0.7566565275192261 0.7603774666786194 0.7766224145889282 0.8086361885070801 0.8631401062011719 0.9506447315216064 1.0833224058151245 1.2658344507217407 1.4753412008285522 -9999
-9999 2.136810302734375 1.89599609375 1.4081401824951172 1.1160144805908203 0.93472820520401 0.8237730860710144 0.7572405338287354 0.7187151908874512 0.6983468532562256 0.6907064318656921 0.6933553218841553 0.7062356472015381 0.7314628958702087 0.7733707427978516 0.8386269211769104 0.9358198642730713 1.0737340450286865 1.2412371635437012 -9999
-9999 2.019664764404297 1.7706891298294067 1.297462821006775 1.0246964693069458 0.8626171350479126 0.7663733959197998 0.7090058326721191 0.6754207611083984 0.6572494506835938 0.6499843597412109 0.6515182256698608 0.6616690158843994 0.681971549987793 0.7156950235366821 0.7685086131095886 0.8506028056144714 0.9836369752883911 1.085294485092163 -9999
-9999 1.893514633178711 1.6561975479125977 1.2178757190704346 0.9658227562904358 0.8182164430618286 0.7311550378799438 0.679276168346405 0.6487272381782532 0.6319019198417664 0.6247474551200867 0.6252570748329163 0.6331818699836731 0.649789035320282 0.6776754260063171 0.7214440107345581 0.7895510792732239 0.8973727226257324 0.972307562828064 -9999
-9999 1.76027512550354 1.5426464080810547 1.1512848138809204 0.922606348991394 0.7883726358413696 0.7084034085273743 0.6604725122451782 0.6320899724960327 0.6161471605300903 0.6091088652610779 0.6087381839752197 0.6149032115936279 0.6286224126815796 0.6519918441772461 0.6887990236282349 0.7453516721725464 0.8329967856407166 0.8965184092521667 -9999
-9999 1.620469093322754 1.4260787963867188 1.087952971458435 0.8860960006713867 0.7653432488441467 0.6922802925109863 0.6480112671852112 0.621609628200531 0.606127917766571 0.5986705422401428 0.597523033618927 0.6022676229476929 0.6135717630386353 0.6331063508987427 0.6642165184020996 0.7135219573974609 0.7886666655540466 0.8560458421707153 -9999
-9999 1.485142469406128 1.3124544620513916 1.0257316827774048 0.8516119718551636 0.7452055215835571 0.6796300411224365 0.6392512321472168 0.6140292882919312 0.5990235805511475 0.5913992524147034 0.5896222591400146 0.5931392908096313 0.6022318601608276 0.6180132627487183 0.6428480744361877 0.6811025142669678 0.7281488180160522 -9999 -9999
-9999 1.3723595142364502 1.2130157947540283 0.9695480465888977 0.8201349377632141 0.7274833917617798 0.6693962812423706 0.6320406794548035 0.6083090901374817 0.5938683748245239 0.5861819982528687 0.5838567018508911 0.5862302780151367 0.5932468175888062 0.6054099798202515 0.6240102052688599 0.6511590480804443 0.6781310439109802 -9999 -9999
-9999 1.2996952533721924 1.1282687187194824 0.9223109483718872 0.7933542728424072 0.7129290103912354 0.6605101227760315 0.626232385635376 0.6040295958518982 0.5902085900306702 0.5825676918029785 0.5797777771949768 0.5810947418212891 0.5862013697624207 0.5951169729232788 0.6082192063331604 0.6260473728179932 0.6431020498275757 0.6405661702156067 0.6402198076248169
-9999 -9999 1.0107147693634033 0.8781477212905884 0.7718244791030884 0.7010505199432373 0.6535434126853943 0.6218908429145813 0.6010238528251648 0.5877951979637146 0.5802217125892639 0.5770441889762878 0.5774676203727722 0.5810011029243469 0.5873000025749207 0.5961010456085205 0.6068227887153625 0.6174825429916382 0.6218236088752747 0.6231575608253479
-9999 -9999 0.9637283086776733 0.8680539131164551 0.7624337077140808 0.6939209699630737 0.6490415334701538 0.6191142797470093 0.5992047786712646 0.5864012837409973 0.5788599252700806 0.5753965973854065 0.575187087059021 0.5776209235191345 0.5821583867073059 0.5882766842842102 0.595206081867218 0.6015172004699707 0.6052119135856628 0.6067854762077332
-9999 -9999 -9999 0.8322293162345886 0.7530200481414795 0.6894578337669373 0.6466294527053833 0.6177234649658203 0.5983355045318604 0.5857558250427246 0.5782341957092285 0.5746119022369385 0.5740762948989868 0.5759568810462952 0.5796380043029785 0.5845065116882324 0.5898396968841553 0.5945465564727783 0.5976889133453369 0.5991912484169006
