ncols         20
nrows         20
xllcorner     0
yllcorner     -3.5992928
cellsize      0.17996463
NODATA_value  -9999
-9999.0 -9999 -9999 -9999 -9999 -9999 -9999 -9999 -9999 -9999 -9999 -9999 -9999 -9999 -9999 -9999 -9999 -9999 -9999 -9999
-9999 -9999 -9999 -9999 -9999 -9999 -9999 -9999 -9999 -9999 -9999 1.2617930173873901 1.2592792510986328 -9999 -9999 1.32639479637146 1.297116756439209 -9999 -9999 -9999
-9999 -9999 -9999 -9999 1.255008339881897 1.2736760377883911 1.3040701150894165 1.3120791912078857 1.3088325262069702 1.3137341737747192 1.2895463705062866 1.3040722608566284 1.3292454481124878 1.3498380184173584 1.3531713485717773 1.3467177152633667 1.3211511373519897 1.2961957454681396 -9999 -9999
-9999 -9999 -9999 1.2815845012664795 1.2984215021133423 1.3171124458312988 1.3368316888809204 1.340537667274475 1.3408194780349731 1.3408231735229492 1.349730134010315 1.3667365312576294 1.3904715776443481 1.4073880910873413 1.4290099143981934 1.4242533445358276 1.3923180103302002 1.3616639375686646 -9999 -9999
-9999 -9999 -9999 1.3161418437957764 1.3395192623138428 1.3801648616790771 1.3956384658813477 1.3902356624603271 1.361665964126587 1.3060102462768555 1.2450878620147705 1.221819519996643 1.2579212188720703 1.343724012374878 1.4354289770126343 1.4763449430465698 1.471867322921753 1.4807655811309814 -9999 -9999
-9999 -9999 1.3254245519638062 1.3592342138290405 1.4003400802612305 1.4320189952850342 1.421431541442871 1.3724894523620605 1.2536925077438354 1.0686397552490234 0.8814548254013062 0.794252336025238 0.8293439149856567 0.9977712035179138 1.2308452129364014 1.396231770515442 1.4809590578079224 1.5082893371582031 1.4771085977554321 -9999
-9999 -9999 1.3599083423614502 1.3993525505065918 1.4612820148468018 1.4743469953536987 1.4258774518966675 1.2866238355636597 1.0427387952804565 0.7498182058334351 0.5158403515815735 0.41033491492271423 0.429575651884079 0.5861607789993286 0 1.1543245315551758 1.3650907278060913 1.462927222251892 1.4825212955474854 -9999
-9999 -9999 1.437545657157898 1.4859378337860107 1.526512861251831 1.491650938987732 1.3489112854003906 1.086414098739624 0.7622548341751099 0.47068071365356445 0.28975364565849304 0.21031226217746735 0.213523268699646 0.3015838861465454 0.4994283616542816 0.7841721773147583 1.0653020143508911 1.2716515064239502 1.3560307025909424 -9999
-9999 1.473088026046753 1.5337048768997192 1.566489815711975 1.5449692010879517 1.396836519241333 1.1095802783966064 0.7560660243034363 0.45203351974487305 0.2533872723579407 0.15227308869361877 0.10993574559688568 0.10674666613340378 0.14644834399223328 0.2479819506406784 0 0.6860715746879578 0.9135827422142029 1.0353947877883911 -9999
-9999 1.5590192079544067 1.6016594171524048 1.5916156768798828 1.4460445642471313 1.128663420677185 0.7367865443229675 0.4043252766132355 0.20383676886558533 0.10797124356031418 0.06805974990129471 0.05158500000834465 0.05032918229699135 0.06441909074783325 0.10637321323156357 0 0.344927042722702 0.514434814453125 0.6161755323410034 -9999
-9999 1.6373798847198486 1.629521131515503 1.505932331085205 1.2174687385559082 0.8061081767082214 0.42006370425224304 0.17778117954730988 0.07392364740371704 0.03636941686272621 0.02303607203066349 0.018343394622206688 0.01805669255554676 0.022418206557631493 0.0353589691221714 0.06687336415052414 0.12616267800331116 0.21089938282966614 0.26564064621925354 -9999
-9999 1.6058158874511719 1.529615044593811 1.278080701828003 0.9029887318611145 0.5132343173027039 0.22023127973079681 0.07487519830465317 0.025615269318223 0.010749171487987041 0.00623050844296813 0.004689121153205633 0 0 0.007837874814867973 0 0.032061416655778885 0.05911748856306076 0.07761431485414505 -9999
-9999 1.3939259052276611 1.241024374961853 0.8966448903083801 0.5507848262786865 0.2740180790424347 0.10420076549053192 0.03070681355893612 0.008732899092137814 0.003188326256349683 0.001308891107328236 0.000829337805043906 0 0 0 0.0019481811905279756 0.0052826846949756145 0.011355002410709858 0.016470398753881454 -9999
-9999 1.015718698501587 0.8290572762489319 0.5000631213188171 0.25513288378715515 0.11138094216585159 0.03946302458643913 0.011178341694176197 0.002678588265553117 0.0009199357009492815 0.0004116675991099328 0.00024469190975651145 0 0 0 0.00026434322353452444 0.0005473901983350515 0.001443964778445661 0.002504318952560425 -9999
-9999 0.6663287878036499 0.5005000829696655 0.24520550668239594 0.09867502003908157 0.036881547421216965 0.012276808731257915 0.003244239604100585 0.0009924346813932061 0.0003926353238057345 0.0002025433350354433 0.00012449591304175556 8.907520532375202E-05 7.457620813511312E-05 0 0 0.0001015125380945392 0.0002140239957952872 -9999 -9999
-9999 0.46299490332603455 0.32168900966644287 0.13162760436534882 0.04280462861061096 0.012781403958797455 0.003623446449637413 0.0011456342181190848 0.00045651147956959903 0.00022339636052493006 0 0 0 9.914153633872047E-05 0 0 0.0001625851000426337 0 -9999 -9999
-9999 0.3429068624973297 0.21833442151546478 0.08332661539316177 0.02311275526881218 0.00488553149625659 0.0013922200305387378 0.0004920477513223886 0.000232058169785887 0 0 0 0 0.00016967547708190978 0.00021072383970022202 0.0002488293102942407 0.00028334755916148424 0.00032390881096944213 0 0
-9999 -9999 0.1328536570072174 0.056272391229867935 0.014464044943451881 0.002712415298447013 0.0006975826108828187 0.00025499777984805405 0 0 0 0 0 0 0 0 0 0 0 0
-9999 -9999 0.06851799041032791 0.03469666466116905 0.009359218180179596 0.0016437685117125511 0.0003950680256821215 0.00014262335025705397 0 0 0 0 0 0 0 0 0 0 0 0
-9999 -9999 -9999 0.02406628057360649 0.006729168817400932 0.0012860679998993874 0.0003022835880983621 0.00010966879926854745 0 0 0 0 0 0 0 0 0 0 0 0
