ncols         20
nrows         20
xllcorner     0
yllcorner     -3.5992928
cellsize      0.17996463
NODATA_value  -9999
-9999.0 -9999 -9999 -9999 -9999 -9999 -9999 -9999 -9999 -9999 -9999 -9999 -9999 -9999 -9999 -9999 -9999 -9999 -9999 -9999
-9999 -9999 -9999 -9999 -9999 -9999 -9999 -9999 -9999 -9999 -9999 0.018651597201824188 0.018651409074664116 -9999 -9999 0.018757522106170654 0.018764961510896683 -9999 -9999 -9999
-9999 -9999 -9999 -9999 0.018774915486574173 0.018733913078904152 0.018674248829483986 0.018603011965751648 0.018534181639552116 0.018482429906725883 0.018460284918546677 0.039167165756225586 0.03916739299893379 0.018462853506207466 0.018492860719561577 0.0393572561442852 0.03940654546022415 0.018594907596707344 -9999 -9999
-9999 -9999 -9999 0.018668105825781822 0.03950631618499756 0.08213715255260468 0.08184985816478729 0.08148515969514847 0.08112750947475433 0.08084583282470703 0.0806858241558075 0.09715399146080017 0.09714359790086746 0.08065075427293777 0.0807747095823288 0.09756495803594589 0.08119846880435944 0.018420729786157608 -9999 -9999
-9999 -9999 -9999 0.01852118968963623 0.08161421120166779 0.11783796548843384 0.11732328683137894 0.11668311059474945 0.11606843024492264 0.11558347940444946 0.11528913676738739 0.1152200847864151 0.11519626528024673 0.11520124971866608 0.11538941413164139 0.11569508910179138 0.08009432256221771 0.018128376454114914 -9999 -9999
-9999 -9999 0.018250614404678345 0.03869946673512459 0.09712222218513489 0.116371750831604 0.11566805839538574 0.11484930664300919 0.11410041153430939 0.1135338842868805 0.11317338794469833 0.11300818622112274 0.11297023296356201 0.11304166167974472 0.11324794590473175 0.11349684745073318 0.09445258229970932 0.03746044263243675 0.017582237720489502 -9999
-9999 -9999 0.018071381375193596 0.07956431806087494 0.11494328826665878 0.11435747146606445 0.11340107768774033 0.1123729795217514 0.11151621490716934 0.11088524013757706 0.11046762019395828 0.11024802923202515 0.1101762130856514 0.11023493111133575 0.11044634878635406 0.11073096841573715 0.11082902550697327 0.0764145776629448 0.017327550798654556 -9999
-9999 -9999 0.01780007965862751 0.07839923352003098 0.11292533576488495 0.11202237755060196 0.11083172261714935 0.10974437743425369 0.10884235054254532 0.1081596240401268 0.1076836884021759 0.10739581286907196 0.10726276785135269 0.10726914554834366 0.1074163019657135 0.10768384486436844 0.10799822956323624 0.07476140558719635 0.016962355002760887 -9999
-9999 0.017418090254068375 0.03693576157093048 0.09259944409132004 0.1106647178530693 0.10953860729932785 0.10825702548027039 0.10711929202079773 0.10617726296186447 0.10544759035110474 0.10491402447223663 0.1045636385679245 0.10437388718128204 0.10432787239551544 0.10441606491804123 0.10461677610874176 0.10487747937440872 0.07269271463155746 0.016512112691998482 -9999
-9999 0.01723683625459671 0.07574231922626495 0.10922254621982574 0.10837265849113464 0.1070297360420227 0.10570693016052246 0.10453999042510986 0.10356834530830383 0.10279621183872223 0.10220839828252792 0.1018008440732956 0.10155876725912094 0.10146605968475342 0.1015067845582962 0.10165674239397049 0.10186439752578735 0.07055360823869705 0.016029998660087585 -9999
-9999 0.016988130286335945 0.07459225505590439 0.10718820244073868 0.10604354739189148 0.10457054525613785 0.10321390628814697 0.10203137248754501 0.10103689134120941 0.10022757947444916 0.0995931401848793 0.09913644194602966 0.09884849935770035 0.0987142026424408 0.09871937334537506 0.09884484112262726 0.0990445464849472 0.06860124319791794 0.015573250129818916 -9999
-9999 0.016684357076883316 0.0731659010052681 0.10492835193872452 0.10362494736909866 0.10213973373174667 0.10078897327184677 0.0996067151427269 0.09859634935855865 0.09775687754154205 0.09708339720964432 0.0965842679142952 0.09625460207462311 0.09607983380556107 0.09605547785758972 0.09618479758501053 0.09644386172294617 0.06687901169061661 0.015183056704699993 -9999
-9999 0.016346972435712814 0.07159610092639923 0.10253182053565979 0.10116362571716309 0.0997605174779892 0.09845463186502457 0.097288578748703 0.09627179801464081 0.09541064500808716 0.0947023332118988 0.09416022896766663 0.09378033876419067 0.09355297684669495 0.09348797053098679 0.09362278878688812 0.09405938535928726 0.0654827281832695 0.014868204481899738 -9999
-9999 0.016000287607312202 0.06999767571687698 0.10013321787118912 0.09882592409849167 0.09750139713287354 0.09625062346458435 0.09511162340641022 0.09409964829683304 0.09322988241910934 0.09249688684940338 0.0919085144996643 0.09146314859390259 0.09115641564130783 0.09100165963172913 0.09103361517190933 0.07570798695087433 0.030591931194067 0.014634937047958374 -9999
-9999 0.015674740076065063 0.06850980967283249 0.09788469970226288 0.09665384143590927 0.09540488570928574 0.09421416372060776 0.09311449527740479 0.09212914854288101 0.09126365929841995 0.09051185846328735 0.08987625688314438 0.08935414999723434 0.08894505351781845 0.08865849673748016 0.08850674331188202 0.06112796813249588 0.01385511178523302 -9999 -9999
-9999 0.015405026264488697 0.0669315978884697 0.09593869745731354 0.09468252956867218 0.09350202977657318 0.09238183498382568 0.09134336560964584 0.09039771556854248 0.0895492285490036 0.08878841251134872 0.08811163157224655 0.08751383423805237 0.08699405193328857 0.08655915409326553 0.0862133577466011 0.05899055674672127 0.013348612003028393 -9999 -9999
-9999 0.015215408056974411 0.03168037161231041 0.07786057889461517 0.09284739196300507 0.09181373566389084 0.0907997414469719 0.08983604609966278 0.08894025534391403 0.0881168395280838 0.08735243231058121 0.08664274215698242 0.0859801322221756 0.08535963296890259 0.0847763791680336 0.08420716971158981 0.06916151195764542 0.02719271183013916 0.012533997185528278 0.012407807633280754
-9999 -9999 0.014593230560421944 0.06344792991876602 0.09134206920862198 0.09042103588581085 0.089518241584301 0.08863510936498642 0.0877922996878624 0.08699508756399155 0.08623287081718445 0.08550148457288742 0.0847921147942543 0.08409621566534042 0.08340004831552505 0.08265803009271622 0.08174701035022736 0.0669739842414856 0.05490618944168091 0.054565612226724625
-9999 -9999 0.014221791177988052 0.030179396271705627 0.07463924586772919 0.08934266865253448 0.08858667314052582 0.08778493851423264 0.08698926120996475 0.08621610701084137 0.08546019345521927 0.08471769094467163 0.08398045599460602 0.08324144035577774 0.08249141275882721 0.08170588314533234 0.08084836602210999 0.0799257829785347 0.0791967436671257 0.07881800085306168
-9999 -9999 -9999 0.013903237879276276 0.06136544048786163 0.08874087035655975 0.08808621764183044 0.0873374193906784 0.08657050132751465 0.08581149578094482 0.0850609689950943 0.084315225481987 0.08356600999832153 0.08280878514051437 0.08203967660665512 0.08125095814466476 0.08044104278087616 0.07966503500938416 0.07905799150466919 0.07873028516769409
