ncols         20
nrows         20
xllcorner     0
yllcorner     -3.5992928
cellsize      0.17996463
NODATA_value  -9999
-9999.0 -9999 -9999 -9999 -9999 -9999 -9999 -9999 -9999 -9999 -9999 -9999 -9999 -9999 -9999 -9999 -9999 -9999 -9999 -9999
-9999 -9999 -9999 -9999 -9999 -9999 -9999 -9999 -9999 -9999 -9999 3.0292441844940186 3.040703296661377 -9999 -9999 3.2599985599517822 3.267188549041748 -9999 -9999 -9999
-9999 -9999 -9999 -9999 3.2858893871307373 3.231034517288208 3.149094343185425 3.053351879119873 2.9653115272521973 2.904761552810669 2.883950710296631 2.926252603530884 2.964824676513672 3.006455183029175 3.0782742500305176 3.167806386947632 3.206482172012329 3.213144302368164 -9999 -9999
-9999 -9999 -9999 3.3272857666015625 3.2671310901641846 3.166863441467285 3.0459697246551514 2.9170703887939453 2.806110143661499 2.7314460277557373 2.7034456729888916 2.724848985671997 2.780113458633423 2.8587820529937744 2.952078104019165 3.041834831237793 3.1087872982025146 3.150420904159546 -9999 -9999
-9999 -9999 -9999 3.30655574798584 3.204533100128174 3.046311140060425 2.8545610904693604 2.6580822467803955 2.501077890396118 2.4010562896728516 2.3629355430603027 2.3877696990966797 2.468336582183838 2.5861315727233887 2.721003532409668 2.849151134490967 2.955061674118042 3.0243947505950928 -9999 -9999
-9999 -9999 3.37636661529541 3.2876570224761963 3.11668062210083 2.870515823364258 2.5669517517089844 2.2596685886383057 2.0437026023864746 1.921148657798767 1.8810546398162842 1.9234836101531982 2.046198606491089 2.2124271392822266 2.3963043689727783 2.571753978729248 2.7172250747680664 2.8081705570220947 2.787149429321289 -9999
-9999 -9999 3.3701062202453613 3.2416045665740967 2.9995176792144775 2.640995979309082 2.17976713180542 1.6854246854782104 1.4228395223617554 1.3066606521606445 1.2898356914520264 1.3731801509857178 1.581749439239502 1.8008134365081787 2.0214431285858154 2.23246693611145 2.412719249725342 2.543510913848877 2.602109909057617 -9999
-9999 -9999 3.375443696975708 3.1989359855651855 2.8735151290893555 2.3916327953338623 1.7375884056091309 0.8257566690444946 0.6153901815414429 0.5679457783699036 0.5927597284317017 0.7137894630432129 1.1496249437332153 1.4302489757537842 1.6637568473815918 1.8801488876342773 2.0732157230377197 2.22686767578125 2.3144049644470215 -9999
-9999 3.5211141109466553 3.391752243041992 3.1419613361358643 2.7439212799072266 2.189624309539795 1.4866846799850464 0.6260982155799866 0.40789973735809326 0.3609054684638977 0.39180776476860046 0.5187076926231384 0.8966853618621826 1.1589208841323853 1.3717169761657715 1.5638113021850586 1.7416656017303467 1.8925445079803467 1.9850419759750366 -9999
-9999 3.4652211666107178 3.317343235015869 3.0264108180999756 2.5871193408966064 2.0131611824035645 1.336510181427002 0.574867308139801 0.36342567205429077 0.3123799264431 0.33885622024536133 0.45242899656295776 0.7564378380775452 0.9770931601524353 1.1545261144638062 1.3135567903518677 1.4596301317214966 1.5890345573425293 1.6730133295059204 -9999
-9999 3.318052291870117 3.1514408588409424 2.8342700004577637 2.3857061862945557 1.839098572731018 1.2330368757247925 0.5775439739227295 0.3857671618461609 0.334485799074173 0.3531472384929657 0.44621098041534424 0.6872665882110596 0.8629635572433472 1.0027498006820679 1.1292505264282227 1.2462691068649292 1.3526302576065063 1.4243217706680298 -9999
-9999 3.0577287673950195 2.881732225418091 2.5607500076293945 2.1391849517822266 1.6623179912567139 1.163790225982666 0.6315954327583313 0.4668559432029724 0.4151660203933716 0.4223516881465912 0.48966607451438904 0.6703333258628845 0.799619197845459 0.9040820598602295 1.0010794401168823 1.094130039215088 1.1822335720062256 1.244325876235962 -9999
-9999 2.701774835586548 2.5285873413085938 2.2284367084503174 1.867504596710205 1.4912689924240112 1.1334445476531982 0.8285571932792664 0.6646480560302734 0.5916673541069031 0.5787271857261658 0.6144554615020752 0.6947066783905029 0.7728139162063599 0.8447006940841675 0.9165008664131165 0.9912156462669373 1.067082405090332 1.1256113052368164 -9999
-9999 2.3082687854766846 2.1501996517181396 1.8931142091751099 1.6118313074111938 1.3350095748901367 1.0837745666503906 0.8837714195251465 0.7576569318771362 0.6903524398803711 0.6677601933479309 0.6797749400138855 0.7169098258018494 0.762215793132782 0.8101792931556702 0.8630966544151306 0.9251374006271362 0.9939731359481812 1.0626029968261719 -9999
-9999 1.9578570127487183 1.8224108219146729 1.621186375617981 1.4097398519515991 1.2075201272964478 1.0284085273742676 0.8876712322235107 0.7933990955352783 0.7384403347969055 0.7144821882247925 0.7144818902015686 0.7315300703048706 0.7579367756843567 0.7900029420852661 0.8282198905944824 0.8761361241340637 0.9203284978866577 -9999 -9999
-9999 1.7061705589294434 1.5861448049545288 1.4232274293899536 1.2598851919174194 1.108952283859253 0.9774965643882751 0.8737260103225708 0.8026060461997986 0.759190022945404 0.7374204993247986 0.7324876189231873 0.739943265914917 0.7556964755058289 0.7773897051811218 0.8050161004066467 0.8411677479743958 0.8743098974227905 -9999 -9999
-9999 1.5679059028625488 1.425723671913147 1.2854905128479004 1.152571678161621 1.0350548028945923 0.934971809387207 0.8556866645812988 0.8010382056236267 0.7667229175567627 0.7480427622795105 0.7416006326675415 0.7444264888763428 0.7539799809455872 0.7686588168144226 0.7880812883377075 0.8132867813110352 0.8383428454399109 0.8412840366363525 0.8433209657669067
-9999 -9999 1.2707353830337524 1.1814013719558716 1.076446533203125 0.9818386435508728 0.9019662141799927 0.8394302129745483 0.7963329553604126 0.7686469554901123 0.7527651786804199 0.7461305260658264 0.7466391921043396 0.752534031867981 0.7624444365501404 0.7755400538444519 0.791178822517395 0.8073945045471191 0.8159933090209961 0.8191691637039185
-9999 -9999 1.197444200515747 1.118327260017395 1.0298340320587158 0.9474721550941467 0.8794643878936768 0.8276640176773071 0.7920835018157959 0.7687408924102783 0.7547745704650879 0.7482937574386597 0.7476679086685181 0.751470685005188 0.7584341168403625 0.7675626873970032 0.7778252959251404 0.7874317169189453 0.7936103940010071 0.7964083552360535
-9999 -9999 -9999 1.0664713382720947 1.0034669637680054 0.929768979549408 0.8679554462432861 0.8215261697769165 0.7896484732627869 0.7684199810028076 0.7554444670677185 0.749093234539032 0.7479995489120483 0.7508578300476074 0.7564525604248047 0.7637252807617188 0.7716702818870544 0.7787655591964722 0.7836970090866089 0.7861260771751404
