ncols         20
nrows         20
xllcorner     0
yllcorner     -3.5992928
cellsize      0.17996463
NODATA_value  -9999
-9999.0 -9999 -9999 -9999 -9999 -9999 -9999 -9999 -9999 -9999 -9999 -9999 -9999 -9999 -9999 -9999 -9999 -9999 -9999 -9999
-9999 -9999 -9999 -9999 -9999 -9999 -9999 -9999 -9999 -9999 -9999 0.018895138055086136 0.018895002081990242 -9999 -9999 0.01899823173880577 0.019005591049790382 -9999 -9999 -9999
-9999 -9999 -9999 -9999 0.019011588767170906 0.018971240147948265 0.01891259476542473 0.018842710182070732 0.01877538673579693 0.018725089728832245 0.018704138696193695 0.03968528285622597 0.03968578577041626 0.01870724931359291 0.0187364649027586 0.03987088426947594 0.039919495582580566 0.018836915493011475 -9999 -9999
-9999 -9999 -9999 0.018903901800513268 0.04000745713710785 0.08318646997213364 0.08290369808673859 0.08254554867744446 0.08219558745622635 0.08192182332277298 0.08176881819963455 0.09846341609954834 0.0984545648097992 0.08173827081918716 0.08185876160860062 0.09886526316404343 0.08227595686912537 0.018663926050066948 -9999 -9999
-9999 -9999 -9999 0.018756631761789322 0.08265817165374756 0.11935467272996902 0.11884740740060806 0.11821793019771576 0.11761612445116043 0.11714538931846619 0.11686497181653976 0.11680564284324646 0.11678493767976761 0.1167871505022049 0.11696889251470566 0.11726801842451096 0.081178218126297 0.018373282626271248 -9999 -9999
-9999 -9999 0.018484586849808693 0.039196670055389404 0.09837565571069717 0.11788425594568253 0.11718897521495819 0.11638268828392029 0.11564822494983673 0.11510086059570312 0.11476106196641922 0.11461301147937775 0.1145801916718483 0.1146460771560669 0.11484118551015854 0.11508117616176605 0.09576798975467682 0.03798438608646393 0.01782986894249916 -9999
-9999 -9999 0.018304936587810516 0.08059833198785782 0.116443932056427 0.11586368829011917 0.11491762101650238 0.11390308290719986 0.11305756866931915 0.11244647204875946 0.11205501109361649 0.11186745762825012 0.11180602014064789 0.11186105012893677 0.11205887794494629 0.11233146488666534 0.11242367327213287 0.07751534879207611 0.017576228827238083 -9999
-9999 -9999 0.018033120781183243 0.07943011820316315 0.11441975831985474 0.11352280527353287 0.11234278976917267 0.11126473546028137 0.11037621647119522 0.10971197485923767 0.10925790667533875 0.10899130254983902 0.1088704988360405 0.10888087749481201 0.10902777314186096 0.10929997265338898 0.10960721969604492 0.0758693665266037 0.017212536185979843 -9999
-9999 0.01765088550746441 0.037428900599479675 0.09383760392665863 0.11215489357709885 0.11103631556034088 0.10976244509220123 0.10863479971885681 0.1077055111527443 0.10699105262756348 0.10647450387477875 0.10614039748907089 0.10596321523189545 0.10592582076787949 0.1060204952955246 0.10622892528772354 0.1065005511045456 0.07380995899438858 0.016764359548687935 -9999
-9999 0.017470095306634903 0.0767725482583046 0.11071214079856873 0.10986495763063431 0.10853283852338791 0.10721410810947418 0.1060553565621376 0.10509336739778519 0.10433195531368256 0.1037563607096672 0.10336139053106308 0.10313113778829575 0.10304906964302063 0.103099524974823 0.10325904190540314 0.10347582399845123 0.07167521864175797 0.016284659504890442 -9999
-9999 0.017222441732883453 0.07562627643346786 0.10868401825428009 0.10754302889108658 0.1060757115483284 0.10472472757101059 0.103548064827919 0.10255914181470871 0.10175564885139465 0.10112892836332321 0.1006813496351242 0.10040358453989029 0.10027993470430374 0.10029584914445877 0.10043186694383621 0.10064102709293365 0.06971143931150436 0.015828844159841537 -9999
-9999 0.016919948160648346 0.07420670241117477 0.10643654316663742 0.10514029115438461 0.10365470498800278 0.1023053452372551 0.10112426429986954 0.10011432319879532 0.0992756336927414 0.09860534220933914 0.09811165928840637 0.09778964519500732 0.09762390702962875 0.09760954231023788 0.09774971008300781 0.0980195552110672 0.0679759681224823 0.015434037894010544 -9999
-9999 0.016583919525146484 0.0726458877325058 0.10405795276165009 0.10270089656114578 0.101287342607975 0.09997598081827164 0.0988050103187561 0.09778304398059845 0.09691745787858963 0.0962076485157013 0.09566666930913925 0.09529054164886475 0.09506882727146149 0.09501122683286667 0.09515579044818878 0.09560611844062805 0.06656437367200851 0.01511542871594429 -9999
-9999 0.01623888872563839 0.07105782628059387 0.10167945921421051 0.10036811232566833 0.09903423488140106 0.09777330607175827 0.09662380814552307 0.09560146927833557 0.09472237527370453 0.09398303925991058 0.09339074045419693 0.09294389188289642 0.0926375761628151 0.09248539805412292 0.0925227552652359 0.07695120573043823 0.03109753504395485 0.014878841117024422 -9999
-9999 0.015915095806121826 0.06958023458719254 0.09944988042116165 0.09820248931646347 0.09693925827741623 0.09573368728160858 0.09461896121501923 0.09361893683671951 0.09274014830589294 0.09197773784399033 0.09133310616016388 0.09080350399017334 0.09038852155208588 0.09009826183319092 0.08994533121585846 0.062122952193021774 0.014081168919801712 -9999 -9999
-9999 0.01564682088792324 0.06800029426813126 0.09749379754066467 0.09622670710086823 0.09503106772899628 0.09389343857765198 0.09283682703971863 0.09187372028827667 0.09100913256406784 0.09023420512676239 0.08954373002052307 0.08893274515867233 0.08840075135231018 0.0879555270075798 0.08760162442922592 0.05993906408548355 0.01356271468102932 -9999 -9999
-9999 0.015458237379789352 0.03219659626483917 0.07914197444915771 0.0943824052810669 0.09333314001560211 0.09230010956525803 0.0913166031241417 0.09040182083845139 0.08956032991409302 0.08877883106470108 0.08805159479379654 0.08737115561962128 0.08673320710659027 0.08613359928131104 0.08554895222187042 0.07025779783725739 0.027619460597634315 0.012727418914437294 0.012597890570759773
-9999 -9999 0.014834732748568058 0.06450366228818893 0.09286637604236603 0.09192905575037003 0.0910065695643425 0.09010285139083862 0.08924008160829544 0.08842328935861588 0.08764181286096573 0.08689010143280029 0.0861596092581749 0.0854424238204956 0.08472532033920288 0.08396200090646744 0.08302626013755798 0.06801070272922516 0.05574770271778107 0.05539827048778534
-9999 -9999 0.01445930264890194 0.030685540288686752 0.07589279115200043 0.09083966165781021 0.09006459265947342 0.08924206346273422 0.08842585980892181 0.08763221651315689 0.08685570955276489 0.08609126508235931 0.08533085882663727 0.0845680683851242 0.08379426598548889 0.08298467099666595 0.08210211992263794 0.08115462213754654 0.08040665835142136 0.08001847565174103
-9999 -9999 -9999 0.014137710444629192 0.06239979341626167 0.09023146331310272 0.08955863118171692 0.08878909796476364 0.08800144493579865 0.08722161501646042 0.08644979447126389 0.08568128198385239 0.08490777015686035 0.08412525057792664 0.08333035558462143 0.08251635730266571 0.08168302476406097 0.08088639378547668 0.08026400953531265 0.07992830127477646
