ncols         20
nrows         20
xllcorner     0
yllcorner     -3.5992928
cellsize      0.17996463
NODATA_value  -9999
-9999.0 -9999 -9999 -9999 -9999 -9999 -9999 -9999 -9999 -9999 -9999 -9999 -9999 -9999 -9999 -9999 -9999 -9999 -9999 -9999
-9999 -9999 -9999 -9999 -9999 -9999 -9999 -9999 -9999 -9999 -9999 0.9277424812316895 0.9088284373283386 -9999 -9999 0.8028461933135986 0.751490592956543 -9999 -9999 -9999
-9999 -9999 -9999 -9999 1.021620273590088 1.0861998796463013 1.1997319459915161 1.2822654247283936 1.3243296146392822 1.342000961303711 1.203391194343567 1.1067702770233154 1.096541404724121 1.0887480974197388 0.9848915338516235 0.8645119667053223 0.7791358232498169 0.7235714197158813 -9999 -9999
-9999 -9999 -9999 0.96176677942276 1.0359362363815308 1.1223640441894531 1.23952054977417 1.3446180820465088 1.4535185098648071 1.539867639541626 1.5900226831436157 1.5691545009613037 1.5353540182113647 1.4124336242675781 1.2385541200637817 1.042623519897461 0.8907724022865295 0.8089821934700012 -9999 -9999
-9999 -9999 -9999 0.9436264038085938 1.0227166414260864 1.1702107191085815 1.3331763744354248 1.506661057472229 1.7178221940994263 2.007009983062744 2.298809051513672 2.4486207962036133 2.3951895236968994 2.096134662628174 1.7436455488204956 1.3783563375473022 1.1128774881362915 1.0401570796966553 -9999 -9999
-9999 -9999 0.7571520805358887 0.8773195147514343 1.0104577541351318 1.1874107122421265 1.3727309703826904 1.5822945833206177 1.9170048236846924 2.378626823425293 2.916736602783203 3.251270055770874 3.310060739517212 2.9454846382141113 2.3739099502563477 1.8369255065917969 1.4436877965927124 1.2750048637390137 1.146104097366333 -9999
-9999 -9999 0.7348813414573669 0.8269248604774475 1.0025990009307861 1.2048622369766235 1.3756186962127686 1.5498831272125244 1.8582940101623535 2.315178632736206 2.8717446327209473 3.3654592037200928 3.706526756286621 3.560490369796753 3.053539514541626 2.4060189723968506 1.8936688899993896 1.5635168552398682 1.4220166206359863 -9999
-9999 -9999 0.7384099960327148 0.8541111946105957 1.0620602369308472 1.2613914012908936 1.381691575050354 1.3004714250564575 1.3919719457626343 1.6012910604476929 1.8777217864990234 2.305323362350464 3.3340494632720947 3.6467649936676025 3.435441255569458 2.9265546798706055 2.4109435081481934 2.0062849521636963 1.8351998329162598 -9999
-9999 0.6220413446426392 0.765152096748352 0.9463587999343872 1.2174040079116821 1.4536880254745483 1.5069444179534912 1.2537691593170166 1.2000993490219116 1.258938193321228 1.4139913320541382 1.7967619895935059 2.8870761394500732 3.4537553787231445 3.5717341899871826 3.3165388107299805 2.873623847961426 2.4794914722442627 2.2972517013549805 -9999
-9999 0.7035807371139526 0.8444911241531372 1.1313530206680298 1.4880658388137817 1.7564865350723267 1.7473071813583374 1.305648922920227 1.1320279836654663 1.0925917625427246 1.1740459203720093 1.5042470693588257 2.5100996494293213 3.16902494430542 3.4793899059295654 3.4751596450805664 3.2057907581329346 2.898857355117798 2.7494208812713623 -9999
-9999 0.8768774271011353 1.042963981628418 1.3915858268737793 1.7852553129196167 2.054001808166504 1.9869482517242432 1.3790746927261353 1.1231995820999146 1.0260781049728394 1.0654046535491943 1.3414924144744873 2.2628426551818848 2.8956429958343506 3.2792577743530273 3.4229559898376465 3.3622236251831055 3.184709072113037 3.0914740562438965 -9999
-9999 1.1721569299697876 1.3568370342254639 1.7527568340301514 2.1464834213256836 2.3649728298187256 2.2373807430267334 1.528437614440918 1.2362080812454224 1.1036063432693481 1.1015852689743042 1.3080108165740967 2.092283010482788 2.620060920715332 2.984989643096924 3.210517644882202 3.2887959480285645 3.2558743953704834 3.231046676635742 -9999
-9999 1.613555908203125 1.8340049982070923 2.265387773513794 2.588961362838745 2.714324474334717 2.5705173015594482 2.163438320159912 1.8130736351013184 1.5877223014831543 1.5251102447509766 1.6426132917404175 1.9634475708007812 2.269009590148926 2.543607473373413 2.7852110862731934 2.972538948059082 3.0756518840789795 3.111015796661377 -9999
-9999 2.146313428878784 2.377659559249878 2.7940406799316406 3.021409273147583 3.0022876262664795 2.7726004123687744 2.402435779571533 2.042001247406006 1.779329776763916 1.652249813079834 1.6494239568710327 1.7378674745559692 1.8540822267532349 1.9808114767074585 2.1554014682769775 2.389129638671875 2.671909809112549 2.834904909133911 -9999
-9999 2.5657927989959717 2.760094404220581 3.1075000762939453 3.2123184204101562 3.0527875423431396 2.744050979614258 2.3779051303863525 2.0324580669403076 1.7759275436401367 1.6228528022766113 1.5414258241653442 1.5077468156814575 1.4991902112960815 1.4996038675308228 1.5566177368164062 1.6822824478149414 1.9538205862045288 -9999 -9999
-9999 2.7347238063812256 2.869007110595703 3.114093065261841 3.099733352661133 2.862605094909668 2.53525447845459 2.187795639038086 1.897405982017517 1.6780908107757568 1.5300321578979492 1.4171075820922852 1.321387767791748 1.2342506647109985 1.1641911268234253 1.1187260150909424 1.1116365194320679 1.0155084133148193 -9999 -9999
-9999 2.824512004852295 2.826503038406372 2.946298122406006 2.861161708831787 2.588296890258789 2.2486910820007324 1.9339725971221924 1.6924737691879272 1.511409044265747 1.3790026903152466 1.2601604461669922 1.1439094543457031 1.0388824939727783 0.9398114085197449 0.8549183011054993 0.7878873348236084 0.7147341370582581 0.6566985845565796 0.5824100375175476
-9999 -9999 2.6647000312805176 2.7252509593963623 2.6139352321624756 2.3207015991210938 1.9757680892944336 1.684350609779358 1.4736452102661133 1.3225806951522827 1.2099425792694092 1.1029859781265259 0.9958508014678955 0.875686764717102 0.7749530076980591 0.6991984844207764 0.625591516494751 0.5717430710792542 0.5287398099899292 0.5503816604614258
-9999 -9999 2.647258996963501 2.564201593399048 2.4135560989379883 2.098029613494873 1.7449790239334106 1.4603215456008911 1.2638922929763794 1.1386345624923706 1.0621552467346191 0.9692094326019287 0.8664298057556152 0.7532690763473511 0.6681532859802246 0.606479287147522 0.5523394346237183 0.5192049145698547 0.5477872490882874 0.5639446973800659
-9999 -9999 -9999 2.412929058074951 2.3001294136047363 1.9871562719345093 1.6312068700790405 1.352584719657898 1.1691817045211792 1.061519980430603 0.989974319934845 0.9174461364746094 0.817385196685791 0.7077813148498535 0.618960440158844 0.5743463039398193 0.5153592824935913 0.534700870513916 0.5596663355827332 0.5735370516777039
