ncols         20
nrows         20
xllcorner     0
yllcorner     -3.5992928
cellsize      0.17996463
NODATA_value  -9999
-9999.0 -9999 -9999 -9999 -9999 -9999 -9999 -9999 -9999 -9999 -9999 -9999 -9999 -9999 -9999 -9999 -9999 -9999 -9999 -9999
-9999 -9999 -9999 -9999 -9999 -9999 -9999 -9999 -9999 -9999 -9999 1.7220613956451416 1.7206605672836304 -9999 -9999 1.7736756801605225 1.755024790763855 -9999 -9999 -9999
-9999 -9999 -9999 -9999 1.7228924036026 1.73341965675354 1.7507603168487549 1.7532511949539185 1.7494913339614868 1.751802921295166 1.7337095737457275 1.7444689273834229 1.7622002363204956 1.7763839960098267 1.781273365020752 1.7824169397354126 1.7683980464935303 1.7527096271514893 -9999 -9999
-9999 -9999 -9999 1.74213707447052 1.7514785528182983 1.7605711221694946 1.7698118686676025 1.7689546346664429 1.7686058282852173 1.7635622024536133 1.7642040252685547 1.7740458250045776 1.7918691635131836 1.8067436218261719 1.8222922086715698 1.8256523609161377 1.8097443580627441 1.7923270463943481 -9999 -9999
-9999 -9999 -9999 1.7642267942428589 1.7765130996704102 1.7982085943222046 1.8034230470657349 1.7946745157241821 1.7633589506149292 1.7115323543548584 1.6592869758605957 1.6393920183181763 1.6678223609924316 1.7356834411621094 1.8095083236694336 1.8487993478775024 1.8520549535751343 1.8615953922271729 -9999 -9999
-9999 -9999 1.7717772722244263 1.7912670373916626 1.8126862049102783 1.8262513875961304 1.812608242034912 1.762967586517334 1.660666584968567 1.509484052658081 1.3527612686157227 1.2765876054763794 1.3095223903656006 1.4540770053863525 1.6406853199005127 1.7737231254577637 1.846534252166748 1.870126485824585 1.8507499694824219 -9999
-9999 -9999 1.7923232316970825 1.8138052225112915 1.8459633588790894 1.846719741821289 1.796844482421875 1.6782257556915283 1.4793930053710938 1.2256048917770386 0.9954850673675537 0.8786057233810425 0.9032067060470581 1.0741608142852783 1.358763337135315 1.577063798904419 1.744642972946167 1.825821042060852 1.8475340604782104 -9999
-9999 -9999 1.8384109735488892 1.8627279996871948 1.8770527839660645 1.8410301208496094 1.721861481666565 1.5111026763916016 1.2319204807281494 0.9395069479942322 0.7174072265625 0.602255642414093 0.609633207321167 0.7403474450111389 0.980767011642456 1.2629880905151367 1.5052666664123535 1.6696102619171143 1.7371845245361328 -9999
-9999 1.8597395420074463 1.8933639526367188 1.9040277004241943 1.8785529136657715 1.7589468955993652 1.533449411392212 1.2313134670257568 0.9220497608184814 0.6672095656394958 0.5018650889396667 0.4193580150604248 0.4148486256599426 0.49690571427345276 0.6669803261756897 0.9258583188056946 1.172602653503418 1.3771357536315918 1.478832721710205 -9999
-9999 1.9073472023010254 1.9260298013687134 1.907730221748352 1.797469139099121 1.5553770065307617 1.223010540008545 0.8773624897003174 0.6013550162315369 0.4224216938018799 0.3255383372306824 0.2789144515991211 0.27650436758995056 0.31944739818573 0.42291808128356934 0.5960509181022644 0.8044567704200745 0.9999242424964905 1.1039843559265137 -9999
-9999 1.9439345598220825 1.930112600326538 1.841306209564209 1.6262017488479614 1.2900440692901611 0.9027159214019775 0.5670849084854126 0.3526247441768646 0.23892620205879211 0.1849823296070099 0.16283823549747467 0.1622314155101776 0.18419423699378967 0.23749731481075287 0.3353322744369507 0.4707340598106384 0.6180081963539124 0.6989501118659973 -9999
-9999 1.9115827083587646 1.8563451766967773 1.6738307476043701 1.376211404800415 1.0085585117340088 0.6393324732780457 0.35991033911705017 0.2032226175069809 0.1274120807647705 0.09457027167081833 0.08115202188491821 0.08029772341251373 0.08818458765745163 0.10966287553310394 0.15582944452762604 0.23054231703281403 0.316558301448822 0.36462724208831787 -9999
-9999 1.7593992948532104 1.6462894678115845 1.3758289813995361 1.0524084568023682 0.7210227251052856 0.4307151138782501 0.22622504830360413 0.11665324866771698 0.06835275888442993 0.042515769600868225 0.03355797007679939 0.030809205025434494 0.03205963969230652 0.038898445665836334 0.05451266095042229 0.09149105846881866 0.13503175973892212 0.16282936930656433 -9999
-9999 1.4718308448791504 1.3169984817504883 1.0038859844207764 0.6994102001190186 0.4494638442993164 0.25990647077560425 0.13414284586906433 0.06324315816164017 0.03613458201289177 0.023865999653935432 0.01848764531314373 0.016044462099671364 0.015485263429582119 0.016426067799329758 0.020300626754760742 0.029236599802970886 0.047203853726387024 0.061353638768196106 -9999
-9999 1.1643987894058228 0.9989743828773499 0.6860268115997314 0.42491328716278076 0.2532924711704254 0.14228972792625427 0.07075425237417221 0.03818108141422272 0.02380302920937538 0.017239389941096306 0.01382017508149147 0.012036971747875214 0.01132634375244379 0.010974270291626453 0.011673488654196262 0.013573121279478073 0.019526442512869835 -9999 -9999
-9999 0.950241208076477 0.783626914024353 0.4921834468841553 0.27464133501052856 0.14652509987354279 0.07576072216033936 0.041712675243616104 0.026153523474931717 0.018504487350583076 0.014774416573345661 0.012536405585706234 0.011689340695738792 0.013802622444927692 0.015719080343842506 0.017231831327080727 0.018262553960084915 0.019017046317458153 -9999 -9999
-9999 0.8065652251243591 0.6343358755111694 0.38542255759239197 0.1991570144891739 0.08909936994314194 0.04664180427789688 0.027563372626900673 0.019152972847223282 0.014982547610998154 0.012897506356239319 0.013536177575588226 0.0161144956946373 0.018703538924455643 0.021108707413077354 0.02318340167403221 0.02499125897884369 0.027060208842158318 0.031093191355466843 0.03269173204898834
-9999 -9999 0.4851212799549103 0.31261491775512695 0.15620677173137665 0.06611522287130356 0.033184751868247986 0.0202329084277153 0.014882801100611687 0.01257061306387186 0.014796680770814419 0.01735738292336464 0.020151088014245033 0.023016473278403282 0.02564668096601963 0.027860842645168304 0.02972596511244774 0.03134753555059433 0.03294093906879425 0.03354339301586151
-9999 -9999 0.3446962237358093 0.24316053092479706 0.1248244196176529 0.05145995318889618 0.02519778348505497 0.015447154641151428 0.013109197840094566 0.015321185812354088 0.017705725505948067 0.020368291065096855 0.023262444883584976 0.026205550879240036 0.02881801314651966 0.030897071585059166 0.032481491565704346 0.03349423408508301 0.033950746059417725 0.03408576548099518
-9999 -9999 -9999 0.2006857544183731 0.1048547625541687 0.0454576276242733 0.02217337302863598 0.013716034591197968 0.014519255608320236 0.016854234039783478 0.019307469949126244 0.021975276991724968 0.024883311241865158 0.02782338112592697 0.030396660789847374 0.032318126410245895 0.033717021346092224 0.034259915351867676 0.0343572236597538 0.03433103859424591
