ncols         20
nrows         20
xllcorner     0
yllcorner     -3.5992928
cellsize      0.17996463
NODATA_value  -9999
-9999.0 -9999 -9999 -9999 -9999 -9999 -9999 -9999 -9999 -9999 -9999 -9999 -9999 -9999 -9999 -9999 -9999 -9999 -9999 -9999
-9999 -9999 -9999 -9999 -9999 -9999 -9999 -9999 -9999 -9999 -9999 13.340492248535156 13.351625442504883 -9999 -9999 13.225778579711914 13.308381080627441 -9999 -9999 -9999
-9999 -9999 -9999 -9999 13.213982582092285 13.151419639587402 13.050634384155273 13.01795768737793 13.032280921936035 13.051084518432617 13.176177024841309 13.193981170654297 13.14724349975586 13.10334300994873 13.131043434143066 13.18012809753418 13.267732620239258 13.346311569213867 -9999 -9999
-9999 -9999 -9999 13.179466247558594 13.126233100891113 13.062088966369629 12.999094009399414 12.988394737243652 12.987180709838867 12.987833976745605 12.977279663085938 12.948783874511719 12.900554656982422 12.893303871154785 12.906733512878418 12.978463172912598 13.095046043395996 13.180235862731934 -9999 -9999
-9999 -9999 -9999 13.117609024047852 13.049880027770996 12.95022964477539 12.926870346069336 12.979682922363281 13.035605430603027 13.062458992004395 13.065014839172363 13.034950256347656 12.955611228942871 12.867270469665527 12.787131309509277 12.799260139465332 12.880146980285645 12.87553882598877 -9999 -9999
-9999 -9999 13.155767440795898 13.050508499145508 12.941201210021973 12.898027420043945 13.034890174865723 13.307754516601562 13.510563850402832 13.672944068908691 13.79905891418457 13.812431335449219 13.65130615234375 13.38014030456543 13.094510078430176 12.904378890991211 12.838162422180176 12.81712532043457 12.932255744934082 -9999
-9999 -9999 13.064302444458008 12.952291488647461 12.818286895751953 12.910850524902344 13.390432357788086 14.172748565673828 14.585891723632812 14.876679420471191 15.0872163772583 15.085511207580566 14.731127738952637 14.27623176574707 13.787897109985352 13.366844177246094 13.087858200073242 12.967113494873047 12.952555656433105 -9999
-9999 -9999 12.826348304748535 12.68713665008545 12.620664596557617 12.981045722961426 14.007723808288574 15.899872779846191 16.410499572753906 16.613269805908203 16.735698699951172 16.64169692993164 15.803694725036621 15.19908332824707 14.643333435058594 14.105992317199707 13.668204307556152 13.392404556274414 13.271157264709473 -9999
-9999 12.686067581176758 12.515466690063477 12.358457565307617 12.428683280944824 13.04920768737793 14.357873916625977 16.378280639648438 16.950931549072266 17.143095016479492 17.228351593017578 17.131324768066406 16.424114227294922 15.913163185119629 15.453025817871094 14.962592124938965 14.482295989990234 14.120370864868164 13.94316291809082 -9999
-9999 12.407877922058105 12.242706298828125 12.133952140808105 12.44112777709961 13.340429306030273 14.783230781555176 16.658878326416016 17.210023880004883 17.38092803955078 17.440874099731445 17.36504364013672 16.815834045410156 16.4374942779541 16.11085319519043 15.755309104919434 15.35977554321289 15.023298263549805 14.848445892333984 -9999
-9999 12.113543510437012 12.061205863952637 12.191058158874512 12.783267974853516 13.848320007324219 15.292736053466797 16.957746505737305 17.44015884399414 17.57839584350586 17.626211166381836 17.57038688659668 17.11067008972168 16.82189178466797 16.604949951171875 16.377689361572266 16.124462127685547 15.888651847839355 15.764219284057617 -9999
-9999 12.091263771057129 12.211771965026855 12.63207721710205 13.42567253112793 14.490943908691406 15.77175235748291 17.159029006958008 17.564136505126953 17.68346405029297 17.728086471557617 17.694154739379883 17.30027961730957 17.088903427124023 16.95311164855957 16.816171646118164 16.663406372070312 16.53190040588379 16.475059509277344 -9999
-9999 12.553187370300293 12.83456802368164 13.473943710327148 14.29797077178955 15.20341682434082 16.1144962310791 16.907093048095703 17.281513214111328 17.432430267333984 17.488662719726562 17.472137451171875 17.35135269165039 17.26712417602539 17.197904586791992 17.118785858154297 17.007997512817383 16.922151565551758 16.917510986328125 -9999
-9999 13.422372817993164 13.786294937133789 14.49962043762207 15.253314971923828 15.925414085388184 16.50008773803711 16.94841766357422 17.214879989624023 17.340253829956055 17.394344329833984 17.408288955688477 17.397842407226562 17.393409729003906 17.392026901245117 17.358943939208984 17.277742385864258 17.164695739746094 17.20334243774414 -9999
-9999 14.297904968261719 14.676850318908691 15.370372772216797 16.014013290405273 16.491790771484375 16.837886810302734 17.09037208557129 17.244165420532227 17.330717086791992 17.375591278076172 17.40804672241211 17.43836784362793 17.473529815673828 17.517139434814453 17.532182693481445 17.502267837524414 17.371204376220703 -9999 -9999
-9999 14.923480987548828 15.302988052368164 15.933279991149902 16.472946166992188 16.846784591674805 17.075637817382812 17.21803855895996 17.29767608642578 17.347549438476562 17.378084182739258 17.413368225097656 17.45794677734375 17.509376525878906 17.564565658569336 17.613311767578125 17.646499633789062 17.72092056274414 -9999 -9999
-9999 15.308656692504883 15.744255065917969 16.27420997619629 16.728984832763672 17.057344436645508 17.23183250427246 17.327194213867188 17.36990737915039 17.39515495300293 17.412961959838867 17.440614700317383 17.48049545288086 17.52608299255371 17.578285217285156 17.62883186340332 17.669328689575195 17.696191787719727 17.631528854370117 17.639202117919922
-9999 -9999 16.186302185058594 16.521190643310547 16.886606216430664 17.171918869018555 17.33624267578125 17.4185791015625 17.447582244873047 17.45754623413086 17.458837509155273 17.475135803222656 17.503583908081055 17.549331665039062 17.590078353881836 17.62166976928711 17.653888702392578 17.67015266418457 17.660058975219727 17.631080627441406
-9999 -9999 16.50115394592285 16.725257873535156 17.004539489746094 17.262632369995117 17.426847457885742 17.508426666259766 17.53244400024414 17.524511337280273 17.505002975463867 17.512449264526367 17.535781860351562 17.571897506713867 17.595783233642578 17.611671447753906 17.630855560302734 17.637531280517578 17.60851287841797 17.591203689575195
-9999 -9999 -9999 16.85478401184082 17.066852569580078 17.299419403076172 17.465478897094727 17.544878005981445 17.559255599975586 17.542985916137695 17.522476196289062 17.517038345336914 17.538047790527344 17.570568084716797 17.59449577331543 17.598657608032227 17.620159149169922 17.59998321533203 17.578968048095703 17.56875991821289
