ncols         20
nrows         20
xllcorner     0
yllcorner     -3.5992928
cellsize      0.17996463
NODATA_value  -9999
-9999.0 -9999 -9999 -9999 -9999 -9999 -9999 -9999 -9999 -9999 -9999 -9999 -9999 -9999 -9999 -9999 -9999 -9999 -9999 -9999
-9999 -9999 -9999 -9999 -9999 -9999 -9999 -9999 -9999 -9999 -9999 0.8120193481445312 0.7937148809432983 -9999 -9999 0.7042834162712097 0.660029947757721 -9999 -9999 -9999
-9999 -9999 -9999 -9999 0.9261960387229919 0.9839480519294739 1.084755778312683 1.155799388885498 1.1876778602600098 1.1948896646499634 1.062300682067871 0.9681174159049988 0.9518712162971497 0.9382740259170532 0.8482982516288757 0.7497404217720032 0.6777424812316895 0.6283445358276367 -9999 -9999
-9999 -9999 -9999 0.8762415647506714 0.9431447982788086 1.0224697589874268 1.129948377609253 1.2249104976654053 1.3183960914611816 1.3840597867965698 1.410385251045227 1.3714206218719482 1.3236712217330933 1.2056940793991089 1.0534907579421997 0.8888317942619324 0.7617913484573364 0.6925745606422424 -9999 -9999
-9999 -9999 -9999 0.8634867072105408 0.9385316371917725 1.0803910493850708 1.2411119937896729 1.4130620956420898 1.6110206842422485 1.8611434698104858 2.0855512619018555 2.1626648902893066 2.0613279342651367 1.7681643962860107 1.4553956985473633 1.1472156047821045 0.9272638559341431 0.8668307065963745 -9999 -9999
-9999 -9999 0.6959057450294495 0.8082305192947388 0.9395723342895508 1.1238218545913696 1.3337262868881226 1.5830795764923096 1.9447704553604126 2.3868348598480225 2.830291748046875 3.007406711578369 2.9054982662200928 2.4802117347717285 1.953468918800354 1.4904717206954956 1.1649415493011475 1.0241669416427612 0.9082781672477722 -9999
-9999 -9999 0.6758304834365845 0.7666848301887512 0.9491075873374939 1.1869196891784668 1.4472535848617554 1.7821195125579834 2.242452621459961 2.7920584678649902 3.3097381591796875 3.5614452362060547 3.4745779037475586 3.060776472091675 2.5236287117004395 1.9109344482421875 1.4791839122772217 1.2128140926361084 1.097132921218872 -9999
-9999 -9999 0.6758712530136108 0.793418824672699 1.0231167078018188 1.3071149587631226 1.6449998617172241 2.0449740886688232 2.500037908554077 2.9920339584350586 3.3729605674743652 3.582010269165039 3.536651372909546 3.248000383377075 2.800663709640503 2.2748875617980957 1.8209352493286133 1.4956071376800537 1.3608258962631226 -9999
-9999 0.5492063760757446 0.6872812509536743 0.8699501156806946 1.1774441003799438 1.554905652999878 1.952239751815796 2.378908634185791 2.7673656940460205 3.073626756668091 3.2509963512420654 3.334383964538574 3.320488214492798 3.1669960021972656 2.914464235305786 2.5800113677978516 2.1116998195648193 1.7765100002288818 1.6316297054290771 -9999
-9999 0.6067640781402588 0.736863374710083 1.0117648839950562 1.4074264764785767 1.8613637685775757 2.3081467151641846 2.7011749744415283 2.9594311714172363 3.0666091442108154 3.064221143722534 3.0466859340667725 3.0160839557647705 2.956505298614502 2.83715558052063 2.672536611557007 2.2948622703552246 2.004897117614746 1.877262830734253 -9999
-9999 0.7239859700202942 0.868654191493988 1.1853539943695068 1.6053833961486816 2.06770396232605 2.506164312362671 2.8275129795074463 2.944852828979492 2.9157724380493164 2.83781361579895 2.779919385910034 2.7591147422790527 2.729689121246338 2.6667799949645996 2.560864210128784 2.3539927005767822 2.1468281745910645 2.0512800216674805 -9999
-9999 0.9124160408973694 1.0625879764556885 1.3971655368804932 1.7929611206054688 2.1822292804718018 2.5230138301849365 2.7137298583984375 2.7101035118103027 2.61047625541687 2.513988971710205 2.4761393070220947 2.5346410274505615 2.532522678375244 2.4590110778808594 2.441432237625122 2.2923367023468018 2.170478582382202 2.1136276721954346 -9999
-9999 1.1767371892929077 1.34151029586792 1.6772491931915283 1.9874457120895386 2.2481284141540527 2.428858757019043 2.476419448852539 2.3791897296905518 2.2338321208953857 2.1262333393096924 2.0866243839263916 2.144490957260132 2.15256929397583 2.1368045806884766 2.087292194366455 2.066002607345581 2.0474419593811035 2.028522491455078 -9999
-9999 1.4755964279174805 1.6366294622421265 1.9387667179107666 2.155316114425659 2.2647340297698975 2.2804079055786133 2.199225425720215 2.0454187393188477 1.8811640739440918 1.7629554271697998 1.7016090154647827 1.7072464227676392 1.6842846870422363 1.6555293798446655 1.6246784925460815 1.677046537399292 1.796545386314392 1.8528852462768555 -9999
-9999 1.688860297203064 1.8184651136398315 2.0605039596557617 2.1780879497528076 2.1579980850219727 2.058227777481079 1.911409854888916 1.7422595024108887 1.597130298614502 1.4962605237960815 1.4130818843841553 1.3453149795532227 1.2811936140060425 1.2428700923919678 1.2162599563598633 1.2245014905929565 1.3735431432724 -9999 -9999
-9999 1.7519609928131104 1.839130163192749 2.0079503059387207 2.0366430282592773 1.941519856452942 1.794994592666626 1.632567286491394 1.4974464178085327 1.3996686935424805 1.3469229936599731 1.26304030418396 1.1594576835632324 1.0368510484695435 0.9663031101226807 0.8996763229370117 0.8568122386932373 0.7824854850769043 -9999 -9999
-9999 1.7842495441436768 1.7834593057632446 1.8691840171813965 1.843993902206421 1.7102810144424438 1.5411990880966187 1.3918445110321045 1.2962276935577393 1.2473753690719604 1.1917738914489746 1.1087863445281982 0.9998195171356201 0.8771024346351624 0.7819791436195374 0.7026911973953247 0.643420934677124 0.5956869721412659 0.583157479763031 0.5302056074142456
-9999 -9999 1.6661523580551147 1.7136437892913818 1.6660994291305542 1.5123138427734375 1.3337949514389038 1.1996729373931885 1.140148401260376 1.0907890796661377 1.0407912731170654 0.969470202922821 0.8790920972824097 0.7665553092956543 0.6742883920669556 0.6066685318946838 0.5446927547454834 0.5055484175682068 0.4799698293209076 0.5064695477485657
-9999 -9999 1.6491838693618774 1.6065373420715332 1.5299128293991089 1.358353614807129 1.171036958694458 1.0377737283706665 0.9809508919715881 0.9406201839447021 0.9143133163452148 0.8546553254127502 0.7724605202674866 0.6732591986656189 0.5976239442825317 0.543670654296875 0.4980841279029846 0.4734712839126587 0.5058724284172058 0.5246782898902893
-9999 -9999 -9999 1.512571930885315 1.4549990892410278 1.283573865890503 1.0928746461868286 0.9613956212997437 0.9089446663856506 0.8782602548599243 0.8535473942756653 0.8112626075744629 0.7328552007675171 0.6387972831726074 0.5608091950416565 0.5225681066513062 0.47200387716293335 0.4939461946487427 0.5213590264320374 0.5369713306427002
