ncols         20
nrows         20
xllcorner     0
yllcorner     -3.5992928
cellsize      0.17996463
NODATA_value  -9999
-9999.0 -9999 -9999 -9999 -9999 -9999 -9999 -9999 -9999 -9999 -9999 -9999 -9999 -9999 -9999 -9999 -9999 -9999 -9999 -9999
-9999 -9999 -9999 -9999 -9999 -9999 -9999 -9999 -9999 -9999 -9999 19.04271125793457 19.052963256835938 -9999 -9999 19.02183723449707 19.026084899902344 -9999 -9999 -9999
-9999 -9999 -9999 -9999 19.009897232055664 19.02017593383789 19.02227783203125 19.032976150512695 19.043519973754883 19.033653259277344 19.07265853881836 19.05891990661621 19.05684471130371 19.08851432800293 19.0989990234375 19.07135772705078 19.061809539794922 19.076915740966797 -9999 -9999
-9999 -9999 -9999 19.029237747192383 19.009872436523438 19.009340286254883 19.003690719604492 18.999364852905273 18.98143196105957 18.96323013305664 18.938669204711914 18.941770553588867 18.96011734008789 19.01250457763672 19.048789978027344 19.07816505432129 19.10737419128418 19.138498306274414 -9999 -9999
-9999 -9999 -9999 19.052114486694336 19.031888961791992 18.9836483001709 18.93490982055664 18.87649917602539 18.808887481689453 18.71942710876465 18.637149810791016 18.608646392822266 18.646114349365234 18.75516128540039 18.87497901916504 19.006818771362305 19.122310638427734 19.167001724243164 -9999 -9999
-9999 -9999 19.1414852142334 19.088109970092773 19.028615951538086 18.942062377929688 18.901588439941406 18.774126052856445 18.616273880004883 18.44586753845215 18.29188346862793 18.23031997680664 18.266822814941406 18.418102264404297 18.635889053344727 18.87247657775879 19.020395278930664 19.165157318115234 19.295835494995117 -9999
-9999 -9999 19.19240379333496 19.131101608276367 19.01587677001953 18.934823989868164 18.762943267822266 18.568017959594727 18.349445343017578 18.12868881225586 17.941307067871094 17.848814010620117 17.877601623535156 18.0289363861084 18.249271392822266 18.554100036621094 18.783178329467773 19.022205352783203 19.155590057373047 -9999
-9999 -9999 19.27645492553711 19.15540885925293 19.04242515563965 18.831571578979492 18.590452194213867 18.341672897338867 18.099515914916992 17.875885009765625 17.709270477294922 17.618501663208008 17.630491256713867 17.74736213684082 17.948917388916016 18.218944549560547 18.512001037597656 18.72243881225586 18.87656593322754 -9999
-9999 19.590805053710938 19.39244842529297 19.24500846862793 18.966331481933594 18.666507720947266 18.37136459350586 18.08928108215332 17.849342346191406 17.66360855102539 17.543153762817383 17.48078155517578 17.4796142578125 17.552207946777344 17.69182014465332 17.88482666015625 18.157760620117188 18.401962280273438 18.502988815307617 -9999
-9999 19.624126434326172 19.482282638549805 19.218128204345703 18.834184646606445 18.462297439575195 18.120176315307617 17.831592559814453 17.61844253540039 17.48181915283203 17.409099578857422 17.374561309814453 17.37360954284668 17.411603927612305 17.49764060974121 17.62167739868164 17.834768295288086 18.026525497436523 18.112775802612305 -9999
-9999 19.63494110107422 19.49185562133789 19.125896453857422 18.665122985839844 18.247329711914062 17.89086151123047 17.618812561035156 17.442964553833008 17.34700584411621 17.301177978515625 17.280445098876953 17.27458953857422 17.293991088867188 17.347396850585938 17.43531036376953 17.569250106811523 17.688156127929688 17.770008087158203 -9999
-9999 19.563194274902344 19.354280471801758 18.9168758392334 18.42964744567871 18.02206039428711 17.698986053466797 17.47020721435547 17.33772850036621 17.27476692199707 17.241994857788086 17.219484329223633 17.176368713378906 17.17987632751465 17.2324161529541 17.262693405151367 17.365854263305664 17.44904136657715 17.50908660888672 -9999
-9999 19.352296829223633 19.021852493286133 18.58502769470215 18.140296936035156 17.794219970703125 17.537498474121094 17.36941909790039 17.285045623779297 17.249759674072266 17.23285675048828 17.21486473083496 17.17240333557129 17.167177200317383 17.177080154418945 17.222230911254883 17.255050659179688 17.296443939208984 17.345746994018555 -9999
-9999 18.88746452331543 18.590028762817383 18.217958450317383 17.853321075439453 17.588163375854492 17.408458709716797 17.302871704101562 17.25896453857422 17.245630264282227 17.24120330810547 17.235570907592773 17.213878631591797 17.217588424682617 17.230485916137695 17.25543212890625 17.253150939941406 17.229398727416992 17.31019401550293 -9999
-9999 18.46247673034668 18.217525482177734 17.91992950439453 17.636493682861328 17.44424057006836 17.328977584838867 17.271255493164062 17.250736236572266 17.247528076171875 17.245243072509766 17.252761840820312 17.2648983001709 17.281461715698242 17.29228401184082 17.304012298583984 17.317975997924805 17.238248825073242 -9999 -9999
-9999 18.16693878173828 17.958406448364258 17.72353172302246 17.503772735595703 17.368488311767578 17.29473876953125 17.264385223388672 17.24968719482422 17.242103576660156 17.223642349243164 17.2359619140625 17.264055252075195 17.308116912841797 17.32757568359375 17.353723526000977 17.374744415283203 17.440187454223633 -9999 -9999
-9999 18.011165618896484 17.785797119140625 17.597637176513672 17.42876434326172 17.33841323852539 17.29045867919922 17.274045944213867 17.259326934814453 17.239206314086914 17.23805809020996 17.25505256652832 17.286184310913086 17.325571060180664 17.35593032836914 17.38419532775879 17.406869888305664 17.429798126220703 17.39885902404785 17.42616844177246
-9999 -9999 17.597963333129883 17.498796463012695 17.384777069091797 17.322246551513672 17.29857635498047 17.289066314697266 17.26686668395996 17.263347625732422 17.2662296295166 17.282276153564453 17.305160522460938 17.342552185058594 17.37161636352539 17.391281127929688 17.414588928222656 17.430545806884766 17.445104598999023 17.42426300048828
-9999 -9999 17.540660858154297 17.434974670410156 17.360002517700195 17.3258056640625 17.32001304626465 17.320533752441406 17.307626724243164 17.30486488342285 17.297922134399414 17.313154220581055 17.335725784301758 17.36752700805664 17.387052536010742 17.401227951049805 17.41680145263672 17.430585861206055 17.41191864013672 17.40587615966797
-9999 -9999 -9999 17.37451171875 17.34062957763672 17.321632385253906 17.327550888061523 17.332176208496094 17.319231033325195 17.314292907714844 17.311933517456055 17.316905975341797 17.340343475341797 17.37054443359375 17.3948974609375 17.39963150024414 17.42443084716797 17.410480499267578 17.402685165405273 17.39987564086914
