ncols         20
nrows         20
xllcorner     0
yllcorner     -3.5992928
cellsize      0.17996463
NODATA_value  -9999
-9999.0 -9999 -9999 -9999 -9999 -9999 -9999 -9999 -9999 -9999 -9999 -9999 -9999 -9999 -9999 -9999 -9999 -9999 -9999 -9999
-9999 -9999 -9999 -9999 -9999 -9999 -9999 -9999 -9999 -9999 -9999 0.1272682398557663 0.1252732276916504 -9999 -9999 0.11715289950370789 0.11002093553543091 -9999 -9999 -9999
-9999 -9999 -9999 -9999 0.12252508103847504 0.13208435475826263 0.1496254801750183 0.16509951651096344 0.17632104456424713 0.18409766256809235 0.16892936825752258 0.15693095326423645 0.1577531099319458 0.16091623902320862 0.147792249917984 0.1299772709608078 0.1181723102927208 0.11181428283452988 -9999 -9999
-9999 -9999 -9999 0.11949673295021057 0.12838521599769592 0.14156581461429596 0.1612657606601715 0.1817997395992279 0.20445016026496887 0.22416295111179352 0.23781049251556396 0.238741934299469 0.23653651773929596 0.22049759328365326 0.19573155045509338 0.16627009212970734 0.14348946511745453 0.1316084861755371 -9999 -9999
-9999 -9999 -9999 0.12329033017158508 0.13503402471542358 0.15925459563732147 0.18994776904582977 0.22673974931240082 0.2724303603172302 0.33141571283340454 0.38960781693458557 0.41977643966674805 0.41175755858421326 0.36152538657188416 0.3031805753707886 0.24151693284511566 0.1971585601568222 0.1863851100206375 -9999 -9999
-9999 -9999 0.11200833320617676 0.12604030966758728 0.14775748550891876 0.18220432102680206 0.22625049948692322 0.2838532626628876 0.3702651560306549 0.4827885031700134 0.6045271754264832 0.6703812479972839 0.6685866117477417 0.5855751633644104 0.4706057012081146 0.3641760051250458 0.28958696126937866 0.261434942483902 0.24746817350387573 -9999
-9999 -9999 0.11772467195987701 0.13323652744293213 0.16838258504867554 0.2190978229045868 0.2815277576446533 0.3683154284954071 0.495471328496933 0.658984899520874 0.8285801410675049 0.9353189468383789 0.9452866911888123 0.8569656610488892 0.7246505618095398 0.5551344156265259 0.4347078800201416 0.3616648316383362 0.33394336700439453 -9999
-9999 -9999 0.1354362517595291 0.1601192206144333 0.2125062495470047 0.2843382954597473 0.37880757451057434 0.5034703612327576 0.6600790619850159 0.8456768989562988 1.013417363166809 1.133926510810852 1.1652565002441406 1.103668212890625 0.9736299514770508 0.8036569952964783 0.6462283134460449 0.532550036907196 0.48720240592956543 -9999
-9999 0.14414472877979279 0.16748540103435516 0.21106308698654175 0.2942811846733093 0.40838783979415894 0.5463533401489258 0.7161202430725098 0.8974046111106873 1.0697517395019531 1.2064238786697388 1.3088380098342896 1.3639942407608032 1.345503807067871 1.2673052549362183 1.1411818265914917 0.9259287714958191 0.7726082801818848 0.7063724398612976 -9999
-9999 0.17913271486759186 0.21405288577079773 0.2963404357433319 0.4261789321899414 0.5946490168571472 0.7926544547080994 1.0066529512405396 1.1976622343063354 1.34070885181427 1.4367167949676514 1.5202109813690186 1.5835230350494385 1.607574462890625 1.5717271566390991 1.4948315620422363 1.263401746749878 1.0861345529556274 1.006361484527588 -9999
-9999 0.25184160470962524 0.3022746443748474 0.4171868860721588 0.584026038646698 0.7991563081741333 1.0519100427627563 1.3024147748947144 1.4872997999191284 1.6047801971435547 1.6895445585250854 1.7763423919677734 1.8710607290267944 1.9174840450286865 1.8942785263061523 1.814561367034912 1.6382911205291748 1.4616361856460571 1.3752087354660034 -9999
-9999 0.37524470686912537 0.4389965534210205 0.5850363969802856 0.7809692621231079 1.018337607383728 1.2889150381088257 1.5323907136917114 1.6879082918167114 1.7813984155654907 1.864607810974121 1.9837088584899902 2.1791183948516846 2.2567138671875 2.199599504470825 2.177699089050293 1.9921061992645264 1.8367104530334473 1.7520928382873535 -9999
-9999 0.5610712766647339 0.644791841506958 0.8264204859733582 1.033366322517395 1.264178991317749 1.502700686454773 1.6968315839767456 1.7981036901474 1.8492006063461304 1.9132485389709473 2.026730537414551 2.228915214538574 2.314409017562866 2.3126790523529053 2.2147138118743896 2.1499834060668945 2.075528621673584 1.9950354099273682 -9999
-9999 0.7927335500717163 0.8961470127105713 1.1127815246582031 1.3288021087646484 1.524215817451477 1.6921391487121582 1.8026859760284424 1.844956398010254 1.8664276599884033 1.903518557548523 1.9696987867355347 2.0915768146514893 2.1228692531585693 2.1032228469848633 2.0262656211853027 2.036693572998047 2.1002891063690186 2.0207743644714355 -9999
-9999 1.0049293041229248 1.1216859817504883 1.362446665763855 1.5709209442138672 1.7106680870056152 1.7985985279083252 1.8421646356582642 1.860589623451233 1.8801032304763794 1.9118759632110596 1.9141398668289185 1.8906362056732178 1.8346889019012451 1.8041274547576904 1.7520095109939575 1.718470811843872 1.8821423053741455 -9999 -9999
-9999 1.1435188055038452 1.2703303098678589 1.5129151344299316 1.6901936531066895 1.7754569053649902 1.8099950551986694 1.8289233446121216 1.8644388914108276 1.9201865196228027 2.0008797645568848 1.9679981470108032 1.8494267463684082 1.6587259769439697 1.556290864944458 1.4415225982666016 1.3520652055740356 1.2290825843811035 -9999 -9999
-9999 1.2466548681259155 1.3763726949691772 1.590713381767273 1.7335244417190552 1.7681916952133179 1.7668441534042358 1.777317762374878 1.8392740488052368 1.9423266649246216 1.9758214950561523 1.9063013792037964 1.7439688444137573 1.5226229429244995 1.3517544269561768 1.2073653936386108 1.0986318588256836 1.0209097862243652 1.0310978889465332 0.9445527195930481
-9999 -9999 1.4825838804244995 1.6395938396453857 1.745274543762207 1.738034963607788 1.6981741189956665 1.698959469795227 1.7915537357330322 1.851515293121338 1.858465552330017 1.7795820236206055 1.6281161308288574 1.413134217262268 1.2312686443328857 1.096118688583374 0.9748801589012146 0.9004698991775513 0.8575004935264587 0.9058120250701904
-9999 -9999 1.5965886116027832 1.683302640914917 1.73935866355896 1.6874808073043823 1.604994535446167 1.574642539024353 1.6402932405471802 1.6833416223526 1.70746648311615 1.6308557987213135 1.4806841611862183 1.2805805206298828 1.1213531494140625 1.0050938129425049 0.9081399440765381 0.8547123074531555 0.9087427854537964 0.9401874542236328
-9999 -9999 -9999 1.7065236568450928 1.7334067821502686 1.6618406772613525 1.555050015449524 1.5088894367218018 1.564768671989441 1.6104049682617188 1.6269042491912842 1.5752487182617188 1.4259450435638428 1.230726718902588 1.0631738901138306 0.9737807512283325 0.8649652004241943 0.8944380879402161 0.9370731115341187 0.9614530205726624
