ncols         20
nrows         20
xllcorner     0
yllcorner     -3.5992928
cellsize      0.17996463
NODATA_value  -9999
-9999.0 -9999 -9999 -9999 -9999 -9999 -9999 -9999 -9999 -9999 -9999 -9999 -9999 -9999 -9999 -9999 -9999 -9999 -9999 -9999
-9999 -9999 -9999 -9999 -9999 -9999 -9999 -9999 -9999 -9999 -9999 3.2530744075775146 3.2693750858306885 -9999 -9999 3.5554487705230713 3.5687360763549805 -9999 -9999 -9999
-9999 -9999 -9999 -9999 3.4057374000549316 3.345656394958496 3.2593822479248047 3.1663827896118164 3.0887012481689453 3.044647455215454 3.04667067527771 3.1192541122436523 3.172440767288208 3.2228808403015137 3.31610107421875 3.4384145736694336 3.496467113494873 3.5118372440338135 -9999 -9999
-9999 -9999 -9999 3.4039511680603027 3.3496880531311035 3.2448842525482178 3.1213467121124268 2.9989137649536133 2.9015791416168213 2.8446178436279297 2.836723804473877 2.8788952827453613 2.949660539627075 3.042858600616455 3.1581919193267822 3.278291702270508 3.373015880584717 3.43034029006958 -9999 -9999
-9999 -9999 -9999 3.325383424758911 3.2189693450927734 3.054124593734741 2.8655104637145996 2.685563564300537 2.549984931945801 2.4710681438446045 2.452024459838867 2.4932258129119873 2.5873003005981445 2.719116687774658 2.874628782272339 3.033932685852051 3.1751861572265625 3.2666754722595215 -9999 -9999
-9999 -9999 3.2723259925842285 3.205890655517578 3.031055212020874 2.7855443954467773 2.5022659301757812 2.230616569519043 2.0466184616088867 1.9484015703201294 1.9261209964752197 1.9818097352981567 2.11590838432312 2.2939648628234863 2.495537042617798 2.70084810256958 2.886573076248169 3.005706310272217 2.9865612983703613 -9999
-9999 -9999 3.179173231124878 3.0466983318328857 2.7993569374084473 2.4610602855682373 2.052175283432007 1.620802402496338 1.397611141204834 1.3049193620681763 1.301943063735962 1.3945573568344116 1.6139734983444214 1.8451004028320312 2.0824551582336426 2.3205392360687256 2.5387983322143555 2.70125675201416 2.7724905014038086 -9999
-9999 -9999 3.0548360347747803 2.8735857009887695 2.5585639476776123 2.129631757736206 1.5651171207427979 0.7584359645843506 0.5816130042076111 0.5491943359375 0.5809247493743896 0.7053048610687256 1.1541110277175903 1.4461225271224976 1.6953790187835693 1.9363137483596802 2.1620726585388184 2.3459670543670654 2.448319911956787 -9999
-9999 3.0227978229522705 2.939055919647217 2.7028250694274902 2.3405492305755615 1.8685486316680908 1.2812416553497314 0.5478533506393433 0.369180291891098 0.33834928274154663 0.37553438544273376 0.5036434531211853 0.8850634694099426 1.1553528308868408 1.3790465593338013 1.591198444366455 1.796575903892517 1.9742976427078247 2.0817136764526367 -9999
-9999 2.925814628601074 2.7968173027038574 2.530132293701172 2.145709276199341 1.6705312728881836 1.1193175315856934 0.4905667304992676 0.3219743072986603 0.28882744908332825 0.3220865726470947 0.43579763174057007 0.7368574738502502 0.9603366851806641 1.1424695253372192 1.3117235898971558 1.4778133630752563 1.6302299499511719 1.7279301881790161 -9999
-9999 2.7754249572753906 2.6292951107025146 2.349809408187866 1.9649715423583984 1.5156474113464355 1.0270732641220093 0.4937784671783447 0.3433842957019806 0.3103106617927551 0.3361906409263611 0.4290534555912018 0.6635432243347168 0.8373345136642456 0.976556122303009 1.1028268337249756 1.2265651226043701 1.3454818725585938 1.426951289176941 -9999
-9999 2.5886433124542236 2.4371144771575928 2.1556203365325928 1.7890732288360596 1.3888590335845947 0.9828322529792786 0.5495116710662842 0.4210052192211151 0.3870753347873688 0.4021878242492676 0.4699389636516571 0.6430363059043884 0.7678888440132141 0.8677955269813538 0.957930862903595 1.0467350482940674 1.1359317302703857 1.2016421556472778 -9999
-9999 2.3742973804473877 2.221736192703247 1.944650650024414 1.611377239227295 1.279105305671692 0.9792706966400146 0.7285186052322388 0.5997366905212402 0.5482063293457031 0.5462169051170349 0.5847340226173401 0.6621633768081665 0.7360648512840271 0.8022506237030029 0.8651990294456482 0.9296245574951172 0.9994072318077087 1.0571680068969727 -9999
-9999 2.1418094635009766 1.987194538116455 1.7236015796661377 1.4335349798202515 1.1707587242126465 0.9535861015319824 0.7883887887001038 0.6884582042694092 0.6393195986747742 0.627100944519043 0.6427299976348877 0.6787192821502686 0.7204078435897827 0.7630075216293335 0.8077211380004883 0.8592537045478821 0.9195005297660828 0.9844833612442017 -9999
-9999 1.9110467433929443 1.759032130241394 1.5171010494232178 1.2749252319335938 1.0723791122436523 0.9146736264228821 0.7995630502700806 0.7246661186218262 0.6833451390266418 0.6675915122032166 0.6707751750946045 0.6872091293334961 0.7106484174728394 0.7382077574729919 0.7701725363731384 0.8094125986099243 0.8462252020835876 -9999 -9999
-9999 1.7190653085708618 1.5656771659851074 1.349329948425293 1.1506680250167847 0.9936811327934265 0.876372218132019 0.7913395166397095 0.7345843315124512 0.7008666396141052 0.6849832534790039 0.6823919415473938 0.6893898844718933 0.7028342485427856 0.721044659614563 0.7440701723098755 0.7737926840782166 0.8006934523582458 -9999 -9999
-9999 1.5967490673065186 1.4112067222595215 1.2229504585266113 1.059220552444458 0.9352957606315613 0.8434614539146423 0.7777475118637085 0.7331857085227966 0.7053936123847961 0.690643310546875 0.6857315301895142 0.6881614923477173 0.6960155367851257 0.7081678509712219 0.7243234515190125 0.745037317276001 0.7647441029548645 0.7639980316162109 0.7644980549812317
-9999 -9999 1.2334051132202148 1.1171387434005737 0.9911484718322754 0.8921627402305603 0.8181231617927551 0.7649521231651306 0.728360652923584 0.7047684788703918 0.6913418173789978 0.6856165528297424 0.6857718229293823 0.6904365420341492 0.6986021399497986 0.7095619440078735 0.7225531339645386 0.7355766296386719 0.7416985034942627 0.743843674659729
-9999 -9999 1.1466035842895508 1.0494557619094849 0.9479624032974243 0.8638718724250793 0.8010709881782532 0.7556356191635132 0.7239698171615601 0.703081488609314 0.6906103491783142 0.6846292614936829 0.6836656928062439 0.6865534782409668 0.6923035979270935 0.7000439167022705 0.7087475657463074 0.7167552709579468 0.7217336893081665 0.7239669561386108
-9999 -9999 -9999 0.9907292127609253 0.922727644443512 0.8490527868270874 0.7923892736434937 0.7508143186569214 0.7215542793273926 0.7019674777984619 0.6899848580360413 0.6839299201965332 0.6824976801872253 0.684587299823761 0.6892165541648865 0.695457398891449 0.7023169994354248 0.7084398865699768 0.712650716304779 0.7147170305252075
