ncols         20
nrows         20
xllcorner     0
yllcorner     -3.5992928
cellsize      0.17996463
NODATA_value  -9999
-9999.0 -9999 -9999 -9999 -9999 -9999 -9999 -9999 -9999 -9999 -9999 -9999 -9999 -9999 -9999 -9999 -9999 -9999 -9999 -9999
-9999 -9999 -9999 -9999 -9999 -9999 -9999 -9999 -9999 -9999 -9999 0 0 -9999 -9999 0 0 -9999 -9999 -9999
-9999 -9999 -9999 -9999 0 0 0 0 0 0 0 0 0 0 0 0 0 0 -9999 -9999
-9999 -9999 -9999 0 0 0 0 0 0 0 0 0 0 0 0 0 0 0 -9999 -9999
-9999 -9999 -9999 0 0 0 0 0 0 0 0 0 0 0 0 0 0 0 -9999 -9999
-9999 -9999 0 0 0 0 8.589241027832031 7.668308734893799 6.9303998947143555 6.156306743621826 5.434423923492432 5.1295342445373535 5.360016822814941 6.208224296569824 7.481504440307617 9.08639907836914 0 0 0 -9999
-9999 -9999 0 0 0 8.62178897857666 7.19219970703125 6.087284564971924 5.006221771240234 3.916438341140747 3.042823314666748 2.6412513256073 2.7650930881500244 3.4794461727142334 4.783805847167969 6.723705291748047 0 0 0 -9999
-9999 -9999 0 0 9.303217887878418 7.618922233581543 6.164324760437012 4.793510437011719 3.5157687664031982 2.444607734680176 1.7520865201950073 1.4290003776550293 1.4674031734466553 1.8984978199005127 2.8259177207946777 4.361715793609619 6.5098772048950195 0 0 -9999
-9999 0 0 10.731898307800293 8.64519214630127 6.777289867401123 5.002293586730957 3.4229164123535156 2.214616060256958 1.426633358001709 1.0013290643692017 0.8127201199531555 0.8088429570198059 1.0240646600723267 1.5318516492843628 2.4911227226257324 3.982668161392212 5.821577548980713 0 -9999
-9999 0 0 10.6760892868042 7.997244358062744 5.59520149230957 3.5609052181243896 2.069871425628662 1.1800023317337036 0.7291263341903687 0.5277079939842224 0.44127193093299866 0.44019579887390137 0.5299451947212219 0.7727611064910889 1.2658787965774536 2.158698797225952 3.3583128452301025 0 -9999
-9999 0 0 10.303666114807129 6.956325531005859 4.274903774261475 2.297520875930786 1.106581211090088 0.5538402795791626 0.32734131813049316 0.23787765204906464 0.20519597828388214 0.20551177859306335 0.24201932549476624 0.340330570936203 0.5611850023269653 0.9837988018989563 0 0 -9999
-9999 0 0 9.078936576843262 5.504604339599609 3.0114715099334717 1.4046217203140259 0.583669900894165 0.2599462568759918 0.14072850346565247 0.09797394275665283 0.081810861825943 0.08080175518989563 0.09098493307828903 0.12137485295534134 0.19707220792770386 0.35981547832489014 0 0 -9999
-9999 0 0 6.824328899383545 3.7423315048217773 1.8619956970214844 0.8023616671562195 0.30795666575431824 0.12571528553962708 0.0645277202129364 0.038880642503499985 0.029824504628777504 0.026934906840324402 0.028380898758769035 0.03634556755423546 0.05598544329404831 0.10729547590017319 0 0 -9999
-9999 0 0 4.266989707946777 2.067403793334961 0.9473620653152466 0.39726564288139343 0.15541835129261017 0.06195346638560295 0.03130149468779564 0.018880151212215424 0.013483926653862 0.011016122996807098 0.010461660102009773 0.011575468815863132 0.0158692579716444 0.026866290718317032 0 0 -9999
-9999 0 0 2.4128096103668213 1.0075814723968506 0.42544496059417725 0.17906853556632996 0.07278808206319809 0.033376552164554596 0.017755363136529922 0.010957276448607445 0.007514321710914373 0.005749505944550037 0.004976983647793531 0.0047557055950164795 0.0054054176434874535 0.0072361924685537815 0 -9999 -9999
-9999 0 0 1.4570881128311157 0.5396386384963989 0.20470383763313293 0.0838422104716301 0.03783687204122543 0.019583160057663918 0.01124940998852253 0.00724431499838829 0.005009211599826813 0.004006755072623491 0.0044487239792943 0.005048349499702454 0.005771833937615156 0.006587604060769081 0.007313975598663092 -9999 -9999
-9999 0 0 0.9904663562774658 0.33888646960258484 0.1104477047920227 0.045548856258392334 0.021448349580168724 0.011765070259571075 0.0071640945971012115 0.004834447056055069 0.004251738544553518 0.004575200378894806 0.005090486258268356 0.005753276403993368 0.006532635074108839 0.007423384115099907 0.008422411978244781 0.009593075141310692 0.010152420960366726
-9999 -9999 0 0.7005593776702881 0.23535573482513428 0.07363457977771759 0.02852979302406311 0.013335207477211952 0.007407000288367271 0.004752061329782009 0.004616042133420706 0.004754675552248955 0.005129586439579725 0.005700456909835339 0.00640875706449151 0.007206069305539131 0.008060259744524956 0.008927689865231514 0.009692281484603882 0.010076568461954594
-9999 -9999 0 0 0.17193074524402618 0.05232412368059158 0.01935730315744877 0.008725469931960106 0.005480283405631781 0.005089162848889828 0.004993882030248642 0.005167787428945303 0.005580083467066288 0.006185334175825119 0.006913815625011921 0.0077013480477035046 0.00849155057221651 0.009198127314448357 0.009720388799905777 0.009990045800805092
-9999 -9999 -9999 0 0.13884468376636505 0.04428723081946373 0.016027037054300308 0.007088993210345507 0.005645507015287876 0.0052825030870735645 0.005207411479204893 0.0053968834690749645 0.0058272648602724075 0.006448876112699509 0.007186352275311947 0.007959979586303234 0.008710682392120361 0.009321846999228 0.009749765507876873 0.00996887031942606
