ncols         20
nrows         20
xllcorner     0
yllcorner     -3.5992928
cellsize      0.17996463
NODATA_value  -9999
-9999.0 -9999 -9999 -9999 -9999 -9999 -9999 -9999 -9999 -9999 -9999 -9999 -9999 -9999 -9999 -9999 -9999 -9999 -9999 -9999
-9999 -9999 -9999 -9999 -9999 -9999 -9999 -9999 -9999 -9999 -9999 0.16112829744815826 0.16134487092494965 -9999 -9999 0.17946776747703552 0.16984397172927856 -9999 -9999 -9999
-9999 -9999 -9999 -9999 0.1349484622478485 0.1439223438501358 0.16136224567890167 0.1778377890586853 0.19256247580051422 0.20727789402008057 0.19920292496681213 0.19642135500907898 0.2083299458026886 0.22638924419879913 0.21912774443626404 0.2003282755613327 0.18663862347602844 0.18040689826011658 -9999 -9999
-9999 -9999 -9999 0.1358800083398819 0.14303214848041534 0.15417423844337463 0.1720418930053711 0.19212988018989563 0.21830561757087708 0.24750211834907532 0.27710312604904175 0.29733893275260925 0.3159225881099701 0.31558892130851746 0.2973185181617737 0.2646857500076294 0.2359546571969986 0.22056375443935394 -9999 -9999
-9999 -9999 -9999 0.1434062272310257 0.1526443511247635 0.17280197143554688 0.19744428992271423 0.22827085852622986 0.2735914885997772 0.34502699971199036 0.43506675958633423 0.5127260684967041 0.5526341199874878 0.531090259552002 0.47958657145500183 0.40532785654067993 0.3450978100299835 0.3344191312789917 -9999 -9999
-9999 -9999 0.1444433629512787 0.15469369292259216 0.17169204354286194 0.19702404737472534 0.22430190443992615 0.25882604718208313 0.3260529339313507 0.43903177976608276 0.6034587025642395 0.7651428580284119 0.882969856262207 0.88001549243927 0.7787560820579529 0.6506285667419434 0.5454524159431458 0.5111039280891418 0.5025314092636108 -9999
-9999 -9999 0.16062399744987488 0.1743544191122055 0.20464712381362915 0.2377861738204956 0.25954005122184753 0.2772226333618164 0.33482253551483154 0.4529305398464203 0.6463603973388672 0.900991678237915 1.1871544122695923 1.3064236640930176 1.2397252321243286 1.0557851791381836 0.8818604946136475 0.7612279653549194 0.7175210118293762 -9999
-9999 -9999 0.20476512610912323 0.2310170829296112 0.2795765995979309 0.319392591714859 0.3243439495563507 0.2605990469455719 0.26330679655075073 0.32011252641677856 0.43763962388038635 0.6833081841468811 1.3566824197769165 1.7216414213180542 1.7854714393615723 1.628731608390808 1.4099375009536743 1.2136731147766113 1.1315133571624756 -9999
-9999 0.26643332839012146 0.29087987542152405 0.3457971513271332 0.43621617555618286 0.5065183043479919 0.48774611949920654 0.33651652932167053 0.2940714657306671 0.3208382725715637 0.4269007742404938 0.7144338488578796 1.5962886810302734 2.189133644104004 2.4546008110046387 2.399152994155884 2.1466622352600098 1.8900673389434814 1.769309401512146 -9999
-9999 0.35955512523651123 0.41941899061203003 0.5577664375305176 0.7343822717666626 0.8612659573554993 0.8191161751747131 0.5104598999023438 0.4137376844882965 0.4170364737510681 0.5192391872406006 0.8495557308197021 1.938050627708435 2.747286319732666 3.2080490589141846 3.3136637210845947 3.1057746410369873 2.826030731201172 2.6859099864959717 -9999
-9999 0.5677248239517212 0.6752879023551941 0.9111348986625671 1.1914196014404297 1.3974344730377197 1.3447787761688232 0.8017355799674988 0.6528835296630859 0.6361993551254272 0.7295956015586853 1.0866423845291138 2.4305903911590576 3.401784896850586 4.023691654205322 4.284833908081055 4.230232238769531 3.990107536315918 3.855135202407837 -9999
-9999 0.9569241404533386 1.120225191116333 1.4849520921707153 1.890183925628662 2.1859021186828613 2.1571171283721924 1.361751675605774 1.1867797374725342 1.1458590030670166 1.2051526308059692 1.5313562154769897 3.015305280685425 3.9956371784210205 4.6789374351501465 5.101344108581543 5.234326362609863 5.141293048858643 5.057983875274658 -9999
-9999 1.6086640357971191 1.8659409284591675 2.401761054992676 2.9114954471588135 3.299570083618164 3.42360520362854 3.1699233055114746 2.905717134475708 2.7147326469421387 2.708557367324829 2.9768388271331787 3.6325600147247314 4.251202583312988 4.802968502044678 5.281678676605225 5.654456615447998 5.811281204223633 5.803323268890381 -9999
-9999 2.51462459564209 2.868894577026367 3.5752618312835693 4.19046688079834 4.575891494750977 4.6693525314331055 4.447675704956055 4.083877086639404 3.773993968963623 3.619743585586548 3.647254705429077 3.8308727741241455 4.062602519989014 4.31657600402832 4.675010681152344 5.147546768188477 5.670670509338379 5.8213090896606445 -9999
-9999 3.4370055198669434 3.860076427459717 4.695774555206299 5.33231782913208 5.5902323722839355 5.507833480834961 5.166875839233398 4.728082180023193 4.332427501678467 4.052679538726807 3.8578295707702637 3.7311336994171143 3.6507010459899902 3.594940662384033 3.68217134475708 3.9305174350738525 4.516776084899902 -9999 -9999
-9999 4.110407829284668 4.592772960662842 5.466114521026611 6.004696369171143 6.07493257522583 5.8193440437316895 5.38518762588501 4.93009090423584 4.510129451751709 4.164231777191162 3.8342525959014893 3.509153127670288 3.1976237297058105 2.9401137828826904 2.759044885635376 2.68261981010437 2.4052131175994873 -9999 -9999
-9999 4.60693883895874 5.14973258972168 5.931401252746582 6.329498767852783 6.185598850250244 5.759300231933594 5.236283779144287 4.762528896331787 4.338068962097168 3.9636430740356445 3.569018602371216 3.154512882232666 2.771022081375122 2.4195520877838135 2.124943971633911 1.8900595903396606 1.6493216753005981 1.4467555284500122 1.252264380455017
-9999 -9999 5.704858779907227 6.246753692626953 6.474411964416504 6.1274919509887695 5.5078840255737305 4.8865485191345215 4.377786159515381 3.9569201469421387 3.588189125061035 3.1966967582702637 2.7899317741394043 2.353682518005371 1.9924657344818115 1.7198821306228638 1.4724631309509277 1.2900404930114746 1.1493732929229736 1.1738513708114624
-9999 -9999 6.2307233810424805 6.489108562469482 6.505549907684326 5.956066608428955 5.158929824829102 4.432732582092285 3.881442070007324 3.4861183166503906 3.1987531185150146 2.8349640369415283 2.435692548751831 2.0188181400299072 1.701775312423706 1.4691369533538818 1.2753372192382812 1.1490644216537476 1.1756434440612793 1.191135048866272
-9999 -9999 -9999 6.588622570037842 6.502171993255615 5.863323211669922 4.970426559448242 4.198551654815674 3.646953582763672 3.2832303047180176 2.9990391731262207 2.6912195682525635 2.2973341941833496 1.8903666734695435 1.5652278661727905 1.378249168395996 1.1756781339645386 1.1712028980255127 1.1914397478103638 1.2031104564666748
