ncols         20
nrows         20
xllcorner     0
yllcorner     -3.5992928
cellsize      0.17996463
NODATA_value  -9999
-9999.0 -9999 -9999 -9999 -9999 -9999 -9999 -9999 -9999 -9999 -9999 -9999 -9999 -9999 -9999 -9999 -9999 -9999 -9999 -9999
-9999 -9999 -9999 -9999 -9999 -9999 -9999 -9999 -9999 -9999 -9999 0 0 -9999 -9999 0 0 -9999 -9999 -9999
-9999 -9999 -9999 -9999 0 0 0 0 0 0 0 0 0 0 0 0 0 0 -9999 -9999
-9999 -9999 -9999 0 0 0 0 0 0 0 0 0 0 0 0 0 0 0 -9999 -9999
-9999 -9999 -9999 0 0 0 0 0 0 0 0 0 0 0 0 0 0 0 -9999 -9999
-9999 -9999 0 0 0 0 3.3701257705688477 3.2504680156707764 3.127915859222412 2.958017587661743 2.766563653945923 2.670421838760376 2.7174198627471924 2.9186482429504395 3.1867337226867676 3.4665846824645996 0 0 0 -9999
-9999 -9999 0 0 0 3.4134409427642822 3.2049412727355957 3.0015571117401123 2.742136240005493 2.4156460762023926 2.1000118255615234 1.9291696548461914 1.9638758897781372 2.211789846420288 0.2889706790447235 3.066620349884033 0 0 0 -9999
-9999 -9999 0 0 3.56347918510437 3.3235251903533936 3.0549476146698 2.7249488830566406 2.3341236114501953 1.9220571517944336 1.5923105478286743 1.4069836139678955 1.4150800704956055 1.6225911378860474 2.003143787384033 2.501469612121582 3.0389034748077393 0 0 -9999
-9999 0 0 3.8270208835601807 3.542543888092041 3.2091047763824463 2.7933285236358643 2.3143222332000732 1.8417125940322876 1.4450385570526123 1.1767956018447876 1.0332207679748535 1.0188376903533936 1.157649278640747 1.4433554410934448 0.4163687527179718 2.39025616645813 2.885960578918457 0 -9999
-9999 0 0 3.903944730758667 3.465639591217041 2.9396162033081055 2.3478293418884277 1.7646976709365845 1.2936867475509644 0.9791316390037537 0.8051260709762573 0.7164310216903687 0.7075488567352295 0.783241331577301 0.9723449945449829 0.285491406917572 1.7224526405334473 2.171147108078003 0 -9999
-9999 0 0 3.881225824356079 3.247422218322754 2.556058883666992 1.845420479774475 1.22878897190094 0.8165835738182068 0.5882452726364136 0.4774320721626282 0.4303666353225708 0.4262223243713379 0.468938410282135 0.578189492225647 0.7837685346603394 1.0879861116409302 0 0 -9999
-9999 0 0 3.651022434234619 2.869518280029297 2.106085777282715 1.3875219821929932 0.8277546167373657 0.4945301115512848 0.32451602816581726 0.2495303452014923 0.2169155478477478 0.09443197399377823 0.1268850862979889 0.27736037969589233 0.08559705317020416 0.5692819356918335 0 0 -9999
-9999 0 0 3.1306493282318115 2.3138749599456787 1.5946303606033325 0.985303521156311 0.5416361689567566 0.2917565703392029 0.17661206424236298 0.11719458550214767 0.09328780323266983 0.056210555136203766 0.07676036655902863 0.06930433958768845 0.144581601023674 0.2348508983850479 0 0 -9999
-9999 0 0 2.404677629470825 1.6376161575317383 1.0563991069793701 0.6228767037391663 0.3315417468547821 0.16632622480392456 0.09532838314771652 0.06151319667696953 0.04525067284703255 0.01649332605302334 0.026943957433104515 0.024649780243635178 0.047669459134340286 0.0730302631855011 0 0 -9999
-9999 0 0 1.7260736227035522 1.0538016557693481 0.626114547252655 0.3539152145385742 0.18291418254375458 0.09779007732868195 0.056881047785282135 0.036821577697992325 0.025821784511208534 0.019838662818074226 0.01697995513677597 0.01055965293198824 0.009612798690795898 0.021796174347400665 0 -9999 -9999
-9999 0 0 1.275507926940918 0.702907383441925 0.3728462755680084 0.19609391689300537 0.10484876483678818 0.0602395236492157 0.03687040135264397 0.016390517354011536 0.013458209112286568 0.0015434945235028863 0.015253279358148575 0.00753972539678216 0.008365761488676071 0.020598679780960083 0.0031374162063002586 -9999 -9999
-9999 0 0 1.0066124200820923 0.512443482875824 0.23253662884235382 0.11743313074111938 0.06284216791391373 0.03722634166479111 0.015834303572773933 0.014641471207141876 0.01465586107224226 0.012276802211999893 0.01745535619556904 0.019459709525108337 0.02162839286029339 0.023864571005105972 0.026294078677892685 0.021315187215805054 0.0314919576048851
-9999 -9999 0 0.8109639883041382 0.39623239636421204 0.16767558455467224 0.07763499766588211 0.04026079550385475 0.013206618838012218 0.014080315828323364 0.015655914321541786 0.016290228813886642 0.01567828468978405 0.015202580951154232 0.01451836246997118 0.016089145094156265 0.01766297221183777 0.022384164854884148 0.027485685423016548 0.03201261907815933
-9999 -9999 0 0 0.3132669925689697 0.12570612132549286 0.05442826449871063 0.026805728673934937 0.011790118180215359 0.016864677891135216 0.01685209386050701 0.017638158053159714 0.01914282515645027 0.02120295539498329 0.023557787761092186 0.02597598172724247 0.02828371338546276 0.030267030000686646 0.03173048421740532 0.03248574584722519
-9999 -9999 -9999 0 0.2662167251110077 0.10891033709049225 0.04564321041107178 0.021914297714829445 0.012109940871596336 0.017452919855713844 0.017526526004076004 0.018381545320153236 0.019963210448622704 0.022097697481513023 0.02451222948729992 0.026932649314403534 0.02918349578976631 0.030944185331463814 0.0321524478495121 0.032764799892902374
