ncols         20
nrows         20
xllcorner     0
yllcorner     -3.5992928
cellsize      0.17996463
NODATA_value  -9999
-9999.0 -9999 -9999 -9999 -9999 -9999 -9999 -9999 -9999 -9999 -9999 -9999 -9999 -9999 -9999 -9999 -9999 -9999 -9999 -9999
-9999 -9999 -9999 -9999 -9999 -9999 -9999 -9999 -9999 -9999 -9999 0.017818503081798553 0.017815640196204185 -9999 -9999 0.01786915957927704 0.017875051125884056 -9999 -9999 -9999
-9999 -9999 -9999 -9999 0.017991069704294205 0.017953697592020035 0.017897602170705795 0.017827779054641724 0.017755916342139244 0.0176955945789814 0.017660103738307953 0.03743181750178337 0.03741402179002762 0.01762215979397297 0.017637548968195915 0.03750937432050705 0.03754768520593643 0.01771477609872818 -9999 -9999
-9999 -9999 -9999 0.0178888738155365 0.03786633908748627 0.07874783873558044 0.07848245650529861 0.07812878489494324 0.07775745540857315 0.07743427902460098 0.07721292972564697 0.09288207441568375 0.09280407428741455 0.07699047774076462 0.07705758512020111 0.09302189201116562 0.07739054411649704 0.017550913617014885 -9999 -9999
-9999 -9999 -9999 0.017750142142176628 0.07825209200382233 0.11302150785923004 0.11255832016468048 0.11194425076246262 0.11130521446466446 0.11074616014957428 0.11034725606441498 0.11016570776700974 0.11005044728517532 0.10998119413852692 0.11009595543146133 0.11033191531896591 0.07634785771369934 0.01727301999926567 -9999 -9999
-9999 -9999 0.017480414360761642 0.03708890825510025 0.0931432694196701 0.1116686686873436 0.11105189472436905 0.11027117073535919 0.10947880893945694 0.10879474878311157 0.10829152911901474 0.10799854248762131 0.10787265002727509 0.10789185762405396 0.10805030912160873 0.10824026167392731 0.09002838283777237 0.03568626940250397 0.01674341782927513 -9999
-9999 -9999 0.01730382815003395 0.07624781876802444 0.11024554073810577 0.10978176444768906 0.10893842577934265 0.1079258993268013 0.10693580657243729 0.10610094666481018 0.10549565404653549 0.10513586550951004 0.10499215126037598 0.10504601150751114 0.10526999831199646 0.10554023832082748 0.10558667033910751 0.07276511937379837 0.016495103016495705 -9999
-9999 -9999 0.017029939219355583 0.0750947818160057 0.10828365385532379 0.10752368718385696 0.10641153156757355 0.10516495257616043 0.10401975363492966 0.10311242938041687 0.10245125740766525 0.10203325748443604 0.10183817148208618 0.10185152292251587 0.10206519067287445 0.10244631767272949 0.10277293622493744 0.07112932205200195 0.01613440550863743 -9999
-9999 0.016610100865364075 0.03527472913265228 0.08858365565538406 0.10599968582391739 0.10499835759401321 0.10364588350057602 0.10225928574800491 0.10107037425041199 0.10012099891901016 0.09941549599170685 0.09894770383834839 0.09870180487632751 0.0986626148223877 0.0988159328699112 0.09913115203380585 0.09954097121953964 0.06903097778558731 0.01568101905286312 -9999
-9999 0.0164194256067276 0.0722198560833931 0.10428553074598312 0.10359033197164536 0.10232435911893845 0.10078556835651398 0.0993724837899208 0.09816669672727585 0.09719479829072952 0.09645542502403259 0.09594471752643585 0.09565073251724243 0.09555844962596893 0.09564943611621857 0.09589146077632904 0.09621650725603104 0.06675434112548828 0.015178474597632885 -9999
-9999 0.016156667843461037 0.0710008293390274 0.10211802273988724 0.10108394175767899 0.0995774045586586 0.0979841947555542 0.0965653657913208 0.09535963833332062 0.09437616914510727 0.09361150115728378 0.09306515008211136 0.09272868186235428 0.09258782863616943 0.09262648224830627 0.0928182303905487 0.09310195595026016 0.06456492841243744 0.014679274521768093 -9999
-9999 0.015835566446185112 0.06948425620794296 0.0996982678771019 0.09845580905675888 0.09682287275791168 0.0952620729804039 0.09387103468179703 0.09267906844615936 0.09169229865074158 0.0909089744091034 0.09033291786909103 0.08995871245861053 0.08977312594652176 0.08976993709802628 0.08994530141353607 0.09026449173688889 0.06265877187252045 0.014240163378417492 -9999
-9999 0.015480391681194305 0.06781651824712753 0.09712662547826767 0.09576282650232315 0.09416576474905014 0.09266598522663116 0.09132172167301178 0.09015404433012009 0.08917184919118881 0.0883733406662941 0.0877683162689209 0.08735141903162003 0.0871143788099289 0.08706490695476532 0.08723505586385727 0.08772105723619461 0.061146847903728485 0.013893568888306618 -9999
-9999 0.015117587521672249 0.06611968576908112 0.09453093260526657 0.09312506020069122 0.09164545685052872 0.09023535996675491 0.08895207941532135 0.0878184586763382 0.08685234934091568 0.08604950457811356 0.08541423082351685 0.0849442258477211 0.0846354067325592 0.08449739962816238 0.08455786108970642 0.07037272304296494 0.02847624383866787 0.013643565587699413 -9999
-9999 0.014777755364775658 0.06453965604305267 0.09208497405052185 0.09072110801935196 0.08933516591787338 0.08801500499248505 0.08680055290460587 0.08571961522102356 0.08477864414453506 0.08397471159696579 0.0833088681101799 0.0827779471874237 0.08237960934638977 0.08211720734834671 0.08199498802423477 0.05665169656276703 0.01284873392432928 -9999 -9999
-9999 0.014496062882244587 0.06290577352046967 0.08994501829147339 0.08856137841939926 0.08726449310779572 0.08604028820991516 0.08491180837154388 0.08389049768447876 0.08298245072364807 0.0821833610534668 0.08149108290672302 0.08090096712112427 0.08040826767683029 0.08001084625720978 0.0797044038772583 0.054547615349292755 0.012345966883003712 -9999 -9999
-9999 0.01429714635014534 0.029698185622692108 0.07275359332561493 0.08657130599021912 0.08544681966304779 0.0843527689576149 0.08331885933876038 0.08236254751682281 0.08149143308401108 0.08070016652345657 0.07998772710561752 0.07934728264808655 0.07876922190189362 0.07823897898197174 0.07772505283355713 0.06383912265300751 0.02509266324341297 0.011558198370039463 0.011439955793321133
-9999 -9999 0.013628466054797173 0.05912239849567413 0.08495113253593445 0.08396010100841522 0.08299736678600311 0.08206001669168472 0.08116805553436279 0.08033247292041779 0.07955227792263031 0.0788276419043541 0.07815098762512207 0.07750915735960007 0.07687938213348389 0.07620932161808014 0.07537402957677841 0.061745546758174896 0.05061701685190201 0.05030372366309166
-9999 -9999 0.013251408003270626 0.028062034398317337 0.06927254050970078 0.08281608670949936 0.0820188820362091 0.08117576688528061 0.08033949881792068 0.07953459024429321 0.07876613736152649 0.07803618907928467 0.07733815163373947 0.07666046172380447 0.07598511129617691 0.07528063654899597 0.07450677454471588 0.07366670668125153 0.07300281524658203 0.07265915721654892
-9999 -9999 -9999 0.012904713861644268 0.05688256025314331 0.08218187838792801 0.08149729669094086 0.08071408420801163 0.0799112468957901 0.07912386953830719 0.07836311310529709 0.0776321142911911 0.07692490518093109 0.07623240351676941 0.07554204761981964 0.07483842223882675 0.07411536574363708 0.07341805100440979 0.07287172973155975 0.07257715612649918
