ncols         20
nrows         20
xllcorner     0
yllcorner     -3.5992928
cellsize      0.17996463
NODATA_value  -9999
-9999.0 -9999 -9999 -9999 -9999 -9999 -9999 -9999 -9999 -9999 -9999 -9999 -9999 -9999 -9999 -9999 -9999 -9999 -9999 -9999
-9999 -9999 -9999 -9999 -9999 -9999 -9999 -9999 -9999 -9999 -9999 0.03795859217643738 0.036356065422296524 -9999 -9999 0.028794415295124054 0.025277165696024895 -9999 -9999 -9999
-9999 -9999 -9999 -9999 0.04552571102976799 0.05181032419204712 0.06391004472970963 0.07388326525688171 0.07953166216611862 0.08194800466299057 0.06567647308111191 0.05491114780306816 0.05351348593831062 0.05265112593770027 0.04312048852443695 0.033379022032022476 0.027245843783020973 0.02360527217388153 -9999 -9999
-9999 -9999 -9999 0.0411309152841568 0.04771377146244049 0.056635547429323196 0.07031191140413284 0.08432704210281372 0.09990886598825455 0.11254803836345673 0.11914776265621185 0.1142394095659256 0.10749741643667221 0.08980125933885574 0.06866153329610825 0.04873299226164818 0.03575470298528671 0.02961653470993042 -9999 -9999
-9999 -9999 -9999 0.04067396745085716 0.0483018234372139 0.06488057225942612 0.08734922111034393 0.11606335639953613 0.1551435887813568 0.2131708860397339 0.27446866035461426 0.3005838692188263 0.27620747685432434 0.20442508161067963 0.1386301964521408 0.08607460558414459 0.056247856467962265 0.04932323470711708 -9999 -9999
-9999 -9999 0.027680104598402977 0.03692358732223511 0.050229836255311966 0.07309918850660324 0.10545922070741653 0.15304996073246002 0.2390567511320114 0.3722805678844452 0.5386730432510376 0.6210439801216125 0.5875421166419983 0.43127092719078064 0.2679344117641449 0.15642094612121582 0.096001997590065 0.07505174726247787 0.060982245951890945 -9999
-9999 -9999 0.027015183120965958 0.034810736775398254 0.05405053496360779 0.08644278347492218 0.13225585222244263 0.20761913061141968 0.34108078479766846 0.5476840138435364 0.7932697534561157 0.9404525756835938 0.9094380140304565 0.7120463848114014 0 0.28013327717781067 0.1689966470003128 0.11440575122833252 0.09461749345064163 -9999
-9999 -9999 0.02879062108695507 0.03994893282651901 0.0676923394203186 0.11353913694620132 0.18599258363246918 0.2984252870082855 0.4630569517612457 0.6869552731513977 0.9004421234130859 1.0426024198532104 1.036496877670288 0.8859292268753052 0.663040041923523 0.44011735916137695 0.28371527791023254 0.19231285154819489 0.1598609983921051 -9999
-9999 0.021558919921517372 0.032673656940460205 0.05261118710041046 0.09862436354160309 0.17758558690547943 0.2905642092227936 0.44910603761672974 0.6318238973617554 0.8080559372901917 0.9341793656349182 1.0117803812026978 1.0272961854934692 0.9500046372413635 0.810931384563446 0 0.4288991093635559 0.30470725893974304 0.2574172914028168 -9999
-9999 0.02800094336271286 0.041159842163324356 0.07876616716384888 0.15666081011295319 0.2839612066745758 0.4554671347141266 0.6520938277244568 0.8174670934677124 0.9140369892120361 0.9468451142311096 0.9673061370849609 0.9735914468765259 0.9528865218162537 0.8841550946235657 0 0.5804604291915894 0.4434158205986023 0.38835927844047546 -9999
-9999 0.04375721886754036 0.06338914483785629 0.1202479898929596 0.22706636786460876 0.39172011613845825 0.603577196598053 0.8086931705474854 0.9225114583969116 0.9479043483734131 0.9367128610610962 0.9322664737701416 0.9447268843650818 0.9428880214691162 0.9090535044670105 0.8383204936981201 0.7094247341156006 0.5877211093902588 0.5341256260871887 -9999
-9999 0.07712920010089874 0.10555072128772736 0.1862218677997589 0.3163052797317505 0.4891066253185272 0.6887800097465515 0.8433085083961487 0.8891265392303467 0.8684609532356262 0.8421939611434937 0.8468424677848816 0 0 0.8849353194236755 0 0.7757705450057983 0.6920229196548462 0.6511251330375671 -9999
-9999 0.1419091671705246 0.1865343451499939 0.298659086227417 0.43453311920166016 0.5828067064285278 0.7189911007881165 0.7929379940032959 0.7746379971504211 0.719098687171936 0.6808193922042847 0.6780953407287598 0 0 0 0.7202225923538208 0.711189866065979 0.6944724917411804 0.6722011566162109 -9999
-9999 0.2434302270412445 0.3042765259742737 0.44093671441078186 0.5695669054985046 0.6623979210853577 0.7111440300941467 0.701124906539917 0.6410584449768066 0.5723452568054199 0.5256357789039612 0.5048556923866272 0 0 0 0.48379984498023987 0.5173131227493286 0.585729718208313 0.6006925702095032 -9999
-9999 0.3427850306034088 0.4067663848400116 0.5453290939331055 0.6424362063407898 0.6672692894935608 0.6430553793907166 0.5872363448143005 0.5173464417457581 0.45836153626441956 0.4188527762889862 0.3837873935699463 0.35268476605415344 0.3224601447582245 0 0 0.2983050048351288 0.3730607330799103 -9999 -9999
-9999 0.3915836811065674 0.4470394253730774 0.5623374581336975 0.6137654185295105 0.5914610624313354 0.5356747508049011 0.47061687707901 0.418945848941803 0.3828912079334259 0 0 0 0.22516892850399017 0 0 0.1524200439453125 0 -9999 -9999
-9999 0.4237266480922699 0.45045140385627747 0.5258343815803528 0.5443063974380493 0.4961117208003998 0.42792096734046936 0.36991599202156067 0.3367278575897217 0 0 0 0 0.16672830283641815 0.13158220052719116 0.10502281785011292 0.08661442995071411 0.07210229337215424 0 0
-9999 -9999 0.42922908067703247 0.47533631324768066 0.47564154863357544 0.41464656591415405 0.34180691838264465 0.2912278473377228 0 0 0 0 0 0 0 0 0 0 0 0
-9999 -9999 0.44279760122299194 0.4420178532600403 0.4222205579280853 0.35127726197242737 0.27557575702667236 0.2264890968799591 0 0 0 0 0 0 0 0 0 0 0 0
-9999 -9999 -9999 0.410479336977005 0.3932853937149048 0.32186588644981384 0.2455064058303833 0.19805262982845306 0 0 0 0 0 0 0 0 0 0 0 0
