ncols         20
nrows         20
xllcorner     0
yllcorner     -3.5992928
cellsize      0.17996463
NODATA_value  -9999
-9999.0 -9999 -9999 -9999 -9999 -9999 -9999 -9999 -9999 -9999 -9999 -9999 -9999 -9999 -9999 -9999 -9999 -9999 -9999 -9999
-9999 -9999 -9999 -9999 -9999 -9999 -9999 -9999 -9999 -9999 -9999 12.374900817871094 12.34860610961914 -9999 -9999 12.324089050292969 12.163729667663574 -9999 -9999 -9999
-9999 -9999 -9999 -9999 12.230147361755371 12.366287231445312 12.601604461669922 12.737702369689941 12.794347763061523 12.83728313446045 12.662492752075195 12.63681411743164 12.721712112426758 12.799253463745117 12.714481353759766 12.534570693969727 12.377398490905762 12.306777000427246 -9999 -9999
-9999 -9999 -9999 12.344432830810547 12.403007507324219 12.473442077636719 12.586565971374512 12.657057762145996 12.719779968261719 12.750493049621582 12.794663429260254 12.84780502319336 12.941437721252441 12.991333961486816 13.00936508178711 12.928853034973145 12.827301979064941 12.771204948425293 -9999 -9999
-9999 -9999 -9999 12.52476978302002 12.51738452911377 12.543120384216309 12.430405616760254 12.337203979492188 12.227861404418945 12.080878257751465 11.927364349365234 11.883103370666504 12.03555965423584 12.347362518310547 12.704439163208008 13.00013256072998 13.283839225769043 13.567636489868164 -9999 -9999
-9999 -9999 12.799837112426758 12.76257038116455 12.638076782226562 12.304293632507324 11.506101608276367 11.082857131958008 10.652132987976074 10.063787460327148 9.40689754486084 9.079876899719238 9.245001792907715 9.94002914428711 10.866581916809082 11.83495807647705 13.19492244720459 13.906733512878418 14.161672592163086 -9999
-9999 -9999 13.052525520324707 12.89594841003418 12.561461448669434 11.65829086303711 10.928592681884766 10.218938827514648 9.321874618530273 8.20112419128418 7.123104095458984 6.542574405670166 6.664816856384277 7.516366958618164 8.852396011352539 10.453929901123047 12.368023872375488 13.541460037231445 14.087532997131348 -9999
-9999 -9999 13.607257843017578 13.150189399719238 12.179579734802246 11.3407621383667 10.406088829040527 9.265791893005371 7.923279762268066 6.514211654663086 5.390757083892822 4.762190818786621 4.793142795562744 5.50438928604126 6.807751178741455 8.515692710876465 10.358952522277832 12.229879379272461 13.16063117980957 -9999
-9999 14.924141883850098 14.43764591217041 13.093012809753418 12.100604057312012 10.942774772644043 9.507834434509277 7.8628249168396 6.2455735206604 4.892338275909424 3.9798994064331055 3.4936182498931885 3.447582483291626 3.9231698513031006 4.9002485275268555 6.371881008148193 8.139135360717773 9.83541488647461 11.172398567199707 -9999
-9999 15.642926216125488 15.090378761291504 13.352134704589844 11.833924293518066 10.020401000976562 7.988839149475098 5.993368625640869 4.385688304901123 3.314237117767334 2.7227189540863037 2.4225013256073 2.3942229747772217 2.6539556980133057 3.3000524044036865 4.366724014282227 5.861213684082031 7.393363952636719 8.557153701782227 -9999
-9999 16.43267822265625 15.607549667358398 13.272652626037598 11.087943077087402 8.713282585144043 6.280366897583008 4.174674034118652 2.769763946533203 1.9926047325134277 1.615975022315979 1.4565880298614502 1.4435336589813232 1.5900545120239258 1.963110327720642 2.664283514022827 3.7016122341156006 4.972273349761963 5.732526779174805 -9999
-9999 16.612422943115234 15.42623233795166 12.485113143920898 9.799151420593262 7.182306289672852 4.725247859954834 2.815100908279419 1.6796917915344238 1.101036548614502 0.8460583090782166 0.7354423403739929 0.7208006381988525 0.7755394577980042 0.9427540302276611 1.3103657960891724 1.937666416168213 2.7288691997528076 3.1875603199005127 -9999
-9999 15.589458465576172 14.050572395324707 10.706850051879883 7.904871940612793 5.4420037269592285 3.359178066253662 1.8448944091796875 0.9929140210151672 0.6006014943122864 0.3984050750732422 0.3171519339084625 0.2868039309978485 0.2939418852329254 0.3540528118610382 0.4925585091114044 0.8001060485839844 1.2187542915344238 1.5035959482192993 -9999
-9999 13.31256103515625 11.587167739868164 8.227312088012695 5.598727703094482 3.6091232299804688 2.1267518997192383 1.1314890384674072 0.5674849152565002 0.325162798166275 0.20980755984783173 0.1543605476617813 0.12663371860980988 0.11824767291545868 0.12621936202049255 0.16270014643669128 0.24919556081295013 0.4391633868217468 0.6202204823493958 -9999
-9999 10.74341869354248 9.048510551452637 5.90984582901001 3.606818914413452 2.142347812652588 1.210761547088623 0.625822901725769 0.33463025093078613 0.19466465711593628 0.12603610754013062 0.08840692788362503 0.06792548298835754 0.05813166871666908 0.05420942232012749 0.05918769910931587 0.07451867312192917 0.11985144764184952 -9999 -9999
-9999 8.882160186767578 7.227789402008057 4.371647834777832 2.4092752933502197 1.2781617641448975 0.6725123524665833 0.35973072052001953 0.2067575752735138 0.12658804655075073 0.08443042635917664 0.059424806386232376 0.04768364876508713 0.052313655614852905 0.058131080120801926 0.06444640457630157 0.07047919183969498 0.07511553168296814 -9999 -9999
-9999 7.59341287612915 5.886803150177002 3.4541306495666504 1.7591962814331055 0.7989524006843567 0.40376484394073486 0.21619480848312378 0.12813319265842438 0.08178374171257019 0.05671726167201996 0.05043157562613487 0.05425194650888443 0.05991391837596893 0.06671100109815598 0.07406870275735855 0.0816618800163269 0.08992770314216614 0.10202660411596298 0.1076570525765419
-9999 -9999 4.4565582275390625 2.7864885330200195 1.3623491525650024 0.5772237777709961 0.2675105035305023 0.13882707059383392 0.08201772719621658 0.05465659126639366 0.05398906394839287 0.05610986053943634 0.0606580525636673 0.06711262464523315 0.0746687799692154 0.08265367150306702 0.09066206216812134 0.09842659533023834 0.1057182103395462 0.10943775624036789
-9999 -9999 3.1630589962005615 2.1781914234161377 1.0786550045013428 0.433429092168808 0.18785572052001953 0.09258954972028732 0.06110621988773346 0.05825221538543701 0.05815472453832626 0.06077791377902031 0.065848708152771 0.07281064987182617 0.08077777922153473 0.08896590024232864 0.09678695350885391 0.1035163551568985 0.10848933458328247 0.11106029152870178
-9999 -9999 -9999 1.7739458084106445 0.9178537130355835 0.37590715289115906 0.15768076479434967 0.0757586732506752 0.06280574202537537 0.060313574969768524 0.06050168722867966 0.06335275620222092 0.06868001818656921 0.07589001208543777 0.08405566215515137 0.09224742650985718 0.09987117350101471 0.10583940148353577 0.10993945598602295 0.11202049255371094
