ncols         20
nrows         20
xllcorner     0
yllcorner     -3.5992928
cellsize      0.17996463
NODATA_value  -9999
-9999.0 -9999 -9999 -9999 -9999 -9999 -9999 -9999 -9999 -9999 -9999 -9999 -9999 -9999 -9999 -9999 -9999 -9999 -9999 -9999
-9999 -9999 -9999 -9999 -9999 -9999 -9999 -9999 -9999 -9999 -9999 13.349907875061035 13.360611915588379 -9999 -9999 13.229148864746094 13.311356544494629 -9999 -9999 -9999
-9999 -9999 -9999 -9999 13.222065925598145 13.160361289978027 13.0611572265625 13.030269622802734 13.046116828918457 13.065712928771973 13.190061569213867 13.206070899963379 13.158210754394531 13.113235473632812 13.138958930969238 13.185649871826172 13.27224349975586 13.3507719039917 -9999 -9999
-9999 -9999 -9999 13.188005447387695 13.135187149047852 13.07231330871582 13.011258125305176 13.002828598022461 13.00374984741211 13.005708694458008 12.995173454284668 12.965596199035645 12.915901184082031 12.906818389892578 12.918048858642578 12.987545013427734 13.102701187133789 13.187300682067871 -9999 -9999
-9999 -9999 -9999 13.1273775100708 13.060694694519043 12.96308708190918 12.942416191101074 12.997879028320312 13.056204795837402 13.084617614746094 13.087661743164062 13.057090759277344 12.976414680480957 12.886504173278809 12.80447006225586 12.814309120178223 12.893500328063965 12.888432502746582 -9999 -9999
-9999 -9999 13.167200088500977 13.062395095825195 12.955047607421875 12.914838790893555 13.054420471191406 13.329142570495605 13.533530235290527 13.696017265319824 13.821660995483398 13.83488941192627 13.674128532409668 13.403371810913086 13.117928504943848 12.926706314086914 12.859525680541992 12.838653564453125 12.956279754638672 -9999
-9999 -9999 13.07730484008789 12.967001914978027 12.836400985717773 12.932422637939453 13.413154602050781 14.19363021850586 14.606279373168945 14.896194458007812 15.105579376220703 15.103991508483887 14.752768516540527 14.30095386505127 13.814783096313477 13.394798278808594 13.116886138916016 12.996856689453125 12.983011245727539 -9999
-9999 -9999 12.842092514038086 12.705903053283691 12.644373893737793 13.007851600646973 14.031597137451172 15.915410995483398 16.423133850097656 16.624231338500977 16.745094299316406 16.651113510131836 15.82166862487793 15.2227201461792 14.67104434967041 14.136899948120117 13.701794624328613 13.428635597229004 13.308440208435059 -9999
-9999 12.703275680541992 12.534696578979492 12.38257884979248 12.458979606628418 13.081668853759766 14.384112358093262 16.39251136779785 16.96137809753418 17.152095794677734 17.236379623413086 17.139680862426758 16.440200805664062 15.93433666229248 15.478320121765137 14.992040634155273 14.51608943939209 14.15780258178711 13.982301712036133 -9999
-9999 12.428935050964355 12.26716136932373 12.164495468139648 12.47730827331543 13.376760482788086 14.810633659362793 16.672109603881836 17.219146728515625 17.388874053955078 17.448305130004883 17.372766494750977 16.829626083374023 16.454862594604492 16.131038665771484 15.779097557067871 15.388426780700684 15.05644416809082 14.883813858032227 -9999
-9999 12.141822814941406 12.093053817749023 12.228105545043945 12.823338508605957 13.885074615478516 15.319326400756836 16.969058990478516 17.44725799560547 17.58432960510254 17.63151741027832 17.575532913208008 17.120298385620117 16.833711624145508 16.618019104003906 16.392988204956055 16.143451690673828 15.911919593811035 15.789624214172363 -9999
-9999 12.128397941589355 12.251226425170898 12.67355728149414 13.46597957611084 14.526211738586426 15.79624080657959 17.168424606323242 17.569177627563477 17.68699836730957 17.730640411376953 17.695905685424805 17.30528450012207 17.09476661682129 16.95882225036621 16.822280883789062 16.67154312133789 16.542903900146484 16.487424850463867 -9999
-9999 12.596675872802734 12.878005027770996 13.514599800109863 14.334360122680664 15.233406066894531 16.135385513305664 16.918354034423828 17.287757873535156 17.43651580810547 17.491498947143555 17.474201202392578 17.353515625 17.26864242553711 17.198387145996094 17.118305206298828 17.007890701293945 16.923320770263672 16.91916275024414 -9999
-9999 13.466729164123535 13.828661918640137 14.536426544189453 15.28183364868164 15.946003913879395 16.51362419128418 16.956289291381836 17.219358444213867 17.34312629699707 17.396242141723633 17.409347534179688 17.398090362548828 17.392555236816406 17.389869689941406 17.35561180114746 17.273653030395508 17.16075897216797 17.198766708374023 -9999
-9999 14.344597816467285 14.719615936279297 15.404276847839355 16.0374813079834 16.503787994384766 16.843734741210938 17.093229293823242 17.2455997467041 17.331472396850586 17.37581443786621 17.40751838684082 17.437076568603516 17.471420288085938 17.514122009277344 17.528438568115234 17.497913360595703 17.367013931274414 -9999 -9999
-9999 14.970008850097656 15.34465503692627 15.964329719543457 16.492708206176758 16.854660034179688 17.07670783996582 17.21691131591797 17.29616355895996 17.34604263305664 17.376497268676758 17.41139030456543 17.455711364746094 17.50722885131836 17.56245994567871 17.61125373840332 17.644546508789062 17.719402313232422 -9999 -9999
-9999 15.353585243225098 15.783923149108887 16.303510665893555 16.74749183654785 17.065950393676758 17.23193359375 17.32404136657715 17.3662109375 17.39166831970215 17.409746170043945 17.43783187866211 17.478389739990234 17.524642944335938 17.577468872070312 17.62877082824707 17.67035675048828 17.699142456054688 17.63685417175293 17.645442962646484
-9999 -9999 16.22244644165039 16.548900604248047 16.904346466064453 17.181354522705078 17.33928871154785 17.415956497192383 17.443153381347656 17.453067779541016 17.455177307128906 17.47243881225586 17.5019588470459 17.5489501953125 17.590930938720703 17.623912811279297 17.65784454345703 17.67533302307129 17.666236877441406 17.637630462646484
-9999 -9999 16.53194808959961 16.750139236450195 17.021108627319336 17.271848678588867 17.430856704711914 17.508132934570312 17.52891731262207 17.520755767822266 17.50189971923828 17.510454177856445 17.535253524780273 17.57331085205078 17.598928451538086 17.615989685058594 17.636152267456055 17.643569946289062 17.614986419677734 17.597896575927734
-9999 -9999 -9999 16.87752342224121 17.08268165588379 17.308494567871094 17.46988296508789 17.546096801757812 17.55767822265625 17.54052734375 17.52044105529785 17.516277313232422 17.539148330688477 17.573646545410156 17.59882164001465 17.60374641418457 17.625961303710938 17.606191635131836 17.58548355102539 17.575437545776367
