ncols         20
nrows         20
xllcorner     0
yllcorner     -3.5992928
cellsize      0.17996463
NODATA_value  -9999
-9999.0 -9999 -9999 -9999 -9999 -9999 -9999 -9999 -9999 -9999 -9999 -9999 -9999 -9999 -9999 -9999 -9999 -9999 -9999 -9999
-9999 -9999 -9999 -9999 -9999 -9999 -9999 -9999 -9999 -9999 -9999 0.13455641269683838 0.13466118276119232 -9999 -9999 0.1369737982749939 0.1371520310640335 -9999 -9999 -9999
-9999 -9999 -9999 -9999 0.1340319663286209 0.13400474190711975 0.13400845229625702 0.13406388461589813 0.13418756425380707 0.13437697291374207 0.134587824344635 0.1246209666132927 0.12494736164808273 0.13584807515144348 0.13646867871284485 0.1267559975385666 0.12728671729564667 0.1382898986339569 -9999 -9999
-9999 -9999 -9999 0.13430741429328918 0.12407733500003815 0.10558326542377472 0.1056186854839325 0.10571865737438202 0.10588536411523819 0.10610456019639969 0.10635312646627426 0.09853748232126236 0.09885187447071075 0.10743255913257599 0.107949398458004 0.10036005824804306 0.10927072167396545 0.13938866555690765 -9999 -9999
-9999 -9999 -9999 0.1345328837633133 0.10585912317037582 0.07706503570079803 0.07112336158752441 0.07128313183784485 0.07149983197450638 0.07175285369157791 0.07201582193374634 0.06686648726463318 0.06712868809700012 0.07291442900896072 0.07335133850574493 0.07397335767745972 0.11101759970188141 0.1416589468717575 -9999 -9999
-9999 -9999 0.13503943383693695 0.1247503012418747 0.09819722175598145 0.06606246531009674 0.04096885025501251 0.04114183783531189 0.041363682597875595 0.04160351678729057 0.04184093698859215 0.03879891335964203 0.03902210295200348 0.04261403530836105 0.04301588237285614 0.07020733505487442 0.10517919063568115 0.13475067913532257 0.14791743457317352 -9999
-9999 -9999 0.13545159995555878 0.10665422677993774 0.07778067141771317 0.05247291922569275 0.03003724291920662 0.02034846507012844 0.020521212369203568 0.020702827721834183 0.020882003009319305 0.019438913092017174 0.019633274525403976 0.0215494092553854 0.03247653692960739 0.057498231530189514 0.08593304455280304 0.11864002794027328 0.1514882743358612 -9999
-9999 -9999 0.13623905181884766 0.1073777824640274 0.0723266527056694 0.041653599590063095 0.02052115835249424 0.010113793425261974 0.008742105215787888 0.008854862302541733 0.008970488794147968 0.008403260260820389 0.008566472679376602 0.01114912610501051 0.023192141205072403 0.04758022353053093 0.0830218717455864 0.12366456538438797 0.15722906589508057 -9999
-9999 0.13797782361507416 0.1272222101688385 0.10027715563774109 0.06773913651704788 0.038999225944280624 0.019292328506708145 0.008168952539563179 0.0032163693103939295 0.003284283448010683 0.003354200627654791 0.0031610382720828056 0.003552928101271391 0.010223512537777424 0.024650467559695244 0.050325069576501846 0.08747415244579315 0.12981317937374115 0.1646742820739746 -9999
-9999 0.13961797952651978 0.10994838923215866 0.0803370550274849 0.054402731359004974 0.03151044249534607 0.015592221170663834 0.0066192178055644035 0.0024521066807210445 0.0016356280539184809 0.0016902759671211243 0.0017382866935804486 0.0038260729052126408 0.01089386735111475 0.026133622974157333 0.053232502192258835 0.09239285439252853 0.13693155348300934 0.1735028475522995 -9999
-9999 0.14253397285938263 0.11242960393428802 0.07591044902801514 0.04391038417816162 0.021760525181889534 0.010795469395816326 0.004620451480150223 0.001726238988339901 0.0017348125111311674 0.0018011289648711681 0.0018563660560175776 0.004076056182384491 0.011543857865035534 0.02761581726372242 0.05619578808546066 0.09749096632003784 0.14440849423408508 0.18287387490272522 -9999
-9999 0.14663341641426086 0.11579890549182892 0.078349269926548 0.045444734394550323 0.022576989606022835 0.009604132734239101 0.003521675243973732 0.0017387919360771775 0.0018248738488182425 0.0018997929291799664 0.0020729575771838427 0.0060058762319386005 0.014384391717612743 0.02908787503838539 0.05914551019668579 0.10253629088401794 0.15169739723205566 0.19181029498577118 -9999
-9999 0.15185187757015228 0.12007475644350052 0.08142241835594177 0.04731037840247154 0.023683343082666397 0.010097978636622429 0.003713068552315235 0.001814754563383758 0.001904017641209066 0.0019856940489262342 0.0032410593703389168 0.009350220672786236 0.022369667887687683 0.045734208077192307 0.07917311787605286 0.11659324914216995 0.15851478278636932 0.19946099817752838 -9999
-9999 0.15804463624954224 0.12522858381271362 0.08542793244123459 0.04973822087049484 0.024755293503403664 0.01054588332772255 0.0038681181613355875 0.0018820898840203881 0.0019699339754879475 0.0020523550920188427 0.004248876124620438 0.012231153436005116 0.02945619635283947 0.060147952288389206 0.10438758134841919 0.1543305516242981 0.19391579926013947 0.20476901531219482 -9999
-9999 0.16462990641593933 0.1306501030921936 0.08927402645349503 0.05203532427549362 0.025906052440404892 0.012911335565149784 0.005538207944482565 0.0020458544604480267 0.0020234340336173773 0.0021036039106547832 0.004726737271994352 0.01354735903441906 0.03269277513027191 0.06696219742298126 0.11671894788742065 0.17285282909870148 0.21908389031887054 -9999 -9999
-9999 0.17053845524787903 0.13624024391174316 0.10061106830835342 0.06894747912883759 0.040254563093185425 0.0200981292873621 0.00853001233190298 0.0033931841608136892 0.0020641470327973366 0.00214285496622324 0.0048072077333927155 0.01379113644361496 0.033342767506837845 0.06845299899578094 0.11965400725603104 0.1783040165901184 0.22629162669181824 -9999 -9999
-9999 0.1747014969587326 0.1653466820716858 0.1324353665113449 0.09044317156076431 0.05270480364561081 0.02837395668029785 0.014073800295591354 0.006003102287650108 0.002204827032983303 0.0021712929010391235 0.0044759768061339855 0.012919572181999683 0.03128720819950104 0.06433437764644623 0.11262264847755432 0.16845731437206268 0.21591347455978394 0.23816554248332977 0.23999924957752228
-9999 -9999 0.18507120013237 0.14764070510864258 0.10864213854074478 0.07405415922403336 0.042985834181308746 0.021372422575950623 0.009041407145559788 0.0033297871705144644 0.0021888846531510353 0.0035544855054467916 0.01029460970312357 0.025035209953784943 0.051396362483501434 0.09022845327854156 0.13497701287269592 0.17262515425682068 0.18852227926254272 0.18946032226085663
-9999 -9999 0.1885639876127243 0.17630362510681152 0.14023937284946442 0.09521633386611938 0.055211130529642105 0.027312809601426125 0.011557750403881073 0.004238089080899954 0.002198103815317154 0.0023989637847989798 0.006968893110752106 0.016914939507842064 0.03496929630637169 0.061097972095012665 0.0917644128203392 0.11708803474903107 0.12724103033542633 0.12762881815433502
-9999 -9999 -9999 0.19346550107002258 0.1533958464860916 0.10395478457212448 0.06014234945178032 0.02971256710588932 0.012559750117361546 0.0046163080260157585 0.002202400704845786 0.002279900014400482 0.004010747652500868 0.009704506024718285 0.020117564126849174 0.03515029698610306 0.052848342806100845 0.06710286438465118 0.07303941994905472 0.0731910690665245
