ncols         20
nrows         20
xllcorner     0
yllcorner     -3.5992928
cellsize      0.17996463
NODATA_value  -9999
-9999.0 -9999 -9999 -9999 -9999 -9999 -9999 -9999 -9999 -9999 -9999 -9999 -9999 -9999 -9999 -9999 -9999 -9999 -9999 -9999
-9999 -9999 -9999 -9999 -9999 -9999 -9999 -9999 -9999 -9999 -9999 0 0 -9999 -9999 0 0 -9999 -9999 -9999
-9999 -9999 -9999 -9999 0 0 0 0 0 0 0 0 0 0 0 0 0 0 -9999 -9999
-9999 -9999 -9999 0 0 0 0 0 0 0 0 0 0 0 0 0 0 0 -9999 -9999
-9999 -9999 -9999 0 0 0 0 0 0 0 0 0 0 0 0 0 0 0 -9999 -9999
-9999 -9999 0 0 0 0 2.2028331756591797 1.8282288312911987 1.6154942512512207 1.4731433391571045 1.380761981010437 1.3622831106185913 1.4299806356430054 1.6020163297653198 1.887595295906067 2.355046272277832 0 0 0 -9999
-9999 -9999 0 0 0 2.0282647609710693 1.5114634037017822 1.22260320186615 1.0355818271636963 0.8963821530342102 0.7994017004966736 0.7641180753707886 0.8025959730148315 0.929602324962616 1.1631158590316772 1.5699585676193237 0 0 0 -9999
-9999 -9999 0 0 2.0475637912750244 1.4659441709518433 1.1069860458374023 0.8747077584266663 0.7106006145477295 0.589200496673584 0.5115699768066406 0.47931990027427673 0.4994216561317444 0.5811696648597717 0.7420814633369446 1.0163109302520752 1.4657319784164429 0 0 -9999
-9999 0 0 2.262526035308838 1.5699368715286255 1.1320998668670654 0.8415438532829285 0.6404221057891846 0.5001128911972046 0.40652012825012207 0.35307976603507996 0.33167189359664917 0.34131118655204773 0.3900446593761444 0.4890739917755127 0.6614832282066345 0.9314801096916199 1.3087085485458374 0 -9999
-9999 0 0 1.9416370391845703 1.2994052171707153 0.9028827548027039 0.6416476368904114 0.46493327617645264 0.35192474722862244 0.28663137555122375 0.25458237528800964 0.24274398386478424 0.24927416443824768 0.2769210934638977 0.3362685739994049 0.4415484070777893 0.6145786643028259 0.8609140515327454 0 -9999
-9999 0 0 1.7308210134506226 1.1059849262237549 0.7336378693580627 0.49383795261383057 0.3400355875492096 0.2526271343231201 0.2082526981830597 0.18844136595726013 0.18252304196357727 0.18707597255706787 0.20372916758060455 0.23859187960624695 0.303561270236969 0.414494127035141 0 0 -9999
-9999 0 0 1.5198620557785034 0.9345723986625671 0.5976700782775879 0.38730642199516296 0.260254830121994 0.193473219871521 0.16137123107910156 0.14789490401744843 0.14373807609081268 0.14658190310001373 0.15604861080646515 0.17567178606987 0.21332134306430817 0.28092676401138306 0 0 -9999
-9999 0 0 1.2618985176086426 0.7566178441047668 0.47479158639907837 0.3065132200717926 0.20847928524017334 0.15849873423576355 0.13584457337856293 0.12512245774269104 0.1218918114900589 0.12315652519464493 0.12880000472068787 0.14056691527366638 0.1619579941034317 0.20213480293750763 0 0 -9999
-9999 0 0 0.9769219160079956 0.5741598606109619 0.3605201244354248 0.24006815254688263 0.17258113622665405 0.1374111920595169 0.12167350947856903 0.11445070058107376 0.1119605302810669 0.11268416792154312 0.11655277013778687 0.12424229085445404 0.1379539668560028 0.16242574155330658 0 0 -9999
-9999 0 0 0.7331271171569824 0.4258424639701843 0.2728953957557678 0.19212143123149872 0.14773477613925934 0.1254563331604004 0.11426705121994019 0.10887738317251205 0.10684092342853546 0.10734082013368607 0.11024592071771622 0.11587677150964737 0.12546572089195251 0.14131847023963928 0 -9999 -9999
-9999 0 0 0.5721002817153931 0.33514559268951416 0.22032053768634796 0.16337335109710693 0.13390786945819855 0.11840979754924774 0.10993745177984238 0.10558163374662399 0.10382537543773651 0.1042219027876854 0.10687726736068726 0.11147721856832504 0.11859985440969467 0.12927167117595673 0.14028425514698029 -9999 -9999
-9999 0 0 0.47256413102149963 0.2828012704849243 0.18984895944595337 0.14778588712215424 0.1258145272731781 0.11382611840963364 0.10699793696403503 0.1033366248011589 0.1021234318614006 0.10272292047739029 0.10472247749567032 0.10814816504716873 0.11318685859441757 0.12014267593622208 0.12705527245998383 0.12663981318473816 0.12676586210727692
-9999 -9999 0 0.39811035990715027 0.24946150183677673 0.17387139797210693 0.13902628421783447 0.1210300549864769 0.11095934361219406 0.10514026880264282 0.10245804488658905 0.10142987966537476 0.10174219310283661 0.10321073234081268 0.10571156442165375 0.10916373133659363 0.11338586360216141 0.1176680326461792 0.1196221187710762 0.1202915757894516
-9999 -9999 0 0 0.22964368760585785 0.16396817564964294 0.13377965986728668 0.11810076981782913 0.1094951257109642 0.10482200980186462 0.1021725982427597 0.10106359422206879 0.10117407888174057 0.10227387398481369 0.10415812581777573 0.10663444548845291 0.10942424833774567 0.11198759078979492 0.11354943364858627 0.11423762142658234
-9999 -9999 -9999 0 0.21644239127635956 0.1593499779701233 0.1315285712480545 0.11689396947622299 0.1092689037322998 0.10469057410955429 0.1020587906241417 0.10090269893407822 0.10090917348861694 0.10182418674230576 0.10341128706932068 0.10543516278266907 0.1076275184750557 0.10955581814050674 0.11086052656173706 0.11149261891841888
