ncols         20
nrows         20
xllcorner     0
yllcorner     -3.5992928
cellsize      0.17996463
NODATA_value  -9999
-9999.0 -9999 -9999 -9999 -9999 -9999 -9999 -9999 -9999 -9999 -9999 -9999 -9999 -9999 -9999 -9999 -9999 -9999 -9999 -9999
-9999 -9999 -9999 -9999 -9999 -9999 -9999 -9999 -9999 -9999 -9999 1.7386412620544434 1.7370870113372803 -9999 -9999 1.7855596542358398 1.7661449909210205 -9999 -9999 -9999
-9999 -9999 -9999 -9999 1.7350035905838013 1.7470111846923828 1.7665555477142334 1.7710201740264893 1.7683066129684448 1.7709301710128784 1.7544183731079102 1.7652500867843628 1.7827489376068115 1.7966585159301758 1.7998567819595337 1.7975232601165771 1.7815136909484863 1.7650465965270996 -9999 -9999
-9999 -9999 -9999 1.7540457248687744 1.764664888381958 1.7760307788848877 1.7879040241241455 1.789499044418335 1.7898778915405273 1.7883687019348145 1.7924580574035645 1.8034635782241821 1.8200894594192505 1.8320540189743042 1.8467117547988892 1.8459070920944214 1.8269129991531372 1.8076139688491821 -9999 -9999
-9999 -9999 -9999 1.7773857116699219 1.7918715476989746 1.8170415163040161 1.8254960775375366 1.8210270404815674 1.7970467805862427 1.753440260887146 1.7070894241333008 1.6894052028656006 1.7162253856658936 1.7788506746292114 1.8449444770812988 1.8754171133041382 1.8753529787063599 1.8822743892669678 -9999 -9999
-9999 -9999 1.7848622798919678 1.8061823844909668 1.8312844038009644 1.849605679512024 1.8410526514053345 1.8017396926879883 1.7115107774734497 1.5697500705718994 1.4177690744400024 1.3427256345748901 1.3745636940002441 1.5156828165054321 1.6946077346801758 1.8157217502593994 1.8779081106185913 1.896389365196228 1.8774710893630981 -9999
-9999 -9999 1.8073196411132812 1.8317272663116455 1.8691442012786865 1.8750470876693726 1.8369253873825073 1.7328014373779297 1.5461716651916504 1.2983357906341553 1.0676159858703613 0.9482971429824829 0.9724893569946289 1.144809365272522 1.4290039539337158 1.6370023488998413 1.7924892902374268 1.8633630275726318 1.8797311782836914 -9999
-9999 -9999 1.8569202423095703 1.8856076002120972 1.9074269533157349 1.8806133270263672 1.7764954566955566 1.5795658826828003 1.308206558227539 1.015321969985962 0.7879238128662109 0.6674821376800537 0.6741136908531189 0.8085561394691467 1.0531337261199951 1.3344746828079224 1.5694137811660767 1.7249308824539185 1.7865442037582397 -9999
-9999 1.8799015283584595 1.9163649082183838 1.9332454204559326 1.9163368940353394 1.8113242387771606 1.5999648571014404 1.3057935237884521 0.9964595437049866 0.7357875108718872 0.5636287927627563 0.4759194850921631 0.4699368476867676 0.5556231737136841 0.7322710156440735 0.9988771080970764 1.24543297290802 1.447159767150879 1.545849084854126 -9999
-9999 1.931806206703186 1.9552826881408691 1.9441651105880737 1.846465826034546 1.6182339191436768 1.293305516242981 0.9457059502601624 0.6619927883148193 0.4750482141971588 0.3728482723236084 0.3227173089981079 0.31938499212265015 0.3644786775112152 0.474031537771225 0.6565871238708496 0.8723793625831604 1.072752833366394 1.1780564785003662 -9999
-9999 1.9758415222167969 1.9681384563446045 1.8874982595443726 1.685904622077942 1.3583792448043823 0.9686232209205627 0.621472954750061 0.3950370252132416 0.27337151765823364 0.21530592441558838 0.19120080769062042 0.19008854031562805 0.21342816948890686 0.27086031436920166 0.37637966871261597 0.5213868021965027 0.6781139373779297 0.7633071541786194 -9999
-9999 1.9517797231674194 1.902722716331482 1.7310032844543457 1.4430389404296875 1.0762138366699219 0.6961206197738647 0.4004141092300415 0.23103848099708557 0.14780740439891815 0.11146973073482513 0.09633395075798035 0.09502458572387695 0.1033041849732399 0.126764178276062 0.17778918147087097 0.2602294087409973 0.35486677289009094 0.4074254035949707 -9999
-9999 1.8120607137680054 1.7048819065093994 1.4404044151306152 1.1188405752182007 0.7806282043457031 0.4756608307361603 0.2550249993801117 0.1342974752187729 0.08022724092006683 0.050863467156887054 0.04037625342607498 0.03686445951461792 0.03797830641269684 0.045599110424518585 0.06326285004615784 0.10487425327301025 0.15412567555904388 0.18570482730865479 -9999
-9999 1.5362529754638672 1.3832788467407227 1.0671883821487427 0.7554285526275635 0.4940970540046692 0.29100629687309265 0.15315797924995422 0.07397865504026413 0.04297367483377457 0.02863355539739132 0.022124573588371277 0.0189953800290823 0.018117811530828476 0.019057856872677803 0.023453228175640106 0.033734288066625595 0.0546518974006176 0.0716095045208931 -9999
-9999 1.2345205545425415 1.0661680698394775 0.7413005828857422 0.466301292181015 0.28253814578056335 0.16148662567138672 0.08207467198371887 0.04502621293067932 0.028252694755792618 0.020372286438941956 0.016103670001029968 0.01376435812562704 0.01271848101168871 0.012159227393567562 0.012857984751462936 0.014958148822188377 0.021638747304677963 -9999 -9999
-9999 1.021938681602478 0.8487480878829956 0.5395559668540955 0.3054160475730896 0.16554751992225647 0.08730112016201019 0.048764169216156006 0.03073502704501152 0.021605851128697395 0.016964595764875412 0.014075525104999542 0.012849172577261925 0.014967729337513447 0.01687113381922245 0.01836102455854416 0.0193569865077734 0.020062901079654694 -9999 -9999
-9999 0.8756289482116699 0.6954352855682373 0.4272986650466919 0.22365805506706238 0.10195941478013992 0.054111629724502563 0.03213362395763397 0.022178716957569122 0.017043225467205048 0.014323768205940723 0.014723901636898518 0.017268545925617218 0.019828632473945618 0.022181758657097816 0.02417987585067749 0.025880316272377968 0.02778097614645958 0.03150555118918419 0.03297015279531479
-9999 -9999 0.5392836928367615 0.3498997092247009 0.17661698162555695 0.07598844915628433 0.03844698518514633 0.023340608924627304 0.016880134120583534 0.013915324583649635 0.01604650914669037 0.01850648783147335 0.021217795088887215 0.024010084569454193 0.026550080627202988 0.028651682659983635 0.030384471639990807 0.031853530555963516 0.03328539431095123 0.03380613401532173
-9999 -9999 0.38615575432777405 0.2741146981716156 0.14190851151943207 0.059230927377939224 0.029064897447824478 0.017600666731595993 0.01460525207221508 0.016702760010957718 0.018942957744002342 0.02146458998322487 0.024241991341114044 0.027078721672296524 0.02957642637193203 0.03153153136372566 0.0329919196665287 0.033892177045345306 0.034261249005794525 0.03435349836945534
-9999 -9999 -9999 0.22779320180416107 0.1200891062617302 0.05241871997714043 0.025503691285848618 0.01550932228565216 0.016051985323429108 0.01824677176773548 0.020526528358459473 0.023033516481518745 0.025807218626141548 0.02862604893743992 0.031077291816473007 0.03287694975733757 0.034165721386671066 0.034623369574546814 0.03466551750898361 0.034614197909832
