ncols         20
nrows         20
xllcorner     0
yllcorner     -3.5992928
cellsize      0.17996463
NODATA_value  -9999
-9999.0 -9999 -9999 -9999 -9999 -9999 -9999 -9999 -9999 -9999 -9999 -9999 -9999 -9999 -9999 -9999 -9999 -9999 -9999 -9999
-9999 -9999 -9999 -9999 -9999 -9999 -9999 -9999 -9999 -9999 -9999 1.114250898361206 1.1128895282745361 -9999 -9999 1.1361435651779175 1.1227494478225708 -9999 -9999 -9999
-9999 -9999 -9999 -9999 1.1113152503967285 1.1212189197540283 1.1369316577911377 1.1426138877868652 1.1426984071731567 1.145090937614441 1.1332180500030518 1.1371403932571411 1.147347092628479 1.1559906005859375 1.1544722318649292 1.1477209329605103 1.1345473527908325 1.1228344440460205 -9999 -9999
-9999 -9999 -9999 1.1210800409317017 1.1301988363265991 1.1408498287200928 1.152239441871643 1.156250238418579 1.158488392829895 1.1592296361923218 1.1632273197174072 1.1704777479171753 1.1805028915405273 1.1864914894104004 1.1908602714538574 1.1846257448196411 1.167885184288025 1.1531652212142944 -9999 -9999
-9999 -9999 -9999 1.1358641386032104 1.1483224630355835 1.169235348701477 1.1792851686477661 1.1787850856781006 1.169690489768982 1.1548959016799927 1.1352640390396118 1.1272343397140503 1.1404086351394653 1.1699497699737549 1.199342131614685 1.212469220161438 1.2058616876602173 1.2068694829940796 -9999 -9999
-9999 -9999 1.13619065284729 1.1534475088119507 1.174812912940979 1.1929212808609009 1.1925128698349 1.1767256259918213 1.139638066291809 1.0694072246551514 0.9848284125328064 0.9400976300239563 0.9558717608451843 1.033988118171692 1.1293113231658936 1.1865582466125488 1.2151166200637817 1.2224326133728027 1.2089805603027344 -9999
-9999 -9999 1.1510932445526123 1.1707992553710938 1.2017059326171875 1.2129995822906494 1.1978565454483032 1.155053973197937 1.0623749494552612 0.9231440424919128 0.7822085022926331 0.7044626474380493 0.7162161469459534 0.8200483918190002 0 1.098323941230774 1.1761044263839722 1.2070413827896118 1.2138545513153076 -9999
-9999 -9999 1.18409264087677 1.208073616027832 1.2308313846588135 1.2218761444091797 1.1781415939331055 1.0807656049728394 0.9306080341339111 0.7537147998809814 0.6070837378501892 0.5238752365112305 0.5243993997573853 0.6089624762535095 0.760563313961029 0.9273732304573059 1.0581490993499756 1.1404674053192139 1.1703224182128906 -9999
-9999 1.1945053339004517 1.223084568977356 1.2428096532821655 1.2418254613876343 1.1929876804351807 1.085003137588501 0.9201019406318665 0.7341703176498413 0.5678993463516235 0.4523954689502716 0.38954663276672363 0.3815101087093353 0.43671146035194397 0.5511156916618347 0 0.8694083094596863 0.9873836040496826 1.0433619022369385 -9999
-9999 1.2300325632095337 1.2514665126800537 1.2558209896087646 1.206037163734436 1.0852582454681396 0.8991551399230957 0.6864966750144958 0.5037044882774353 0.3784814774990082 0.3081313669681549 0.27140727639198303 0.26653653383255005 0.2953675389289856 0.3689919710159302 0 0.6317206025123596 0.7595032453536987 0.8249906301498413 -9999
-9999 1.2626177072525024 1.2643886804580688 1.223015308380127 1.116563320159912 0.9291182160377502 0.6894505023956299 0.46262598037719727 0.30791184306144714 0.22236846387386322 0.1808856725692749 0.16292956471443176 0.16074301302433014 0.17594991624355316 0.21573682129383087 0.28977170586586 0.3904331624507904 0.4982461929321289 0.5555978417396545 -9999
-9999 1.2531864643096924 1.2273616790771484 1.1349536180496216 0.9725344777107239 0.7507335543632507 0.5052942037582397 0.30320844054222107 0.18243804574012756 0.12125185877084732 0.09408924728631973 0.0822223499417305 0 0 0.1021355390548706 0 0.19990059733390808 0.26900219917297363 0.30693063139915466 -9999
-9999 1.170318365097046 1.1145299673080444 0.9626203775405884 0.7692683935165405 0.5549407005310059 0.35054969787597656 0.19499263167381287 0.10653182864189148 0.06576560437679291 0.042899586260318756 0.03429237753152847 0 0 0 0.05020113289356232 0.08174405992031097 0.1193094253540039 0.14358896017074585 -9999
-9999 1.0150725841522217 0.9253572821617126 0.7290416359901428 0.5301666855812073 0.35719001293182373 0.2168278843164444 0.11769486963748932 0.0588529109954834 0.03496218100190163 0.023493191227316856 0.01800643838942051 0 0 0 0.018058057874441147 0.026051271706819534 0.04256549850106239 0.056688692420721054 -9999
-9999 0.8370022177696228 0.7301648855209351 0.5170943140983582 0.3329229950904846 0.20668832957744598 0.12106840312480927 0.06323254853487015 0.035323113203048706 0.02222723327577114 0.015798132866621017 0.012165293097496033 0.010095913894474506 0.009082963690161705 0 0 0.01051266584545374 0.015383733436465263 -9999 -9999
-9999 0.7063792943954468 0.59190833568573 0.3820970356464386 0.22028499841690063 0.1217331513762474 0.06554799526929855 0.03708881512284279 0.02336438186466694 0.016145573928952217 0 0 0 0.010050708428025246 0 0 0.012764789164066315 0 -9999 -9999
-9999 0.6117954254150391 0.49091219902038574 0.305223673582077 0.16185438632965088 0.07494740188121796 0.04015190154314041 0.023788370192050934 0.01612996496260166 0 0 0 0 0.012864510528743267 0.014298578724265099 0.015504525974392891 0.01650230586528778 0.017556972801685333 0 0
-9999 -9999 0.3849674463272095 0.25114259123802185 0.12766879796981812 0.05535538122057915 0.027979101985692978 0.016716448590159416 0 0 0 0 0 0 0 0 0 0 0 0
-9999 -9999 0.2767457365989685 0.19702261686325073 0.10230682045221329 0.04272272065281868 0.02076375111937523 0.0122471759095788 0 0 0 0 0 0 0 0 0 0 0 0
-9999 -9999 -9999 0.16387128829956055 0.08644301444292068 0.03758981078863144 0.01801857352256775 0.010627255775034428 0 0 0 0 0 0 0 0 0 0 0 0
