ncols         20
nrows         20
xllcorner     0
yllcorner     -3.5992928
cellsize      0.17996463
NODATA_value  -9999
-9999.0 -9999 -9999 -9999 -9999 -9999 -9999 -9999 -9999 -9999 -9999 -9999 -9999 -9999 -9999 -9999 -9999 -9999 -9999 -9999
-9999 -9999 -9999 -9999 -9999 -9999 -9999 -9999 -9999 -9999 -9999 0.018213167786598206 0.018217887729406357 -9999 -9999 0.018374357372522354 0.01838245987892151 -9999 -9999 -9999
-9999 -9999 -9999 -9999 0.018322156742215157 0.018282344564795494 0.01822407729923725 0.01815454289317131 0.018088586628437042 0.018042631447315216 0.018031584098935127 0.03828633576631546 0.038315169513225555 0.018091030418872833 0.018138086423277855 0.03861125558614731 0.03866221383213997 0.018247557803988457 -9999 -9999
-9999 -9999 -9999 0.01824452169239521 0.038603249937295914 0.08026348054409027 0.07997866719961166 0.07961181551218033 0.07925470173358917 0.07899252325296402 0.07888931781053543 0.09509571641683578 0.0952141135931015 0.07918387651443481 0.07939334213733673 0.09593091160058975 0.07983745634555817 0.018106313422322273 -9999 -9999
-9999 -9999 -9999 0.018127355724573135 0.0798904150724411 0.11533522605895996 0.11481703072786331 0.11414704471826553 0.11349832266569138 0.11301890015602112 0.1128111332654953 0.11290811002254486 0.11311237514019012 0.11335678398609161 0.1136985495686531 0.11405030637979507 0.07894939184188843 0.017868414521217346 -9999 -9999
-9999 -9999 0.017916064709424973 0.037976428866386414 0.09528084099292755 0.11415155231952667 0.11343370378017426 0.11252038180828094 0.11165744811296463 0.11103372275829315 0.11075637489557266 0.1108279898762703 0.11113422363996506 0.11154808849096298 0.11197719722986221 0.11229828745126724 0.09345382452011108 0.03708067163825035 0.017416279762983322 -9999
-9999 -9999 0.017769740894436836 0.07828343659639359 0.11308731138706207 0.11249436438083649 0.11142686009407043 0.11009056866168976 0.10889871418476105 0.10807555913925171 0.10774021595716476 0.10787896066904068 0.10836449265480042 0.10898835211992264 0.109580859541893 0.11000440269708633 0.11009587347507477 0.07591042667627335 0.01720106229186058 -9999
-9999 -9999 0.017544636502861977 0.07733229547739029 0.11143755912780762 0.11049137264490128 0.10897088795900345 0.10707151144742966 0.10562440007925034 0.10468332469463348 0.10427860170602798 0.10440576076507568 0.1050267145037651 0.10589194297790527 0.10669255256652832 0.10731460154056549 0.10767748206853867 0.0744977667927742 0.016887472942471504 -9999
-9999 0.017212670296430588 0.036516498774290085 0.09162110835313797 0.1095401719212532 0.10829606652259827 0.10640323162078857 0.10421724617481232 0.10256922990083694 0.10149545967578888 0.10099849104881287 0.10106676071882248 0.10166212916374207 0.10255955159664154 0.10349921137094498 0.10429057478904724 0.10483548790216446 0.07267230749130249 0.016492076218128204 -9999
-9999 0.017058460041880608 0.07506703585386276 0.10836124420166016 0.10756952315568924 0.10604193806648254 0.10386373847723007 0.1015506386756897 0.09977521747350693 0.09858614206314087 0.09798411279916763 0.09795177727937698 0.09844446927309036 0.09925129264593124 0.1002066433429718 0.10108979046344757 0.10175702720880508 0.07063759118318558 0.016049452126026154 -9999
-9999 0.01684836857020855 0.07409336417913437 0.10663016140460968 0.10556089878082275 0.10380595922470093 0.101441890001297 0.09910313040018082 0.0972607210278511 0.09597944468259811 0.09526725113391876 0.09510699659585953 0.09545636922121048 0.09613005816936493 0.09698858112096786 0.09788991510868073 0.09863784164190292 0.06856436282396317 0.015597536228597164 -9999
-9999 0.016595128923654556 0.07290548831224442 0.10474573820829391 0.10352400690317154 0.10164960473775864 0.09924381971359253 0.09692803025245667 0.09505593031644821 0.0936981588602066 0.09287132322788239 0.09256071597337723 0.09272952377796173 0.0932251438498497 0.09393935650587082 0.09479743987321854 0.09563550353050232 0.06662101298570633 0.015175644308328629 -9999
-9999 0.016319559887051582 0.07163018733263016 0.1028076782822609 0.10151544958353043 0.09962114691734314 0.09729687869548798 0.09505496919155121 0.09317460656166077 0.09174750000238419 0.0908011794090271 0.09032155573368073 0.09026432037353516 0.09053297340869904 0.09105288237333298 0.0917968899011612 0.09281142055988312 0.06498867273330688 0.01481675449758768 -9999
-9999 0.016043750569224358 0.07036677747964859 0.10091497004032135 0.09959343820810318 0.09773418307304382 0.09553320705890656 0.0933719128370285 0.09150514751672745 0.0900283083319664 0.08897218853235245 0.08832024037837982 0.08803249150514603 0.08804364502429962 0.08829592168331146 0.08875511586666107 0.07419565320014954 0.030192632228136063 0.01454205997288227 -9999
-9999 0.015790658071637154 0.06921019405126572 0.09914292395114899 0.09779995679855347 0.09600122272968292 0.09391874819993973 0.09183919429779053 0.09000884741544724 0.08850102871656418 0.08734948188066483 0.08653782308101654 0.08603169023990631 0.08578028529882431 0.0857301577925682 0.08582943677902222 0.05945451557636261 0.013525598682463169 -9999 -9999
-9999 0.015582839027047157 0.0678875520825386 0.09755856543779373 0.09613407403230667 0.09441211819648743 0.09244728833436966 0.09046055376529694 0.08867733925580978 0.08715696632862091 0.08593140542507172 0.08498461544513702 0.08428674936294556 0.0837944895029068 0.08345874398946762 0.08323226124048233 0.05702313035726547 0.012917405925691128 -9999 -9999
-9999 0.01543645653873682 0.03225953131914139 0.07943364977836609 0.09450985491275787 0.09295108169317245 0.09113124758005142 0.08924981206655502 0.08752443641424179 0.08600864559412003 0.08473272621631622 0.08368150889873505 0.08282877504825592 0.08213485777378082 0.08154735714197159 0.08099877089262009 0.06650347262620926 0.026098493486642838 0.011982676573097706 0.011843642219901085
-9999 -9999 0.014933853410184383 0.06487254053354263 0.0931110754609108 0.09167242050170898 0.09000641852617264 0.08824312686920166 0.08658389747142792 0.08508653193712234 0.08378288149833679 0.08265996724367142 0.08169525116682053 0.08085203170776367 0.08007846772670746 0.07928946614265442 0.07831953465938568 0.06403350830078125 0.05239789932966232 0.05203136056661606
-9999 -9999 0.014585532248020172 0.03089488297700882 0.07610831409692764 0.09060118347406387 0.08913493156433105 0.08750011026859283 0.08590675890445709 0.0844341516494751 0.08312051743268967 0.08195558935403824 0.08092139661312103 0.07998822629451752 0.0791158676147461 0.0782470628619194 0.07731642574071884 0.0763164758682251 0.07552824914455414 0.07512569427490234
-9999 -9999 -9999 0.014234780333936214 0.06256642937660217 0.08998338133096695 0.0886560007929802 0.08710809051990509 0.08555816113948822 0.0841037929058075 0.0827864408493042 0.08160258084535599 0.0805356502532959 0.07956130057573318 0.07864813506603241 0.07775992155075073 0.07687340676784515 0.0760330781340599 0.07537957280874252 0.07503142207860947
