ncols         20
nrows         20
xllcorner     0
yllcorner     -3.5992928
cellsize      0.17996463
NODATA_value  -9999
-9999.0 -9999 -9999 -9999 -9999 -9999 -9999 -9999 -9999 -9999 -9999 -9999 -9999 -9999 -9999 -9999 -9999 -9999 -9999 -9999
-9999 -9999 -9999 -9999 -9999 -9999 -9999 -9999 -9999 -9999 -9999 0.01859915256500244 0.018603714182972908 -9999 -9999 0.01876472681760788 0.018773192539811134 -9999 -9999 -9999
-9999 -9999 -9999 -9999 0.01875787042081356 0.01871327869594097 0.01864812523126602 0.01857028901576996 0.018495747819542885 0.01844196952879429 0.018424738198518753 0.039109233766794205 0.03913646936416626 0.01847964897751808 0.018528135493397713 0.03944084420800209 0.03949360549449921 0.018641158938407898 -9999 -9999
-9999 -9999 -9999 0.01869387924671173 0.03953966870903969 0.0821852833032608 0.08186766505241394 0.08145974576473236 0.08106058090925217 0.08076126128435135 0.08063079416751862 0.09717193990945816 0.09728507697582245 0.08090756088495255 0.08112427592277527 0.0980241522192955 0.08158139884471893 0.018502093851566315 -9999 -9999
-9999 -9999 -9999 0.018585018813610077 0.08187822997570038 0.11815761774778366 0.11757948994636536 0.11683915555477142 0.1161206066608429 0.1155814453959465 0.11533234268426895 0.11540680378675461 0.11560643464326859 0.11585907638072968 0.11621515452861786 0.11658096313476562 0.08070623874664307 0.01826837658882141 -9999 -9999
-9999 -9999 0.018403498455882072 0.03898197039961815 0.09773509949445724 0.11703141778707504 0.11623582243919373 0.11523566395044327 0.11428873240947723 0.1135956197977066 0.113273486495018 0.11332480609416962 0.11363083124160767 0.11405894160270691 0.11450916528701782 0.1148519217967987 0.0955958440899849 0.037943217903375626 0.017827937379479408 -9999
-9999 -9999 0.018269401043653488 0.0804481953382492 0.11613703519105911 0.1154562458395958 0.11428667604923248 0.11283975839614868 0.11154282093048096 0.11063551902770996 0.11025120317935944 0.11037362366914749 0.11086450517177582 0.11151181906461716 0.11213476210832596 0.11258900165557861 0.11270858347415924 0.07773442566394806 0.01761668547987938 -9999
-9999 -9999 0.018065184354782104 0.07957321405410767 0.11459708213806152 0.11355149745941162 0.11190655082464218 0.10988171398639679 0.10832718014717102 0.1073007583618164 0.10683832317590714 0.1069336086511612 0.10754045844078064 0.10843640565872192 0.1092759221792221 0.10993560403585434 0.11032897233963013 0.07634662836790085 0.017309069633483887 -9999
-9999 0.01778419129550457 0.03768756985664368 0.09445499628782272 0.11284175515174866 0.11147667467594147 0.10943614691495895 0.10711850225925446 0.10535844415426254 0.10419443994760513 0.1036321297287941 0.10366006195545197 0.10423954576253891 0.1051459014415741 0.10612466186285019 0.10695713013410568 0.10753539949655533 0.07455505430698395 0.016921546310186386 -9999
-9999 0.017644070088863373 0.07760904729366302 0.11193543672561646 0.11102919280529022 0.10936090350151062 0.10701394081115723 0.10456787794828415 0.10267570614814758 0.10138996690511703 0.10071436315774918 0.10063306987285614 0.10110247135162354 0.10191033035516739 0.10288836061954498 0.10381212830543518 0.1045147180557251 0.07256084680557251 0.016488265246152878 -9999
-9999 0.017452912405133247 0.07672108709812164 0.11035313457250595 0.10917811840772629 0.10727652907371521 0.10473371297121048 0.10225959122180939 0.10029426962137222 0.09890828281641006 0.09811287373304367 0.09789343178272247 0.0982091948390007 0.0988728404045105 0.09973934292793274 0.10067612677812576 0.10145831108093262 0.07053125649690628 0.016046319156885147 -9999
-9999 0.017221707850694656 0.07563472539186478 0.10862613469362259 0.10730427503585815 0.10528504848480225 0.10270858556032181 0.10024465620517731 0.09824054688215256 0.09676823765039444 0.09584691375494003 0.0954652652144432 0.09558852761983871 0.09606286138296127 0.09677726030349731 0.09765449911355972 0.09851942956447601 0.06862878799438477 0.015633543953299522 -9999
-9999 0.016968892887234688 0.07446405291557312 0.10684648156166077 0.1054607629776001 0.10342582315206528 0.1009274274110794 0.0985412746667862 0.09652215987443924 0.09497013688087463 0.09391684830188751 0.09335286915302277 0.09323595464229584 0.09346919506788254 0.09397553652524948 0.09472276270389557 0.09575153142213821 0.06702818721532822 0.015281855128705502 -9999
-9999 0.01671426370739937 0.07329828292131424 0.10510314255952835 0.10369995981454849 0.10171300172805786 0.0993480533361435 0.09703537076711655 0.09502092003822327 0.09340815246105194 0.09223192930221558 0.09148108959197998 0.09111787378787994 0.09107717871665955 0.09129946678876877 0.09174681454896927 0.07667373865842819 0.031184693798422813 0.015011971816420555 -9999
-9999 0.01647847145795822 0.07222086191177368 0.10345473140478134 0.10204283148050308 0.10014153271913528 0.0979117602109909 0.09567449241876602 0.0936884731054306 0.09203439950942993 0.09074979275465012 0.08982428163290024 0.08922591805458069 0.0889047384262085 0.08880668133497238 0.0888781026005745 0.061549752950668335 0.01399796362966299 -9999 -9999
-9999 0.016283346340060234 0.07093611359596252 0.1019623652100563 0.10048326104879379 0.09868048131465912 0.09659155458211899 0.09444700181484222 0.09250446408987045 0.09083034843206406 0.08946048468351364 0.088385671377182 0.0875789150595665 0.08699852228164673 0.0865960568189621 0.08632463216781616 0.05912565439939499 0.013391062617301941 -9999 -9999
-9999 0.01614467240869999 0.033752165734767914 0.08313629776239395 0.09892816841602325 0.0972936823964119 0.09537898004055023 0.09335165470838547 0.09147085249423981 0.08979873359203339 0.08837051689624786 0.08717923611402512 0.08620242774486542 0.08540291339159012 0.08472985774278641 0.08411689847707748 0.06904598325490952 0.02709566242992878 0.012443619780242443 0.012299950234591961
-9999 -9999 0.015645859763026237 0.06796888262033463 0.0975666344165802 0.09605541080236435 0.09429708123207092 0.09241568297147751 0.09061337262392044 0.08896252512931824 0.08750270307064056 0.08623103052377701 0.08512990176677704 0.08416590839624405 0.08328939229249954 0.08241524547338486 0.081374891102314 0.0665208026766777 0.05442800000309944 0.05404362082481384
-9999 -9999 0.015292027033865452 0.0323958694934845 0.07980924099683762 0.09499461948871613 0.09343606233596802 0.091702900826931 0.08998270332813263 0.08836262673139572 0.08689237385988235 0.08557352423667908 0.08439415693283081 0.08332838118076324 0.08233968913555145 0.08137304335832596 0.08036261796951294 0.07929748296737671 0.07846232503652573 0.07803559303283691
-9999 -9999 -9999 0.014933775179088116 0.0656321793794632 0.09437300264835358 0.09295569360256195 0.0913175716996193 0.08964851498603821 0.08805200457572937 0.08657955378293991 0.08523949235677719 0.08402261883020401 0.08291024714708328 0.08187571167945862 0.08088567852973938 0.07991604506969452 0.0790105015039444 0.07831134647130966 0.07793968915939331
