ncols         20
nrows         20
xllcorner     0
yllcorner     -3.5992928
cellsize      0.17996463
NODATA_value  -9999
-9999.0 -9999 -9999 -9999 -9999 -9999 -9999 -9999 -9999 -9999 -9999 -9999 -9999 -9999 -9999 -9999 -9999 -9999 -9999 -9999
-9999 -9999 -9999 -9999 -9999 -9999 -9999 -9999 -9999 -9999 -9999 0.15327902138233185 0.1533445566892624 -9999 -9999 0.16971756517887115 0.16063560545444489 -9999 -9999 -9999
-9999 -9999 -9999 -9999 0.12890861928462982 0.13773342967033386 0.15480536222457886 0.17094990611076355 0.18518507480621338 0.19902072846889496 0.19061556458473206 0.18717892467975616 0.1979631632566452 0.21461418271064758 0.2074231207370758 0.18950489163398743 0.17656749486923218 0.17072585225105286 -9999 -9999
-9999 -9999 -9999 0.12933765351772308 0.1364637315273285 0.14753076434135437 0.16515861451625824 0.1848398894071579 0.2100837677717209 0.2378040850162506 0.2654503583908081 0.283776193857193 0.30041781067848206 0.2992963194847107 0.2815491259098053 0.2505154311656952 0.22335326671600342 0.2088487297296524 -9999 -9999
-9999 -9999 -9999 0.1363203525543213 0.14550690352916718 0.16541144251823425 0.18965591490268707 0.2197318971157074 0.26341697573661804 0.33161845803260803 0.41685912013053894 0.48953232169151306 0.5258011221885681 0.5039436221122742 0.4545133113861084 0.3840284049510956 0.32709890604019165 0.3171409070491791 -9999 -9999
-9999 -9999 0.13652922213077545 0.14668597280979156 0.16352620720863342 0.1885223239660263 0.2154173105955124 0.24918803572654724 0.31402134895324707 0.42203226685523987 0.5779517889022827 0.7300299406051636 0.8400981426239014 0.8357211351394653 0.7389708757400513 0.6174979209899902 0.5181882381439209 0.48609888553619385 0.4786490201950073 -9999
-9999 -9999 0.15171681344509125 0.16513362526893616 0.19478406012058258 0.22731027007102966 0.2490670084953308 0.2669708728790283 0.32270488142967224 0.43560120463371277 0.6197439432144165 0.8610329627990723 1.1308441162109375 1.2426278591156006 1.1789761781692505 1.0047175884246826 0.8402205109596252 0.7261819839477539 0.6851345300674438 -9999
-9999 -9999 0.1933448314666748 0.21873247623443604 0.2659185528755188 0.30494239926338196 0.31089481711387634 0.25171011686325073 0.2552282214164734 0.31036576628685 0.4236657917499542 0.6590538620948792 1.295139193534851 1.6406787633895874 1.7022095918655396 1.5550389289855957 1.348625659942627 1.1627665758132935 1.0851730108261108 -9999
-9999 0.25158631801605225 0.2748711407184601 0.3276534974575043 0.4148918092250824 0.48317816853523254 0.4667871296405792 0.3251686096191406 0.2857421040534973 0.3122974932193756 0.414992094039917 0.691064715385437 1.5263290405273438 2.0900189876556396 2.3458805084228516 2.298088550567627 2.0618605613708496 1.8197211027145386 1.7058019638061523 -9999
-9999 0.34058183431625366 0.3974969685077667 0.5295327305793762 0.6991387009620667 0.8216845989227295 0.7836251854896545 0.49404698610305786 0.40285682678222656 0.40684065222740173 0.5059836506843567 0.8235392570495605 1.8555562496185303 2.627042770385742 3.0725152492523193 3.183100938796997 2.993927001953125 2.7327945232391357 2.6021037101745605 -9999
-9999 0.5407673120498657 0.6432275772094727 0.8683421611785889 1.1365264654159546 1.3349310159683228 1.288623571395874 0.7783071994781494 0.6366701722145081 0.6208454966545105 0.7115656137466431 1.055225133895874 2.328943967819214 3.2565078735351562 3.8600752353668213 4.1251935958862305 4.089168071746826 3.870879888534546 3.7479448318481445 -9999
-9999 0.9178757667541504 1.0743145942687988 1.4239150285720825 1.812253713607788 2.0960612297058105 2.0720508098602295 1.3229485750198364 1.1539403200149536 1.1130117177963257 1.170332431793213 1.4847713708877563 2.888321876525879 3.826907157897949 4.493685245513916 4.919023036956787 5.069204330444336 4.997694969177246 4.927728652954102 -9999
-9999 1.5545274019241333 1.8029029369354248 2.3197176456451416 2.8091721534729004 3.178638219833374 3.2938106060028076 3.047858476638794 2.788438320159912 2.5999109745025635 2.5912158489227295 2.8469886779785156 3.472808837890625 4.071657657623291 4.616062641143799 5.098245620727539 5.48229455947876 5.6548309326171875 5.6598944664001465 -9999
-9999 2.445168972015381 2.7904319763183594 3.477247714996338 4.069797039031982 4.431797027587891 4.507917881011963 4.280276775360107 3.9172136783599854 3.6096487045288086 3.456725597381592 3.4822282791137695 3.661409616470337 3.8929121494293213 4.151971340179443 4.516581058502197 4.994049549102783 5.519720077514648 5.680047035217285 -9999
-9999 3.3484303951263428 3.7622475624084473 4.580984115600586 5.204220771789551 5.441919803619385 5.341162204742432 4.989447116851807 4.5469207763671875 4.152135848999023 3.876382827758789 3.6883411407470703 3.5711052417755127 3.503112316131592 3.4623963832855225 3.560957193374634 3.814884901046753 4.393476486206055 -9999 -9999
-9999 4.006990432739258 4.480416297912598 5.33920955657959 5.875349998474121 5.93839168548584 5.669211387634277 5.223598957061768 4.760707378387451 4.338651180267334 3.996699333190918 3.6771240234375 3.3680269718170166 3.0759665966033936 2.837695598602295 2.67280912399292 2.606778621673584 2.3415074348449707 -9999 -9999
-9999 4.4934186935424805 5.028842449188232 5.8003740310668945 6.202172756195068 6.064665794372559 5.634485244750977 5.103143215179443 4.620760917663574 4.1924333572387695 3.8209269046783447 3.436847448348999 3.039109230041504 2.67462420463562 2.3422117233276367 2.0638339519500732 1.8407551050186157 1.6085681915283203 1.4102981090545654 1.220292329788208
-9999 -9999 5.578492164611816 6.11504602432251 6.349107265472412 6.0178680419921875 5.406574249267578 4.7824249267578125 4.266915321350098 3.8418943881988525 3.474766492843628 3.091757297515869 2.698833703994751 2.2803306579589844 1.9352091550827026 1.6749956607818604 1.436843991279602 1.2587432861328125 1.1204164028167725 1.1438881158828735
-9999 -9999 6.097324371337891 6.357240676879883 6.382430076599121 5.854745388031006 5.074721336364746 4.352169990539551 3.7970709800720215 3.3978166580200195 3.1096060276031494 2.752285957336426 2.364696741104126 1.96244215965271 1.6575632095336914 1.4335271120071411 1.2449324131011963 1.1206823587417603 1.1458938121795654 1.1606978178024292
-9999 -9999 -9999 6.4597930908203125 6.381743907928467 5.7661848068237305 4.8941450119018555 4.129311561584473 3.57507061958313 3.2073466777801514 2.92219877243042 2.618692398071289 2.235240936279297 1.8412070274353027 1.526876449584961 1.3456999063491821 1.1475449800491333 1.142164945602417 1.1612712144851685 1.1723755598068237
