ncols         20
nrows         20
xllcorner     0
yllcorner     -3.5992928
cellsize      0.17996463
NODATA_value  -9999
-9999.0 -9999 -9999 -9999 -9999 -9999 -9999 -9999 -9999 -9999 -9999 -9999 -9999 -9999 -9999 -9999 -9999 -9999 -9999 -9999
-9999 -9999 -9999 -9999 -9999 -9999 -9999 -9999 -9999 -9999 -9999 27.1925106048584 27.19110107421875 -9999 -9999 27.19948959350586 27.260847091674805 -9999 -9999 -9999
-9999 -9999 -9999 -9999 27.25440788269043 27.172456741333008 27.04520606994629 26.950525283813477 26.90403175354004 26.902774810791016 26.982158660888672 27.0511417388916 27.018604278564453 26.92888641357422 26.95628547668457 27.073131561279297 27.151947021484375 27.164457321166992 -9999 -9999
-9999 -9999 -9999 27.275665283203125 27.242563247680664 27.1867618560791 27.107341766357422 27.048992156982422 27.019716262817383 27.026960372924805 27.046981811523438 27.0485782623291 26.992084503173828 26.918424606323242 26.897127151489258 26.93027687072754 26.95489501953125 26.944618225097656 -9999 -9999
-9999 -9999 -9999 27.257247924804688 27.257719039916992 27.256954193115234 27.279577255249023 27.325956344604492 27.3968448638916 27.472782135009766 27.529804229736328 27.53704261779785 27.45844841003418 27.311664581298828 27.133071899414062 26.96254539489746 26.796772003173828 26.652870178222656 -9999 -9999
-9999 -9999 27.245241165161133 27.252098083496094 27.305612564086914 27.437952041625977 27.671459197998047 27.905853271484375 28.143442153930664 28.37896728515625 28.560577392578125 28.630287170410156 28.53881072998047 28.284996032714844 27.90201187133789 27.44639778137207 26.948963165283203 26.589433670043945 26.40899085998535 -9999
-9999 -9999 27.160654067993164 27.241863250732422 27.402820587158203 27.70360565185547 28.114538192749023 28.560272216796875 29.018028259277344 29.444276809692383 29.75237274169922 29.879213333129883 29.794248580932617 29.478548049926758 28.929668426513672 28.26835823059082 27.536558151245117 26.96564483642578 26.659502029418945 -9999
-9999 -9999 26.945354461669922 27.15435028076172 27.501667022705078 27.988489151000977 28.600202560424805 29.275266647338867 29.939208984375 30.499248504638672 30.87356948852539 31.02684211730957 30.959665298461914 30.658954620361328 30.105283737182617 29.35969352722168 28.533395767211914 27.7945613861084 27.36639404296875 -9999
-9999 26.295421600341797 26.601797103881836 27.059200286865234 27.611848831176758 28.345306396484375 29.20543098449707 30.086519241333008 30.86931037902832 31.4637451171875 31.836000442504883 31.986906051635742 31.932233810424805 31.67266082763672 31.187089920043945 30.492496490478516 29.72972869873047 28.999874114990234 28.518714904785156 -9999
-9999 26.04153060913086 26.367795944213867 27.026716232299805 27.878925323486328 28.900588989257812 29.98185920715332 30.972381591796875 31.757081985473633 32.302337646484375 32.626670837402344 32.75135040283203 32.69963073730469 32.48855972290039 32.109580993652344 31.559032440185547 30.94344711303711 30.320709228515625 29.89508628845215 -9999
-9999 25.813161849975586 26.27190399169922 27.21992301940918 28.390153884887695 29.649105072021484 30.84637451171875 31.83394432067871 32.54875946044922 33.016056060791016 33.278011322021484 33.36058044433594 33.2928466796875 33.12541961669922 32.86186218261719 32.4794921875 32.030208587646484 31.55862808227539 31.244121551513672 -9999
-9999 25.90916633605957 26.542367935180664 27.760456085205078 29.15081214904785 30.51328468322754 31.699668884277344 32.610267639160156 33.24509048461914 33.652896881103516 33.87002182006836 33.911216735839844 33.80511474609375 33.66672134399414 33.50269317626953 33.24066162109375 32.93767547607422 32.606224060058594 32.38187026977539 -9999
-9999 26.559368133544922 27.317241668701172 28.681625366210938 30.131004333496094 31.440162658691406 32.50664520263672 33.306217193603516 33.876319885253906 34.25058364868164 34.46568298339844 34.508949279785156 34.420745849609375 34.319374084472656 34.202335357666016 34.0384521484375 33.773231506347656 33.481292724609375 33.256629943847656 -9999
-9999 27.66861915588379 28.471569061279297 29.839263916015625 31.206518173217773 32.35832595825195 33.25881576538086 33.942970275878906 34.45766067504883 34.792171478271484 34.99370574951172 35.08150863647461 35.079322814941406 35.06097412109375 35.00927734375 34.89387893676758 34.65794372558594 34.32517623901367 33.884822845458984 -9999
-9999 28.892396926879883 29.683399200439453 30.96503448486328 32.191490173339844 33.18212127685547 33.942848205566406 34.530029296875 34.94340515136719 35.2258415222168 35.418487548828125 35.5689582824707 35.68928146362305 35.783878326416016 35.814605712890625 35.770355224609375 35.636592864990234 35.423362731933594 -9999 -9999
-9999 29.904672622680664 30.701025009155273 31.875343322753906 32.97258758544922 33.863040924072266 34.544681549072266 35.026031494140625 35.351287841796875 35.56980895996094 35.734554290771484 35.92475891113281 36.14017105102539 36.34976577758789 36.479095458984375 36.54032897949219 36.545989990234375 36.56086730957031 -9999 -9999
-9999 30.55620765686035 31.525896072387695 32.57548141479492 33.567420959472656 34.416717529296875 35.03078842163086 35.45477294921875 35.719764709472656 35.89149856567383 36.05559158325195 36.26841735839844 36.52724075317383 36.79130554199219 36.99040222167969 37.11930465698242 37.2012825012207 37.30174255371094 37.55192565917969 37.66566467285156
-9999 -9999 32.48677444458008 33.18501281738281 34.0252571105957 34.815364837646484 35.415863037109375 35.825286865234375 36.062259674072266 36.22620391845703 36.38595199584961 36.598541259765625 36.8612060546875 37.14154052734375 37.36541748046875 37.51481628417969 37.61751937866211 37.6945686340332 37.776241302490234 37.79777526855469
-9999 -9999 33.02587890625 33.635807037353516 34.35866928100586 35.10577392578125 35.71492004394531 36.1383171081543 36.37656021118164 36.531593322753906 36.673126220703125 36.874473571777344 37.13289260864258 37.41011047363281 37.63249588012695 37.78184127807617 37.879695892333984 37.923065185546875 37.91926956176758 37.911354064941406
-9999 -9999 -9999 34.028297424316406 34.5840950012207 35.266632080078125 35.87590408325195 36.30680465698242 36.54387664794922 36.69202423095703 36.82691192626953 37.01219940185547 37.26667404174805 37.54316329956055 37.771400451660156 37.91770935058594 38.01924133300781 38.02779769897461 38.00651168823242 37.99201965332031
