ncols         20
nrows         20
xllcorner     0
yllcorner     -3.5992928
cellsize      0.17996463
NODATA_value  -9999
-9999.0 -9999 -9999 -9999 -9999 -9999 -9999 -9999 -9999 -9999 -9999 -9999 -9999 -9999 -9999 -9999 -9999 -9999 -9999 -9999
-9999 -9999 -9999 -9999 -9999 -9999 -9999 -9999 -9999 -9999 -9999 11.804112434387207 11.777666091918945 -9999 -9999 11.796232223510742 11.642477989196777 -9999 -9999 -9999
-9999 -9999 -9999 -9999 11.726447105407715 11.872977256774902 12.107556343078613 12.226906776428223 12.257072448730469 12.272994041442871 12.090455055236816 12.057758331298828 12.133004188537598 12.202957153320312 12.129526138305664 11.968615531921387 11.802495956420898 11.702471733093262 -9999 -9999
-9999 -9999 -9999 11.77874755859375 11.888985633850098 12.02016830444336 12.180401802062988 12.24671459197998 12.276870727539062 12.27148151397705 12.285553932189941 12.321115493774414 12.407591819763184 12.459661483764648 12.474213600158691 12.361379623413086 12.183441162109375 12.06960391998291 -9999 -9999
-9999 -9999 -9999 11.93441390991211 12.044366836547852 12.24132251739502 12.306447982788086 12.211385726928711 12.046208381652832 11.851338386535645 11.664844512939453 11.613080024719238 11.786322593688965 12.127442359924316 12.469900131225586 12.627692222595215 12.603644371032715 12.687439918518066 -9999 -9999
-9999 -9999 11.971450805664062 12.133503913879395 12.307661056518555 12.386209487915039 12.1284818649292 11.55263614654541 10.95257568359375 10.289534568786621 9.622881889343262 9.351219177246094 9.644851684570312 10.483755111694336 11.47012996673584 12.209577560424805 12.602099418640137 12.805254936218262 12.740396499633789 -9999
-9999 -9999 12.205678939819336 12.37386703491211 12.600446701049805 12.410447120666504 11.470207214355469 9.836064338684082 8.622486114501953 7.561371803283691 6.6794023513793945 6.353198528289795 6.839346408843994 7.955344200134277 9.430374145507812 10.862040519714355 11.839889526367188 12.359681129455566 12.553498268127441 -9999
-9999 -9999 12.723756790161133 12.93356704711914 13.000009536743164 12.264878273010254 10.227031707763672 6.195958614349365 4.80545711517334 4.008707046508789 3.5208165645599365 3.4677374362945557 4.501222610473633 5.605842590332031 7.075362205505371 8.741347312927246 10.167961120605469 11.147089958190918 11.584199905395508 -9999
-9999 13.149717330932617 13.380061149597168 13.55417251586914 13.292560577392578 11.948491096496582 9.182821273803711 4.889673709869385 3.351386547088623 2.6300573348999023 2.303372859954834 2.331899404525757 3.0399537086486816 3.8105859756469727 4.879712104797363 6.309921741485596 7.849592685699463 9.066672325134277 9.665688514709473 -9999
-9999 13.683965682983398 13.8784761428833 13.905984878540039 13.07190990447998 11.023871421813965 7.839714050292969 3.904395341873169 2.4493956565856934 1.8260040283203125 1.597015142440796 1.6226105690002441 2.046307325363159 2.471508264541626 3.1265196800231934 4.095338821411133 5.360061168670654 6.49718713760376 7.089039325714111 -9999
-9999 14.20461654663086 14.163531303405762 13.64436149597168 12.131180763244629 9.585775375366211 6.326902866363525 2.9762651920318604 1.7292355298995972 1.2154872417449951 1.026219129562378 1.0223579406738281 1.2255507707595825 1.4348156452178955 1.7705585956573486 2.3435757160186768 3.13529109954834 3.9819018840789795 4.441452503204346 -9999
-9999 14.11544418334961 13.711265563964844 12.516498565673828 10.465381622314453 7.792210578918457 4.851234436035156 2.2286276817321777 1.207761526107788 0.771949052810669 0.6023623943328857 0.555386483669281 0.6205514073371887 0.686867892742157 0.8151546120643616 1.084921956062317 1.525251865386963 2.0265774726867676 2.3055419921875 -9999
-9999 12.913557052612305 12.1146821975708 10.315114974975586 8.098201751708984 5.718511581420898 3.477785587310791 1.7635635137557983 0.896498441696167 0.5270355939865112 0.3526943027973175 0.2832408547401428 0.25969427824020386 0.25884613394737244 0.29368820786476135 0.38143622875213623 0.5888752341270447 0.8471498489379883 1.0190775394439697 -9999
-9999 10.636937141418457 9.57474136352539 7.487529754638672 5.396808624267578 3.5933778285980225 2.1386301517486572 1.1204391717910767 0.5563573837280273 0.3158460855484009 0.20265698432922363 0.14673519134521484 0.11673402041196823 0.10276994854211807 0.10145283490419388 0.12025507539510727 0.17138919234275818 0.2830037474632263 0.38835078477859497 -9999
-9999 8.2059965133667 7.093230247497559 5.018120288848877 3.22278094291687 1.9846827983856201 1.1486763954162598 0.6009640097618103 0.32507243752479553 0.19023780524730682 0.12260173261165619 0.08392024785280228 0.0614749938249588 0.04916300252079964 0.04254988208413124 0.043300312012434006 0.051145728677511215 0.07803202420473099 -9999 -9999
-9999 6.487694263458252 5.373476982116699 3.460127115249634 1.9881019592285156 1.0910112857818604 0.5883262157440186 0.32353293895721436 0.19089016318321228 0.11895746737718582 0.07936601340770721 0.05433256924152374 0.04137413203716278 0.04287796467542648 0.04513586312532425 0.047714121639728546 0.05029414966702461 0.05257951095700264 -9999 -9999
-9999 5.374788761138916 4.184548377990723 2.5705251693725586 1.348831295967102 0.6235098838806152 0.3246343731880188 0.18035361170768738 0.11086370795965195 0.0725988820195198 0.0504097156226635 0.04387523978948593 0.045532722026109695 0.04824257269501686 0.05171222984790802 0.05567780137062073 0.06016547605395317 0.0659228265285492 0.0758756473660469 0.08052213490009308
-9999 -9999 3.0467047691345215 1.9664676189422607 0.9818065166473389 0.41940706968307495 0.20002621412277222 0.10818838328123093 0.06670834124088287 0.04579538479447365 0.045749399811029434 0.04715273529291153 0.049853719770908356 0.053626224398612976 0.05809575691819191 0.06296226382255554 0.06814125925302505 0.07362290471792221 0.0792774111032486 0.08223311603069305
-9999 -9999 2.0972249507904053 1.4556430578231812 0.7368894219398499 0.2982116639614105 0.1329364776611328 0.06858081370592117 0.04758000001311302 0.04705098271369934 0.04785430058836937 0.0500202551484108 0.053471654653549194 0.0579744391143322 0.06306789070367813 0.06835849583148956 0.07357663661241531 0.07826850563287735 0.08190549165010452 0.08384259045124054
-9999 -9999 -9999 1.1533684730529785 0.6026368141174316 0.25047993659973145 0.10836367309093475 0.05478290095925331 0.047912344336509705 0.04789486899971962 0.04912250116467476 0.05165162682533264 0.05548401549458504 0.06035654991865158 0.06576308608055115 0.07118567824363708 0.07633022218942642 0.08042052388191223 0.0833030417561531 0.0848015546798706
