ncols         20
nrows         20
xllcorner     0
yllcorner     -3.5992928
cellsize      0.17996463
NODATA_value  -9999
-9999.0 -9999 -9999 -9999 -9999 -9999 -9999 -9999 -9999 -9999 -9999 -9999 -9999 -9999 -9999 -9999 -9999 -9999 -9999 -9999
-9999 -9999 -9999 -9999 -9999 -9999 -9999 -9999 -9999 -9999 -9999 0.1316271871328354 0.13178840279579163 -9999 -9999 0.13438118994235992 0.13457326591014862 -9999 -9999 -9999
-9999 -9999 -9999 -9999 0.1303679347038269 0.1303456723690033 0.13038311898708344 0.13050328195095062 0.13072027266025543 0.1310274451971054 0.13140496611595154 0.12185272574424744 0.12232135981321335 0.13318128883838654 0.13389787077903748 0.12439918518066406 0.12495355308055878 0.13582268357276917 -9999 -9999
-9999 -9999 -9999 0.13069304823875427 0.12069133669137955 0.10267921537160873 0.10271643847227097 0.10284355282783508 0.10306503623723984 0.103367879986763 0.10374575853347778 0.09627412259578705 0.0967373326420784 0.10529911518096924 0.10591204464435577 0.09851822257041931 0.10730226337909698 0.13691745698451996 -9999 -9999
-9999 -9999 -9999 0.1309463530778885 0.10297205299139023 0.07490158081054688 0.06908602267503738 0.0692223533987999 0.06944487988948822 0.06973864138126373 0.070088692009449 0.06519774347543716 0.0655878409743309 0.07138217240571976 0.07190939784049988 0.07257677614688873 0.10898483544588089 0.139060378074646 -9999 -9999
-9999 -9999 0.13167209923267365 0.1215035542845726 0.09551625698804855 0.06414296478033066 0.039692893624305725 0.039811696857213974 0.04000560939311981 0.040253933519124985 0.04054034501314163 0.03767342120409012 0.037984538823366165 0.041582345962524414 0.042045753449201584 0.06873766332864761 0.10306447744369507 0.13192273676395416 0.14450731873512268 -9999
-9999 -9999 0.13210822641849518 0.10389821231365204 0.0756135880947113 0.0508577935397625 0.029004571959376335 0.01958923228085041 0.019724631682038307 0.019896890968084335 0.020095564424991608 0.01874939166009426 0.01898619532585144 0.020892782136797905 0.03156714886426926 0.05602467432618141 0.0838404968380928 0.1156810075044632 0.14757700264453888 -9999
-9999 -9999 0.13286970555782318 0.10456707328557968 0.0702311247587204 0.040275689214468 0.01973343826830387 0.009673217311501503 0.008337664417922497 0.008438145741820335 0.008556765504181385 0.008031409233808517 0.008201072923839092 0.010688640177249908 0.02231547236442566 0.04596380516886711 0.08042007684707642 0.11988671123981476 0.15241816639900208 -9999
-9999 0.13454827666282654 0.12397859990596771 0.09752371907234192 0.06565525382757187 0.03760591149330139 0.01847807504236698 0.007766884285956621 0.003037459449842572 0.0030937972478568554 0.003158942563459277 0.0029798063915222883 0.0033512599766254425 0.00968309585005045 0.02346138097345829 0.048116110265254974 0.08392459154129028 0.12481310963630676 0.1584591269493103 -9999
-9999 0.13576501607894897 0.10684878379106522 0.0778956487774849 0.052555639296770096 0.030269911512732506 0.014865760691463947 0.006257221568375826 0.002295323181897402 0.0015200864290818572 0.0015677583869546652 0.001614188775420189 0.003565028542652726 0.010204220190644264 0.024604689329862595 0.05034017190337181 0.08766597509384155 0.13022418320178986 0.16520923376083374 -9999
-9999 0.1378791779279709 0.10870179533958435 0.07323025912046432 0.04217910021543503 0.02076628804206848 0.010221393778920174 0.004335606470704079 0.0015997610753402114 0.0015958118019625545 0.0016528619453310966 0.001705721253529191 0.0037604649551212788 0.010707778856158257 0.025740426033735275 0.05258554592728615 0.09149014204740524 0.1357884705066681 0.17214950919151306 -9999
-9999 0.14082549512386322 0.11114253103733063 0.07501522451639175 0.04330524802207947 0.021368518471717834 0.009015413001179695 0.0032736260909587145 0.0015976247377693653 0.001665429212152958 0.0017300584586337209 0.0018900802824646235 0.005496292375028133 0.01322912983596325 0.026871876791119576 0.05482844263315201 0.0952834039926529 0.1412183791399002 0.17876991629600525 -9999
-9999 0.14448384940624237 0.11411576718091965 0.07712268084287643 0.044582564383745193 0.022174352779984474 0.009383019059896469 0.0034188255667686462 0.0016544931568205357 0.0017263921909034252 0.0017978035612031817 0.002938352758064866 0.008509756997227669 0.020438002422451973 0.04192524030804634 0.07278592884540558 0.10743648558855057 0.14636562764644623 0.18452200293540955 -9999
-9999 0.14859530329704285 0.11744341999292374 0.07977227866649628 0.04621509090065956 0.022877605631947517 0.009685124270617962 0.003526407526805997 0.0017034715274348855 0.0017766519449651241 0.0018506264314055443 0.003839834127575159 0.011092273518443108 0.02679399773478508 0.054849088191986084 0.09537773579359055 0.14124444127082825 0.1778467744588852 0.1885841339826584 -9999
-9999 0.15276330709457397 0.12087567150592804 0.08220333606004715 0.04766445979475975 0.023611878976225853 0.011706599034368992 0.004995082505047321 0.0018379968823865056 0.001815756200812757 0.0018902260344475508 0.0042608389630913734 0.012249698862433434 0.029628852382302284 0.06079843267798424 0.10611926019191742 0.15730521082878113 0.19952093064785004 -9999 -9999
-9999 0.15650278329849243 0.12453515082597733 0.09147445857524872 0.06234252452850342 0.03621812164783478 0.01801552064716816 0.007621217984706163 0.003025173209607601 0.0018427522154524922 0.0019185715354979038 0.0043221088126301765 0.012435332871973515 0.030116654932498932 0.0619087815284729 0.10831007361412048 0.1614794135093689 0.2049953043460846 -9999 -9999
-9999 0.1591702252626419 0.14963841438293457 0.11921991407871246 0.08104772120714188 0.04704391956329346 0.02524247020483017 0.012488358654081821 0.005319713614881039 0.0019585159607231617 0.0019366350024938583 0.004012438002973795 0.011616745963692665 0.0281714778393507 0.05797696113586426 0.1015409454703331 0.1518828421831131 0.1945197433233261 0.21396709978580475 0.2154420167207718
-9999 -9999 0.16598540544509888 0.1319865733385086 0.09677384793758392 0.06575194746255875 0.03806251287460327 0.018885139375925064 0.007981072179973125 0.0029441872611641884 0.0019451372791081667 0.0031760535202920437 0.009231490083038807 0.02248048409819603 0.04618087410926819 0.08109468221664429 0.12131083011627197 0.15507186949253082 0.16918158531188965 0.1699555665254593
-9999 -9999 0.1683788001537323 0.15691357851028442 0.12446492910385132 0.08430418372154236 0.04877771437168121 0.024084772914648056 0.010181084275245667 0.003737592836841941 0.001947877462953329 0.002136553404852748 0.006234558764845133 0.015156201086938381 0.03135304898023605 0.054793499410152435 0.08229760825634003 0.10498479753732681 0.11404088884592056 0.11437661945819855
-9999 -9999 -9999 0.17171454429626465 0.13593487441539764 0.09195059537887573 0.05309755355119705 0.02618587575852871 0.011056964285671711 0.00406762445345521 0.0019493766594678164 0.00202747480943799 0.003582342993468046 0.008685307577252388 0.01801718957722187 0.031488075852394104 0.04734516888856888 0.06010691076517105 0.06541220098733902 0.06554752588272095
