ncols         20
nrows         20
xllcorner     0
yllcorner     -3.5992928
cellsize      0.17996463
NODATA_value  -9999
-9999.0 -9999 -9999 -9999 -9999 -9999 -9999 -9999 -9999 -9999 -9999 -9999 -9999 -9999 -9999 -9999 -9999 -9999 -9999 -9999
-9999 -9999 -9999 -9999 -9999 -9999 -9999 -9999 -9999 -9999 -9999 0.319616436958313 0.3132670819759369 -9999 -9999 0.27991077303886414 0.262209415435791 -9999 -9999 -9999
-9999 -9999 -9999 -9999 0.3335714638233185 0.3575666844844818 0.40057212114334106 0.43536576628685 0.45698586106300354 0.46895933151245117 0.4234746992588043 0.38878312706947327 0.38571029901504517 0.3856402337551117 0.3495108485221863 0.3058132231235504 0.2761554419994354 0.2583920359611511 -9999 -9999
-9999 -9999 -9999 0.3194035589694977 0.3441050350666046 0.3770639896392822 0.42425888776779175 0.4703855812549591 0.5190384387969971 0.5583062767982483 0.5813083648681641 0.5741369128227234 0.560400664806366 0.5144636631011963 0.45045170187950134 0.3788687586784363 0.3242877423763275 0.29552844166755676 -9999 -9999
-9999 -9999 -9999 0.32163575291633606 0.35157307982444763 0.4108678996562958 0.4827057719230652 0.5651129484176636 0.6648492217063904 0.793132483959198 0.9140312075614929 0.9675126075744629 0.9341505765914917 0.8068695664405823 0.6653047800064087 0.5237938165664673 0.42323338985443115 0.39694926142692566 -9999 -9999
-9999 -9999 0.27409884333610535 0.31405162811279297 0.36778223514556885 0.4486103057861328 0.5474346280097961 0.672518789768219 0.8591455817222595 1.095690369606018 1.3431291580200195 1.462011456489563 1.4342507123947144 1.234552264213562 0.9743605852127075 0.7441238164901733 0.583381712436676 0.518727719783783 0.4774813652038574 -9999
-9999 -9999 0.27702751755714417 0.3147222399711609 0.3956582248210907 0.5081170797348022 0.6412330865859985 0.8227291107177734 1.0820930004119873 1.4060665369033813 1.7292767763137817 1.9137986898422241 1.9011074304580688 1.6917060613632202 0 1.0624183416366577 0.824205756187439 0.678590714931488 0.6203212141990662 -9999
-9999 -9999 0.2981816530227661 0.35305118560791016 0.4658665359020233 0.6155008673667908 0.807475745677948 1.0518115758895874 1.3482881784439087 1.6876990795135498 1.9781363010406494 2.168459177017212 2.188737154006958 2.0376169681549072 1.766973614692688 1.4390439987182617 1.1518120765686035 0.9456833600997925 0.8618467450141907 -9999
-9999 0.27992337942123413 0.3375501036643982 0.4304213523864746 0.5997598171234131 0.8252162337303162 1.0872739553451538 1.3962007761001587 1.7099976539611816 1.9915021657943726 2.1959919929504395 2.33239483833313 2.384697437286377 2.312845230102539 2.1434829235076904 0 1.5481040477752686 1.2973008155822754 1.1885685920715332 -9999
-9999 0.3322085440158844 0.4024096131324768 0.5637123584747314 0.8132122755050659 1.1281684637069702 1.4801905155181885 1.8393679857254028 2.136200189590454 2.3337674140930176 2.441787004470825 2.524324417114258 2.574786424636841 2.5720083713531494 2.4840002059936523 0 1.9920743703842163 1.7269811630249023 1.6081056594848633 -9999
-9999 0.4416930377483368 0.5349490642547607 0.7493609189987183 1.0570118427276611 1.4370472431182861 1.8588131666183472 2.2479617595672607 2.5022542476654053 2.6302449703216553 2.696314573287964 2.758549690246582 2.8305397033691406 2.8569276332855225 2.8099000453948975 2.687685489654541 2.4515798091888428 2.209831714630127 2.093190908432007 -9999
-9999 0.6298758387565613 0.7436994314193726 1.0080580711364746 1.3531111478805542 1.74809992313385 2.1704275608062744 2.517706871032715 2.700477123260498 2.7719171047210693 2.817394256591797 2.9006075859069824 0 0 3.064068555831909 0 2.83638858795166 2.652926206588745 2.554730176925659 -9999
-9999 0.9201357364654541 1.067786693572998 1.3845031261444092 1.7266432046890259 2.0839767456054688 2.425302028656006 2.6695826053619385 2.7520241737365723 2.7484660148620605 2.7554781436920166 2.8187899589538574 0 0 0 2.972705125808716 2.9379892349243164 2.880398988723755 2.809401750564575 -9999
-9999 1.2938275337219238 1.4691762924194336 1.8225983381271362 2.1531667709350586 2.4257776737213135 2.6307084560394287 2.7276015281677246 2.7091596126556396 2.650171995162964 2.611375331878662 2.611504077911377 0 0 0 2.5868940353393555 2.653090476989746 2.7917816638946533 2.776517629623413 -9999
-9999 1.6374894380569458 1.8203403949737549 2.186591863632202 2.478862762451172 2.641369342803955 2.705439329147339 2.6871843338012695 2.6168034076690674 2.541457176208496 2.4860951900482178 2.4118244647979736 2.3240861892700195 2.220402479171753 0 0 2.0919134616851807 2.320289373397827 -9999 -9999
-9999 1.8495293855667114 2.0334420204162598 2.381456136703491 2.6057958602905273 2.670607566833496 2.6419286727905273 2.570390462875366 2.5065102577209473 2.459369659423828 0 0 0 1.9074357748031616 0 0 1.514036774635315 0 -9999 -9999
-9999 2.000340223312378 2.168855667114258 2.458195924758911 2.6185617446899414 2.599653482437134 2.5059056282043457 2.4086360931396484 2.361825466156006 0 0 0 0 1.6624053716659546 1.451429009437561 1.2725532054901123 1.1320332288742065 1.0090019702911377 0 0
-9999 -9999 2.2864902019500732 2.4895501136779785 2.590974807739258 2.505032777786255 2.3495609760284424 2.2291858196258545 0 0 0 0 0 0 0 0 0 0 0 0
-9999 -9999 2.4328153133392334 2.5215954780578613 2.5493061542510986 2.397249937057495 2.181814432144165 2.0210959911346436 0 0 0 0 0 0 0 0 0 0 0 0
-9999 -9999 -9999 2.525297164916992 2.521716356277466 2.342994213104248 2.0950703620910645 1.9156813621520996 0 0 0 0 0 0 0 0 0 0 0 0
