ncols         20
nrows         20
xllcorner     0
yllcorner     -3.5992928
cellsize      0.17996463
NODATA_value  -9999
-9999.0 -9999 -9999 -9999 -9999 -9999 -9999 -9999 -9999 -9999 -9999 -9999 -9999 -9999 -9999 -9999 -9999 -9999 -9999 -9999
-9999 -9999 -9999 -9999 -9999 -9999 -9999 -9999 -9999 -9999 -9999 13.277523040771484 13.281770706176758 -9999 -9999 13.091151237487793 13.162178993225098 -9999 -9999 -9999
-9999 -9999 -9999 -9999 13.140344619750977 13.11382007598877 13.058812141418457 13.059288024902344 13.08972454071045 13.108102798461914 13.213183403015137 13.19354248046875 13.129793167114258 13.078097343444824 13.075735092163086 13.07795524597168 13.126494407653809 13.176555633544922 -9999 -9999
-9999 -9999 -9999 13.07911491394043 13.075887680053711 13.088873863220215 13.105871200561523 13.137226104736328 13.14962387084961 13.145113945007324 13.120288848876953 13.073639869689941 13.013486862182617 12.991971969604492 12.967572212219238 12.968306541442871 12.99099063873291 13.01589584350586 -9999 -9999
-9999 -9999 -9999 13.045736312866211 13.083086013793945 13.144952774047852 13.283403396606445 13.369711875915527 13.409794807434082 13.416326522827148 13.405718803405762 13.37751293182373 13.315926551818848 13.241170883178711 13.135825157165527 13.030729293823242 12.877755165100098 12.731534004211426 -9999 -9999
-9999 -9999 12.996949195861816 13.026643753051758 13.14992904663086 13.414485931396484 13.844317436218262 14.036303520202637 14.138042449951172 14.245889663696289 14.360196113586426 14.417608261108398 14.361610412597656 14.191909790039062 13.9408540725708 13.603279113769531 13.012574195861816 12.679250717163086 12.623189926147461 -9999
-9999 -9999 12.96107292175293 13.085673332214355 13.348930358886719 13.83736515045166 14.192882537841797 14.434240341186523 14.664729118347168 14.931266784667969 15.175132751464844 15.303939819335938 15.266867637634277 15.0474271774292 14.65771770477295 14.141514778137207 13.377493858337402 12.871997833251953 12.655000686645508 -9999
-9999 -9999 12.80948543548584 13.120237350463867 13.637909889221191 14.045182228088379 14.388605117797852 14.73799991607666 15.118739128112793 15.49417781829834 15.784814834594727 15.93671989440918 15.92426586151123 15.733901977539062 15.359269142150879 14.823934555053711 14.150091171264648 13.417499542236328 13.020835876464844 -9999
-9999 12.23115062713623 12.504826545715332 13.219996452331543 13.716256141662598 14.150581359863281 14.622686386108398 15.126931190490723 15.606757164001465 15.996520042419434 16.25674819946289 16.388656616210938 16.393836975097656 16.25933837890625 15.968085289001465 15.504114151000977 14.94371509552002 14.324740409851074 13.791563034057617 -9999
-9999 11.947681427001953 12.213956832885742 13.098442077636719 13.745138168334961 14.374598503112793 15.030460357666016 15.648763656616211 16.136987686157227 16.463459014892578 16.650562286376953 16.74064826965332 16.745601654052734 16.66436004638672 16.46833610534668 16.126483917236328 15.68591594696045 15.16976547241211 14.727232933044434 -9999
-9999 11.601180076599121 11.930293083190918 13.037125587463379 13.921238899230957 14.742908477783203 15.525374412536621 16.176807403564453 16.611328125 16.85784339904785 16.979761123657227 17.027015686035156 17.01918601989746 16.972557067871094 16.867115020751953 16.65657615661621 16.350006103515625 15.943793296813965 15.677050590515137 -9999
-9999 11.427894592285156 11.903155326843262 13.225149154663086 14.28939151763916 15.199950218200684 15.99389362335205 16.592830657958984 16.955402374267578 17.14518165588379 17.224836349487305 17.24102020263672 17.197528839111328 17.17230987548828 17.1490535736084 17.03531837463379 16.876935958862305 16.641433715820312 16.503700256347656 -9999
-9999 11.647356033325195 12.348917007446289 13.784663200378418 14.880165100097656 15.73628044128418 16.415359497070312 16.900541305541992 17.18754768371582 17.329092025756836 17.393325805664062 17.400732040405273 17.360084533691406 17.346256256103516 17.339311599731445 17.325836181640625 17.2396183013916 17.112613677978516 17.05525016784668 -9999
-9999 12.504758834838867 13.251140594482422 14.625285148620605 15.625229835510254 16.314979553222656 16.803821563720703 17.135543823242188 17.336849212646484 17.43475914001465 17.47873306274414 17.49070167541504 17.4752140045166 17.482013702392578 17.498014450073242 17.513601303100586 17.47348403930664 17.37741470336914 17.377836227416992 -9999
-9999 13.500293731689453 14.197732925415039 15.430194854736328 16.289249420166016 16.801406860351562 17.114051818847656 17.31367301940918 17.42472267150879 17.4814510345459 17.504980087280273 17.525672912597656 17.546649932861328 17.574371337890625 17.59606170654297 17.616714477539062 17.618619918823242 17.532772064208984 -9999 -9999
-9999 14.226191520690918 14.88134479522705 15.973654747009277 16.70722770690918 17.1109561920166 17.315204620361328 17.422916412353516 17.471498489379883 17.4888916015625 17.48358154296875 17.50388526916504 17.542930603027344 17.59580421447754 17.62787628173828 17.664766311645508 17.69847297668457 17.750341415405273 -9999 -9999
-9999 14.706385612487793 15.385119438171387 16.303565979003906 16.93874740600586 17.291893005371094 17.433509826660156 17.494043350219727 17.505584716796875 17.494359970092773 17.492717742919922 17.511615753173828 17.548810958862305 17.59897232055664 17.63959503173828 17.67782211303711 17.710084915161133 17.731767654418945 17.685222625732422 17.696828842163086
-9999 -9999 15.939844131469727 16.55010986328125 17.080581665039062 17.383502960205078 17.505273818969727 17.544116973876953 17.532947540283203 17.524410247802734 17.519529342651367 17.532875061035156 17.559654235839844 17.603012084960938 17.63854217529297 17.665700912475586 17.694643020629883 17.71208953857422 17.709856033325195 17.68789291381836
-9999 -9999 16.400238037109375 16.773738861083984 17.188234329223633 17.452442169189453 17.564472198486328 17.598201751708984 17.58340835571289 17.567838668823242 17.552688598632812 17.5615234375 17.58450698852539 17.619056701660156 17.6423282623291 17.658369064331055 17.6777286529541 17.686750411987305 17.664552688598633 17.650897979736328
-9999 -9999 -9999 16.92673683166504 17.245342254638672 17.47817039489746 17.587907791137695 17.619861602783203 17.59916877746582 17.58018684387207 17.5661678314209 17.56539535522461 17.586963653564453 17.61866569519043 17.64263343811035 17.648860931396484 17.670522689819336 17.65513801574707 17.638446807861328 17.630138397216797
