ncols         20
nrows         20
xllcorner     0
yllcorner     -3.5992928
cellsize      0.17996463
NODATA_value  -9999
-9999.0 -9999 -9999 -9999 -9999 -9999 -9999 -9999 -9999 -9999 -9999 -9999 -9999 -9999 -9999 -9999 -9999 -9999 -9999 -9999
-9999 -9999 -9999 -9999 -9999 -9999 -9999 -9999 -9999 -9999 -9999 2.403597354888916 2.3986856937408447 -9999 -9999 2.4822936058044434 2.4557676315307617 -9999 -9999 -9999
-9999 -9999 -9999 -9999 2.522624969482422 2.5339534282684326 2.548588275909424 2.531787157058716 2.498332977294922 2.4716074466705322 2.4228010177612305 2.4248712062835693 2.440793037414551 2.4523370265960693 2.4626362323760986 2.47546648979187 2.457563877105713 2.4297242164611816 -9999 -9999
-9999 -9999 -9999 2.5564022064208984 2.5680410861968994 2.575249433517456 2.57261061668396 2.5419952869415283 2.5026283264160156 2.4607298374176025 2.4341330528259277 2.427976131439209 2.4398326873779297 2.457231283187866 2.4879074096679688 2.5020885467529297 2.484300136566162 2.459535598754883 -9999 -9999
-9999 -9999 -9999 2.589078903198242 2.6056439876556396 2.626986503601074 2.6034529209136963 2.5359461307525635 2.4491164684295654 2.3526322841644287 2.262655258178711 2.2137668132781982 2.2288551330566406 2.3016998767852783 2.399513006210327 2.467742919921875 2.4822890758514404 2.496926784515381 -9999 -9999
-9999 -9999 2.5921096801757812 2.625236988067627 2.6539480686187744 2.648739814758301 2.5591936111450195 2.3912150859832764 2.2189841270446777 2.031019687652588 1.8456592559814453 1.7418802976608276 1.760011911392212 1.8996529579162598 2.106780529022217 2.2778379917144775 2.372889518737793 2.402782917022705 2.3451292514801025 -9999
-9999 -9999 2.6178879737854004 2.6526198387145996 2.6891579627990723 2.625321865081787 2.390984296798706 1.982964277267456 1.7135502099990845 1.4652475118637085 1.244878888130188 1.1415055990219116 1.2142744064331055 1.4063546657562256 1.6727513074874878 1.9328631162643433 2.1283977031707764 2.2235162258148193 2.243635892868042 -9999
-9999 -9999 2.6743905544281006 2.7147083282470703 2.7125399112701416 2.533998489379883 2.0516629219055176 0.9011033773422241 0.6611831784248352 0.5549446940422058 0.4913329482078552 0.4981769323348999 0.753324568271637 0.9586029052734375 1.218087077140808 1.5128384828567505 1.7603566646575928 1.9208837747573853 1.990045428276062 -9999
-9999 2.6551918983459473 2.723928213119507 2.751129388809204 2.6738712787628174 2.3841495513916016 1.801606297492981 0.6703629493713379 0.41017669439315796 0.32275766134262085 0.29355448484420776 0.31974464654922485 0.48963093757629395 0.6270135641098022 0.8038066625595093 1.0471649169921875 1.3143196105957031 1.5211539268493652 1.6164426803588867 -9999
-9999 2.68086838722229 2.7155559062957764 2.6936838626861572 2.496798515319824 2.0892343521118164 1.4795796871185303 0.5401244163513184 0.3050062358379364 0.22865253686904907 0.2095915824174881 0.22860173881053925 0.32262519001960754 0.3903008699417114 0.4865165948867798 0.6371884346008301 0.8454462885856628 1.0361360311508179 1.1328905820846558 -9999
-9999 2.6396734714508057 2.617039203643799 2.4850099086761475 2.1740071773529053 1.7273308038711548 1.1333999633789062 0.42069196701049805 0.2302989512681961 0.16603945195674896 0.14704875648021698 0.15315669775009155 0.19110533595085144 0.21745608747005463 0.25846076011657715 0.33637478947639465 0.45257943868637085 0.5816071033477783 0.6514633297920227 -9999
-9999 2.4437055587768555 2.3548576831817627 2.1122207641601562 1.747873067855835 1.3154659271240234 0.8125202655792236 0.3212544918060303 0.17263449728488922 0.11548209190368652 0.09405805170536041 0.08827724307775497 0.09573354572057724 0.09991788119077682 0.11152185499668121 0.1428760290145874 0.19934940338134766 0.2653484344482422 0.3016435205936432 -9999
-9999 2.0552260875701904 1.9087045192718506 1.6068464517593384 1.2555959224700928 0.8870232701301575 0.536319375038147 0.26193398237228394 0.13256119191646576 0.07988694310188293 0.053273361176252365 0.04242902249097824 0.03710727021098137 0.03428066521883011 0.035859089344739914 0.0442880354821682 0.07042881846427917 0.10009356588125229 0.11853031069040298 -9999
-9999 1.5725122690200806 1.4033725261688232 1.0734806060791016 0.7576190233230591 0.49932342767715454 0.2963532507419586 0.15358968079090118 0.07414849102497101 0.04348810389637947 0.02912091463804245 0.02176603302359581 0.01728987880051136 0.014690220355987549 0.013618525117635727 0.014915873296558857 0.01980721578001976 0.030205748975276947 0.037949249148368835 -9999
-9999 1.1343729496002197 0.9629213213920593 0.6532357931137085 0.4036266505718231 0.24434499442577362 0.1405813992023468 0.07082869857549667 0.03905900567770004 0.02472071535885334 0.01774163916707039 0.01359621249139309 0.010991731658577919 0.009513700380921364 0.00859955232590437 0.008664553984999657 0.009608689695596695 0.013232404366135597 -9999 -9999
-9999 0.8398551940917969 0.6764077544212341 0.4120519757270813 0.22509023547172546 0.11944825947284698 0.06115042790770531 0.03404988348484039 0.021836325526237488 0.015784407034516335 0.012674198485910892 0.010573497973382473 0.009601590223610401 0.011096363887190819 0.012432991527020931 0.013475988060235977 0.014211012050509453 0.014859465882182121 -9999 -9999
-9999 0.6611769199371338 0.49157992005348206 0.28448453545570374 0.14084433019161224 0.05929531902074814 0.030408939346671104 0.018266575410962105 0.013257489539682865 0.01091813575476408 0.009788843803107738 0.010578969493508339 0.01282841619104147 0.015070497058331966 0.017179686576128006 0.019056780263781548 0.02081018127501011 0.023010605946183205 0.027394093573093414 0.029234878718852997
-9999 -9999 0.32910072803497314 0.20377680659294128 0.09655263274908066 0.03731334209442139 0.018194520846009254 0.011516480706632137 0.00916473101824522 0.008463985286653042 0.01070468407124281 0.01325670164078474 0.016014505177736282 0.01884305663406849 0.02148270420730114 0.02377336658537388 0.025790458545088768 0.02763991616666317 0.029515044763684273 0.030282318592071533
-9999 -9999 0.21271339058876038 0.14204633235931396 0.0684683695435524 0.025626450777053833 0.012340342625975609 0.008131302893161774 0.007748004049062729 0.01005018875002861 0.012635140679776669 0.015516502782702446 0.018630972132086754 0.02180798165500164 0.02468673326075077 0.027053281664848328 0.02891705557703972 0.030172457918524742 0.03081045299768448 0.031038453802466393
-9999 -9999 -9999 0.10628087818622589 0.051296036690473557 0.020857134833931923 0.010268410667777061 0.007051398511976004 0.008472240529954433 0.010977521538734436 0.01374251488596201 0.016766821965575218 0.020044390112161636 0.023373711854219437 0.026358751580119133 0.028670750558376312 0.030396034941077232 0.031156692653894424 0.031380441039800644 0.031411703675985336
