ncols         20
nrows         20
xllcorner     0
yllcorner     -3.5992928
cellsize      0.17996463
NODATA_value  -9999
-9999.0 -9999 -9999 -9999 -9999 -9999 -9999 -9999 -9999 -9999 -9999 -9999 -9999 -9999 -9999 -9999 -9999 -9999 -9999 -9999
-9999 -9999 -9999 -9999 -9999 -9999 -9999 -9999 -9999 -9999 -9999 0.13470186293125153 0.13481560349464417 -9999 -9999 0.1372642070055008 0.13744989037513733 -9999 -9999 -9999
-9999 -9999 -9999 -9999 0.13424549996852875 0.13419651985168457 0.1341746598482132 0.13420847058296204 0.13431918621063232 0.134506493806839 0.13472607731819153 0.12476487457752228 0.12511679530143738 0.13607975840568542 0.13673822581768036 0.12703350186347961 0.12758682668209076 0.13864031434059143 -9999 -9999
-9999 -9999 -9999 0.1345965564250946 0.12431151419878006 0.1057543009519577 0.10576367378234863 0.10584388673305511 0.10599935054779053 0.10621705651283264 0.10647429525852203 0.09866692125797272 0.09900655597448349 0.10763493180274963 0.1081838309764862 0.10060563683509827 0.10956370830535889 0.13978005945682526 -9999 -9999
-9999 -9999 -9999 0.13486811518669128 0.10610222816467285 0.07721914350986481 0.0712418407201767 0.07138487696647644 0.07159250229597092 0.07184445858001709 0.0721144825220108 0.06697216629981995 0.0672544538974762 0.07307655364274979 0.07353945076465607 0.0741887018084526 0.11136651039123535 0.14212068915367126 -9999 -9999
-9999 -9999 0.1355063021183014 0.12513728439807892 0.098475880920887 0.06623120605945587 0.04105837270617485 0.041218094527721405 0.04143306612968445 0.041671957820653915 0.04191407561302185 0.03887612745165825 0.03911289945244789 0.0427304245531559 0.043151192367076874 0.0704512894153595 0.10556355863809586 0.1352689564228058 0.14852771162986755 -9999
-9999 -9999 0.13597320020198822 0.10704844444990158 0.0780523270368576 0.05264316126704216 0.030124742537736893 0.020399704575538635 0.020567744970321655 0.020748529583215714 0.020930306985974312 0.019489116966724396 0.01969139464199543 0.021622907370328903 0.03260015696287155 0.057728007435798645 0.08628027886152267 0.11912468820810318 0.15211546421051025 -9999
-9999 -9999 0.13684123754501343 0.10783952474594116 0.07262787222862244 0.041821278631687164 0.02059992402791977 0.01014923769980669 0.008769393898546696 0.008881481364369392 0.008998293429613113 0.008431741036474705 0.008599008433520794 0.011196769773960114 0.023295097053050995 0.04778636619448662 0.08336566388607025 0.12415827065706253 0.15784558653831482 -9999
-9999 0.13876207172870636 0.12787774205207825 0.10076813399791718 0.06806198507547379 0.03918229788541794 0.019381538033485413 0.00820557214319706 0.003230036236345768 0.0032977890223264694 0.0033682454377412796 0.003175116144120693 0.003570044878870249 0.010274164378643036 0.024768203496932983 0.05054572597146034 0.08781656622886658 0.13027077913284302 0.16522525250911713 -9999
-9999 0.1404244750738144 0.11056150496006012 0.0807650163769722 0.05468704551458359 0.031674306839704514 0.015673473477363586 0.00665363809093833 0.0024647898972034454 0.001644238131120801 0.0016993082826957107 0.0017477370565757155 0.0038469580467790365 0.010951254516839981 0.02625998482108116 0.05345587804913521 0.09271204471588135 0.13731272518634796 0.1739157736301422 -9999
-9999 0.14332936704158783 0.11304865777492523 0.07631741464138031 0.044144172221422195 0.021877089515328407 0.010854288935661316 0.004646158777177334 0.001736125093884766 0.001745011075399816 0.0018118356820195913 0.0018673459999263287 0.004099301528185606 0.011604982428252697 0.027744922786951065 0.056411921977996826 0.09777441620826721 0.14470306038856506 0.18314729630947113 -9999
-9999 0.14736352860927582 0.11637093126773834 0.07873155176639557 0.04566660523414612 0.022689081728458405 0.00965324230492115 0.0035405559465289116 0.00174875243101269 0.0018358142115175724 0.0019113646121695638 0.00208538630977273 0.00603967672213912 0.014457670971751213 0.029214777052402496 0.05934782698750496 0.1027820035815239 0.15191760659217834 0.19197286665439606 -9999
-9999 0.15245503187179565 0.12054121494293213 0.08173170685768127 0.047490015625953674 0.02377716824412346 0.010140396654605865 0.003730074968189001 0.0018241808284074068 0.0019147619605064392 0.001997278770431876 0.003259605262428522 0.009399774484336376 0.02247465029358864 0.04591310769319534 0.07941041141748428 0.11682936549186707 0.1586904227733612 0.1995529979467392 -9999
-9999 0.15847234427928925 0.12553471326828003 0.08562430739402771 0.049850475043058395 0.02481643110513687 0.010575063526630402 0.0038806525990366936 0.0018898523412644863 0.0019794548861682415 0.0020630606450140476 0.004271035548299551 0.012290049344301224 0.029580064117908478 0.06035633757710457 0.10466352850198746 0.15460987389087677 0.19411827623844147 0.20482972264289856 -9999
-9999 0.16508641839027405 0.1309812217950821 0.08946075290441513 0.05210307985544205 0.025930240750312805 0.01292432565242052 0.005545805674046278 0.0020509667228907347 0.002030666684731841 0.0021125548519194126 0.0047480459325015545 0.013604403473436832 0.03281274810433388 0.06716537475585938 0.11699698865413666 0.17316356301307678 0.21939383447170258 -9999 -9999
-9999 0.17100057005882263 0.136561781167984 0.10078711807727814 0.06899929791688919 0.04024016857147217 0.020085297524929047 0.008526567369699478 0.003394674975425005 0.002068236004561186 0.002149336040019989 0.004824736621230841 0.013839812949299812 0.03344675153493881 0.06863320618867874 0.11991304904222488 0.1786230355501175 0.22664928436279297 -9999 -9999
-9999 0.17514324188232422 0.16567133367061615 0.13261203467845917 0.09048392623662949 0.052667051553726196 0.028329569846391678 0.014050033874809742 0.005995793733745813 0.002205601893365383 0.002174968831241131 0.004487965721637011 0.012955956161022186 0.031367961317300797 0.06448005139827728 0.11284516006708145 0.16875877976417542 0.21630039811134338 0.23864293098449707 0.24049603939056396
-9999 -9999 0.18531876802444458 0.14777019619941711 0.10865724831819534 0.07399152964353561 0.042905643582344055 0.021322187036275864 0.009021702222526073 0.0033260711934417486 0.002189891180023551 0.0035604583099484444 0.010316598229110241 0.025087876245379448 0.05149754509329796 0.09039606899023056 0.13522891700267792 0.17296309769153595 0.1889105886220932 0.18985781073570251
-9999 -9999 0.18874938786029816 0.17639026045799255 0.14022599160671234 0.0951332300901413 0.05510924011468887 0.027243774384260178 0.01152726262807846 0.004229976795613766 0.0021971401292830706 0.002400745404884219 0.006979773752391338 0.016944613307714462 0.03503303602337837 0.061212848871946335 0.09194537252187729 0.11732886731624603 0.1275099813938141 0.12790125608444214
-9999 -9999 -9999 0.19349166750907898 0.15335896611213684 0.10386105626821518 0.06003405153751373 0.02963751181960106 0.012524997815489769 0.004605966620147228 0.0022004428319633007 0.0022805065382272005 0.004015524405986071 0.009720033966004848 0.020153455436229706 0.035217590630054474 0.052955735474824905 0.0672440305352211 0.07319603115320206 0.07334904372692108
