ncols         20
nrows         20
xllcorner     0
yllcorner     -3.5992928
cellsize      0.17996463
NODATA_value  -9999
-9999.0 -9999 -9999 -9999 -9999 -9999 -9999 -9999 -9999 -9999 -9999 -9999 -9999 -9999 -9999 -9999 -9999 -9999 -9999 -9999
-9999 -9999 -9999 -9999 -9999 -9999 -9999 -9999 -9999 -9999 -9999 0 0 -9999 -9999 0 0 -9999 -9999 -9999
-9999 -9999 -9999 -9999 0 0 0 0 0 0 0 0 0 0 0 0 0 0 -9999 -9999
-9999 -9999 -9999 0 0 0 0 0 0 0 0 0 0 0 0 0 0 0 -9999 -9999
-9999 -9999 -9999 0 0 0 0 0 0 0 0 0 0 0 0 0 0 0 -9999 -9999
-9999 -9999 0 0 0 0 8.456624031066895 7.456105709075928 6.657063961029053 5.851535797119141 5.127236366271973 4.830604553222656 5.068087577819824 5.922625541687012 7.21636438369751 8.854973793029785 0 0 0 -9999
-9999 -9999 0 0 0 8.505575180053711 6.993045330047607 5.830098628997803 4.723058223724365 3.6432254314422607 2.800443410873413 2.421924352645874 2.5463552474975586 3.239455223083496 4.5170698165893555 6.433923721313477 0 0 0 -9999
-9999 -9999 0 0 9.210638046264648 7.4348297119140625 5.919910430908203 4.526075839996338 3.2611281871795654 2.230149507522583 1.5788991451263428 1.282012939453125 1.3219122886657715 1.7297166585922241 2.6142489910125732 4.0956339836120605 6.185508728027344 0 0 -9999
-9999 0 0 10.674661636352539 8.482915878295898 6.547881126403809 4.750778675079346 3.190117120742798 2.0252726078033447 1.2831095457077026 0.8901827335357666 0.7195242643356323 0.7187932133674622 0.919187605381012 1.3940129280090332 2.29937744140625 3.7182247638702393 5.4766364097595215 0 -9999
-9999 0 0 10.553831100463867 7.7900872230529785 5.359694957733154 3.3491156101226807 1.9098135232925415 1.0696823596954346 0.6515985727310181 0.4671034514904022 0.3893194794654846 0.38957956433296204 0.47275689244270325 0.6966354250907898 1.1536024808883667 1.9846135377883911 3.106013298034668 0 -9999
-9999 0 0 10.128032684326172 6.73354434967041 4.068175792694092 2.1467461585998535 1.016290307044983 0.5015992522239685 0.293382853269577 0.21170678734779358 0.18217170238494873 0.18289534747600555 0.21658873558044434 0.3065797686576843 0.5085391402244568 0.8953920602798462 0 0 -9999
-9999 0 0 8.87009048461914 5.297268867492676 2.851407051086426 1.308579921722412 0.5366223454475403 0.23680463433265686 0.127351775765419 0.08820617198944092 0.07353883981704712 0.0727909728884697 0.08229245245456696 0.11016399413347244 0.17920222878456116 0.32707875967025757 0 0 -9999
-9999 0 0 6.620973110198975 3.581173896789551 1.7568888664245605 0.7476673126220703 0.2845146358013153 0.11551006883382797 0.05900795757770538 0.03535822778940201 0.027082597836852074 0.024520451202988625 0.025919519364833832 0.03325105831027031 0.05121222138404846 0.09808745980262756 0 0 -9999
-9999 0 0 4.109304904937744 1.9688143730163574 0.8926836848258972 0.37131425738334656 0.14450426399707794 0.05729730799794197 0.02883819118142128 0.017333710566163063 0.012364290654659271 0.010120374150574207 0.009631896391510963 0.010668892413377762 0.01461448147892952 0.024694163352251053 0 0 -9999
-9999 0 0 2.3091275691986084 0.9568703174591064 0.4014953672885895 0.1682078093290329 0.06805413961410522 0.031103461980819702 0.0164986252784729 0.01015955489128828 0.006958846002817154 0.005327673628926277 0.004618495237082243 0.0044183507561683655 0.00502014858648181 0.00671046320348978 0 -9999 -9999
-9999 0 0 1.3893316984176636 0.5124425888061523 0.19380956888198853 0.07909955084323883 0.03561508283019066 0.018393339589238167 0.010546884499490261 0.006781859323382378 0.00468611903488636 0.003748608287423849 0.00416076835244894 0.004722293466329575 0.005398995243012905 0.006162473000586033 0.006846937816590071 -9999 -9999
-9999 0 0 0.9430451989173889 0.32228514552116394 0.1048712208867073 0.043215613812208176 0.02033175714313984 0.011140609160065651 0.00677475007250905 0.004566577263176441 0.004011130426079035 0.004310953430831432 0.00479167653247714 0.00541418744251132 0.00614948570728302 0.0069952188059687614 0.007955544628202915 0.009104825556278229 0.009653029963374138
-9999 -9999 0 0.6670292019844055 0.22434160113334656 0.07021351903676987 0.027220625430345535 0.01272484939545393 0.007062457501888275 0.004524869378656149 0.00438709044829011 0.004511045757681131 0.004859935957938433 0.005394544918090105 0.00606199586763978 0.006817752495408058 0.007632964290678501 0.008468232117593288 0.009212521836161613 0.009587917476892471
-9999 -9999 0 0 0.16425256431102753 0.05007766932249069 0.018551062792539597 0.008363821543753147 0.005247629713267088 0.00486395601183176 0.0047635422088205814 0.004921001847833395 0.0053051006980240345 0.00587340397760272 0.006561512127518654 0.007309698965400457 0.008064962923526764 0.008744833059608936 0.009250984527170658 0.009513319469988346
-9999 -9999 -9999 0 0.1327098309993744 0.042456310242414474 0.015398548915982246 0.006809886544942856 0.00541567662730813 0.005057783331722021 0.004975891672074795 0.005148008931428194 0.00554936658591032 0.006133770104497671 0.006831134669482708 0.007566723506897688 0.008284288458526134 0.008871780708432198 0.009285366162657738 0.009497914463281631
