ncols         20
nrows         20
xllcorner     0
yllcorner     -3.5992928
cellsize      0.17996463
NODATA_value  -9999
-9999.0 -9999 -9999 -9999 -9999 -9999 -9999 -9999 -9999 -9999 -9999 -9999 -9999 -9999 -9999 -9999 -9999 -9999 -9999 -9999
-9999 -9999 -9999 -9999 -9999 -9999 -9999 -9999 -9999 -9999 -9999 0 0 -9999 -9999 0 0 -9999 -9999 -9999
-9999 -9999 -9999 -9999 0 0 0 0 0 0 0 0 0 0 0 0 0 0 -9999 -9999
-9999 -9999 -9999 0 0 0 0 0 0 0 0 0 0 0 0 0 0 0 -9999 -9999
-9999 -9999 -9999 0 0 0 0 0 0 0 0 0 0 0 0 0 0 0 -9999 -9999
-9999 -9999 0 0 0 0 2.4631237983703613 2.0842509269714355 1.873083472251892 1.7295652627944946 1.632086157798767 1.6097939014434814 1.6793326139450073 1.8615987300872803 2.1667985916137695 2.675487518310547 0 0 0 -9999
-9999 -9999 0 0 0 2.2576799392700195 1.7164549827575684 1.4136892557144165 1.2155572175979614 1.0644044876098633 0.9554986953735352 0.9134619832038879 0.9549198746681213 1.0973111391067505 1.3602681159973145 1.8218514919281006 0 0 0 -9999
-9999 -9999 0 0 2.2706665992736816 1.6563327312469482 1.272606372833252 1.0197340250015259 0.8386934399604797 0.7021368145942688 0.6123146414756775 0.5730499625205994 0.5947878956794739 0.6887642741203308 0.8748766779899597 1.194355845451355 1.7184909582138062 0 0 -9999
-9999 0 0 2.497082471847534 1.7638214826583862 1.2928634881973267 0.9736786484718323 0.7488903999328613 0.5900095701217651 0.4819709360599518 0.4187493324279785 0.39212238788604736 0.4020610451698303 0.4586424231529236 0.5746611952781677 0.7775772213935852 1.0977026224136353 1.543696403503418 0 -9999
-9999 0 0 2.1606197357177734 1.4711788892745972 1.0365573167800903 0.7429801225662231 0.5417367219924927 0.410925030708313 0.3339800238609314 0.2954410910606384 0.2803722321987152 0.28705093264579773 0.3189527094364166 0.38870155811309814 0.5131235718727112 0.7187469005584717 1.0127062797546387 0 -9999
-9999 0 0 1.9355138540267944 1.2563495635986328 0.8414964079856873 0.5687995553016663 0.39119675755500793 0.28849801421165466 0.23545362055301666 0.21127107739448547 0.2034863978624344 0.20806574821472168 0.22704364359378815 0.2676984369754791 0.3441249430179596 0.4752272665500641 0 0 -9999
-9999 0 0 1.705439567565918 1.0614897012710571 0.6815078258514404 0.44089722633361816 0.29337918758392334 0.21457691490650177 0.17602942883968353 0.15946313738822937 0.15388303995132446 0.15654771029949188 0.1669778972864151 0.18932095170021057 0.23271484673023224 0.31101441383361816 0 0 -9999
-9999 0 0 1.419140338897705 0.8561564683914185 0.5360118746757507 0.34304121136665344 0.22938545048236847 0.17068511247634888 0.1436057686805725 0.13050173223018646 0.12613074481487274 0.12697747349739075 0.1328745186328888 0.14576131105422974 0.16949903964996338 0.21428388357162476 0 0 -9999
-9999 0 0 1.0976665019989014 0.6435815691947937 0.4006768465042114 0.2628812789916992 0.18516851961612701 0.1443047821521759 0.1255999356508255 0.11675863713026047 0.11339137703180313 0.11368425190448761 0.11749181896448135 0.1254609227180481 0.13990536332130432 0.16579723358154297 0 0 -9999
-9999 0 0 0.8183451890945435 0.4706416428089142 0.2971784770488739 0.20540723204612732 0.15483655035495758 0.12911944091320038 0.1159885972738266 0.10947946459054947 0.10677380114793777 0.1068928986787796 0.1096174493432045 0.11519970744848251 0.12485712021589279 0.14082887768745422 0 -9999 -9999
-9999 0 0 0.630462646484375 0.36391615867614746 0.23491890728473663 0.17097622156143188 0.13769260048866272 0.12004393339157104 0.11027970165014267 0.10513269901275635 0.10287012159824371 0.10295599699020386 0.10546717792749405 0.10996818542480469 0.1169910803437233 0.12748199701309204 0.13823530077934265 -9999 -9999
-9999 0 0 0.5125987529754639 0.30159473419189453 0.1987021416425705 0.15199285745620728 0.1275288164615631 0.1141115203499794 0.1064005196094513 0.10217870026826859 0.10062403976917267 0.10101497173309326 0.10287055373191833 0.10617301613092422 0.11106885224580765 0.1177980974316597 0.12436279654502869 0.12350539118051529 0.12346605956554413
-9999 -9999 0 0.4237765073776245 0.26148346066474915 0.17918777465820312 0.141143336892128 0.121438167989254 0.11036862432956696 0.10392794013023376 0.10088124871253967 0.09960567206144333 0.09974511712789536 0.10108545422554016 0.10347543656826019 0.10680698603391647 0.11086799949407578 0.11492952704429626 0.11666621267795563 0.11723735183477402
-9999 -9999 0 0 0.23727039992809296 0.16703414916992188 0.134614497423172 0.11770783364772797 0.10838493704795837 0.10327905416488647 0.10034392774105072 0.09903599321842194 0.09900348633527756 0.09999490529298782 0.10178928822278976 0.10417675971984863 0.10686425864696503 0.10931268334388733 0.11077437549829483 0.1114116832613945
-9999 -9999 -9999 0 0.22167840600013733 0.16133075952529907 0.13176342844963074 0.1161353811621666 0.10793700814247131 0.10298947244882584 0.1001109927892685 0.0987820029258728 0.09866183996200562 0.09948064386844635 0.10099056363105774 0.1029445081949234 0.10506397485733032 0.10692057013511658 0.10816598683595657 0.10876645147800446
