ncols         20
nrows         20
xllcorner     0
yllcorner     -3.5992928
cellsize      0.17996463
NODATA_value  -9999
-9999.0 -9999 -9999 -9999 -9999 -9999 -9999 -9999 -9999 -9999 -9999 -9999 -9999 -9999 -9999 -9999 -9999 -9999 -9999 -9999
-9999 -9999 -9999 -9999 -9999 -9999 -9999 -9999 -9999 -9999 -9999 12.168587684631348 12.150218963623047 -9999 -9999 12.24329662322998 12.093284606933594 -9999 -9999 -9999
-9999 -9999 -9999 -9999 12.1060209274292 12.211277961730957 12.397360801696777 12.48043441772461 12.49169921875 12.506980895996094 12.339797019958496 12.354846954345703 12.461645126342773 12.555750846862793 12.518070220947266 12.401885986328125 12.27611255645752 12.21430492401123 -9999 -9999
-9999 -9999 -9999 12.237897872924805 12.269688606262207 12.294143676757812 12.346631050109863 12.352853775024414 12.357010841369629 12.34647274017334 12.375701904296875 12.443678855895996 12.56572437286377 12.658590316772461 12.735389709472656 12.719280242919922 12.664637565612793 12.631871223449707 -9999 -9999
-9999 -9999 -9999 12.403848648071289 12.356241226196289 12.315555572509766 12.124637603759766 11.950638771057129 11.76783275604248 11.566431999206543 11.38919448852539 11.350969314575195 11.531169891357422 11.890368461608887 12.312191009521484 12.679644584655762 13.021092414855957 13.334081649780273 -9999 -9999
-9999 -9999 12.697184562683105 12.623976707458496 12.434172630310059 12.015130996704102 11.133529663085938 10.627511978149414 10.128022193908691 9.50068187713623 8.838690757751465 8.525146484375 8.71049976348877 9.430401802062988 10.396113395690918 11.413811683654785 12.812435150146484 13.551340103149414 13.789640426635742 -9999
-9999 -9999 12.92744255065918 12.721456527709961 12.301596641540527 11.30460262298584 10.483924865722656 9.697259902954102 8.752307891845703 7.624217987060547 6.5736212730407715 6.0249457359313965 6.162048816680908 7.012445449829102 8.350775718688965 9.964475631713867 11.88650131225586 13.078727722167969 13.632061958312988 -9999
-9999 -9999 13.447914123535156 12.924650192260742 11.85805892944336 10.921414375305176 9.904374122619629 8.711624145507812 7.355757713317871 5.974592208862305 4.8991804122924805 4.314173698425293 4.36014986038208 5.058218479156494 6.3363213539123535 8.021380424499512 9.84937858581543 11.697003364562988 12.621036529541016 -9999
-9999 14.796380043029785 14.252307891845703 12.81497573852539 11.722061157226562 10.479351997375488 8.991701126098633 7.3360819816589355 5.745795249938965 4.442230701446533 3.579392433166504 3.131423234939575 3.1022541522979736 3.565375328063965 4.510526657104492 5.9376630783081055 7.657207489013672 9.310861587524414 10.605779647827148 -9999
-9999 15.484945297241211 14.865968704223633 13.028104782104492 11.423209190368652 9.557785987854004 7.52073335647583 5.561997413635254 4.011666297912598 2.9928359985351562 2.436771869659424 2.1614396572113037 2.143798828125 2.3974242210388184 3.0154216289520264 4.0347676277160645 5.463195323944092 6.930072784423828 8.041210174560547 -9999
-9999 16.228200912475586 15.338682174682617 12.92016887664795 10.678190231323242 8.292482376098633 5.899627208709717 3.8671908378601074 2.5308477878570557 1.7990565299987793 1.4470247030258179 1.300614356994629 1.2928783893585205 1.4347113370895386 1.7881457805633545 2.4489219188690186 3.4260740280151367 4.621882438659668 5.3399457931518555 -9999
-9999 16.359914779663086 15.122193336486816 12.128738403320312 9.423394203186035 6.831209182739258 4.440633773803711 2.6129276752471924 1.5402930974960327 0.9987210631370544 0.7613670229911804 0.6598816514015198 0.6483506560325623 0.7017378807067871 0.8592116832733154 1.2023714780807495 1.7865327596664429 2.523139476776123 2.951253652572632 -9999
-9999 15.303522109985352 13.734447479248047 10.381956100463867 7.5959858894348145 5.1788105964660645 3.164466619491577 1.7203110456466675 0.9163457155227661 0.5489380955696106 0.36117199063301086 0.2866132855415344 0.2597104609012604 0.26736709475517273 0.3235747516155243 0.4519125819206238 0.7366598844528198 1.1239523887634277 1.3874015808105469 -9999
-9999 13.019834518432617 11.29443645477295 7.9670562744140625 5.3810133934021 3.441093683242798 2.011456251144409 1.0613887310028076 0.5275095701217651 0.29991814494132996 0.19240330159664154 0.1411941945552826 0.11595708131790161 0.10857833921909332 0.11615900695323944 0.14983972907066345 0.22959443926811218 0.4045042395591736 0.5706517696380615 -9999
-9999 10.477689743041992 8.803885459899902 5.721532344818115 3.4720778465270996 2.0499141216278076 1.1513323783874512 0.5910612344741821 0.3140829801559448 0.18173839151859283 0.1172613650560379 0.08215036243200302 0.06313273310661316 0.054102227091789246 0.05049605295062065 0.05509863421320915 0.06927110999822617 0.11127033829689026 -9999 -9999
-9999 8.651073455810547 7.028682231903076 4.237017631530762 2.3264100551605225 1.2290905714035034 0.6436718106269836 0.34275829792022705 0.19619962573051453 0.11974350363016129 0.07975319772958755 0.0560830719769001 0.04496348649263382 0.04925099015235901 0.054652247577905655 0.060502007603645325 0.06608965992927551 0.07042144238948822 -9999 -9999
-9999 7.393431663513184 5.727445602416992 3.3543448448181152 1.7052021026611328 0.7726967930793762 0.38950181007385254 0.20798659324645996 0.12297839671373367 0.07838358730077744 0.054291244596242905 0.0481618233025074 0.05164344981312752 0.05683743581175804 0.06311403214931488 0.0699416846036911 0.07704390585422516 0.08489684015512466 0.09660351276397705 0.10205486416816711
-9999 -9999 4.34132194519043 2.71273136138916 1.3257468938827515 0.5615853071212769 0.2600124776363373 0.13475379347801208 0.07954324036836624 0.05292210727930069 0.05213266238570213 0.053971193730831146 0.05808749049901962 0.06399491429328918 0.07096148282289505 0.07837346196174622 0.08587129414081573 0.09322889894247055 0.10023052990436554 0.10382679849863052
-9999 -9999 3.0865159034729004 2.1267871856689453 1.0535167455673218 0.42377257347106934 0.1836773008108139 0.09050546586513519 0.05965634435415268 0.05672578886151314 0.056425031274557114 0.05869727581739426 0.06327831745147705 0.06964597851037979 0.07698748260736465 0.08458448946475983 0.09189719706773758 0.09824953973293304 0.10299588739871979 0.10547001659870148
-9999 -9999 -9999 1.7361738681793213 0.8990316987037659 0.368630051612854 0.15467634797096252 0.07430361211299896 0.06150514632463455 0.05889217555522919 0.0588359571993351 0.06130525842308998 0.06611474603414536 0.07270783931016922 0.08023052662611008 0.08782727271318436 0.0949464961886406 0.10056588053703308 0.10446010529994965 0.10645116120576859
