ncols         20
nrows         20
xllcorner     0
yllcorner     -3.5992928
cellsize      0.17996463
NODATA_value  -9999
-9999.0 -9999 -9999 -9999 -9999 -9999 -9999 -9999 -9999 -9999 -9999 -9999 -9999 -9999 -9999 -9999 -9999 -9999 -9999 -9999
-9999 -9999 -9999 -9999 -9999 -9999 -9999 -9999 -9999 -9999 -9999 0 0 -9999 -9999 0 0 -9999 -9999 -9999
-9999 -9999 -9999 -9999 0 0 0 0 0 0 0 0 0 0 0 0 0 0 -9999 -9999
-9999 -9999 -9999 0 0 0 0 0 0 0 0 0 0 0 0 0 0 0 -9999 -9999
-9999 -9999 -9999 0 0 0 0 0 0 0 0 0 0 0 0 0 0 0 -9999 -9999
-9999 -9999 0 0 0 0 0 0 0 0 0 0 0 0 0 0 0 0 0 -9999
-9999 -9999 0 0 0 0 0 0 0 0 0 0 0 0 0 0 0 0 0 -9999
-9999 -9999 0 0 0 0 0 9.987809181213379 5.401756763458252 3.8062751293182373 2.9813997745513916 3.0465595722198486 0 0 0 0 0 0 0 -9999
-9999 0 0 0 0 0 0 5.618409633636475 2.1392648220062256 1.3354753255844116 1.1072951555252075 1.302948236465454 0 0 0 0 0 0 0 -9999
-9999 0 0 0 0 0 0 3.701862335205078 1.2142084836959839 0.6959593296051025 0.5889238119125366 0.69544517993927 0 0 0 0 0 0 0 -9999
-9999 0 0 0 0 0 0 2.2940540313720703 0.7171947956085205 0.38560667634010315 0.3068603277206421 0.3311212360858917 0 0 0 0 0 0 0 -9999
-9999 0 0 0 0 0 0 1.389272689819336 0.42716294527053833 0.2016609013080597 0.13750191032886505 0.12071584910154343 0 0 0 0 0 0 0 -9999
-9999 0 0 0 0 0 0 0 0 0 0 0 0 0 0 0 0 0 0 -9999
-9999 0 0 0 0 0 0 0 0 0 0 0 0 0 0 0 0 0 0 -9999
-9999 0 0 0 0 0 0 0 0 0 0 0 0 0 0 0 0 0 -9999 -9999
-9999 0 0 0 0 0 0 0 0 0 0 0 0 0 0 0 0 0 -9999 -9999
-9999 0 0 0 0 0 0 0 0 0 0 0 0 0 0 0 0 0 0 0
-9999 -9999 0 0 0 0 0 0 0 0 0 0 0 0 0 0 0 0 0 0
-9999 -9999 0 0 0 0 0 0 0 0 0 0 0 0 0 0 0 0 0 0
-9999 -9999 -9999 0 0 0 0 0 0 0 0 0 0 0 0 0 0 0 0 0
