ncols         20
nrows         20
xllcorner     0
yllcorner     -3.5992928
cellsize      0.17996463
NODATA_value  -9999
-9999.0 -9999 -9999 -9999 -9999 -9999 -9999 -9999 -9999 -9999 -9999 -9999 -9999 -9999 -9999 -9999 -9999 -9999 -9999 -9999
-9999 -9999 -9999 -9999 -9999 -9999 -9999 -9999 -9999 -9999 -9999 1.1194919347763062 1.1182758808135986 -9999 -9999 1.143670916557312 1.1304062604904175 -9999 -9999 -9999
-9999 -9999 -9999 -9999 1.1166865825653076 1.1261942386627197 1.1413358449935913 1.1464401483535767 1.1460541486740112 1.1480718851089478 1.1362937688827515 1.141024112701416 1.1517469882965088 1.1608409881591797 1.1602462530136108 1.1545907258987427 1.1419603824615479 1.1304618120193481 -9999 -9999
-9999 -9999 -9999 1.1270909309387207 1.1357626914978027 1.145788550376892 1.1564611196517944 1.1598371267318726 1.1615829467773438 1.161361575126648 1.1646900177001953 1.1720467805862427 1.1827963590621948 1.1900054216384888 1.1956909894943237 1.1906827688217163 1.1747773885726929 1.1604727506637573 -9999 -9999
-9999 -9999 -9999 1.142093300819397 1.1539760828018188 1.1740468740463257 1.183209776878357 1.1821684837341309 1.1733993291854858 1.1562271118164062 1.1344977617263794 1.1258405447006226 1.140029788017273 1.1717689037322998 1.2026926279067993 1.2172809839248657 1.2118257284164429 1.2135732173919678 -9999 -9999
-9999 -9999 1.1435976028442383 1.1601495742797852 1.1805721521377563 1.1975560188293457 1.19621741771698 1.1801890134811401 1.1398086547851562 1.0654629468917847 0.9779362678527832 0.9323267936706543 0.9492019414901733 1.0302040576934814 1.1294686794281006 1.1904551982879639 1.2200658321380615 1.228621006011963 1.2156623601913452 -9999
-9999 -9999 1.1586642265319824 1.177649736404419 1.2073795795440674 1.2174192667007446 1.201897382736206 1.1552993059158325 1.0574527978897095 0.913711667060852 0.7704702615737915 0.6924432516098022 0.7051467299461365 0.8111874461174011 0 1.0980634689331055 1.1796969175338745 1.2125968933105469 1.2199790477752686 -9999
-9999 -9999 1.1919749975204468 1.214959979057312 1.2361297607421875 1.2258623838424683 1.1792794466018677 1.0767226219177246 0.9214473366737366 0.7412917613983154 0.5936954617500305 0.5110048055648804 0.5124000310897827 0.5982078313827515 0.7521777749061584 0.9227189421653748 1.0577043294906616 1.14339280128479 1.175426959991455 -9999
-9999 1.204225778579712 1.2317780256271362 1.2497843503952026 1.24665105342865 1.1953816413879395 1.082616925239563 0.9127846956253052 0.7234078645706177 0.5556979179382324 0.4402124583721161 0.37812578678131104 0.3709512948989868 0.4268330931663513 0.5422863364219666 0 0.8652099370956421 0.9858905076980591 1.04342520236969 -9999
-9999 1.2398966550827026 1.2603318691253662 1.262786626815796 1.2110260725021362 1.0851390361785889 0.8942968845367432 0.6785087585449219 0.49449047446250916 0.3691765367984772 0.29911306500434875 0.26295778155326843 0.25866374373435974 0.28796446323394775 0.3619120419025421 0 0.6260616779327393 0.7550469636917114 0.8213674426078796 -9999
-9999 1.2723921537399292 1.2729068994522095 1.229196548461914 1.1190348863601685 0.9268630743026733 0.6839980483055115 0.45619985461235046 0.3018001317977905 0.21676790714263916 0.17565029859542847 0.1580030620098114 0.15613017976284027 0.1715620905160904 0.21139642596244812 0.2852765619754791 0.3857950270175934 0.49352532625198364 0.5509942173957825 -9999
-9999 1.262656569480896 1.2351057529449463 1.1401453018188477 0.9728120565414429 0.7475156784057617 0.5006164312362671 0.29887914657592773 0.17896194756031036 0.11843257397413254 0.09162894636392593 0.08000772446393967 0 0 0.10022925585508347 0 0.19732823967933655 0.265938937664032 0.30365362763404846 -9999
-9999 1.1798326969146729 1.1212233304977417 0.9646538496017456 0.7680577039718628 0.5518912076950073 0.34725555777549744 0.19245289266109467 0.10478884726762772 0.06450729072093964 0.04201607406139374 0.03359441086649895 0 0 0 0.049586955457925797 0.08080074936151505 0.1179836168885231 0.1419946402311325 -9999
-9999 1.0206021070480347 0.9284420609474182 0.7291958928108215 0.5286886692047119 0.35515502095222473 0.21503601968288422 0.11647748202085495 0.05816434696316719 0.034535739570856094 0.023229194805026054 0.01784178614616394 0 0 0 0.01798097789287567 0.025903811678290367 0.04225815460085869 0.05614339932799339 -9999
-9999 0.8381438255310059 0.7303758859634399 0.5164704322814941 0.3319377899169922 0.20575174689292908 0.1203911304473877 0.06287934631109238 0.03515832498669624 0.022167032584547997 0.015805378556251526 0.01221868209540844 0.010169561952352524 0.009166414849460125 0 0 0.010591120459139347 0.015475332736968994 -9999 -9999
-9999 0.7058418989181519 0.5913127660751343 0.381551593542099 0.21987827122211456 0.12150757759809494 0.06550029665231705 0.03712780028581619 0.023452026769518852 0.016264058649539948 0 0 0 0.010209180414676666 0 0 0.012932906858623028 0 -9999 -9999
-9999 0.6110203862190247 0.49042853713035583 0.3050524890422821 0.16189776360988617 0.07514581084251404 0.04036165401339531 0.02398695982992649 0.0163261815905571 0 0 0 0 0.013097378425300121 0.01453868206590414 0.01574825309216976 0.016749870032072067 0.017817925661802292 0 0
-9999 -9999 0.38502204418182373 0.2514055669307709 0.12802624702453613 0.055736005306243896 0.02827806957066059 0.016962680965662003 0 0 0 0 0 0 0 0 0 0 0 0
-9999 -9999 0.2771756947040558 0.19762715697288513 0.1028701439499855 0.0431683287024498 0.021071599796414375 0.012485439889132977 0 0 0 0 0 0 0 0 0 0 0 0
-9999 -9999 -9999 0.16474004089832306 0.08719640225172043 0.03807463496923447 0.018326643854379654 0.010857043787837029 0 0 0 0 0 0 0 0 0 0 0 0
