ncols         20
nrows         20
xllcorner     0
yllcorner     -3.5992928
cellsize      0.17996463
NODATA_value  -9999
-9999.0 -9999 -9999 -9999 -9999 -9999 -9999 -9999 -9999 -9999 -9999 -9999 -9999 -9999 -9999 -9999 -9999 -9999 -9999 -9999
-9999 -9999 -9999 -9999 -9999 -9999 -9999 -9999 -9999 -9999 -9999 26.044540405273438 26.039634704589844 -9999 -9999 26.160234451293945 26.239364624023438 -9999 -9999 -9999
-9999 -9999 -9999 -9999 26.178651809692383 26.066272735595703 25.898996353149414 25.76923942565918 25.692481994628906 25.6640625 25.727399826049805 25.810203552246094 25.76381492614746 25.63883399963379 25.695096969604492 25.907777786254883 26.03813934326172 26.05479621887207 -9999 -9999
-9999 -9999 -9999 26.149261474609375 26.105504989624023 26.01137924194336 25.894136428833008 25.814424514770508 25.760540008544922 25.724456787109375 25.69955825805664 25.662174224853516 25.565366744995117 25.470705032348633 25.469919204711914 25.576370239257812 25.68187141418457 25.718294143676758 -9999 -9999
-9999 -9999 -9999 26.033506393432617 25.996192932128906 25.948932647705078 25.956592559814453 26.033447265625 26.113258361816406 26.156734466552734 26.14896011352539 26.05074691772461 25.838470458984375 25.592056274414062 25.404138565063477 25.325069427490234 25.292850494384766 25.241228103637695 -9999 -9999
-9999 -9999 25.85796546936035 25.860681533813477 25.85708236694336 25.96735191345215 26.289756774902344 26.77260971069336 27.191333770751953 27.484905242919922 27.632368087768555 27.495357513427734 27.040321350097656 26.450571060180664 25.894630432128906 25.46398162841797 25.17858123779297 24.981204986572266 24.832950592041016 -9999
-9999 -9999 25.62490463256836 25.632352828979492 25.726470947265625 26.13536834716797 27.040252685546875 28.3922061920166 29.45374298095703 30.09644889831543 30.3176212310791 30.01656723022461 29.162425994873047 28.11670684814453 27.06611442565918 26.199953079223633 25.5759334564209 25.182235717773438 24.981712341308594 -9999
-9999 -9999 25.196386337280273 25.269304275512695 25.578466415405273 26.459287643432617 28.245094299316406 31.052967071533203 32.65760040283203 33.38593292236328 33.48338317871094 32.9053955078125 31.500741958618164 30.091732025146484 28.752742767333984 27.532772064208984 26.55858612060547 25.907215118408203 25.583181381225586 -9999
-9999 24.512250900268555 24.685260772705078 24.906099319458008 25.510482788085938 26.87799644470215 29.36509895324707 32.717994689941406 34.58329772949219 35.365135192871094 35.41521072387695 34.756317138671875 33.291839599609375 31.841821670532227 30.48987579345703 29.212635040283203 28.07379913330078 27.21714210510254 26.781753540039062 -9999
-9999 24.238048553466797 24.374807357788086 24.76738739013672 25.728530883789062 27.543413162231445 30.423542022705078 33.77080535888672 35.63500213623047 36.41367721557617 36.46485900878906 35.850990295410156 34.52156066894531 33.20609664916992 32.00042724609375 30.865108489990234 29.808467864990234 28.962661743164062 28.49846649169922 -9999
-9999 24.049848556518555 24.314834594726562 25.00872802734375 26.360023498535156 28.522789001464844 31.443124771118164 34.48268508911133 36.185157775878906 36.914154052734375 36.98839569091797 36.47260665893555 35.32703399658203 34.200050354003906 33.18791961669922 32.255531311035156 31.394914627075195 30.688749313354492 30.286008834838867 -9999
-9999 24.27789878845215 24.735271453857422 25.760379791259766 27.410593032836914 29.68762969970703 32.31382751464844 34.846534729003906 36.302276611328125 36.96735382080078 37.08502197265625 36.70863723754883 35.801673889160156 34.90774154663086 34.098426818847656 33.346221923828125 32.651702880859375 32.08738327026367 31.756328582763672 -9999
-9999 25.12938117980957 25.77405548095703 27.068199157714844 28.858715057373047 30.89842987060547 32.967708587646484 34.786033630371094 35.9637451171875 36.5742073059082 36.75921630859375 36.56414794921875 36.053646087646484 35.46827697753906 34.874717712402344 34.274471282958984 33.66350555419922 33.153778076171875 32.810970306396484 -9999
-9999 26.53426170349121 27.30510711669922 28.736507415771484 30.396595001220703 32.04996109008789 33.5728874206543 34.8572883605957 35.77656555175781 36.29976272583008 36.51812744140625 36.48984909057617 36.27476501464844 35.965911865234375 35.59534454345703 35.149314880371094 34.641239166259766 34.11903381347656 33.52753448486328 -9999
-9999 28.121688842773438 28.932790756225586 30.276763916015625 31.704145431518555 33.00393295288086 34.1342658996582 35.08393096923828 35.765201568603516 36.20644760131836 36.44914245605469 36.544593811035156 36.53069305419922 36.438838958740234 36.27631759643555 36.019161224365234 35.690101623535156 35.36084747314453 -9999 -9999
-9999 29.40970802307129 30.22758674621582 31.440868377685547 32.65548324584961 33.73274230957031 34.65049362182617 35.367584228515625 35.90056610107422 36.275691986083984 36.52280807495117 36.689613342285156 36.798526763916016 36.85238265991211 36.841556549072266 36.75849914550781 36.63534164428711 36.57891082763672 -9999 -9999
-9999 30.20176124572754 31.21295166015625 32.28070831298828 33.33626174926758 34.31114959716797 35.08491516113281 35.693878173828125 36.1480712890625 36.47781753540039 36.71635055541992 36.91051483154297 37.076053619384766 37.20488357543945 37.28252029418945 37.302513122558594 37.295555114746094 37.34306335449219 37.58000564575195 37.681819915771484
-9999 -9999 32.275047302246094 32.97092056274414 33.841495513916016 34.72032165527344 35.44992446899414 36.02592849731445 36.44770812988281 36.747283935546875 36.96455001831055 37.15730285644531 37.34043884277344 37.50936508178711 37.627803802490234 37.68710708618164 37.71757888793945 37.747554779052734 37.80650329589844 37.81903076171875
-9999 -9999 32.850589752197266 33.46226119995117 34.20219802856445 35.018497467041016 35.742305755615234 36.31956481933594 36.7302131652832 37.00284194946289 37.1919059753418 37.372962951660156 37.56070327758789 37.74209976196289 37.872947692871094 37.945377349853516 37.98191833496094 37.984840393066406 37.961238861083984 37.94411849975586
-9999 -9999 -9999 33.87073516845703 34.44538116455078 35.181968688964844 35.8982048034668 36.47708511352539 36.878292083740234 37.135684967041016 37.31366729736328 37.48077392578125 37.66914749145508 37.85676193237305 37.99965286254883 38.0767936706543 38.1221923828125 38.09739685058594 38.0572509765625 38.03362274169922
