ncols         20
nrows         20
xllcorner     0
yllcorner     -3.5992928
cellsize      0.17996463
NODATA_value  -9999
-9999.0 -9999 -9999 -9999 -9999 -9999 -9999 -9999 -9999 -9999 -9999 -9999 -9999 -9999 -9999 -9999 -9999 -9999 -9999 -9999
-9999 -9999 -9999 -9999 -9999 -9999 -9999 -9999 -9999 -9999 -9999 0.472572386264801 0.46309298276901245 -9999 -9999 0.4175975024700165 0.3915480375289917 -9999 -9999 -9999
-9999 -9999 -9999 -9999 0.5052312612533569 0.5397806167602539 0.6013271808624268 0.6493828892707825 0.6773326992988586 0.6913996338844299 0.6222549676895142 0.5711327195167542 0.5662197470664978 0.5654016733169556 0.5137897729873657 0.45242252945899963 0.40955212712287903 0.3827379047870636 -9999 -9999
-9999 -9999 -9999 0.48278915882110596 0.5195546746253967 0.5670346617698669 0.6340880990028381 0.6979979872703552 0.7644842863082886 0.8168194890022278 0.8460583686828613 0.8332981467247009 0.8125787377357483 0.7465607523918152 0.655698299407959 0.5539493560791016 0.475589394569397 0.4337380826473236 -9999 -9999
-9999 -9999 -9999 0.4835558235645294 0.5273112058639526 0.6129510402679443 0.7148299813270569 0.8296937942504883 0.9668457508087158 1.1423741579055786 1.3070298433303833 1.3779085874557495 1.3291773796081543 1.1504478454589844 0.9528921842575073 0.7534418106079102 0.6107590198516846 0.5732887983322144 -9999 -9999
-9999 -9999 0.40708720684051514 0.46745333075523376 0.5456660985946655 0.6611807942390442 0.7998641133308411 0.9723844528198242 1.2274351119995117 1.5488523244857788 1.8835140466690063 2.0413315296173096 2.0007290840148926 1.7264753580093384 1.3699501752853394 1.050538420677185 0.8260097503662109 0.7341911792755127 0.6717365980148315 -9999
-9999 -9999 0.40760648250579834 0.4624314308166504 0.5781948566436768 0.7363298535346985 0.9196707606315613 1.1655042171478271 1.514484167098999 1.947532296180725 2.3770911693573 2.619749069213867 2.600640058517456 2.3214592933654785 0 1.4719011783599854 1.1442238092422485 0.9429453611373901 0.8609910607337952 -9999
-9999 -9999 0.43152737617492676 0.5092334747314453 0.6669459342956543 0.8723974823951721 1.1306235790252686 1.4546525478363037 1.8442214727401733 2.2878975868225098 2.664900779724121 2.91119122505188 2.937016725540161 2.741071939468384 2.3895504474639893 1.9554082155227661 1.567658543586731 1.288002371788025 1.1736869812011719 -9999
-9999 0.39405205845832825 0.4777984917163849 0.6066829562187195 0.8373914957046509 1.138880968093872 1.4822217226028442 1.8815237283706665 2.2826433181762695 2.639991521835327 2.8982858657836914 3.0722928047180176 3.1423990726470947 3.0558865070343018 2.847268581390381 0 2.0689663887023926 1.7317529916763306 1.5856486558914185 -9999
-9999 0.4617038369178772 0.5581054091453552 0.7754024863243103 1.1064075231552124 1.5163424015045166 1.9656747579574585 2.4173505306243896 2.785562753677368 3.0283071994781494 3.1618833541870117 3.2701709270477295 3.3435590267181396 3.350464105606079 3.2501609325408936 0 2.614323854446411 2.26084041595459 2.1026535034179688 -9999
-9999 0.6028776168823242 0.7264459133148193 1.0066800117492676 1.403663992881775 1.8858925104141235 2.4124348163604736 2.89127516746521 3.1992835998535156 3.35435152053833 3.441460609436035 3.5355136394500732 3.6517820358276367 3.6998023986816406 3.641273260116577 3.4873385429382324 3.167330741882324 2.8455374240875244 2.6903631687164307 -9999
-9999 0.8414320945739746 0.9872226715087891 1.322667121887207 1.7563300132751465 2.2457051277160645 2.762965440750122 3.1837737560272217 3.4038517475128174 3.4957926273345947 3.5695717334747314 3.7102274894714355 0 0 3.9809036254882812 0 3.6388742923736572 3.3818674087524414 3.2456862926483154 -9999
-9999 1.199091911315918 1.3819667100906372 1.7752094268798828 2.194690227508545 2.6281046867370605 3.0399978160858154 3.3353219032287598 3.43978214263916 3.4501616954803467 3.488084554672241 3.6156890392303467 0 0 0 3.8541011810302734 3.7662010192871094 3.663372278213501 3.552239418029785 -9999
-9999 1.6446164846420288 1.859130620956421 2.2907330989837646 2.6885251998901367 3.014029026031494 3.260946750640869 3.384582757949829 3.378397226333618 3.334078788757324 3.325408458709717 3.376002550125122 0 0 0 3.3942553997039795 3.4376955032348633 3.580853223800659 3.514768123626709 -9999
-9999 2.0444674491882324 2.264826536178589 2.7060811519622803 3.054088592529297 3.2482950687408447 3.332834482192993 3.33012056350708 3.2772915363311768 3.230210304260254 3.214353561401367 3.166351318359375 3.091468095779419 2.978098154067993 0 0 2.785792827606201 3.0666842460632324 -9999 -9999
-9999 2.281033992767334 2.4988279342651367 2.9140121936798096 3.1811656951904297 3.2647805213928223 3.2495973110198975 3.198864221572876 3.1747851371765137 3.186903953552246 0 0 0 2.615222215652466 0 0 2.1013219356536865 0 -9999 -9999
-9999 2.4490978717803955 2.6401519775390625 2.9828498363494873 3.177412986755371 3.169525146484375 3.0889055728912354 3.0241096019744873 3.043546438217163 0 0 0 0 2.340092182159424 2.061739921569824 1.8253393173217773 1.642714262008667 1.497900366783142 0 0
-9999 -9999 2.757927179336548 3.001493215560913 3.1314876079559326 3.0520758628845215 2.90818452835083 2.829657793045044 0 0 0 0 0 0 0 0 0 0 0 0
-9999 -9999 2.9204185009002686 3.028024196624756 3.0739455223083496 2.9213078022003174 2.710749387741089 2.586575746536255 0 0 0 0 0 0 0 0 0 0 0 0
-9999 -9999 -9999 3.0273001194000244 3.0377960205078125 2.855966806411743 2.608423948287964 2.462022542953491 0 0 0 0 0 0 0 0 0 0 0 0
