ncols         20
nrows         20
xllcorner     0
yllcorner     -3.5992928
cellsize      0.17996463
NODATA_value  -9999
-9999.0 -9999 -9999 -9999 -9999 -9999 -9999 -9999 -9999 -9999 -9999 -9999 -9999 -9999 -9999 -9999 -9999 -9999 -9999 -9999
-9999 -9999 -9999 -9999 -9999 -9999 -9999 -9999 -9999 -9999 -9999 2.90647029876709 2.9223289489746094 -9999 -9999 3.278224229812622 3.3020927906036377 -9999 -9999 -9999
-9999 -9999 -9999 -9999 3.0721962451934814 2.991495370864868 2.879687547683716 2.770455837249756 2.6867167949676514 2.64309024810791 2.6506967544555664 2.7353899478912354 2.7845101356506348 2.8203930854797363 2.9270410537719727 3.0964343547821045 3.182035207748413 3.2008285522460938 -9999 -9999
-9999 -9999 -9999 3.0440731048583984 2.979499340057373 2.8453140258789062 2.6921496391296387 2.560469150543213 2.4662697315216064 2.4145665168762207 2.407989740371704 2.4441566467285156 2.497781753540039 2.5727760791778564 2.688999652862549 2.8388609886169434 2.976987600326538 3.0600216388702393 -9999 -9999
-9999 -9999 -9999 2.9091594219207764 2.772706985473633 2.559741258621216 2.3279857635498047 2.1627256870269775 2.0569257736206055 1.9984257221221924 1.9807870388031006 1.9991854429244995 2.047696113586426 2.1298961639404297 2.257296085357666 2.4376754760742188 2.6630663871765137 2.8073673248291016 -9999 -9999
-9999 -9999 2.76934814453125 2.6943702697753906 2.4658043384552 2.1444544792175293 1.765378713607788 1.584179401397705 1.4877409934997559 1.4384218454360962 1.4214410781860352 1.4307458400726318 1.4654356241226196 1.5314253568649292 1.6452335119247437 1.8464059829711914 2.246354818344116 2.4666106700897217 2.473937511444092 -9999
-9999 -9999 2.5958447456359863 2.4096291065216064 2.076418876647949 1.650089979171753 1.385250449180603 1.2357361316680908 1.1538426876068115 1.112238883972168 1.0972158908843994 1.103176236152649 1.1305196285247803 1.1860935688018799 1.2872793674468994 1.4742882251739502 1.8451393842697144 2.1164073944091797 2.2407948970794678 -9999
-9999 -9999 2.3577892780303955 2.066972017288208 1.623888373374939 1.3253271579742432 1.1326704025268555 1.01688814163208 0.9517275094985962 0.9182096123695374 0.9057996273040771 0.9101741313934326 0.9319550395011902 0.9765229225158691 1.0557864904403687 1.1920123100280762 1.4162055253982544 1.7306889295578003 1.9083305597305298 -9999
-9999 2.3476927280426025 2.159468173980713 1.682576298713684 1.3443944454193115 1.1165907382965088 0.9690638780593872 0.8792223334312439 0.8272610902786255 0.7998510003089905 0.7894312143325806 0.7927454113960266 0.8100703954696655 0.8449656963348389 0.904687225818634 1.0005220174789429 1.1453359127044678 1.342444896697998 1.5674223899841309 -9999
-9999 2.253432035446167 2.002871513366699 1.491620421409607 1.1825268268585205 0.9883129596710205 0.867194414138794 0.7936232089996338 0.7502937912940979 0.7268174886703491 0.7174695730209351 0.7196335196495056 0.7332590818405151 0.7606258392333984 0.8063839673995972 0.8776366114616394 0.9833903908729553 1.132494568824768 1.3123009204864502 -9999
-9999 2.1320817470550537 1.8726240396499634 1.3752235174179077 1.0853040218353271 0.9101136326789856 0.8044880628585815 0.7405441999435425 0.7024837136268616 0.6814383268356323 0.6725735664367676 0.6735575199127197 0.6841485500335693 0.7059537768363953 0.7424270510673523 0.799546480178833 0.888007640838623 1.0305254459381104 1.1392133235931396 -9999
-9999 2.0013198852539062 1.7531757354736328 1.2907788753509521 1.0216351747512817 0.8611393570899963 0.7651569247245789 0.7071220874786377 0.6724497079849243 0.6529993414878845 0.6443644165992737 0.6442742347717285 0.6523818373680115 0.6699753999710083 0.69974684715271 0.7464689612388611 0.8189200758934021 0.9330316185951233 1.0122443437576294 -9999
-9999 1.863281488418579 1.634292483329773 1.2193479537963867 0.9737601280212402 0.8272443413734436 0.7389348149299622 0.6853641271591187 0.653263509273529 0.6349592208862305 0.6265827417373657 0.6255814433097839 0.6317321062088013 0.6460450887680054 0.6706520915031433 0.7094154953956604 0.7687321305274963 0.8602501153945923 0.9266891479492188 -9999
-9999 1.7175555229187012 1.511206865310669 1.1503251791000366 0.9320666193962097 0.8002059459686279 0.7196810245513916 0.6704461574554443 0.6408118605613708 0.6232215762138367 0.6145089864730835 0.6127201318740845 0.6173157095909119 0.6289256811141968 0.6492169499397278 0.681575357913971 0.7327005863189697 0.8104134798049927 0.881007194519043 -9999
-9999 1.574095606803894 1.389396071434021 1.0813870429992676 0.8924081325531006 0.776232123374939 0.7042322754859924 0.6596388220787048 0.631594717502594 0.6147464513778687 0.60599285364151 0.6035959124565125 0.6068878769874573 0.6160914301872253 0.6322848200798035 0.6578380465507507 0.6971055269241333 0.7451874613761902 -9999 -9999
-9999 1.4526047706604004 1.2809194326400757 1.018286943435669 0.8560581207275391 0.7550967931747437 0.6916313767433167 0.6506720781326294 0.6245357394218445 0.6085094809532166 0.5998262763023376 0.5969238877296448 0.59903883934021 0.6060519218444824 0.6184127330780029 0.6373904943466187 0.6650577187538147 0.6924667358398438 -9999 -9999
-9999 1.3731708526611328 1.1865851879119873 0.9645395874977112 0.8249563574790955 0.7376957535743713 0.6807376146316528 0.6434230804443359 0.6191830039024353 0.60400390625 0.5954971313476562 0.5921872854232788 0.5932421684265137 0.5982832312583923 0.607274055480957 0.6205541491508484 0.6386030316352844 0.6557302474975586 0.6526126265525818 0.6520716547966003
-9999 -9999 1.0556671619415283 0.9137993454933167 0.7996398210525513 0.7234326601028442 0.672174334526062 0.6379651427268982 0.6153594851493835 0.6009634137153625 0.5926395654678345 0.588998556137085 0.589168131351471 0.5926024913787842 0.5989124178886414 0.6077947020530701 0.6186145544052124 0.6293119788169861 0.6335242986679077 0.6347889304161072
-9999 -9999 1.002225399017334 0.8995481729507446 0.7875721454620361 0.7145869135856628 0.6665458679199219 0.6344154477119446 0.6129868030548096 0.599157452583313 0.5909507870674133 0.5870674252510071 0.5866153836250305 0.588936984539032 0.5934568643569946 0.5996161103248596 0.6066052317619324 0.6129553914070129 0.6166409254074097 0.6182066202163696
-9999 -9999 -9999 0.8594756126403809 0.7764095067977905 0.7091645002365112 0.6635475158691406 0.6326384544372559 0.6118520498275757 0.5983214378356934 0.5901762247085571 0.5861568450927734 0.5853856205940247 0.5871500372886658 0.5908021926879883 0.5956974029541016 0.6010799407958984 0.6058324575424194 0.6089985966682434 0.6105121374130249
