ncols         20
nrows         20
xllcorner     0
yllcorner     -3.5992928
cellsize      0.17996463
NODATA_value  -9999
-9999.0 -9999 -9999 -9999 -9999 -9999 -9999 -9999 -9999 -9999 -9999 -9999 -9999 -9999 -9999 -9999 -9999 -9999 -9999 -9999
-9999 -9999 -9999 -9999 -9999 -9999 -9999 -9999 -9999 -9999 -9999 0.1344349980354309 0.13454023003578186 -9999 -9999 0.13687077164649963 0.13705049455165863 -9999 -9999 -9999
-9999 -9999 -9999 -9999 0.133919820189476 0.1338915228843689 0.1338934600353241 0.1339467465877533 0.13406814634799957 0.13425542414188385 0.13446524739265442 0.12450788915157318 0.12483559548854828 0.13573062419891357 0.13635604083538055 0.12665784358978271 0.12719228863716125 0.1381903439760208 -9999 -9999
-9999 -9999 -9999 0.13419586420059204 0.12397339940071106 0.10549367219209671 0.10552753508090973 0.10562554001808167 0.1057901531457901 0.1060073971748352 0.10625489056110382 0.09844665229320526 0.09876220673322678 0.10733847320079803 0.10785932838916779 0.10028135031461716 0.10918977856636047 0.13928914070129395 -9999 -9999
-9999 -9999 -9999 0.1344207525253296 0.10577000677585602 0.07699905335903168 0.0710611417889595 0.07121922820806503 0.0714341476559639 0.07168551534414291 0.07194747030735016 0.06680312752723694 0.06706628203392029 0.0728493183851242 0.07328950613737106 0.07391541451215744 0.11093681305646896 0.14156019687652588 -9999 -9999
-9999 -9999 0.13492749631404877 0.12464603781700134 0.0981140285730362 0.06600531190633774 0.040932293981313705 0.041103992611169815 0.04132450744509697 0.04156317561864853 0.04179989546537399 0.03876103088259697 0.03898497298359871 0.04257556423544884 0.04297991842031479 0.07015404105186462 0.10510583966970444 0.13466285169124603 0.14782747626304626 -9999
-9999 -9999 0.13533927500247955 0.10656476020812988 0.07771424204111099 0.05242693051695824 0.03000994771718979 0.02032923512160778 0.020501192659139633 0.02068219520151615 0.020861083641648293 0.019419722259044647 0.019614670425653458 0.02153049036860466 0.032450951635837555 0.05745774507522583 0.0858784094452858 0.11857147514820099 0.15140558779239655 -9999
-9999 -9999 0.13612619042396545 0.10728756338357925 0.07226449996232986 0.04161669313907623 0.020502259954810143 0.010104099288582802 0.008733490481972694 0.008846032433211803 0.008961626328527927 0.008395259268581867 0.008558912202715874 0.011140529066324234 0.023176511749625206 0.04755169153213501 0.08297745138406754 0.1236061304807663 0.15715976059436798 -9999
-9999 0.13786651194095612 0.12711787223815918 0.10019315779209137 0.06768083572387695 0.03896453604102135 0.019274534657597542 0.008161205798387527 0.003213302232325077 0.003281188663095236 0.0033511652145534754 0.0031584089156240225 0.003550389315932989 0.010217293165624142 0.024637291207909584 0.05030156672000885 0.08743903040885925 0.12976868450641632 0.1646248698234558 -9999
-9999 0.13950634002685547 0.10985969007015228 0.08027063310146332 0.05435638502240181 0.03148268908262253 0.015578076243400574 0.0066131423227488995 0.0024499299470335245 0.001634292071685195 0.0016890255501493812 0.0017371642170473933 0.0038240444846451283 0.01088900025933981 0.026123646646738052 0.05321580544114113 0.09237059950828552 0.1369079351425171 0.17348062992095947 -9999
-9999 0.14242492616176605 0.1123422235250473 0.07584970444440842 0.043874215334653854 0.02174212969839573 0.010786172933876514 0.004616506863385439 0.0017248984659090638 0.0017336206510663033 0.0018000684212893248 0.0018554754788056016 0.004074584227055311 0.011540530249476433 0.027609528973698616 0.056186940521001816 0.09748325496912003 0.14440806210041046 0.18288235366344452 -9999
-9999 0.1465299129486084 0.11571511626243591 0.07829012721776962 0.045409563928842545 0.02255921997129917 0.009596563875675201 0.0035190118942409754 0.0017376405885443091 0.001823850441724062 0.0018989411182701588 0.002072290051728487 0.006004698574542999 0.014382419176399708 0.029085448011755943 0.05914466455578804 0.10254262387752533 0.15171794593334198 0.19184547662734985 -9999
-9999 0.15175706148147583 0.11999613046646118 0.08136609196662903 0.04727748781442642 0.023666726425290108 0.010090962052345276 0.003710646415129304 0.0018137556035071611 0.001903174095787108 0.0019850553944706917 0.003240490797907114 0.009349559433758259 0.022369451820850372 0.045736342668533325 0.0791814774274826 0.11661295592784882 0.15855145454406738 0.1995159536600113 -9999
-9999 0.15796172618865967 0.12515409290790558 0.08537287265062332 0.04970848560333252 0.024740533903241158 0.010539730079472065 0.0038660382851958275 0.0018812629859894514 0.0019692759960889816 0.002051915507763624 0.004248565062880516 0.012231376022100449 0.029458479955792427 0.06015580892562866 0.10440678149461746 0.15436697006225586 0.19397057592868805 0.20483534038066864 -9999
-9999 0.16452571749687195 0.13056622445583344 0.08921694755554199 0.05200418829917908 0.025892745703458786 0.012905309908092022 0.005535916890949011 0.0020451811142265797 0.0020229658111929893 0.0021033515222370625 0.004726778715848923 0.013548580929636955 0.03269745036959648 0.06697478890419006 0.11674563586711884 0.1728983372449875 0.2191459834575653 -9999 -9999
-9999 0.17042416334152222 0.13615122437477112 0.10054820030927658 0.06890780478715897 0.040234822779893875 0.020090624690055847 0.008527368307113647 0.003392390673980117 0.0020638578571379185 0.002142777433618903 0.004807581659406424 0.013793199323117733 0.03334921598434448 0.06846853345632553 0.11968435347080231 0.17835256457328796 0.22635476291179657 -9999 -9999
-9999 0.17458383738994598 0.16524165868759155 0.13235633075237274 0.09039374440908432 0.052679963409900665 0.028364675119519234 0.014070301316678524 0.006002044305205345 0.0022046654485166073 0.002171361120417714 0.004476579837501049 0.012922133319079876 0.03129441663622856 0.06435047835111618 0.11265207082033157 0.16850166022777557 0.21596495807170868 0.2382151335477829 0.240046426653862
-9999 -9999 0.1849622130393982 0.14755818247795105 0.10858616977930069 0.07402029633522034 0.042969826608896255 0.021367067471146584 0.009039970114827156 0.0033296302426606417 0.0021890418138355017 0.0035550983157008886 0.010297000408172607 0.025041475892066956 0.051409490406513214 0.09025031328201294 0.13500839471817017 0.17266260087490082 0.18856027722358704 0.18949688971042633
-9999 -9999 0.18845830857753754 0.17621096968650818 0.14017069339752197 0.09517397731542587 0.05518995225429535 0.027304677292704582 0.011555701494216919 0.00423785112798214 0.002198277972638607 0.0023993882350623608 0.006970569957047701 0.01691891998052597 0.034977417439222336 0.06111161410808563 0.0917840525507927 0.11711180210113525 0.1272655725479126 0.12765273451805115
-9999 -9999 -9999 0.19336968660354614 0.15332309901714325 0.10390928387641907 0.06011916697025299 0.02970326878130436 0.012557045556604862 0.004615883342921734 0.002202515723183751 0.002280238550156355 0.004011592827737331 0.009706656448543072 0.020121978595852852 0.03515775501728058 0.0528591051697731 0.06711592525243759 0.07305309176445007 0.07320442795753479
