ncols         20
nrows         20
xllcorner     0
yllcorner     -3.5992928
cellsize      0.17996463
NODATA_value  -9999
-9999.0 -9999 -9999 -9999 -9999 -9999 -9999 -9999 -9999 -9999 -9999 -9999 -9999 -9999 -9999 -9999 -9999 -9999 -9999 -9999
-9999 -9999 -9999 -9999 -9999 -9999 -9999 -9999 -9999 -9999 -9999 0.13418324291706085 0.13429048657417297 -9999 -9999 0.1368485689163208 0.13705365359783173 -9999 -9999 -9999
-9999 -9999 -9999 -9999 0.134088397026062 0.13401760160923004 0.13395699858665466 0.13393935561180115 0.1339913159608841 0.13411945104599 0.13428322970867157 0.12431090325117111 0.12464844435453415 0.13558726012706757 0.13628293573856354 0.1266673058271408 0.1272798478603363 0.13837794959545135 -9999 -9999
-9999 -9999 -9999 0.13447317481040955 0.12418209761381149 0.10562312602996826 0.10560127347707748 0.10564211010932922 0.10575311630964279 0.10592591762542725 0.10614174604415894 0.09833087027072906 0.09866108000278473 0.10727629065513611 0.10786739736795425 0.10038237273693085 0.10941246151924133 0.1396593600511551 -9999 -9999
-9999 -9999 -9999 0.13477155566215515 0.10601669549942017 0.07714282721281052 0.07114957273006439 0.07126738876104355 0.07144745439291 0.07167137414216995 0.0719158872961998 0.06677313894033432 0.06705545634031296 0.0728849247097969 0.07339877635240555 0.07413583248853683 0.11142650991678238 0.1423080563545227 -9999 -9999
-9999 -9999 0.13551802933216095 0.12511315941810608 0.09844274073839188 0.06620019674301147 0.041028693318367004 0.04117327928543091 0.04137435182929039 0.04160059243440628 0.04183114692568779 0.03879564628005028 0.03904038295149803 0.04267999529838562 0.043153032660484314 0.07056652009487152 0.10592355579137802 0.1359391212463379 0.149566650390625 -9999
-9999 -9999 0.13609547913074493 0.10712769627571106 0.07810013741254807 0.052670132368803024 0.03013567067682743 0.02040056698024273 0.020562568679451942 0.02074011042714119 0.02092098630964756 0.019484316930174828 0.019697777926921844 0.021654926240444183 0.03270035609602928 0.057994816452264786 0.08683406561613083 0.12004540860652924 0.15342479944229126 -9999
-9999 -9999 0.13719063997268677 0.10808443278074265 0.07278390228748322 0.04191334545612335 0.02064816653728485 0.010172486305236816 0.008786432445049286 0.008899136446416378 0.009018966928124428 0.008457205258309841 0.00863612163811922 0.011268790811300278 0.0234732273966074 0.04818122833967209 0.08412618935108185 0.12541615962982178 0.15951550006866455 -9999
-9999 0.13980932533740997 0.12859472632408142 0.10123713314533234 0.06836037337779999 0.03935869783163071 0.019475625827908516 0.008249449543654919 0.0032493395265191793 0.0033189249224960804 0.0033926628530025482 0.0032027256675064564 0.003609125968068838 0.010399243794381618 0.025073567405343056 0.05115704610943794 0.08886642754077911 0.1318749040365219 0.16729295253753662 -9999
-9999 0.14176039397716522 0.11153292655944824 0.08140836656093597 0.05510741472244263 0.03192202001810074 0.015804050490260124 0.006714703980833292 0.0024914273526519537 0.0016656056977808475 0.0017238337313756347 0.001775247510522604 0.003912331070750952 0.011140712536871433 0.02670351229608059 0.0543178915977478 0.09412956982851028 0.13932479918003082 0.17640024423599243 -9999
-9999 0.14506687223911285 0.1143975630402565 0.07721332460641861 0.04467655345797539 0.022155798971652985 0.011000136844813824 0.004713371396064758 0.0017656119307503104 0.0017780206399038434 0.0018485111650079489 0.001907093683257699 0.004189447499811649 0.011857758276164532 0.028328409418463707 0.05753893032670021 0.0996132493019104 0.14727623760700226 0.18628880381584167 -9999
-9999 0.14954368770122528 0.11810921877622604 0.07994378358125687 0.04641041159629822 0.023085827007889748 0.00983506441116333 0.003613303415477276 0.0017884685657918453 0.001880165538750589 0.0019593352917581797 0.00213924003764987 0.006197606213390827 0.014825746417045593 0.02992716245353222 0.060721978545188904 0.10502945631742477 0.15507034957408905 0.19582901895046234 -9999
-9999 0.15505467355251312 0.12264403700828552 0.08323222398757935 0.048428308218717575 0.02429027669131756 0.010379086248576641 0.0038257050327956676 0.0018744749249890447 0.001969389384612441 0.0020549569744616747 0.003354277927428484 0.009667815640568733 0.023096179589629173 0.04713279753923416 0.08141621202230453 0.11962681263685226 0.1623189002275467 0.20400141179561615 -9999
-9999 0.16140174865722656 0.12790584564208984 0.0873357281088829 0.050949614495038986 0.02542860433459282 0.010864099487662315 0.0039963615126907825 0.0019494225271046162 0.0020426041446626186 0.0021278897766023874 0.004401084501296282 0.012649229727685452 0.03041037730872631 0.06197876110672951 0.10734911262989044 0.15839999914169312 0.19870834052562714 0.20961058139801025 -9999
-9999 0.1681801974773407 0.13353978097438812 0.09134491533041 0.05333826690912247 0.02663128823041916 0.013316504657268524 0.0057296049781143665 0.0021217430476099253 0.0021001340355724096 0.002181924879550934 0.004893914330750704 0.013997059315443039 0.03371114283800125 0.0689140260219574 0.11989650130271912 0.17726631462574005 0.2244296818971634 -9999 -9999
-9999 0.174391508102417 0.13943220674991608 0.10308593511581421 0.07075922191143036 0.04140571504831314 0.020734896883368492 0.00882594846189022 0.0035185986198484898 0.002141657518222928 0.002220924012362957 0.0049707405269145966 0.014225145801901817 0.03431885316967964 0.07031901925802231 0.12269547581672668 0.18255427479743958 0.23144179582595825 -9999 -9999
-9999 0.1788099706172943 0.1694764494895935 0.1358950436115265 0.09293271601200104 0.05425490066409111 0.029275359585881233 0.01455578114837408 0.006219543516635895 0.0022850586101412773 0.0022471067495644093 0.004620096646249294 0.013299108482897282 0.032135747373104095 0.06595123559236526 0.11524923890829086 0.17210397124290466 0.22022779285907745 0.24236704409122467 0.24399548768997192
-9999 -9999 0.1900293380022049 0.15170001983642578 0.11175285279750824 0.07628962397575378 0.044360511004924774 0.0220949649810791 0.0093595702201128 0.003446974791586399 0.002261810703203082 0.0036625280044972897 0.010575385764241219 0.025661569088697433 0.05258457735180855 0.09216216951608658 0.13766807317733765 0.17582222819328308 0.19175584614276886 0.1925681233406067
-9999 -9999 0.193769633769989 0.18131645023822784 0.1443619281053543 0.09813974797725677 0.05698883906006813 0.02823127619922161 0.011958169750869274 0.004383982624858618 0.0022686519660055637 0.0024685864336788654 0.00714691961184144 0.017308758571743965 0.035722002387046814 0.06232133507728577 0.09348133206367493 0.1191427931189537 0.12935082614421844 0.1296747773885727
-9999 -9999 -9999 0.19909553229808807 0.15795773267745972 0.10716461390256882 0.06208110228180885 0.030708488076925278 0.012991293333470821 0.004773176275193691 0.0022715525701642036 0.0023443095851689577 0.004109889268875122 0.009920252487063408 0.020530562847852707 0.035822756588459015 0.05379683896899223 0.06823897361755371 0.07421926409006119 0.07434144616127014
