ncols         20
nrows         20
xllcorner     0
yllcorner     -3.5992928
cellsize      0.17996463
NODATA_value  -9999
-9999.0 -9999 -9999 -9999 -9999 -9999 -9999 -9999 -9999 -9999 -9999 -9999 -9999 -9999 -9999 -9999 -9999 -9999 -9999 -9999
-9999 -9999 -9999 -9999 -9999 -9999 -9999 -9999 -9999 -9999 -9999 0.13574747741222382 0.1336190551519394 -9999 -9999 0.12468739598989487 0.11707058548927307 -9999 -9999 -9999
-9999 -9999 -9999 -9999 0.13002583384513855 0.14026837050914764 0.1590760201215744 0.1757502555847168 0.18792468309402466 0.19640879333019257 0.1803361475467682 0.1675356924533844 0.16840985417366028 0.17176806926727295 0.15764696896076202 0.13847532868385315 0.12581205368041992 0.11901618540287018 -9999 -9999
-9999 -9999 -9999 0.12680113315582275 0.13628850877285004 0.15041661262512207 0.1715678870677948 0.1936890184879303 0.21812596917152405 0.23944897949695587 0.25424402952194214 0.25532785058021545 0.2529503107070923 0.23568232357501984 0.20901156961917877 0.17733964323997498 0.1528768390417099 0.14013291895389557 -9999 -9999
-9999 -9999 -9999 0.13088704645633698 0.14345282316207886 0.16939514875411987 0.2023615837097168 0.24196971952915192 0.29121410846710205 0.3548312187194824 0.4175755977630615 0.45010706782341003 0.4414386451244354 0.3872750699520111 0.3242732584476471 0.2579326629638672 0.2101927399635315 0.19846804440021515 -9999 -9999
-9999 -9999 0.11890599131584167 0.13387255370616913 0.1571255922317505 0.19408778846263885 0.24147829413414001 0.30356365442276 0.39679664373397827 0.518240213394165 0.6496109366416931 0.7206562757492065 0.7185609936714172 0.6287652850151062 0.5044810771942139 0.3895638585090637 0.3087572455406189 0.2780824899673462 0.26280179619789124 -9999
-9999 -9999 0.1249515488743782 0.1415596604347229 0.17923550307750702 0.23375843465328217 0.30109792947769165 0.39486831426620483 0.532275915145874 0.7090064287185669 0.8922714591026306 1.0074788331985474 1.017878770828247 0.9218388795852661 0.777985155582428 0.5950112342834473 0.4645552933216095 0.38534557819366455 0.3552142083644867 -9999
-9999 -9999 0.14359600841999054 0.17007160186767578 0.22634151577949524 0.30376118421554565 0.40604156255722046 0.5410205125808716 0.7106032967567444 0.9114939570426941 1.0929352045059204 1.222976565361023 1.256242036819458 1.1887603998184204 1.0472079515457153 0.8629398345947266 0.6926001310348511 0.5693391561508179 0.5198961496353149 -9999
-9999 0.15200980007648468 0.17707057297229767 0.22385528683662415 0.3133852481842041 0.4370299279689789 0.5868425965309143 0.771030068397522 0.9676377177238464 1.1543686389923096 1.302146553993225 1.4123860597610474 1.471075415611267 1.4498573541641235 1.363909125328064 1.2260148525238037 0.9941520690917969 0.8287208080291748 0.7571358680725098 -9999
-9999 0.1889403909444809 0.22623592615127563 0.3144458532333374 0.4544126093387604 0.6376635432243347 0.8529070615768433 1.0853456258773804 1.292612075805664 1.447479248046875 1.5508536100387573 1.6400682926177979 1.707019329071045 1.7314634323120117 1.6912347078323364 1.6063448190689087 1.3576140403747559 1.1667920351028442 1.0808732509613037 -9999
-9999 0.26595067977905273 0.31988412141799927 0.443506121635437 0.6243375539779663 0.8585650324821472 1.1333187818527222 1.4052765369415283 1.6056220531463623 1.7322373390197754 1.822617530822754 1.9143770933151245 2.014089345932007 2.0623135566711426 2.0363354682922363 1.9496779441833496 1.7603548765182495 1.570628046989441 1.4778550863265991 -9999
-9999 0.39724284410476685 0.4658033847808838 0.6238106489181519 0.8374223113059998 1.0958309173583984 1.3897587060928345 1.6536749601364136 1.8215388059616089 1.9213230609893799 2.0089797973632812 2.134188652038574 2.339857339859009 2.4209370613098145 2.3598508834838867 2.3356869220733643 2.138153553009033 1.9722295999526978 1.8820405006408691 -9999
-9999 0.5961398482322693 0.6869112253189087 0.8849717974662781 1.1108304262161255 1.3620492219924927 1.6208076477050781 1.8305203914642334 1.93878173828125 1.9918396472930908 2.057900905609131 2.1761507987976074 2.3880653381347656 2.476975917816162 2.4745631217956543 2.3714702129364014 2.303577184677124 2.225206136703491 2.140716791152954 -9999
-9999 0.8463324308395386 0.9590780735015869 1.1956560611724854 1.4311096668243408 1.6434814929962158 1.8249925374984741 1.9432594776153564 1.9866728782653809 2.006667137145996 2.042837381362915 2.1098287105560303 2.2355828285217285 2.266202926635742 2.2438409328460693 2.162938356399536 2.175515651702881 2.245554208755493 2.1656365394592285 -9999
-9999 1.078240156173706 1.2059807777404785 1.4676008224487305 1.693968653678894 1.8450931310653687 1.938948631286621 1.9835971593856812 1.9999053478240967 2.016512870788574 2.0459322929382324 2.04426908493042 2.0156898498535156 1.9533326625823975 1.917602777481079 1.8610947132110596 1.8261228799819946 2.0005576610565186 -9999 -9999
-9999 1.2317728996276855 1.3694584369659424 1.6321624517440796 1.8237435817718506 1.9148173332214355 1.9497671127319336 1.9664433002471924 1.999679446220398 2.053614616394043 2.1335031986236572 2.0936942100524902 1.9640493392944336 1.7593696117401123 1.6470627784729004 1.5229599475860596 1.4266386032104492 1.29404878616333 -9999 -9999
-9999 1.3450798988342285 1.48587167263031 1.71746826171875 1.8709007501602173 1.9063390493392944 1.9014418125152588 1.9077961444854736 1.9680336713790894 2.071007490158081 2.1005308628082275 2.0215985774993896 1.8455623388290405 1.6087384223937988 1.424705982208252 1.2688542604446411 1.1505392789840698 1.063664197921753 1.0654553174972534 0.9725820422172546
-9999 -9999 1.6018224954605103 1.7708946466445923 1.883544921875 1.872981071472168 1.8257677555084229 1.820812463760376 1.9125782251358032 1.9697318077087402 1.9710955619812012 1.882242202758789 1.7175852060317993 1.4868495464324951 1.2914867401123047 1.1456222534179688 1.014654517173767 0.9327518939971924 0.8839049339294434 0.9313478469848633
-9999 -9999 1.7254626750946045 1.8182255029678345 1.8769350051879883 1.8177839517593384 1.7243130207061768 1.6857047080993652 1.7486042976379395 1.7880357503890991 1.807906985282898 1.721673607826233 1.558562159538269 1.343700647354126 1.172481894493103 1.0467936992645264 0.9417082667350769 0.88238126039505 0.9347856044769287 0.9652296304702759
-9999 -9999 -9999 1.8429499864578247 1.8702667951583862 1.7897553443908691 1.6700057983398438 1.614400863647461 1.6669278144836426 1.7092405557632446 1.721121072769165 1.6613738536834717 1.4992632865905762 1.2896770238876343 1.1099252700805664 1.0124818086624146 0.895322322845459 0.9220232367515564 0.9628940224647522 0.9862267971038818
