ncols         20
nrows         20
xllcorner     0
yllcorner     -3.5992928
cellsize      0.17996463
NODATA_value  -9999
-9999.0 -9999 -9999 -9999 -9999 -9999 -9999 -9999 -9999 -9999 -9999 -9999 -9999 -9999 -9999 -9999 -9999 -9999 -9999 -9999
-9999 -9999 -9999 -9999 -9999 -9999 -9999 -9999 -9999 -9999 -9999 18.97336769104004 18.981979370117188 -9999 -9999 18.911985397338867 18.91643714904785 -9999 -9999 -9999
-9999 -9999 -9999 -9999 18.918598175048828 18.940614700317383 18.95798683166504 18.983556747436523 19.005178451538086 19.00006675720215 19.039119720458984 19.011672973632812 19.00037384033203 19.02492904663086 19.022024154663086 18.97500991821289 18.95429039001465 18.963592529296875 -9999 -9999
-9999 -9999 -9999 18.92109489440918 18.919097900390625 18.943931579589844 18.965242385864258 18.981231689453125 18.97735023498535 18.96932601928711 18.945568084716797 18.94149398803711 18.948957443237305 18.986412048339844 19.002878189086914 19.006031036376953 19.008399963378906 19.02311134338379 -9999 -9999
-9999 -9999 -9999 18.94521141052246 18.958433151245117 18.95758819580078 18.950307846069336 18.9196720123291 18.872272491455078 18.79656982421875 18.717491149902344 18.684017181396484 18.714433670043945 18.811405181884766 18.904260635375977 18.988929748535156 19.050020217895508 19.046728134155273 -9999 -9999
-9999 -9999 18.990102767944336 18.983179092407227 18.993192672729492 18.97499656677246 18.91090965270996 18.797935485839844 18.65900421142578 18.505901336669922 18.358064651489258 18.292030334472656 18.327383041381836 18.47808837890625 18.680294036865234 18.86013412475586 18.991859436035156 19.04844856262207 19.133365631103516 -9999
-9999 -9999 19.04753875732422 19.059064865112305 19.039047241210938 18.95924186706543 18.789939880371094 18.5613956451416 18.332351684570312 18.157718658447266 18.022476196289062 17.948795318603516 17.947486877441406 18.082557678222656 18.312824249267578 18.582935333251953 18.792936325073242 18.940929412841797 19.0091552734375 -9999
-9999 -9999 19.137704849243164 19.13323211669922 19.07061767578125 18.90439224243164 18.612655639648438 18.628849029541016 18.29448699951172 18.118030548095703 18.04315185546875 18.043373107910156 17.73431396484375 17.778892517089844 17.95915985107422 18.214630126953125 18.467262268066406 18.670806884765625 18.76702117919922 -9999
-9999 19.273103713989258 19.22119140625 19.19691276550293 19.065109252929688 18.790864944458008 18.40544891357422 18.31957244873047 17.999839782714844 17.855838775634766 17.81089210510254 17.82357406616211 17.573549270629883 17.563003540039062 17.66179847717285 17.85081672668457 18.082115173339844 18.287986755371094 18.399812698364258 -9999
-9999 19.33151626586914 19.302837371826172 19.197031021118164 18.971431732177734 18.62026023864746 18.21538543701172 18.124618530273438 17.84357452392578 17.721895217895508 17.686826705932617 17.696369171142578 17.46140480041504 17.40550994873047 17.434553146362305 17.544008255004883 17.7169132232666 17.887691497802734 17.984485626220703 -9999
-9999 19.365604400634766 19.292158126831055 19.099151611328125 18.787063598632812 18.384191513061523 18.02108383178711 17.9945011138916 17.759414672851562 17.65422821044922 17.624677658081055 17.628278732299805 17.3670711517334 17.276050567626953 17.255762100219727 17.300405502319336 17.40299415588379 17.527376174926758 17.601627349853516 -9999
-9999 19.263395309448242 19.131057739257812 18.853090286254883 18.49364471435547 18.099231719970703 17.81177520751953 17.891921997070312 17.701555252075195 17.61102294921875 17.584636688232422 17.585872650146484 17.284076690673828 17.18001937866211 17.13373374938965 17.125940322875977 17.166311264038086 17.24163818359375 17.295860290527344 -9999
-9999 18.96329116821289 18.78290557861328 18.462238311767578 18.10663414001465 17.783374786376953 17.546937942504883 17.43790054321289 17.367835998535156 17.337299346923828 17.31662368774414 17.28398895263672 17.204832077026367 17.150413513183594 17.104389190673828 17.069581985473633 17.046892166137695 17.066699981689453 17.11436653137207 -9999
-9999 18.535659790039062 18.3366641998291 18.016328811645508 17.7139949798584 17.476184844970703 17.31907081604004 17.244211196899414 17.224140167236328 17.22270965576172 17.220674514770508 17.210289001464844 17.194456100463867 17.181583404541016 17.172653198242188 17.143016815185547 17.0905704498291 17.017677307128906 17.101755142211914 -9999
-9999 18.119140625 17.933029174804688 17.6424560546875 17.4041690826416 17.251920700073242 17.171560287475586 17.149520874023438 17.157407760620117 17.174510955810547 17.185529708862305 17.19767189025879 17.210676193237305 17.224849700927734 17.248497009277344 17.250253677368164 17.230812072753906 17.09469223022461 -9999 -9999
-9999 17.83464241027832 17.659738540649414 17.407625198364258 17.22640609741211 17.142017364501953 17.113170623779297 17.121238708496094 17.136791229248047 17.156787872314453 17.171865463256836 17.194644927978516 17.22483253479004 17.260265350341797 17.294071197509766 17.323768615722656 17.337852478027344 17.428510665893555 -9999 -9999
-9999 17.667516708374023 17.486207962036133 17.275432586669922 17.138256072998047 17.105098724365234 17.112056732177734 17.13770294189453 17.156131744384766 17.17524528503418 17.192564010620117 17.21927261352539 17.25440216064453 17.28719711303711 17.323911666870117 17.358840942382812 17.38677406311035 17.415559768676758 17.37847900390625 17.40884780883789
-9999 -9999 17.326045989990234 17.189746856689453 17.094825744628906 17.093610763549805 17.132978439331055 17.17200469970703 17.194499969482422 17.21318244934082 17.22847557067871 17.252674102783203 17.28025245666504 17.321500778198242 17.354202270507812 17.376100540161133 17.402002334594727 17.418731689453125 17.432903289794922 17.40862274169922
-9999 -9999 17.229089736938477 17.136947631835938 17.078046798706055 17.111087799072266 17.175277709960938 17.226747512817383 17.25606918334961 17.268630981445312 17.267444610595703 17.28942108154297 17.316743850708008 17.352285385131836 17.37315559387207 17.38783836364746 17.404033660888672 17.418275833129883 17.39640235900879 17.389545440673828
-9999 -9999 -9999 17.098064422607422 17.068262100219727 17.11395263671875 17.192838668823242 17.247493743896484 17.27310562133789 17.280540466308594 17.28412628173828 17.293495178222656 17.32164192199707 17.355329513549805 17.381532669067383 17.385637283325195 17.412073135375977 17.395572662353516 17.386531829833984 17.383464813232422
