ncols         20
nrows         20
xllcorner     0
yllcorner     -3.5992928
cellsize      0.17996463
NODATA_value  -9999
-9999.0 -9999 -9999 -9999 -9999 -9999 -9999 -9999 -9999 -9999 -9999 -9999 -9999 -9999 -9999 -9999 -9999 -9999 -9999 -9999
-9999 -9999 -9999 -9999 -9999 -9999 -9999 -9999 -9999 -9999 -9999 0.11915726959705353 0.11730080842971802 -9999 -9999 0.11000648885965347 0.10333713889122009 -9999 -9999 -9999
-9999 -9999 -9999 -9999 0.11522495746612549 0.12412790209054947 0.14045760035514832 0.15479618310928345 0.1651337742805481 0.17227798700332642 0.15803933143615723 0.14685146510601044 0.1476707011461258 0.15070956945419312 0.13854075968265533 0.121989905834198 0.11100045591592789 0.10508197546005249 -9999 -9999
-9999 -9999 -9999 0.11243795603513718 0.12073348462581635 0.13299992680549622 0.15131112933158875 0.17033840715885162 0.19131146371364594 0.20955120027065277 0.2222733497619629 0.22321592271327972 0.2212861180305481 0.20645369589328766 0.18344856798648834 0.15604203939437866 0.13482996821403503 0.12375897914171219 -9999 -9999
-9999 -9999 -9999 0.11600969731807709 0.12695781886577606 0.1495269387960434 0.17804688215255737 0.2121555656194687 0.2545015811920166 0.30911967158317566 0.36309802532196045 0.3911771774291992 0.3839849829673767 0.3378245234489441 0.28396207094192505 0.22675326466560364 0.18547651171684265 0.17557239532470703 -9999 -9999
-9999 -9999 0.10554797202348709 0.11865194141864777 0.13889998197555542 0.17095546424388885 0.21181999146938324 0.26513412594795227 0.3450832664966583 0.449187695980072 0.5618885159492493 0.6229630708694458 0.621640682220459 0.545295774936676 0.43935659527778625 0.3412959575653076 0.27222755551338196 0.24631480872631073 0.23346593976020813 -9999
-9999 -9999 0.11105667799711227 0.1255362182855606 0.15832599997520447 0.205481618642807 0.26331207156181335 0.34334540367126465 0.46075958013534546 0.6117851138114929 0.7685158252716064 0.867353081703186 0.8770554661750793 0.7962180376052856 0.6750130653381348 0.5184250473976135 0.40757834911346436 0.34007030725479126 0.3144785761833191 -9999
-9999 -9999 0.12811599671840668 0.15117456018924713 0.2000565081834793 0.2666974365711212 0.3536668121814728 0.4683949053287506 0.6126676797866821 0.7838011980056763 0.9386189579963684 1.0501797199249268 1.0797666311264038 1.0238691568374634 0.9048619866371155 0.7485536336898804 0.6034547686576843 0.4989300072193146 0.4571906328201294 -9999
-9999 0.1369733363389969 0.15877829492092133 0.19945625960826874 0.27697423100471497 0.3825332522392273 0.5090305209159851 0.665004312992096 0.8317117691040039 0.9904084801673889 1.1165508031845093 1.2115602493286133 1.2633997201919556 1.2475413084030151 1.1767570972442627 1.061851143836975 0.862404465675354 0.7206057906150818 0.65955650806427 -9999
-9999 0.1701762080192566 0.20293837785720825 0.2798486053943634 0.4004667401313782 0.5553068518638611 0.7369769811630249 0.9334545135498047 1.108984112739563 1.2407325506210327 1.3296535015106201 1.4076435565948486 1.4674533605575562 1.4911234378814697 1.459452748298645 1.3901541233062744 1.175179123878479 1.0107780694961548 0.9368589520454407 -9999
-9999 0.23894692957401276 0.2861916720867157 0.3932093679904938 0.5473772883415222 0.7445729374885559 0.9765578508377075 1.2067185640335083 1.3768302202224731 1.4854680299758911 1.5647064447402954 1.646612524986267 1.7364368438720703 1.7810750007629395 1.760507345199585 1.6874020099639893 1.523573398590088 1.3593441247940063 1.2789593935012817 -9999
-9999 0.3551369905471802 0.4145137369632721 0.5497116446495056 0.7292877435684204 0.9469054341316223 1.1954305171966553 1.4194763898849487 1.5630875825881958 1.6503329277038574 1.7290323972702026 1.8420487642288208 2.027395248413086 2.1015310287475586 2.04824161529541 2.0285212993621826 1.8544245958328247 1.7091150283813477 1.6298534870147705 -9999
-9999 0.5290201902389526 0.6063768267631531 0.7734838724136353 0.9623359441757202 1.1737768650054932 1.3930542469024658 1.5722317695617676 1.66655433177948 1.7154090404510498 1.7771646976470947 1.8857473134994507 2.078270673751831 2.160295248031616 2.1591928005218506 2.0662968158721924 2.0047495365142822 1.934182047843933 1.8576545715332031 -9999
-9999 0.7436918616294861 0.8385269641876221 1.0368568897247314 1.234546184539795 1.4137814044952393 1.5685973167419434 1.6714715957641602 1.712201714515686 1.7345843315124512 1.7720803022384644 1.8370563983917236 1.9547957181930542 1.986464262008667 1.9692968130111694 1.8962485790252686 1.9048157930374146 1.9625353813171387 1.883887529373169 -9999
-9999 0.9379279613494873 1.044379472732544 1.2656747102737427 1.4572093486785889 1.5859373807907104 1.6678582429885864 1.7098922729492188 1.7297492027282715 1.751430630683899 1.7848782539367676 1.7904058694839478 1.7713598012924194 1.7212646007537842 1.69536554813385 1.6473913192749023 1.6153422594070435 1.7688055038452148 -9999 -9999
-9999 1.0626050233840942 1.1791847944259644 1.4028788805007935 1.5665110349655151 1.645915150642395 1.6795499324798584 1.6999977827072144 1.7370073795318604 1.7937722206115723 1.8745026588439941 1.847673773765564 1.7393102645874023 1.561816930770874 1.4685496091842651 1.3625816106796265 1.2796438932418823 1.165751338005066 -9999 -9999
-9999 1.1562265157699585 1.2754325866699219 1.4734959602355957 1.6060717105865479 1.6395666599273682 1.6409797668457031 1.6546632051467896 1.7174923419952393 1.8197890520095825 1.8563274145126343 1.7952224016189575 1.6456393003463745 1.43899405002594 1.280564546585083 1.1470096111297607 1.0472842454910278 0.9780288338661194 0.9955454468727112 0.9150146842002869
-9999 -9999 1.3723199367523193 1.5179309844970703 1.616800308227539 1.6122058629989624 1.5786410570144653 1.5841152667999268 1.676645040512085 1.738458275794983 1.7500087022781372 1.6800847053527832 1.54087233543396 1.340810775756836 1.171763300895691 1.0467700958251953 0.9347637295722961 0.8673717975616455 0.8298226594924927 0.8786628246307373
-9999 -9999 1.4772330522537231 1.5581045150756836 1.6113862991333008 1.5658470392227173 1.4930610656738281 1.469768762588501 1.5371853113174438 1.582894206047058 1.6103748083114624 1.5424184799194336 1.4042860269546509 1.2181665897369385 1.0703309774398804 0.9630154967308044 0.8737801313400269 0.8258780241012573 0.8811030983924866 0.9132962822914124
-9999 -9999 -9999 1.5797680616378784 1.6060093641281128 1.5423640012741089 1.4471313953399658 1.4091567993164062 1.4673854112625122 1.515418529510498 1.535637378692627 1.4911657571792603 1.3537862300872803 1.172192096710205 1.016268253326416 0.9344692230224609 0.8336341381072998 0.8654520511627197 0.9094763398170471 0.9346915483474731
