ncols         20
nrows         20
xllcorner     0
yllcorner     -3.5992928
cellsize      0.17996463
NODATA_value  -9999
-9999.0 -9999 -9999 -9999 -9999 -9999 -9999 -9999 -9999 -9999 -9999 -9999 -9999 -9999 -9999 -9999 -9999 -9999 -9999 -9999
-9999 -9999 -9999 -9999 -9999 -9999 -9999 -9999 -9999 -9999 -9999 0 0 -9999 -9999 0 0 -9999 -9999 -9999
-9999 -9999 -9999 -9999 0 0 0 0 0 0 0 0 0 0 0 0 0 0 -9999 -9999
-9999 -9999 -9999 0 0 0 0 0 0 0 0 0 0 0 0 0 0 0 -9999 -9999
-9999 -9999 -9999 0 0 0 0 0 0 0 0 0 0 0 0 0 0 0 -9999 -9999
-9999 -9999 0 0 0 0 3.9642457962036133 3.6788058280944824 3.470025062561035 3.2778093814849854 3.1111538410186768 3.049384832382202 3.1236438751220703 3.3464996814727783 3.6680166721343994 4.076604843139648 0 0 0 -9999
-9999 -9999 0 0 0 3.9064505100250244 3.4783172607421875 3.1594150066375732 2.867464780807495 2.5750744342803955 2.3281590938568115 2.2134201526641846 2.269068479537964 2.506913423538208 0.3215469717979431 3.4168105125427246 0 0 0 -9999
-9999 -9999 0 0 4.0110392570495605 3.5280210971832275 3.1205639839172363 2.7443673610687256 2.38020920753479 2.043968677520752 1.7978742122650146 1.6759353876113892 1.7062232494354248 1.8978075981140137 2.2470850944519043 2.7358946800231934 3.332181692123413 0 0 -9999
-9999 0 0 4.279719829559326 3.7276620864868164 3.23966646194458 2.7707526683807373 2.3193390369415283 1.9210591316223145 1.6120797395706177 1.4167101383209229 1.324400782585144 1.3344197273254395 1.4648432731628418 1.721032738685608 0.4696962237358093 2.6122002601623535 3.141230583190918 0 -9999
-9999 0 0 4.1527509689331055 3.5130889415740967 2.9191155433654785 2.3569467067718506 1.8598332405090332 1.484057903289795 1.2440766096115112 1.1171369552612305 1.0610095262527466 1.0697773694992065 1.1479114294052124 1.3193312883377075 0.3552890419960022 1.9956693649291992 2.4377822875976562 0 -9999
-9999 0 0 4.020105838775635 3.2585301399230957 2.571148157119751 1.9500398635864258 1.451714038848877 1.13153076171875 0.9577550888061523 0.8758295178413391 0.8461300730705261 0.854041337966919 0.9029338359832764 1.008776307106018 1.1970900297164917 1.4790832996368408 0 0 -9999
-9999 0 0 3.764247179031372 2.92323637008667 2.2088844776153564 1.6023582220077515 1.1579368114471436 0.8997809290885925 0.7691614031791687 0.7122904062271118 0.6913835406303406 0.3094572126865387 0.4014979600906372 0.7810166478157043 0.19833393394947052 1.076308012008667 0 0 -9999
-9999 0 0 3.310147285461426 2.4789721965789795 1.8210883140563965 1.3075268268585205 0.9520117044448853 0.7543624043464661 0.6619442701339722 0.6159414649009705 0.6000257134437561 0.4000500440597534 0.5458403825759888 0.43114572763442993 0.7063208222389221 0.8162588477134705 0 0 -9999
-9999 0 0 2.7150189876556396 1.9592517614364624 1.4233750104904175 1.0461078882217407 0.8013574481010437 0.6633964776992798 0.6012672185897827 0.5719559788703918 0.5602402687072754 0.24857036769390106 0.4416877329349518 0.3912683427333832 0.6215987205505371 0.68199223279953 0 0 -9999
-9999 0 0 2.162538528442383 1.5113155841827393 1.104791522026062 0.8508030772209167 0.6937516331672668 0.6119585037231445 0.570451021194458 0.5500385165214539 0.5410858988761902 0.5402616262435913 0.5464982986450195 0.3732115626335144 0.3238224983215332 0.6198341250419617 0 -9999 -9999
-9999 0 0 1.7855304479599 1.2338675260543823 0.9119645357131958 0.7329820394515991 0.634774386882782 0.5821833610534668 0.5530034303665161 0.3584388792514801 0.4126758277416229 0.058927930891513824 0.5374744534492493 0.24418595433235168 0.25207969546318054 0.5924745202064514 0.08819201588630676 -9999 -9999
-9999 0 0 1.5495712757110596 1.0750113725662231 0.800513505935669 0.6707869172096252 0.6010777354240417 0.5630040168762207 0.36074337363243103 0.4703536927700043 0.5253196954727173 0.4100327789783478 0.5327923893928528 0.5420258641242981 0.5551032423973083 0.5724390745162964 0.5892481803894043 0.42105430364608765 0.5903316140174866
-9999 -9999 0 1.3695844411849976 0.9734323024749756 0.7445141077041626 0.6369310617446899 0.5816752314567566 0.3061963617801666 0.474317729473114 0.5266221165657043 0.5241270661354065 0.46696236729621887 0.41198238730430603 0.35782983899116516 0.3640844523906708 0.3714939057826996 0.44199150800704956 0.509888231754303 0.5755807757377625
-9999 -9999 0 0 0.9059602618217468 0.7084898948669434 0.6165757179260254 0.5697556734085083 0.36353346705436707 0.5331783890724182 0.526330292224884 0.5236771106719971 0.524418294429779 0.5278988480567932 0.5334682464599609 0.5405091643333435 0.5482204556465149 0.5551847815513611 0.5594854354858398 0.5614169836044312
-9999 -9999 -9999 0 0.8638786673545837 0.6925978660583496 0.6082095503807068 0.5650444626808167 0.36328041553497314 0.5330709218978882 0.5262940526008606 0.5235429406166077 0.5240435004234314 0.5270811915397644 0.5319296717643738 0.5378621220588684 0.5441161394119263 0.5495014190673828 0.5531310439109802 0.55489581823349
