ncols         20
nrows         20
xllcorner     0
yllcorner     -3.5992928
cellsize      0.17996463
NODATA_value  -9999
-9999.0 -9999 -9999 -9999 -9999 -9999 -9999 -9999 -9999 -9999 -9999 -9999 -9999 -9999 -9999 -9999 -9999 -9999 -9999 -9999
-9999 -9999 -9999 -9999 -9999 -9999 -9999 -9999 -9999 -9999 -9999 13.235949516296387 13.241092681884766 -9999 -9999 13.071162223815918 13.14372730255127 -9999 -9999 -9999
-9999 -9999 -9999 -9999 13.117799758911133 13.086334228515625 13.023746490478516 13.015911102294922 13.039088249206543 13.053282737731934 13.157402038574219 13.142343521118164 13.081171035766602 13.030872344970703 13.03537368774414 13.04810905456543 13.101582527160645 13.152326583862305 -9999 -9999
-9999 -9999 -9999 13.059041023254395 13.051939010620117 13.058038711547852 13.066441535949707 13.089131355285645 13.093948364257812 13.08566951751709 13.058464050292969 13.012516021728516 12.95456600189209 12.934915542602539 12.917222023010254 12.92597770690918 12.95478630065918 12.982490539550781 -9999 -9999
-9999 -9999 -9999 13.022746086120605 13.054439544677734 13.10772705078125 13.237619400024414 13.316662788391113 13.348587036132812 13.34999942779541 13.337848663330078 13.310344696044922 13.250226974487305 13.17693042755127 13.075830459594727 12.97435474395752 12.8258056640625 12.681971549987793 -9999 -9999
-9999 -9999 12.973991394042969 12.999479293823242 13.114339828491211 13.369563102722168 13.793936729431152 13.978611946105957 14.074651718139648 14.181978225708008 14.300929069519043 14.361937522888184 14.306329727172852 14.132694244384766 13.878381729125977 13.539630889892578 12.94663143157959 12.610241889953613 12.54621410369873 -9999
-9999 -9999 12.933242797851562 13.051411628723145 13.304559707641602 13.784172058105469 14.134005546569824 14.36925220489502 14.598207473754883 14.870626449584961 15.125297546386719 15.2618408203125 15.224749565124512 14.997364044189453 14.59742259979248 14.07313060760498 13.300905227661133 12.790522575378418 12.570300102233887 -9999
-9999 -9999 12.774360656738281 13.07701587677002 13.58520793914795 13.985311508178711 14.322566032409668 14.66938591003418 15.05334186553955 15.438875198364258 15.741315841674805 15.902242660522461 15.890899658203125 15.693403244018555 15.306964874267578 14.758853912353516 14.073699951171875 13.329313278198242 12.926887512207031 -9999
-9999 12.212018966674805 12.464149475097656 13.168272972106934 13.657461166381836 14.085982322692871 14.556000709533691 15.063972473144531 15.552334785461426 15.952742576599121 16.221752166748047 16.36005973815918 16.367528915405273 16.228845596313477 15.92829418182373 15.450142860412598 14.874961853027344 14.241676330566406 13.697103500366211 -9999
-9999 11.925200462341309 12.1643705368042 13.038702011108398 13.681965827941895 14.311416625976562 14.973281860351562 15.602933883666992 16.1031436920166 16.438074111938477 16.629161834716797 16.722063064575195 16.728256225585938 16.645681381225586 16.44352912902832 16.089797973632812 15.633068084716797 15.099836349487305 14.644850730895996 -9999
-9999 11.5746488571167 11.87211799621582 12.973688125610352 13.857634544372559 14.685851097106934 15.48231315612793 16.15123748779297 16.598560333251953 16.851150512695312 16.974807739257812 17.02269744873047 17.015254974365234 16.968185424804688 16.859695434570312 16.640827178955078 16.320674896240234 15.896814346313477 15.619880676269531 -9999
-9999 11.398687362670898 11.840621948242188 13.161264419555664 14.230409622192383 15.152525901794434 15.964641571044922 16.582073211669922 16.955652236938477 17.14977264404297 17.230480194091797 17.247278213500977 17.203935623168945 17.179317474365234 17.156307220458984 17.039087295532227 16.872507095336914 16.624303817749023 16.478761672973633 -9999
-9999 11.61518669128418 12.285944938659668 13.728123664855957 14.833410263061523 15.703271865844727 16.39931869506836 16.89944839477539 17.193729400634766 17.33701515197754 17.401752471923828 17.409677505493164 17.369260787963867 17.356285095214844 17.35101890563965 17.339168548583984 17.251571655273438 17.118501663208008 17.054441452026367 -9999
-9999 12.443758010864258 13.193224906921387 14.583673477172852 15.597820281982422 16.300273895263672 16.80084800720215 17.140729904174805 17.344911575317383 17.4427547454834 17.486392974853516 17.498228073120117 17.482250213623047 17.489131927490234 17.50600814819336 17.524621963500977 17.487951278686523 17.39325523376465 17.386964797973633 -9999
-9999 13.443842887878418 14.150333404541016 15.4041748046875 16.279211044311523 16.800960540771484 17.119403839111328 17.32175636291504 17.43299102783203 17.489025115966797 17.512046813964844 17.531982421875 17.552043914794922 17.57900619506836 17.5994930267334 17.621395111083984 17.62685203552246 17.547344207763672 -9999 -9999
-9999 14.175484657287598 14.84168815612793 15.957033157348633 16.70578384399414 17.116384506225586 17.322927474975586 17.431007385253906 17.479347229003906 17.496191024780273 17.49002456665039 17.50918960571289 17.54691505432129 17.598695755004883 17.628908157348633 17.665111541748047 17.699237823486328 17.748411178588867 -9999 -9999
-9999 14.662408828735352 15.351930618286133 16.29153823852539 16.940689086914062 17.298757553100586 17.4407958984375 17.500774383544922 17.51197052001953 17.49994468688965 17.497543334960938 17.515241622924805 17.55113983154297 17.600759506225586 17.64013671875 17.6773681640625 17.70905876159668 17.730182647705078 17.68619728088379 17.69831657409668
-9999 -9999 15.914549827575684 16.541351318359375 17.08433723449707 17.3905086517334 17.511295318603516 17.54892349243164 17.53683853149414 17.52761459350586 17.52210807800293 17.53458595275879 17.560489654541016 17.60276222229004 17.63754653930664 17.66445541381836 17.693153381347656 17.710851669311523 17.709819793701172 17.68922233581543
-9999 -9999 16.386760711669922 16.769527435302734 17.19319725036621 17.4588680267334 17.568500518798828 17.600143432617188 17.583938598632812 17.567956924438477 17.553190231323242 17.56161117553711 17.58386993408203 17.617528915405273 17.640581130981445 17.65682601928711 17.67635154724121 17.685949325561523 17.66526222229004 17.652667999267578
-9999 -9999 -9999 16.925064086914062 17.2507381439209 17.484390258789062 17.591154098510742 17.620641708374023 17.598526000976562 17.579524993896484 17.565963745117188 17.5653133392334 17.58619499206543 17.61705207824707 17.64070701599121 17.647409439086914 17.669147491455078 17.654958724975586 17.639568328857422 17.632152557373047
