ncols         20
nrows         20
xllcorner     0
yllcorner     -3.5992928
cellsize      0.17996463
NODATA_value  -9999
-9999.0 -9999 -9999 -9999 -9999 -9999 -9999 -9999 -9999 -9999 -9999 -9999 -9999 -9999 -9999 -9999 -9999 -9999 -9999 -9999
-9999 -9999 -9999 -9999 -9999 -9999 -9999 -9999 -9999 -9999 -9999 0.01777622103691101 0.017773333936929703 -9999 -9999 0.017815712839365005 0.017820879817008972 -9999 -9999 -9999
-9999 -9999 -9999 -9999 0.01795783080160618 0.017922071740031242 0.01786745712161064 0.017798274755477905 0.017726019024848938 0.017664453014731407 0.01762743480503559 0.03735705465078354 0.03733878582715988 0.017586495727300644 0.017598917707800865 0.037414632737636566 0.03744737058877945 0.017665233463048935 -9999 -9999
-9999 -9999 -9999 0.017859196290373802 0.037808600813150406 0.07864143699407578 0.07838317006826401 0.07803019881248474 0.07765456289052963 0.07732594013214111 0.0771021693944931 0.09274779260158539 0.09267595410346985 0.07688860595226288 0.07694579660892487 0.09285751730203629 0.07723040133714676 0.017508026212453842 -9999 -9999
-9999 -9999 -9999 0.017726896330714226 0.07817278802394867 0.11292499303817749 0.11247209459543228 0.11184670031070709 0.11119028180837631 0.11062128841876984 0.11022738367319107 0.11006562411785126 0.10998281091451645 0.10993989557027817 0.11004726588726044 0.11024126410484314 0.07624443620443344 0.017240507528185844 -9999 -9999
-9999 -9999 0.017463108524680138 0.03706306964159012 0.09310615807771683 0.1116449236869812 0.11102692782878876 0.11019241809844971 0.10935354232788086 0.10865295678377151 0.10817062109708786 0.1079394668340683 0.10790247470140457 0.10799112915992737 0.10816001147031784 0.10829455405473709 0.08999691903591156 0.03564711660146713 0.01671653427183628 -9999
-9999 -9999 0.017293639481067657 0.07625232636928558 0.11028914153575897 0.10983002185821533 0.10889486223459244 0.10769174993038177 0.10658714175224304 0.10572202503681183 0.10516227781772614 0.10493435710668564 0.10499148815870285 0.10521261394023895 0.10550148785114288 0.10571824014186859 0.10565207153558731 0.07274438440799713 0.016475515440106392 -9999
-9999 -9999 0.017027484253048897 0.07515130937099457 0.10841599851846695 0.10760296136140823 0.10624466836452484 0.10457257926464081 0.10327755659818649 0.10233937203884125 0.10174025595188141 0.10149473696947098 0.10159903764724731 0.10191123932600021 0.10231199115514755 0.10270046442747116 0.10293470323085785 0.0711604431271553 0.01612396165728569 -9999
-9999 0.016592828556895256 0.03527650237083435 0.08870471268892288 0.10619164258241653 0.10509297251701355 0.1034035012125969 0.10154827684164047 0.10013678669929504 0.09913042932748795 0.09848231077194214 0.09819453209638596 0.09825519472360611 0.09851263463497162 0.09890342503786087 0.09934752434492111 0.09974365681409836 0.06910786777734756 0.015678565949201584 -9999
-9999 0.016400523483753204 0.07221962511539459 0.1044335812330246 0.10379576683044434 0.10242188721895218 0.10049621760845184 0.09862785041332245 0.09717909246683121 0.09613107144832611 0.09543606638908386 0.09509006887674332 0.095072902739048 0.09524662792682648 0.09554693102836609 0.09593725949525833 0.09633918851613998 0.06682083755731583 0.015176702290773392 -9999
-9999 0.01613405905663967 0.07098255306482315 0.10224373638629913 0.10127715021371841 0.09967093169689178 0.09767486155033112 0.0958450436592102 0.09440623223781586 0.09334082901477814 0.09260573983192444 0.09219563007354736 0.09209002554416656 0.0921701118350029 0.09238070249557495 0.09269026666879654 0.09304729849100113 0.06454753130674362 0.01466839574277401 -9999
-9999 0.01580807752907276 0.06944292783737183 0.09978656470775604 0.0986168161034584 0.09688200056552887 0.09496035426855087 0.09322653710842133 0.09183355420827866 0.09076888859272003 0.08999918401241302 0.08952053636312485 0.08931619673967361 0.08929526060819626 0.08942331373691559 0.08968867361545563 0.09006331861019135 0.06253756582736969 0.014212459325790405 -9999
-9999 0.015447840094566345 0.06775403022766113 0.09717201441526413 0.09587523341178894 0.09414434432983398 0.09238331764936447 0.09079880267381668 0.08947484195232391 0.08842182159423828 0.08762047439813614 0.08706902712583542 0.08674721419811249 0.08661091327667236 0.08664806932210922 0.08688525855541229 0.08742019534111023 0.060960911214351654 0.013851228170096874 -9999
-9999 0.015080263838171959 0.06602992117404938 0.09452781081199646 0.09316133707761765 0.09154143184423447 0.08995796740055084 0.08851549029350281 0.08726858347654343 0.08624108135700226 0.08542104065418243 0.08480401337146759 0.08437605947256088 0.08411799371242523 0.08402802795171738 0.08413036167621613 0.07004880905151367 0.02835879847407341 0.013592561706900597 -9999
-9999 0.01473561953753233 0.06442255526781082 0.09202683717012405 0.09064573794603348 0.08915731310844421 0.08772236853837967 0.08640050143003464 0.08523719757795334 0.0842428207397461 0.08341308683156967 0.0827435702085495 0.08222445845603943 0.08184527605772018 0.08160242438316345 0.08149947971105576 0.05632234737277031 0.0127765703946352 -9999 -9999
-9999 0.014449887908995152 0.06276598572731018 0.089826799929142 0.08839018642902374 0.08702006191015244 0.08571484684944153 0.08451030403375626 0.08342526853084564 0.08246901631355286 0.08163951337337494 0.08093206584453583 0.08033814281225204 0.07984831929206848 0.07945451140403748 0.07915283739566803 0.05417194962501526 0.012260016053915024 -9999 -9999
-9999 0.014248011633753777 0.02961513213813305 0.07258295267820358 0.086319699883461 0.08514135330915451 0.08398780226707458 0.08289487659931183 0.08188512921333313 0.08096954971551895 0.08014781028032303 0.07941558957099915 0.07876409590244293 0.07818066328763962 0.0776459202170372 0.07712747901678085 0.06333696097135544 0.02488367259502411 0.011453259736299515 0.011332597583532333
-9999 -9999 0.013584518805146217 0.058930087834596634 0.08463888615369797 0.08360546827316284 0.08259496092796326 0.08160790055990219 0.08066834509372711 0.07979229092597961 0.07898297905921936 0.07823724299669266 0.07754605263471603 0.07689404487609863 0.07625535875558853 0.07557559758424759 0.07472631335258484 0.06118815392255783 0.05014053359627724 0.049821481108665466
-9999 -9999 0.013201647438108921 0.027950827032327652 0.06897531449794769 0.08242442458868027 0.08158805966377258 0.08070118725299835 0.07982125878334045 0.07897873222827911 0.07818251848220825 0.07743120938539505 0.07671713829040527 0.0760270357131958 0.07534069567918777 0.07462498545646667 0.07383794337511063 0.07298202812671661 0.07230495661497116 0.07195543497800827
-9999 -9999 -9999 0.01284795068204403 0.056619420647621155 0.08177327364683151 0.08105460554361343 0.08023052662611008 0.07938595116138458 0.07856240123510361 0.07777394354343414 0.0770212709903717 0.0762973427772522 0.07559149712324142 0.07488939166069031 0.07417413592338562 0.07343869656324387 0.07272838056087494 0.07217133790254593 0.07187147438526154
