ncols         20
nrows         20
xllcorner     0
yllcorner     -3.5992928
cellsize      0.17996463
NODATA_value  -9999
-9999.0 -9999 -9999 -9999 -9999 -9999 -9999 -9999 -9999 -9999 -9999 -9999 -9999 -9999 -9999 -9999 -9999 -9999 -9999 -9999
-9999 -9999 -9999 -9999 -9999 -9999 -9999 -9999 -9999 -9999 -9999 0 0 -9999 -9999 0 0 -9999 -9999 -9999
-9999 -9999 -9999 -9999 0 0 0 0 0 0 0 0 0 0 0 0 0 0 -9999 -9999
-9999 -9999 -9999 0 0 0 0 0 0 0 0 0 0 0 0 0 0 0 -9999 -9999
-9999 -9999 -9999 0 0 0 0 0 0 0 0 0 0 0 0 0 0 0 -9999 -9999
-9999 -9999 0 0 0 0 2.30873441696167 1.932129979133606 1.7197719812393188 1.5770241022109985 1.4831656217575073 1.4640518426895142 1.533699870109558 1.7115106582641602 2.0071771144866943 2.494239330291748 0 0 0 -9999
-9999 -9999 0 0 0 2.1248035430908203 1.5972599983215332 1.3018616437911987 1.1095606088638306 0.9652678966522217 0.8638134002685547 0.8264042735099792 0.8669027090072632 1.0014432668685913 1.2488763332366943 1.681086778640747 0 0 0 -9999
-9999 -9999 0 0 2.144409656524658 1.5479140281677246 1.1773988008499146 0.9355769753456116 0.7643006443977356 0.6365340352058411 0.5539937019348145 0.5191298127174377 0.5404122471809387 0.6280763745307922 0.8007281422615051 1.0958248376846313 1.5796784162521362 0 0 -9999
-9999 0 0 2.3668816089630127 1.6556944847106934 1.2023073434829712 0.8982473015785217 0.6868599057197571 0.538529634475708 0.43874770402908325 0.38123708963394165 0.3577960729598999 0.36787301301956177 0.4204755425453186 0.5275633931159973 0.7142413258552551 1.007502555847168 1.416866421699524 0 -9999
-9999 0 0 2.0407350063323975 1.3764979839324951 0.9621544480323792 0.6861956715583801 0.4985421895980835 0.3776409924030304 0.30722153186798096 0.27240416407585144 0.2592819035053253 0.2660798132419586 0.2959044277667999 0.36032116413116455 0.47479185461997986 0.6633883118629456 0.9322989583015442 0 -9999
-9999 0 0 1.8253940343856812 1.174735188484192 0.782263457775116 0.5276084542274475 0.3629612922668457 0.26857227087020874 0.22026276588439941 0.19852286577224731 0.19184300303459167 0.1965256929397583 0.21441148221492767 0.25219467282295227 0.3228634297847748 0.44378426671028137 0 0 -9999
-9999 0 0 1.6082375049591064 0.9943047165870667 0.6368630528450012 0.412248432636261 0.275513231754303 0.20303501188755035 0.16789637506008148 0.1530020385980606 0.14821970462799072 0.15103542804718018 0.1610378623008728 0.1820821315050125 0.22269447147846222 0.29580992460250854 0 0 -9999
-9999 0 0 1.3398529291152954 0.8052805066108704 0.5046023726463318 0.3241755962371826 0.2184116244316101 0.164116770029068 0.13929711282253265 0.12743684649467468 0.1236724928021431 0.12475446611642838 0.13055448234081268 0.1429283320903778 0.16557221114635468 0.2081993818283081 0 0 -9999
-9999 0 0 1.0397496223449707 0.6098708510398865 0.38101130723953247 0.2515605390071869 0.1787605583667755 0.14064913988113403 0.12339436262845993 0.1153625026345253 0.11244150251150131 0.11295740306377411 0.11680995672941208 0.12466029077768326 0.13877522945404053 0.16401824355125427 0 0 -9999
-9999 0 0 0.7799798250198364 0.45019078254699707 0.2859133183956146 0.19910193979740143 0.15134073793888092 0.12719975411891937 0.11497507989406586 0.10900475829839706 0.10662837326526642 0.10693857818841934 0.10976065695285797 0.11537563800811768 0.12501172721385956 0.14093215763568878 0 -9999 -9999
-9999 0 0 0.6065279841423035 0.35183703899383545 0.22860993444919586 0.16758213937282562 0.1359081268310547 0.11919183284044266 0.11000154912471771 0.10522061586380005 0.10319798439741135 0.10344002395868301 0.10604298114776611 0.11061087995767593 0.11769760400056839 0.1282808482646942 0.13915424048900604 -9999 -9999
-9999 0 0 0.4980515241622925 0.2945966422557831 0.19526831805706024 0.15028725564479828 0.12678387761116028 0.1139456182718277 0.10660741478204727 0.10263452678918839 0.10124854743480682 0.10175774246454239 0.1037023589015007 0.10708271712064743 0.11206373572349548 0.1189134418964386 0.125654935836792 0.12504063546657562 0.12509675323963165
-9999 -9999 0 0.41619089245796204 0.25781065225601196 0.17749318480491638 0.14045441150665283 0.12133565545082092 0.11063927412033081 0.10444580763578415 0.10157302021980286 0.10042328387498856 0.10065818578004837 0.10207600891590118 0.10453570634126663 0.10794094949960709 0.11209337413311005 0.11627335101366043 0.11813012510538101 0.11875960975885391
-9999 -9999 0 0 0.23567166924476624 0.16638991236686707 0.1345265954732895 0.11798819899559021 0.10891866683959961 0.1039939671754837 0.1011875569820404 0.09997660666704178 0.10002122819423676 0.10107729583978653 0.10292888432741165 0.10537329316139221 0.10812362283468246 0.11063992977142334 0.11216125637292862 0.11283127963542938
-9999 -9999 -9999 0 0.22117507457733154 0.16120387613773346 0.131963849067688 0.11659710854291916 0.10860451310873032 0.10380280017852783 0.10102996230125427 0.09978242963552475 0.0997292771935463 0.10060500353574753 0.10216470807790756 0.10416534543037415 0.10633301734924316 0.1082359030842781 0.1095195785164833 0.11014167219400406
