ncols         20
nrows         20
xllcorner     0
yllcorner     -3.5992928
cellsize      0.17996463
NODATA_value  -9999
-9999.0 -9999 -9999 -9999 -9999 -9999 -9999 -9999 -9999 -9999 -9999 -9999 -9999 -9999 -9999 -9999 -9999 -9999 -9999 -9999
-9999 -9999 -9999 -9999 -9999 -9999 -9999 -9999 -9999 -9999 -9999 0 0 -9999 -9999 0 0 -9999 -9999 -9999
-9999 -9999 -9999 -9999 0 0 0 0 0 0 0 0 0 0 0 0 0 0 -9999 -9999
-9999 -9999 -9999 0 0 0 0 0 0 0 0 0 0 0 0 0 0 0 -9999 -9999
-9999 -9999 -9999 0 0 0 0 0 0 0 0 0 0 0 0 0 0 0 -9999 -9999
-9999 -9999 0 0 0 0 3.364196300506592 3.249016761779785 3.1302661895751953 2.963104009628296 2.7729547023773193 2.6766204833984375 2.7221341133117676 2.920593738555908 3.184826135635376 3.460291862487793 0 0 0 -9999
-9999 -9999 0 0 0 3.405985116958618 3.203054189682007 3.004502773284912 2.7488837242126465 2.424776315689087 2.109844207763672 1.9384868144989014 1.9719709157943726 2.2178258895874023 0.2892843186855316 3.0652482509613037 0 0 0 -9999
-9999 -9999 0 0 3.552837371826172 3.319049596786499 3.056177854537964 2.7307989597320557 2.3431036472320557 1.9324629306793213 1.6026405096054077 1.4164057970046997 1.4234451055526733 1.6296359300613403 2.008118152618408 2.503401279449463 3.0371978282928467 0 0 -9999
-9999 0 0 3.811600685119629 3.5338449478149414 3.206742763519287 2.796329975128174 2.3210737705230713 1.8504605293273926 1.4542323350906372 1.1854945421218872 1.0410078763961792 1.0256813764572144 1.1636221408843994 1.4481374025344849 0.4170396327972412 2.3910462856292725 2.8844692707061768 0 -9999
-9999 0 0 3.889132022857666 3.458043336868286 2.938256025314331 2.3509163856506348 1.7702916860580444 1.3000991344451904 0.9854306578636169 0.810992956161499 0.721668004989624 0.7121395468711853 0.7872056365013123 0.975655198097229 0.28603294491767883 1.723790168762207 2.171288251876831 0 -9999
-9999 0 0 3.8667829036712646 3.2403008937835693 2.5545437335968018 1.847327470779419 1.2321054935455322 0.8200553059577942 0.5914769172668457 0.4803749918937683 0.43299275636672974 0.4284913241863251 0.470855176448822 0.5797621607780457 0.7849604487419128 1.08871328830719 0 0 -9999
-9999 0 0 3.637270212173462 2.8625683784484863 2.103745460510254 1.387811303138733 0.8289862275123596 0.4958444833755493 0.3256852924823761 0.2505568563938141 0.21778512001037598 0.09474392980337143 0.12717652320861816 0.27771419286727905 0.0856347605586052 0.5692446827888489 0 0 -9999
-9999 0 0 3.118157148361206 2.30706524848938 1.5914862155914307 0.9842466115951538 0.5414811372756958 0.2918732762336731 0.17677783966064453 0.1173151284456253 0.0933588296175003 0.05621521919965744 0.07670982927083969 0.06922058761119843 0.14437329769134521 0.23453254997730255 0 0 -9999
-9999 0 0 2.3938794136047363 1.6313396692276 1.0529654026031494 0.6211317777633667 0.3307027518749237 0.16590291261672974 0.09508109092712402 0.06133705750107765 0.045102596282958984 0.016430888324975967 0.026832766830921173 0.024547738954424858 0.047486674040555954 0.07277969270944595 0 0 -9999
-9999 0 0 1.7167823314666748 1.048364520072937 0.6229714155197144 0.35212817788124084 0.18191581964492798 0.09720538556575775 0.056511152535676956 0.03656088188290596 0.025623908266425133 0.019681164994835854 0.016845790669322014 0.010480654425919056 0.009547647088766098 0.021664435043931007 0 -9999 -9999
-9999 0 0 1.2670581340789795 0.6980917453765869 0.37015438079833984 0.19453640282154083 0.10393404960632324 0.05966470390558243 0.036489639431238174 0.016209715977311134 0.013303859159350395 0.0015262806555256248 0.015097125433385372 0.007470603100955486 0.008297987282276154 0.020450109615921974 0.0031164411921054125 -9999 -9999
-9999 0 0 0.9984877109527588 0.5079776048660278 0.23024514317512512 0.11615064740180969 0.062091704457998276 0.0367448590695858 0.015615947544574738 0.014431320130825043 0.014450914226472378 0.012119255028665066 0.01725800707936287 0.01926901750266552 0.021445102989673615 0.023687390610575676 0.02611793950200081 0.021181786432862282 0.031300708651542664
-9999 -9999 0 0.8030815720558167 0.3920416533946991 0.16563686728477478 0.07658666372299194 0.03966875001788139 0.01299718301743269 0.01384780090302229 0.015400421805679798 0.016041645780205727 0.015465063974261284 0.01502400916069746 0.014372894540429115 0.015951264649629593 0.01753142476081848 0.022234728559851646 0.027314528822898865 0.03181847184896469
-9999 -9999 0 0 0.30940479040145874 0.1239403784275055 0.053585637360811234 0.026355359703302383 0.011580861173570156 0.01656251773238182 0.016561152413487434 0.017359107732772827 0.018876375630497932 0.020950431004166603 0.02332008071243763 0.025752706453204155 0.028072774410247803 0.03006451576948166 0.03153178095817566 0.03228756785392761
-9999 -9999 -9999 0 0.2625167667865753 0.10724639892578125 0.04488588869571686 0.02152261510491371 0.011884636245667934 0.01712913066148758 0.0172165147960186 0.018085749819874763 0.019682032987475395 0.0218322966247797 0.024263400584459305 0.02669980749487877 0.028964484110474586 0.03073509782552719 0.031948935240507126 0.03256313502788544
