ncols         20
nrows         20
xllcorner     0
yllcorner     -3.5992928
cellsize      0.17996463
NODATA_value  -9999
-9999.0 -9999 -9999 -9999 -9999 -9999 -9999 -9999 -9999 -9999 -9999 -9999 -9999 -9999 -9999 -9999 -9999 -9999 -9999 -9999
-9999 -9999 -9999 -9999 -9999 -9999 -9999 -9999 -9999 -9999 -9999 0 0 -9999 -9999 0 0 -9999 -9999 -9999
-9999 -9999 -9999 -9999 0 0 0 0 0 0 0 0 0 0 0 0 0 0 -9999 -9999
-9999 -9999 -9999 0 0 0 0 0 0 0 0 0 0 0 0 0 0 0 -9999 -9999
-9999 -9999 -9999 0 0 0 0 0 0 0 0 0 0 0 0 0 0 0 -9999 -9999
-9999 -9999 0 0 0 0 3.926769495010376 3.6622626781463623 3.4711499214172363 3.2922115325927734 3.133265972137451 3.072754144668579 3.1427085399627686 3.3559188842773438 3.663396120071411 4.056357383728027 0 0 0 -9999
-9999 -9999 0 0 0 3.8664021492004395 3.4622421264648438 3.163410186767578 2.8874926567077637 2.6059186458587646 2.3639235496520996 2.2493093013763428 2.302471399307251 2.535221576690674 0.3236859440803528 3.424060344696045 0 0 0 -9999
-9999 -9999 0 0 3.9650838375091553 3.5069971084594727 3.121276378631592 2.762528657913208 2.41123628616333 2.0814003944396973 1.8362799882888794 1.7124298810958862 1.7409799098968506 1.9310976266860962 2.2772057056427 2.7604546546936035 3.349543571472168 0 0 -9999
-9999 0 0 4.223872661590576 3.6980557441711426 3.2332587242126465 2.7832159996032715 2.345578193664551 1.954456090927124 1.6468217372894287 1.449803113937378 1.3549531698226929 1.3633275032043457 1.4939579963684082 1.7507891654968262 0.4763122797012329 2.641378402709961 3.1693501472473145 0 -9999
-9999 0 0 4.108205795288086 3.4953701496124268 2.923255681991577 2.375851631164551 1.8860136270523071 1.5110456943511963 1.268920660018921 1.139735460281372 1.0815536975860596 1.0892897844314575 1.167830228805542 1.3414233922958374 0.3609272837638855 2.0254173278808594 2.4718246459960938 0 -9999
-9999 0 0 3.9857749938964844 3.250244140625 2.5808422565460205 1.969067096710205 1.4714375734329224 1.1476961374282837 0.9702721834182739 0.8860024809837341 0.8549256920814514 0.8622362613677979 0.9116680026054382 1.0196740627288818 1.2122015953063965 1.500303030014038 0 0 -9999
-9999 0 0 3.741333484649658 2.922414779663086 2.22053599357605 1.6175366640090942 1.169649600982666 0.9063332080841064 0.7717608213424683 0.7126976847648621 0.690505862236023 0.30883434414863586 0.40080419182777405 0.7810364365577698 0.19899581372737885 1.0842926502227783 0 0 -9999
-9999 0 0 3.299508571624756 2.4831080436706543 1.8313747644424438 1.3170275688171387 0.9566167593002319 0.7540826201438904 0.6584604978561401 0.6104310154914856 0.5933374166488647 0.3951318562030792 0.5391234755516052 0.4264291226863861 0.7005054950714111 0.8129017949104309 0 0 -9999
-9999 0 0 2.714010238647461 1.9645507335662842 1.429450273513794 1.0492924451828003 0.8003291487693787 0.6587820649147034 0.5942502021789551 0.563430666923523 0.5507583022117615 0.24407202005386353 0.4335397779941559 0.3841862976551056 0.6110775470733643 0.6718432903289795 0 0 -9999
-9999 0 0 2.1656110286712646 1.5145177841186523 1.1057214736938477 0.8486489653587341 0.6886364817619324 0.6044581532478333 0.5613195896148682 0.5398455858230591 0.5301649570465088 0.5288181304931641 0.5346630215644836 0.36508041620254517 0.316838800907135 0.6067240834236145 0 -9999 -9999
-9999 0 0 1.7882474660873413 1.233810305595398 0.9087988138198853 0.7272757887840271 0.6269108057022095 0.5727875828742981 0.5425286889076233 0.35096684098243713 0.4035370647907257 0.05757877230644226 0.5250986218452454 0.2385636866092682 0.24628952145576477 0.5788524746894836 0.0861515998840332 -9999 -9999
-9999 0 0 1.5501347780227661 1.0719592571258545 0.7945221066474915 0.6626275181770325 0.5913915038108826 0.5522958040237427 0.3531334698200226 0.45976492762565613 0.513096034526825 0.40036484599113464 0.5201684832572937 0.5291696786880493 0.5419312119483948 0.5588006377220154 0.5750535726547241 0.4106918275356293 0.5757012367248535
-9999 -9999 0 1.3671693801879883 0.9677465558052063 0.7364023327827454 0.6271411180496216 0.5708049535751343 0.29977288842201233 0.4636240601539612 0.5143475532531738 0.5116633772850037 0.4557408094406128 0.4020441472530365 0.3491935133934021 0.35529783368110657 0.36251121759414673 0.431241512298584 0.4973856806755066 0.561418354511261
-9999 -9999 0 0 0.8981549143791199 0.6988574862480164 0.6057299375534058 0.5581525564193726 0.35549890995025635 0.520880401134491 0.5138555765151978 0.5110594630241394 0.5116778612136841 0.5150390863418579 0.5204774737358093 0.5273630023002625 0.5348911881446838 0.541667640209198 0.5458323359489441 0.5477015972137451
-9999 -9999 -9999 0 0.8550018072128296 0.6822396516799927 0.5968677401542664 0.553115963935852 0.3551284968852997 0.5206466317176819 0.513726532459259 0.5108575820922852 0.511254608631134 0.5141916275024414 0.5189332962036133 0.5247458219528198 0.5308677554130554 0.5361279249191284 0.5396652817726135 0.5413846969604492
