ncols         20
nrows         20
xllcorner     0
yllcorner     -3.5992928
cellsize      0.17996463
NODATA_value  -9999
-9999.0 -9999 -9999 -9999 -9999 -9999 -9999 -9999 -9999 -9999 -9999 -9999 -9999 -9999 -9999 -9999 -9999 -9999 -9999 -9999
-9999 -9999 -9999 -9999 -9999 -9999 -9999 -9999 -9999 -9999 -9999 1.261905312538147 1.259316086769104 -9999 -9999 1.3248320817947388 1.295304536819458 -9999 -9999 -9999
-9999 -9999 -9999 -9999 1.2549017667770386 1.2740960121154785 1.3052421808242798 1.3139592409133911 1.3112176656723022 1.316031813621521 1.2915016412734985 1.3054230213165283 1.330478310585022 1.3514235019683838 1.35396409034729 1.3461772203445435 1.3198411464691162 1.2945492267608643 -9999 -9999
-9999 -9999 -9999 1.2809267044067383 1.2983241081237793 1.3177776336669922 1.3383313417434692 1.342781901359558 1.3440110683441162 1.3433171510696411 1.3527657985687256 1.3698879480361938 1.393449306488037 1.4113497734069824 1.4316550493240356 1.4253454208374023 1.392066478729248 1.3607361316680908 -9999 -9999
-9999 -9999 -9999 1.3155152797698975 1.3396430015563965 1.3813358545303345 1.3976012468338013 1.392439842224121 1.367040753364563 1.3146493434906006 1.2559149265289307 1.233340859413147 1.2687408924102783 1.352603554725647 1.4409500360488892 1.480117678642273 1.4732846021652222 1.4812668561935425 -9999 -9999
-9999 -9999 1.3238564729690552 1.3585246801376343 1.4009068012237549 1.4340330362319946 1.4236749410629272 1.3787142038345337 1.2653712034225464 1.0841641426086426 0.8980340957641602 0.8106066584587097 0.8452243804931641 1.0127145051956177 1.2428021430969238 1.403343677520752 1.4835588932037354 1.5103960037231445 1.4786297082901 -9999
-9999 -9999 1.3585447072982788 1.3990228176116943 1.4628087282180786 1.4783098697662354 1.432314395904541 1.298993706703186 1.0599688291549683 0.7680725455284119 0.5318920612335205 0.42442435026168823 0.44351527094841003 0.6015211343765259 0 1.1673556566238403 1.3731882572174072 1.4669928550720215 1.4842820167541504 -9999
-9999 -9999 1.4366462230682373 1.4864221811294556 1.5292644500732422 1.4971717596054077 1.360454797744751 1.1034159660339355 0.7809392809867859 0.4868793785572052 0.30222412943840027 0.22029827535152435 0.22324490547180176 0.3130652606487274 0.5136107802391052 0.7995032668113708 1.07868230342865 1.2818286418914795 1.3637582063674927 -9999
-9999 1.4716227054595947 1.533443570137024 1.5683010816574097 1.548572301864624 1.4063613414764404 1.1247291564941406 0.7730444073677063 0.4668590724468231 0.2644958794116974 0.16036659479141235 0.11631316691637039 0.1127491369843483 0.1535699963569641 0.2575148344039917 0 0.7004188895225525 0.927818238735199 1.0487680435180664 -9999
-9999 1.558512806892395 1.6029542684555054 1.5958515405654907 1.4534882307052612 1.14130437374115 0.7511860132217407 0.41630247235298157 0.2121497541666031 0.11358501017093658 0.07220394909381866 0.054956089705228806 0.05353374406695366 0.06807093322277069 0.11138150840997696 0 0.35525643825531006 0.5270978212356567 0.6296659111976624 -9999
-9999 1.6383836269378662 1.6327522993087769 1.511497139930725 1.2279253005981445 0.8190122246742249 0.43072402477264404 0.18419915437698364 0.07742064446210861 0.038477469235658646 0.024555351585149765 0.01962054707109928 0.0192828681319952 0.0238035935908556 0.03725018724799156 0.0699026808142662 0.1310361921787262 0.21807634830474854 0.2740388512611389 -9999
-9999 1.6086533069610596 1.534090518951416 1.286630630493164 0.9145979285240173 0.5239949226379395 0.22696320712566376 0.07794548571109772 0.026934999972581863 0.011408076621592045 0.006657142657786608 0.005023797042667866 0 0 0.008288019336760044 0 0.03352908045053482 0.061629027128219604 0.08078008145093918 -9999
-9999 1.3988438844680786 1.2491552829742432 0.9066901803016663 0.5606316328048706 0.2811363935470581 0.10784421116113663 0.03206976503133774 0.009204355999827385 0.003388401120901108 0.0014012972824275494 0.0008895701030269265 0 0 0 0.0020566487219184637 0.0055503323674201965 0.011909820139408112 0.017267251387238503 -9999
-9999 1.0249998569488525 0.8388360738754272 0.5084124207496643 0.26108235120773315 0.1148109957575798 0.04098830744624138 0.01170328538864851 0.002830790588632226 0.0009782168781384826 0.00043881128658540547 0.00026037986390292645 0 0 0 0.00027750854496844113 0.0005749628762714565 0.0015195993473753333 0.0026449330616742373 -9999
-9999 0.6761676669120789 0.5091994404792786 0.2506409287452698 0.10146380215883255 0.038163479417562485 0.0127869863063097 0.003405442228540778 0.0010473986621946096 0.00041496549965813756 0.000213341205380857 0.00013036560267210007 9.260338265448809E-05 7.70111582824029E-05 0 0 0.00010434006253490224 0.00022058030299376696 -9999 -9999
-9999 0.4720287621021271 0.32880523800849915 0.1351126879453659 0.04416117072105408 0.01325894333422184 0.003782830433920026 0.0012010909849777818 0.00047891950816847384 0.00023349969706032425 0 0 0 0.0001008707404253073 0 0 0.00016446334484498948 0 -9999 -9999
-9999 0.3505714237689972 0.22391894459724426 0.0857696607708931 0.023887047544121742 0.005076540634036064 0.0014517856761813164 0.0005132209626026452 0.0002410899178357795 0 0 0 0 0.00017111320630647242 0.00021203602955210954 0.00024992277030833066 0.00028408083016984165 0.00032391364220529795 0 0
-9999 -9999 0.1367325335741043 0.058034904301166534 0.014957853592932224 0.0028156673070043325 0.0007248175679706037 0.000264031725237146 0 0 0 0 0 0 0 0 0 0 0 0
-9999 -9999 0.07062972337007523 0.03582211211323738 0.00968117080628872 0.0017037660581991076 0.0004089385911356658 0.00014675433340016752 0 0 0 0 0 0 0 0 0 0 0 0
-9999 -9999 -9999 0.02486990951001644 0.006965162232518196 0.001331735635176301 0.00031204166589304805 0.00011242497566854581 0 0 0 0 0 0 0 0 0 0 0 0
