ncols         20
nrows         20
xllcorner     0
yllcorner     -3.5992928
cellsize      0.17996463
NODATA_value  -9999
-9999.0 -9999 -9999 -9999 -9999 -9999 -9999 -9999 -9999 -9999 -9999 -9999 -9999 -9999 -9999 -9999 -9999 -9999 -9999 -9999
-9999 -9999 -9999 -9999 -9999 -9999 -9999 -9999 -9999 -9999 -9999 1.034283995628357 1.010815143585205 -9999 -9999 0.8944583535194397 0.8380256295204163 -9999 -9999 -9999
-9999 -9999 -9999 -9999 1.178804874420166 1.2527096271514893 1.3816218376159668 1.4723427295684814 1.5127521753311157 1.52139413356781 1.3518325090408325 1.2316138744354248 1.2102622985839844 1.1914548873901367 1.0760562419891357 0.9506548047065735 0.8588132262229919 0.7953696846961975 -9999 -9999
-9999 -9999 -9999 1.1120176315307617 1.1980277299880981 1.2993084192276 1.4361809492111206 1.5567498207092285 1.6750766038894653 1.7578099966049194 1.7901679277420044 1.7395267486572266 1.6776800155639648 1.526456356048584 1.3320446014404297 1.122880458831787 0.9618167281150818 0.8740795850753784 -9999 -9999
-9999 -9999 -9999 1.0928486585617065 1.1881669759750366 1.3677175045013428 1.5705162286758423 1.7866994142532349 2.035464286804199 2.3509011268615723 2.6320724487304688 2.72651743888855 2.5958251953125 2.223191022872925 1.8262568712234497 1.4387524127960205 1.1628150939941406 1.0870625972747803 -9999 -9999
-9999 -9999 0.8739650845527649 1.017475962638855 1.1831016540527344 1.4140095710754395 1.675417184829712 1.9846491813659668 2.434260368347168 2.980656862258911 3.5256359577178955 3.738576650619507 3.6065335273742676 3.0737340450286865 2.416203498840332 1.8457542657852173 1.444340467453003 1.2702747583389282 1.1226930618286133 -9999
-9999 -9999 0.8453161716461182 0.9592121243476868 1.1862928867340088 1.480208396911621 1.798980474472046 2.2076101303100586 2.7652041912078857 3.42484974861145 4.03984260559082 4.331466197967529 4.217517852783203 3.708188772201538 3.040161609649658 2.3194236755371094 1.8044230937957764 1.4843024015426636 1.3436026573181152 -9999
-9999 -9999 0.8395020961761475 0.9844879508018494 1.2661969661712646 1.6107913255691528 2.0165090560913086 2.489967107772827 3.0198724269866943 3.584047555923462 4.011829853057861 4.239922046661377 4.17690372467041 3.8338589668273926 3.3058414459228516 2.693542957305908 2.171452760696411 1.794466257095337 1.6378155946731567 -9999
-9999 0.6734020709991455 0.8452322483062744 1.0679666996002197 1.4391629695892334 1.8872002363204956 2.3482275009155273 2.8305957317352295 3.254305839538574 3.5753555297851562 3.749495506286621 3.8241171836853027 3.797778606414795 3.620438575744629 3.3318793773651123 2.9402244091033936 2.442793369293213 2.0753142833709717 1.9157195091247559 -9999
-9999 0.7390934824943542 0.8968255519866943 1.2263215780258179 1.6931997537612915 2.2155487537384033 2.7115259170532227 3.125262498855591 3.3730626106262207 3.451155185699463 3.4156360626220703 3.374079704284668 3.3281641006469727 3.260227918624878 3.1307907104492188 2.940463066101074 2.569016456604004 2.269869804382324 2.1379804611206055 -9999
-9999 0.8722234964370728 1.0434670448303223 1.414037823677063 1.8946857452392578 2.4058656692504883 2.8660049438476562 3.1733107566833496 3.2491660118103027 3.1731691360473633 3.055729627609253 2.968740701675415 2.9271321296691895 2.8937737941741943 2.8396198749542236 2.739954948425293 2.5505809783935547 2.3505544662475586 2.2585244178771973 -9999
-9999 1.0824660062789917 1.2546119689941406 1.6333293914794922 2.0669608116149902 2.4731862545013428 2.802337169647217 2.9536235332489014 2.8991196155548096 2.75480318069458 2.6237740516662598 2.5552618503570557 2.5708930492401123 2.5642123222351074 2.5225255489349365 2.515422821044922 2.4064583778381348 2.302793025970459 2.2535388469696045 -9999
-9999 1.3675551414489746 1.5487886667251587 1.9115962982177734 2.2282376289367676 2.4728076457977295 2.616513252258301 2.6164803504943848 2.475067377090454 2.296541213989258 2.1639182567596436 2.0991804599761963 2.1164774894714355 2.118654727935791 2.1237967014312744 2.118300676345825 2.127824306488037 2.126133918762207 2.1133785247802734 -9999
-9999 1.671513319015503 1.838952660560608 2.1455531120300293 2.3419878482818604 2.4124679565429688 2.382765293121338 2.260817766189575 2.0770466327667236 1.8916914463043213 1.7586872577667236 1.683166265487671 1.6636900901794434 1.6395748853683472 1.625148057937622 1.6317706108093262 1.7110116481781006 1.8473587036132812 1.9093865156173706 -9999
-9999 1.8604460954666138 1.9840553998947144 2.2102854251861572 2.2914962768554688 2.22804856300354 2.0912764072418213 1.9183415174484253 1.7312008142471313 1.5748863220214844 1.4665310382843018 1.3816075325012207 1.3146934509277344 1.2575604915618896 1.2207351922988892 1.211820363998413 1.2463377714157104 1.4096612930297852 -9999 -9999
-9999 1.8802803754806519 1.9496994018554688 2.0892105102539062 2.0783934593200684 1.9492404460906982 1.7802250385284424 1.603132963180542 1.458505392074585 1.3523979187011719 1.2878801822662354 1.209181785583496 1.1197669506072998 1.0199922323226929 0.9549530744552612 0.9008840322494507 0.8744073510169983 0.8003969788551331 -9999 -9999
-9999 1.879356026649475 1.8384026288986206 1.8883527517318726 1.8300009965896606 1.6760637760162354 1.4957191944122314 1.3404792547225952 1.2379628419876099 1.1773080825805664 1.1220252513885498 1.0503284931182861 0.9603114128112793 0.8632193803787231 0.781103253364563 0.7116790413856506 0.6601157188415527 0.6149312257766724 0.6014683842658997 0.5470566749572754
-9999 -9999 1.6558564901351929 1.680862307548523 1.6123542785644531 1.4505757093429565 1.2711893320083618 1.1363625526428223 1.0664708614349365 1.0156408548355103 0.971688985824585 0.9134311079978943 0.8403204083442688 0.7464983463287354 0.6676247715950012 0.6094728112220764 0.5539147853851318 0.5182160139083862 0.49380719661712646 0.5218367576599121
-9999 -9999 1.6015119552612305 1.539459228515625 1.4517935514450073 1.2818822860717773 1.101682424545288 0.9724769592285156 0.9086971879005432 0.8701328635215759 0.850361704826355 0.8033922910690308 0.736782431602478 0.6532043218612671 0.5894924998283386 0.5441632866859436 0.5046262741088867 0.48381808400154114 0.5194047093391418 0.5398029685020447
-9999 -9999 -9999 1.4246575832366943 1.3654932975769043 1.2005401849746704 1.0211174488067627 0.8961222767829895 0.8385232090950012 0.810213565826416 0.7926304340362549 0.7618794441223145 0.6983728408813477 0.6189218163490295 0.5523930788040161 0.5222315788269043 0.47754696011543274 0.5040278434753418 0.5346949100494385 0.551946222782135
