ncols         20
nrows         20
xllcorner     0
yllcorner     -3.5992928
cellsize      0.17996463
NODATA_value  -9999
-9999.0 -9999 -9999 -9999 -9999 -9999 -9999 -9999 -9999 -9999 -9999 -9999 -9999 -9999 -9999 -9999 -9999 -9999 -9999 -9999
-9999 -9999 -9999 -9999 -9999 -9999 -9999 -9999 -9999 -9999 -9999 0.05004846677184105 0.04792698100209236 -9999 -9999 0.03841998428106308 0.03376798331737518 -9999 -9999 -9999
-9999 -9999 -9999 -9999 0.06186980754137039 0.07011857628822327 0.08589664101600647 0.09853257983922958 0.10527001321315765 0.10779552161693573 0.08606737852096558 0.07193248718976974 0.07005826383829117 0.06887717545032501 0.05661623179912567 0.04415702819824219 0.03615928813815117 0.03130490332841873 -9999 -9999
-9999 -9999 -9999 0.05587327480316162 0.06469239294528961 0.07640710473060608 0.0941566526889801 0.1119714081287384 0.13150964677333832 0.14698706567287445 0.15469945967197418 0.14788515865802765 0.13904528319835663 0.11633197963237762 0.08933565020561218 0.06376257538795471 0.04696423560380936 0.03894752636551857 -9999 -9999
-9999 -9999 -9999 0.055011454969644547 0.06513457745313644 0.08694558590650558 0.11607779562473297 0.152757465839386 0.20203855633735657 0.274483323097229 0.35060763359069824 0.3823656141757965 0.3511717617511749 0.2607477903366089 0.17797507345676422 0.11107439547777176 0.07287324965000153 0.0639806017279625 -9999 -9999
-9999 -9999 0.03712235018610954 0.049553193151950836 0.06713774800300598 0.0969913974404335 0.13865633308887482 0.19907690584659576 0.30693861842155457 0.47284996509552 0.6790164709091187 0.7798691391944885 0.7375136613845825 0.543278694152832 0.33997395634651184 0.1992429941892624 0.12269264459609985 0.0959751158952713 0.07773222774267197 -9999
-9999 -9999 0.035970136523246765 0.04624699801206589 0.0713680237531662 0.1131582260131836 0.17142240703105927 0.26585087180137634 0.4320060908794403 0.6878963708877563 0.9910423755645752 1.1718978881835938 1.1334081888198853 0.8912680745124817 0 0.3537675142288208 0.2133370339870453 0.1445162445306778 0.11946816742420197 -9999
-9999 -9999 0.037874896079301834 0.05232423171401024 0.08794225752353668 0.14609698951244354 0.2366355061531067 0.37588855624198914 0.5789535641670227 0.8549935221672058 1.1180628538131714 1.2933368682861328 1.2863363027572632 1.1022858619689941 0.8294197916984558 0.552120566368103 0.35491010546684265 0.24003776907920837 0.1993725448846817 -9999
-9999 0.02798677422106266 0.04241449758410454 0.06779810041189194 0.12572155892848969 0.22389893233776093 0.36290138959884644 0.5572268962860107 0.781494677066803 0.9987823367118835 1.1553510427474976 1.252790927886963 1.2741961479187012 1.1815850734710693 1.014172077178955 0 0.535520613193512 0.37752750515937805 0.3177722096443176 -9999
-9999 0.03607575595378876 0.05278480798006058 0.09984476119279861 0.19613009691238403 0.3517289459705353 0.5603280663490295 0.800244927406311 1.003958821296692 1.1255007982254028 1.1702383756637573 1.2007964849472046 1.2142189741134644 1.1926913261413574 1.1114413738250732 0 0.7248901128768921 0.5480456948280334 0.4774901866912842 -9999
-9999 0.05572821572422981 0.08021213114261627 0.15011943876743317 0.2798496186733246 0.47889766097068787 0.7356150150299072 0.9869322180747986 1.1304222345352173 1.1683191061019897 1.1634130477905273 1.169351577758789 1.1987168788909912 1.2019697427749634 1.1563801765441895 1.0646944046020508 0.8891739249229431 0.7288506031036377 0.6586152911186218 -9999
-9999 0.09681683778762817 0.13158151507377625 0.2289716899394989 0.38508838415145874 0.5930746793746948 0.8362569212913513 1.0290279388427734 1.0928462743759155 1.0774285793304443 1.0579320192337036 1.0833125114440918 0 0 1.1573162078857422 0 0.9857561588287354 0.8671376705169678 0.8102005124092102 -9999
-9999 0.1751701980829239 0.22862131893634796 0.36234673857688904 0.525047779083252 0.7048466205596924 0.8743349313735962 0.9724578857421875 0.9599867463111877 0.9025269746780396 0.8686665296554565 0.8852263689041138 0 0 0 0.9481123685836792 0.9158563613891602 0.8818890452384949 0.845967173576355 -9999
-9999 0.29565274715423584 0.36784693598747253 0.5312937498092651 0.6871238350868225 0.8036412596702576 0.8706996440887451 0.8684622049331665 0.8051167726516724 0.7310078144073486 0.6847096681594849 0.6731648445129395 0 0 0 0.651813805103302 0.6805970072746277 0.7581219673156738 0.763596773147583 -9999
-9999 0.41234225034713745 0.48910778760910034 0.6571854948997498 0.7786260843276978 0.8161947131156921 0.7961509823799133 0.7380318641662598 0.6627383232116699 0.6006506681442261 0.5625293254852295 0.5258955955505371 0.49122026562690735 0.45263466238975525 0 0 0.4077865481376648 0.5034780502319336 -9999 -9999
-9999 0.47052836418151855 0.5385106205940247 0.6813419461250305 0.7503973245620728 0.731716513633728 0.6727734804153442 0.6032721400260925 0.5514401197433472 0.5207154154777527 0 0 0 0.3250007927417755 0 0 0.22014743089675903 0 -9999 -9999
-9999 0.510329008102417 0.5459426641464233 0.642841637134552 0.6728944778442383 0.6217281222343445 0.5467442870140076 0.48556938767433167 0.4585319757461548 0 0 0 0 0.24918019771575928 0.19764241576194763 0.15900999307632446 0.1328037530183792 0.11430119723081589 0 0
-9999 -9999 0.526881992816925 0.5880091190338135 0.5951673984527588 0.5267854928970337 0.44432204961776733 0.39173153042793274 0 0 0 0 0 0 0 0 0 0 0 0
-9999 -9999 0.5488653182983398 0.5528346300125122 0.5339353680610657 0.4513700604438782 0.3630731999874115 0.30995240807533264 0 0 0 0 0 0 0 0 0 0 0 0
-9999 -9999 -9999 0.5183773040771484 0.5006037354469299 0.4162927269935608 0.32583823800086975 0.2734447419643402 0 0 0 0 0 0 0 0 0 0 0 0
