ncols         20
nrows         20
xllcorner     0
yllcorner     -3.5992928
cellsize      0.17996463
NODATA_value  -9999
-9999.0 -9999 -9999 -9999 -9999 -9999 -9999 -9999 -9999 -9999 -9999 -9999 -9999 -9999 -9999 -9999 -9999 -9999 -9999 -9999
-9999 -9999 -9999 -9999 -9999 -9999 -9999 -9999 -9999 -9999 -9999 0.1009005457162857 0.10097533464431763 -9999 -9999 0.10216094553470612 0.10225978493690491 -9999 -9999 -9999
-9999 -9999 -9999 -9999 0.10028883814811707 0.10032594203948975 0.10042332857847214 0.10056959837675095 0.10075163841247559 0.10094767808914185 0.10112432390451431 0.09358347952365875 0.09380882978439331 0.10198044776916504 0.10232570767402649 0.09480664879083633 0.0951022207736969 0.10332773625850677 -9999 -9999
-9999 -9999 -9999 0.10065314918756485 0.09297764301300049 0.07917147129774094 0.07925993204116821 0.07939867675304413 0.07957585155963898 0.07977427542209625 0.07997789978981018 0.07410075515508652 0.07433426380157471 0.08076532930135727 0.08108086884021759 0.0752602219581604 0.0818251520395279 0.10427239537239075 -9999 -9999
-9999 -9999 -9999 0.1010226309299469 0.07952529191970825 0.05792961269617081 0.053475331515073776 0.05360349267721176 0.05377107858657837 0.05396432429552078 0.05416826158761978 0.050306081771850586 0.05051499232649803 0.05486758425831795 0.05516010522842407 0.055546779185533524 0.08320671319961548 0.10599850863218307 -9999 -9999
-9999 -9999 0.10186352580785751 0.09399161487817764 0.07398566603660583 0.04977662116289139 0.03084629587829113 0.03094417229294777 0.031082067638635635 0.031244661659002304 0.03141794353723526 0.029138192534446716 0.029313521459698677 0.03201083838939667 0.032282643020153046 0.05261678621172905 0.07868198305368423 0.10052033513784409 0.10999228060245514 -9999
-9999 -9999 0.10237869620323181 0.08060704171657562 0.05877118185162544 0.03960927948355675 0.022624420002102852 0.015282968059182167 0.015376591123640537 0.015489335171878338 0.015611814334988594 0.01452687755227089 0.014664271846413612 0.016077401116490364 0.024194568395614624 0.04279205948114395 0.06385724246501923 0.08792171627283096 0.11202096939086914 -9999
-9999 -9999 0.10319583117961884 0.08133263885974884 0.054744936525821686 0.031464967876672745 0.015444202348589897 0.007574430666863918 0.006520771887153387 0.006586958188563585 0.00666096480563283 0.006227597128599882 0.006327776238322258 0.008195601403713226 0.017020314931869507 0.03493216633796692 0.06095072999596596 0.09066025912761688 0.1150921881198883 -9999
-9999 0.1046823263168335 0.09647612273693085 0.07600940763950348 0.051277630031108856 0.029433714225888252 0.014489591121673584 0.006097032222896814 0.002382623963057995 0.0024210221599787474 0.0024622941855341196 0.0023087351582944393 0.0025754845701158047 0.007380163297057152 0.017786890268325806 0.036336448043584824 0.06318400800228119 0.0937352329492569 0.11879900097846985 -9999
-9999 0.10560232400894165 0.08319216966629028 0.060757946223020554 0.041073501110076904 0.02370435744524002 0.01166389137506485 0.004916946869343519 0.001803446444682777 0.0011909789172932506 0.0012216510949656367 0.0012475126422941685 0.0027248747646808624 0.00773249426856637 0.018535980954766273 0.0377509668469429 0.06550154089927673 0.09701726585626602 0.1228426918387413 -9999
-9999 0.10708325356245041 0.08452121913433075 0.057043563574552536 0.032916974276304245 0.016238706186413765 0.0080106221139431 0.0034048431552946568 0.0012563846539705992 0.0012496390845626593 0.0012859741691499949 0.0013140379451215267 0.002859750296920538 0.008068608120083809 0.019270196557044983 0.03915822133421898 0.06783575564622879 0.1003451868891716 0.12694832682609558 -9999
-9999 0.10901486128568649 0.08614075928926468 0.05824540555477142 0.03368709236383438 0.01665724255144596 0.007045010570436716 0.002564849564805627 0.001252456335350871 0.0013017843011766672 0.00134245993103832 0.0014498364180326462 0.004156250506639481 0.009913677349686623 0.01999659463763237 0.04055287316441536 0.07013837993144989 0.10358172655105591 0.13085106015205383 -9999
-9999 0.11130387336015701 0.08801766484975815 0.05959418788552284 0.03451891988515854 0.017209183424711227 0.0073027643375098705 0.0026694415137171745 0.0012934636324644089 0.001345861703157425 0.0013903739163652062 0.0022421604953706264 0.0064057158306241035 0.015237171202898026 0.031009767204523087 0.05349051207304001 0.07856209576129913 0.10666055977344513 0.13425153493881226 -9999
-9999 0.11380225419998169 0.09005575627088547 0.06128358840942383 0.03558139503002167 0.017661089077591896 0.0075010256841778755 0.002741490723565221 0.0013271865900605917 0.0013809255324304104 0.0014267887454479933 0.0029190576169639826 0.008322104811668396 0.019900526851415634 0.0403875894844532 0.0697198212146759 0.10266612470149994 0.1288488656282425 0.1366739422082901 -9999
-9999 0.11628909409046173 0.09211639314889908 0.06275713443756104 0.03647208586335182 0.018122045323252678 0.009016341529786587 0.0038629069458693266 0.001426391419954598 0.0014070875477045774 0.00145352678373456 0.003230888396501541 0.009168146178126335 0.02194419503211975 0.04461820796132088 0.07726315408945084 0.11381717771291733 0.14380864799022675 -9999 -9999
-9999 0.11849445104598999 0.09434016048908234 0.06939547508955002 0.04739829897880554 0.027623577043414116 0.01379853580147028 0.0058657582849264145 0.0023383628576993942 0.0014241434400901198 0.0014723483473062515 0.0032719748560339212 0.009290597401559353 0.022259488701820374 0.04532244801521301 0.07863032817840576 0.11643300205469131 0.14715887606143951 -9999 -9999
-9999 0.12006226927042007 0.11272545903921127 0.08991360664367676 0.06128580868244171 0.035710640251636505 0.019252747297286987 0.009575430303812027 0.004098993726074696 0.0015106556238606572 0.001484340406022966 0.0030352985486388206 0.008669362403452396 0.020794227719306946 0.04237983003258705 0.07358299940824509 0.10924306511878967 0.13903293013572693 0.15197475254535675 0.15256433188915253
-9999 -9999 0.12443568557500839 0.09910434484481812 0.07287706434726715 0.04971888288855553 0.028930917382240295 0.014439033344388008 0.0061363521963357925 0.0022689306642860174 0.0014902683906257153 0.0024035442620515823 0.006886774208396673 0.016584865748882294 0.033741265535354614 0.05874485522508621 0.08723209798336029 0.11083488911390305 0.12035214900970459 0.12059559673070908
-9999 -9999 0.12590444087982178 0.11745153367519379 0.09343782067298889 0.06357340514659882 0.03699051961302757 0.01837998442351818 0.007816685363650322 0.0028788766358047724 0.0014926409348845482 0.001619415357708931 0.004653106443583965 0.011183423921465874 0.02291540987789631 0.03972073271870613 0.05924798548221588 0.07517039030790329 0.08134009689092636 0.08140470832586288
-9999 -9999 -9999 0.12833847105503082 0.10188337415456772 0.06923439353704453 0.04021294042468071 0.0199605580419302 0.008481189608573914 0.003131335834041238 0.0014937174273654819 0.00153790891636163 0.00267753261141479 0.006411262322217226 0.013174530118703842 0.022844746708869934 0.03412851318717003 0.04311449080705643 0.04676146060228348 0.04677123948931694
