ncols         20
nrows         20
xllcorner     0
yllcorner     -3.5992928
cellsize      0.17996463
NODATA_value  -9999
-9999.0 -9999 -9999 -9999 -9999 -9999 -9999 -9999 -9999 -9999 -9999 -9999 -9999 -9999 -9999 -9999 -9999 -9999 -9999 -9999
-9999 -9999 -9999 -9999 -9999 -9999 -9999 -9999 -9999 -9999 -9999 0 0 -9999 -9999 0 0 -9999 -9999 -9999
-9999 -9999 -9999 -9999 0 0 0 0 0 0 0 0 0 0 0 0 0 0 -9999 -9999
-9999 -9999 -9999 0 0 0 0 0 0 0 0 0 0 0 0 0 0 0 -9999 -9999
-9999 -9999 -9999 0 0 0 0 0 0 0 0 0 0 0 0 0 0 0 -9999 -9999
-9999 -9999 0 0 0 0 3.920083522796631 3.6607213020324707 3.4739761352539062 3.298276901245117 3.141115427017212 3.0807602405548096 3.149494171142578 3.360171318054199 3.6640512943267822 4.053077220916748 0 0 0 -9999
-9999 -9999 0 0 0 3.858222007751465 3.459951877593994 3.1661171913146973 2.8942453861236572 2.6153345108032227 2.3744139671325684 2.25964617729187 2.312032461166382 2.5433545112609863 0.32432153820991516 3.4266693592071533 0 0 0 -9999
-9999 -9999 0 0 3.9545891284942627 3.502708673477173 3.1224524974823 2.7680962085723877 2.4200494289398193 2.0918021202087402 1.8468528985977173 1.7224072217941284 1.7503820657730103 1.9399551153182983 2.285057783126831 2.7667012214660645 3.353785991668701 0 0 -9999
-9999 0 0 4.210010528564453 3.690800189971924 3.231900930404663 2.786754846572876 2.352599620819092 1.9633480310440063 1.6560992002487183 1.4586572647094727 1.3631020784378052 1.370949387550354 1.5014612674713135 1.7582165002822876 0.47789904475212097 2.648047924041748 3.1754345893859863 0 -9999
-9999 0 0 4.096374988555908 3.4903509616851807 2.923879861831665 2.3803768157958984 1.8925610780715942 1.5179675817489624 1.2754065990447998 1.1456868648529053 1.086958646774292 1.0943539142608643 1.1728590726852417 1.346784234046936 0.36223459243774414 2.031996726989746 2.479079008102417 0 -9999
-9999 0 0 3.975717306137085 3.246920585632324 2.582369565963745 1.9732252359390259 1.476099967956543 1.151702880859375 0.9734902381896973 0.8886796832084656 0.8572524785995483 0.8643656373023987 0.9138393998146057 1.0222301483154297 1.2155596017837524 1.50482177734375 0 0 -9999
-9999 0 0 3.733346939086914 2.9203858375549316 2.2221133708953857 1.6205024719238281 1.1721885204315186 0.9078530073165894 0.7724275588989258 0.7128713726997375 0.6903712153434753 0.30870839953422546 0.40064144134521484 0.7809697985649109 0.19910936057567596 1.0857899188995361 0 0 -9999
-9999 0 0 3.2939631938934326 2.481985330581665 1.8324497938156128 1.318522334098816 0.9573658108711243 0.7538890242576599 0.6575984954833984 0.6091252565383911 0.59176105260849 0.39396801590919495 0.5375158190727234 0.42527464032173157 0.6990096569061279 0.8118761777877808 0 0 -9999
-9999 0 0 2.7105939388275146 1.9637212753295898 1.42959725856781 1.0493263006210327 0.7997331023216248 0.6575354933738708 0.5925228595733643 0.5613845586776733 0.5485014915466309 0.2430034875869751 0.43159741163253784 0.3824882209300995 0.6085303425788879 0.6693392992019653 0 0 -9999
-9999 0 0 2.163289785385132 1.5134333372116089 1.1048648357391357 0.8475412726402283 0.6871200799942017 0.6025322079658508 0.5590857863426208 0.5373968482017517 0.5275633931159973 0.5261009931564331 0.5318523049354553 0.3631465435028076 0.31517279148101807 0.6035856008529663 0 -9999 -9999
-9999 0 0 1.786002516746521 1.2321726083755493 0.9071640968322754 0.7254427075386047 0.624794602394104 0.5704299807548523 0.5399831533432007 0.3491763174533844 0.40136411786079407 0.05725887045264244 0.5221564173698425 0.23722319304943085 0.24490565061569214 0.5755947232246399 0.08566398173570633 -9999 -9999
-9999 0 0 1.5475521087646484 1.0697706937789917 0.7923612594604492 0.6603019833564758 0.588891863822937 0.5496540069580078 0.3512970805168152 0.4572390019893646 0.5101905465126038 0.39806434512138367 0.5171583890914917 0.526096761226654 0.5387764573097229 0.5555314421653748 0.5716512799263 0.40820473432540894 0.5721861124038696
-9999 -9999 0 1.3641045093536377 0.9650760889053345 0.7338312864303589 0.6244947910308838 0.5680651068687439 0.29820573329925537 0.4610597789287567 0.5114163160324097 0.508691132068634 0.4530636966228485 0.39966922998428345 0.3471255302429199 0.35318994522094727 0.36035335063934326 0.42865702509880066 0.4943765699863434 0.5580065846443176
-9999 -9999 0 0 0.8951196074485779 0.6960117816925049 0.6028872728347778 0.5552704334259033 0.3535502254962921 0.5179226994514465 0.5108683109283447 0.5080434679985046 0.5086320042610168 0.5119607448577881 0.5173622965812683 0.5242049694061279 0.5316838026046753 0.5384103059768677 0.5425382256507874 0.5443896651268005
-9999 -9999 -9999 0 0.8518036603927612 0.6792613863945007 0.5939332842826843 0.5501704216003418 0.35314831137657166 0.517653226852417 0.5107121467590332 0.5078208446502686 0.5081931352615356 0.5111027359962463 0.5158135294914246 0.5215917229652405 0.5276761651039124 0.5329011678695679 0.5364123582839966 0.5381183624267578
