ncols         20
nrows         20
xllcorner     0
yllcorner     -3.5992928
cellsize      0.17996463
NODATA_value  -9999
-9999.0 -9999 -9999 -9999 -9999 -9999 -9999 -9999 -9999 -9999 -9999 -9999 -9999 -9999 -9999 -9999 -9999 -9999 -9999 -9999
-9999 -9999 -9999 -9999 -9999 -9999 -9999 -9999 -9999 -9999 -9999 2.3636951446533203 2.3585455417633057 -9999 -9999 2.4389774799346924 2.41330885887146 -9999 -9999 -9999
-9999 -9999 -9999 -9999 2.4881720542907715 2.4987356662750244 2.5122172832489014 2.4944629669189453 2.4600579738616943 2.4321985244750977 2.382784843444824 2.3836827278137207 2.3982274532318115 2.408233165740967 2.4183156490325928 2.431807518005371 2.4151716232299805 2.3886256217956543 -9999 -9999
-9999 -9999 -9999 2.524099349975586 2.534597396850586 2.5408849716186523 2.537233829498291 2.5055980682373047 2.464993953704834 2.421693801879883 2.3932697772979736 2.385214328765869 2.3953471183776855 2.411484718322754 2.4417569637298584 2.456940174102783 2.4409728050231934 2.417652130126953 -9999 -9999
-9999 -9999 -9999 2.5584187507629395 2.5743532180786133 2.59481143951416 2.5704538822174072 2.5021355152130127 2.414341926574707 2.316911458969116 2.2249085903167725 2.173703193664551 2.186814785003662 2.2576425075531006 2.3533318042755127 2.4218356609344482 2.438246488571167 2.4540281295776367 -9999 -9999
-9999 -9999 2.5660297870635986 2.597771167755127 2.6260757446289062 2.620676040649414 2.531254768371582 2.3636581897735596 2.1916086673736572 2.0060670375823975 1.8193557262420654 1.7131764888763428 1.72963547706604 1.8666976690292358 2.0662364959716797 2.2348792552948 2.3305728435516357 2.361952066421509 2.306750774383545 -9999
-9999 -9999 2.593726634979248 2.628648519515991 2.6658618450164795 2.6033029556274414 2.370973825454712 1.9661518335342407 1.6971302032470703 1.4492353200912476 1.228999376296997 1.1245242357254028 1.194007396697998 1.3818963766098022 1.6434094905853271 1.8980079889297485 2.0915884971618652 2.1865222454071045 2.207345485687256 -9999
-9999 -9999 2.6529107093811035 2.694708824157715 2.6950249671936035 2.5197832584381104 2.041776657104492 0.9021743535995483 0.6621674299240112 0.5553087592124939 0.4911002814769745 0.49665942788124084 0.744985818862915 0.9449319243431091 1.199054479598999 1.4889277219772339 1.7337101697921753 1.8910861015319824 1.959420919418335 -9999
-9999 2.635721206665039 2.705199718475342 2.735705852508545 2.6631393432617188 2.3783791065216064 1.800614833831787 0.6746882796287537 0.41427740454673767 0.32637470960617065 0.29671818017959595 0.3220665752887726 0.4891042113304138 0.6229095458984375 0.7955668568611145 1.0343154668807983 1.2971166372299194 1.5005106925964355 1.5944147109985352 -9999
-9999 2.662858009338379 2.699671506881714 2.6827876567840576 2.4921226501464844 2.0905308723449707 1.4861023426055908 0.5464508533477783 0.3106671869754791 0.23389410972595215 0.21453240513801575 0.23316438496112823 0.3268500566482544 0.3925846815109253 0.48632022738456726 0.6341500282287598 0.8390926718711853 1.0267090797424316 1.1218549013137817 -9999
-9999 2.624314785003662 2.6041951179504395 2.476701021194458 2.1705965995788574 1.7287776470184326 1.1453630924224854 0.4288889169692993 0.2373841404914856 0.17254440486431122 0.15315817296504974 0.15898165106773376 0.19724741578102112 0.22246995568275452 0.2621450126171112 0.33890241384506226 0.4539579451084137 0.5818071961402893 0.6509164571762085 -9999
-9999 2.432321310043335 2.3456668853759766 2.1050071716308594 1.7398229837417603 1.3228418827056885 0.8291102647781372 0.3319622278213501 0.1814744621515274 0.12303749471902847 0.10073467344045639 0.09420090168714523 0.10140897333621979 0.10463216155767441 0.115445576608181 0.14652255177497864 0.2031366378068924 0.2694258689880371 0.305815726518631 -9999
-9999 2.047482967376709 1.9032915830612183 1.5973118543624878 1.2578933238983154 0.9019055366516113 0.555735170841217 0.2776075005531311 0.14405247569084167 0.08860209584236145 0.06005857139825821 0.047728005796670914 0.041195642203092575 0.03743236884474754 0.038509488105773926 0.04684939235448837 0.07336881011724472 0.1037135049700737 0.12256589531898499 -9999
-9999 1.5608642101287842 1.399430274963379 1.0786572694778442 0.7710925936698914 0.5169762372970581 0.3133966624736786 0.1669808328151703 0.08383750915527344 0.05050424113869667 0.0342927910387516 0.025560352951288223 0.020003486424684525 0.0166554506868124 0.015128623694181442 0.016287079080939293 0.02131897397339344 0.03230086714029312 0.04044249281287193 -9999
-9999 1.1446504592895508 0.9777295589447021 0.6709287762641907 0.42090165615081787 0.259575754404068 0.15310044586658478 0.08037164807319641 0.04603362828493118 0.029844917356967926 0.02154519036412239 0.016322080045938492 0.012888477183878422 0.010850351303815842 0.0095581766217947 0.009447429329156876 0.01034596562385559 0.014202802442014217 -9999 -9999
-9999 0.8678312301635742 0.7047537565231323 0.43532171845436096 0.24195703864097595 0.13139735162258148 0.06996960937976837 0.040515415370464325 0.02677285484969616 0.019556304439902306 0.01554055418819189 0.012624353170394897 0.011077460832893848 0.012434128671884537 0.013597143813967705 0.014460130594670773 0.015036542899906635 0.01558343693614006 -9999 -9999
-9999 0.696778416633606 0.5265586972236633 0.3100135326385498 0.1567569077014923 0.06867703050374985 0.03662603348493576 0.022701574489474297 0.01667623408138752 0.013590735383331776 0.011844743974506855 0.01236596331000328 0.014519164338707924 0.016590211540460587 0.018488118425011635 0.02014641836285591 0.021701088175177574 0.023742061108350754 0.028004009276628494 0.029774712398648262
-9999 -9999 0.3659408390522003 0.22981390357017517 0.11142490059137344 0.04512370750308037 0.022844472900032997 0.014689082279801369 0.011587375774979591 0.010395915247499943 0.01271759532392025 0.01522657461464405 0.01783818192780018 0.020448658615350723 0.022832795977592468 0.02486814372241497 0.026659896597266197 0.028337709605693817 0.03009367734193802 0.0308030117303133
-9999 -9999 0.24313396215438843 0.16556602716445923 0.0819217711687088 0.03212530538439751 0.015903647989034653 0.0104661975055933 0.009725786745548248 0.012205615639686584 0.014822549186646938 0.017608709633350372 0.020531529560685158 0.023448701947927475 0.026037145406007767 0.02812206745147705 0.029749363660812378 0.03083329275250435 0.031364765018224716 0.03154252469539642
-9999 -9999 -9999 0.12806996703147888 0.06378991901874542 0.026850739493966103 0.013415887951850891 0.00908657070249319 0.010591174475848675 0.013253782875835896 0.016021203249692917 0.018920958042144775 0.021979920566082 0.02502327598631382 0.027692047879099846 0.029711512848734856 0.0311992596834898 0.03179777413606644 0.03192228078842163 0.0319068543612957
