ncols         20
nrows         20
xllcorner     0
yllcorner     -3.5992928
cellsize      0.17996463
NODATA_value  -9999
-9999.0 -9999 -9999 -9999 -9999 -9999 -9999 -9999 -9999 -9999 -9999 -9999 -9999 -9999 -9999 -9999 -9999 -9999 -9999 -9999
-9999 -9999 -9999 -9999 -9999 -9999 -9999 -9999 -9999 -9999 -9999 27.241594314575195 27.239538192749023 -9999 -9999 27.23357391357422 27.294456481933594 -9999 -9999 -9999
-9999 -9999 -9999 -9999 27.290613174438477 27.210683822631836 27.08705711364746 26.997272491455078 26.956130981445312 26.957698822021484 27.03766632080078 27.103839874267578 27.06922149658203 26.97747230529785 27.000228881835938 27.11178207397461 27.188926696777344 27.202438354492188 -9999 -9999
-9999 -9999 -9999 27.3114070892334 27.27897834777832 27.225271224975586 27.150182723999023 27.098520278930664 27.079425811767578 27.089611053466797 27.1090087890625 27.107906341552734 27.048921585083008 26.97270965576172 26.94342613220215 26.9732723236084 26.996355056762695 26.986602783203125 -9999 -9999
-9999 -9999 -9999 27.294647216796875 27.295705795288086 27.297256469726562 27.325410842895508 27.382308959960938 27.45693588256836 27.530405044555664 27.581188201904297 27.5827579498291 27.502628326416016 27.358440399169922 27.182252883911133 27.01327133178711 26.844600677490234 26.701000213623047 -9999 -9999
-9999 -9999 27.286060333251953 27.292177200317383 27.34652328491211 27.482282638549805 27.724145889282227 27.961219787597656 28.193782806396484 28.41607666015625 28.580387115478516 28.638139724731445 28.5460147857666 28.303081512451172 27.935091018676758 27.49256134033203 27.003681182861328 26.644798278808594 26.4705810546875 -9999
-9999 -9999 27.20358657836914 27.284406661987305 27.44645118713379 27.754119873046875 28.165821075439453 28.60515594482422 29.046466827392578 29.446298599243164 29.72522735595703 29.83283233642578 29.747102737426758 29.44924545288086 28.928024291992188 28.29308319091797 27.582088470458984 27.02442741394043 26.72606658935547 -9999
-9999 -9999 26.990432739257812 27.198219299316406 27.544822692871094 28.034292221069336 28.63764190673828 29.29435920715332 29.929481506347656 30.4531307220459 30.792964935302734 30.92388916015625 30.854496002197266 30.572540283203125 30.05196762084961 29.343433380126953 28.549257278442383 27.83439064025879 27.41872215270996 -9999
-9999 26.343259811401367 26.64713478088379 27.10089874267578 27.6522274017334 28.37355613708496 29.2106990814209 30.05829429626465 30.801342010498047 31.356449127197266 31.69715690612793 31.82880973815918 31.771116256713867 31.526931762695312 31.072364807128906 30.41864585876465 29.695220947265625 28.997343063354492 28.534257888793945 -9999
-9999 26.088123321533203 26.409513473510742 27.059185028076172 27.9000301361084 28.893754959106445 29.934368133544922 30.87685775756836 31.61601448059082 32.12580871582031 32.427059173583984 32.53932571411133 32.486297607421875 32.28605270385742 31.931180953979492 31.416610717773438 30.84072494506836 30.25363540649414 29.848867416381836 -9999
-9999 25.854646682739258 26.305477142333984 27.23906135559082 28.379648208618164 29.594141006469727 30.735538482666016 31.66630744934082 32.336727142333984 32.77635192871094 33.024192810058594 33.10164260864258 33.03561019897461 32.87581253051758 32.6274528503418 32.27028274536133 31.852725982666016 31.41329002380371 31.11782455444336 -9999
-9999 25.9378662109375 26.56057357788086 27.748239517211914 29.09454345703125 30.40151596069336 31.526155471801758 32.38195037841797 32.98076629638672 33.37104797363281 33.58281326293945 33.625606536865234 33.5256233215332 33.3933219909668 33.235877990722656 32.986175537109375 32.70051574707031 32.389366149902344 32.177467346191406 -9999
-9999 26.562217712402344 27.2982177734375 28.618581771850586 30.014360427856445 31.265777587890625 32.27696228027344 33.03437805175781 33.58271789550781 33.95205307006836 34.170711517333984 34.22262954711914 34.14545822143555 34.051822662353516 33.938232421875 33.7752685546875 33.51317596435547 33.22587585449219 33.0025520324707 -9999
-9999 27.6251220703125 28.39874267578125 29.712099075317383 31.021625518798828 32.12250900268555 32.983909606933594 33.645423889160156 34.15476608276367 34.49734115600586 34.7126579284668 34.816463470458984 34.83084487915039 34.824764251708984 34.7796516418457 34.663238525390625 34.42170715332031 34.07886505126953 33.61686325073242 -9999
-9999 28.798294067382812 29.55498504638672 30.77704620361328 31.948131561279297 32.90070343017578 33.64164352416992 34.22506332397461 34.64875411987305 34.949729919433594 35.16395568847656 35.33613586425781 35.4770393371582 35.58903884887695 35.633636474609375 35.595306396484375 35.46016311645508 35.24109649658203 -9999 -9999
-9999 29.769765853881836 30.52871322631836 31.64436912536621 32.69415283203125 33.56036376953125 34.23829650878906 34.73135757446289 35.07746124267578 35.3216552734375 35.51323318481445 35.728981018066406 35.96778869628906 36.19772720336914 36.34583282470703 36.420936584472656 36.435951232910156 36.45979690551758 -9999 -9999
-9999 30.39409065246582 31.320533752441406 32.318687438964844 33.273521423339844 34.1109504699707 34.73533248901367 35.18193435668945 35.47499084472656 35.67660140991211 35.86934280395508 36.1088981628418 36.3918342590332 36.67667007446289 36.89541244506836 37.04167556762695 37.13938522338867 37.257781982421875 37.53811264038086 37.66436767578125
-9999 -9999 32.243751525878906 32.90999984741211 33.726505279541016 34.51714324951172 35.13874053955078 35.578712463378906 35.848480224609375 36.043643951416016 36.231815338134766 36.47035598754883 36.75635528564453 37.05724334716797 37.29933547973633 37.46470642089844 37.58203125 37.67293167114258 37.76844787597656 37.79657745361328
-9999 -9999 32.75838088989258 33.348541259765625 34.060020446777344 34.817752838134766 35.455970764160156 35.91514587402344 36.18889236450195 36.375099182128906 36.5433464050293 36.76906967163086 37.049232482910156 37.34544372558594 37.583702087402344 37.74633026123047 37.8558349609375 37.909088134765625 37.912620544433594 37.90772247314453
-9999 -9999 -9999 33.73271942138672 34.28538513183594 34.98473358154297 35.627464294433594 36.09645080566406 36.369937896728516 36.54874801635742 36.70943832397461 36.91777801513672 37.19293212890625 37.48728561401367 37.73003387451172 37.887779235839844 37.99922180175781 38.01521301269531 37.998390197753906 37.985591888427734
