ncols         20
nrows         20
xllcorner     0
yllcorner     -3.5992928
cellsize      0.17996463
NODATA_value  -9999
-9999.0 -9999 -9999 -9999 -9999 -9999 -9999 -9999 -9999 -9999 -9999 -9999 -9999 -9999 -9999 -9999 -9999 -9999 -9999 -9999
-9999 -9999 -9999 -9999 -9999 -9999 -9999 -9999 -9999 -9999 -9999 0.17088131606578827 0.17108452320098877 -9999 -9999 0.1885358989238739 0.17826628684997559 -9999 -9999 -9999
-9999 -9999 -9999 -9999 0.14299602806568146 0.15239261090755463 0.1706417351961136 0.18781591951847076 0.20320555567741394 0.21875792741775513 0.21040771901607513 0.2077493667602539 0.22028712928295135 0.2389327585697174 0.2307879477739334 0.21047735214233398 0.195699080824852 0.18884073197841644 -9999 -9999
-9999 -9999 -9999 0.14376701414585114 0.15132680535316467 0.16293422877788544 0.18150180578231812 0.2023126184940338 0.22960025072097778 0.26030242443084717 0.29166051745414734 0.3132759630680084 0.33289337158203125 0.33222612738609314 0.3124595582485199 0.27755892276763916 0.24690163135528564 0.23045308887958527 -9999 -9999
-9999 -9999 -9999 0.1513788104057312 0.1610003113746643 0.1819029599428177 0.20729902386665344 0.23923657834529877 0.2864680290222168 0.36126193404197693 0.45576760172843933 0.5374634861946106 0.5796242952346802 0.5567110180854797 0.5019831657409668 0.4234285354614258 0.3597296476364136 0.34804567694664 -9999 -9999
-9999 -9999 0.15173576772212982 0.16262130439281464 0.1802263706922531 0.20621836185455322 0.23421092331409454 0.2698144018650055 0.3396548628807068 0.4575217366218567 0.6294217705726624 0.7982422709465027 0.9211610555648804 0.917573869228363 0.8109994530677795 0.6763292551040649 0.5656615495681763 0.5288438200950623 0.5185600519180298 -9999
-9999 -9999 0.16815224289894104 0.18239618837833405 0.21349962055683136 0.24733196198940277 0.269264280796051 0.28696414828300476 0.346295565366745 0.46863773465156555 0.6690163016319275 0.9329659938812256 1.2305375337600708 1.3540760278701782 1.2836638689041138 1.0914225578308105 0.9097316265106201 0.7837921977043152 0.7377526164054871 -9999
-9999 -9999 0.21324437856674194 0.24029429256916046 0.28984278440475464 0.33007144927978516 0.3339734375476837 0.26615118980407715 0.2679707705974579 0.3254580497741699 0.4449540078639984 0.6963956356048584 1.395914077758789 1.774019718170166 1.8385363817214966 1.6742808818817139 1.4463422298431396 1.2426636219024658 1.1572003364562988 -9999
-9999 0.2755262553691864 0.30118536949157715 0.3576684594154358 0.4497630298137665 0.5205222964286804 0.49912846088409424 0.34052205085754395 0.29558849334716797 0.3218379020690918 0.42895936965942383 0.7223165035247803 1.6332321166992188 2.244558811187744 2.5153439044952393 2.453927755355835 2.1903696060180664 1.924346685409546 1.7991375923156738 -9999
-9999 0.3705267310142517 0.4322036802768707 0.5741175413131714 0.7540451288223267 0.8813978433609009 0.834402322769165 0.5134831666946411 0.412997841835022 0.41535890102386475 0.5184551477432251 0.8547682166099548 1.9748235940933228 2.806053400039673 3.2748160362243652 3.3757269382476807 3.155283212661743 2.86368989944458 2.7175097465515137 -9999
-9999 0.5822846293449402 0.692501425743103 0.9335778951644897 1.2187657356262207 1.4258230924606323 1.365896224975586 0.8038114309310913 0.6505231261253357 0.632984459400177 0.7271349430084229 1.0900980234146118 2.470149278640747 3.465230941772461 4.095921039581299 4.352175235748291 4.2842936515808105 4.030105113983154 3.887316942214966 -9999
-9999 0.9768439531326294 1.1434365510940552 1.5150469541549683 1.926709771156311 2.2244272232055664 2.187894105911255 1.3664097785949707 1.187699794769287 1.1465075016021729 1.206416368484497 1.5376337766647339 3.061389207839966 4.063843250274658 4.754240036010742 5.171252250671387 5.290657997131348 5.182847499847412 5.090561866760254 -9999
-9999 1.635272741317749 1.8967907428741455 2.4413514137268066 2.9583795070648193 3.350832939147949 3.4730355739593506 3.2100932598114014 2.941072463989258 2.748378276824951 2.7437422275543213 3.0189757347106934 3.69124436378479 4.320706367492676 4.8747124671936035 5.3474860191345215 5.708828926086426 5.852810859680176 5.835483551025391 -9999
-9999 2.54893159866333 2.9078497886657715 3.6245110034942627 4.247209548950195 4.638000965118408 4.732982158660889 4.508504390716553 4.141233921051025 3.8293564319610596 3.6750810146331787 3.7050697803497314 3.8928709030151367 4.125903606414795 4.376825332641602 4.729222297668457 5.194272518157959 5.7102227210998535 5.851546287536621 -9999
-9999 3.488417863845825 3.916682720184326 4.762130260467529 5.402829170227051 5.6579132080078125 5.575182914733887 5.232864856719971 4.791881084442139 4.394312381744385 4.113059043884277 3.9166393280029297 3.787705659866333 3.7031965255737305 3.6411595344543457 3.7223308086395264 3.9661307334899902 4.552565097808838 -9999 -9999
-9999 4.174260139465332 4.662113189697266 5.544188499450684 6.0832648277282715 6.143351078033447 5.8818488121032715 5.444797992706299 4.988114833831787 4.5667219161987305 4.218911647796631 3.885698080062866 3.5558366775512695 3.2381057739257812 2.973987102508545 2.7871103286743164 2.707160711288452 2.4263651371002197 -9999 -9999
-9999 4.679381370544434 5.228074073791504 6.016485214233398 6.412653923034668 6.257213592529297 5.815194606781006 5.28477668762207 4.808107852935791 4.382026195526123 4.005698204040527 3.6078989505767822 3.1889004707336426 2.8003780841827393 2.4437923431396484 2.1450984477996826 1.9082006216049194 1.6680827140808105 1.467346429824829 1.2716851234436035
-9999 -9999 5.790488243103027 6.335987091064453 6.559502124786377 6.198834419250488 5.561264991760254 4.925601959228516 4.4108195304870605 3.987290620803833 3.6167211532592773 3.2230093479156494 2.8135058879852295 2.3739871978759766 2.0101020336151123 1.736220121383667 1.4888981580734253 1.306843876838684 1.1664659976959229 1.1923861503601074
-9999 -9999 6.3233819007873535 6.58107852935791 6.590922832489014 6.0256147384643555 5.209726333618164 4.466995716094971 3.905562162399292 3.506279945373535 3.217373847961426 2.8522732257843018 2.4518141746520996 2.0340940952301025 1.7170093059539795 1.4847522974014282 1.2910774946212769 1.1652030944824219 1.1937590837478638 1.2103198766708374
-9999 -9999 -9999 6.680011749267578 6.586907386779785 5.931572914123535 5.019454002380371 4.231335639953613 3.668519973754883 3.2996931076049805 3.0136563777923584 2.7054011821746826 2.31146502494812 1.9046821594238281 1.5799102783203125 1.393572211265564 1.1908196210861206 1.1881364583969116 1.21009361743927 1.2226918935775757
