ncols         20
nrows         20
xllcorner     0
yllcorner     -3.5992928
cellsize      0.17996463
NODATA_value  -9999
-9999.0 -9999 -9999 -9999 -9999 -9999 -9999 -9999 -9999 -9999 -9999 -9999 -9999 -9999 -9999 -9999 -9999 -9999 -9999 -9999
-9999 -9999 -9999 -9999 -9999 -9999 -9999 -9999 -9999 -9999 -9999 0 0 -9999 -9999 0 0 -9999 -9999 -9999
-9999 -9999 -9999 -9999 0 0 0 0 0 0 0 0 0 0 0 0 0 0 -9999 -9999
-9999 -9999 -9999 0 0 0 0 0 0 0 0 0 0 0 0 0 0 0 -9999 -9999
-9999 -9999 -9999 0 0 0 0 0 0 0 0 0 0 0 0 0 0 0 -9999 -9999
-9999 -9999 0 0 0 0 3.5074405670166016 3.331690788269043 3.1600639820098877 2.952073574066162 2.7382423877716064 2.639091730117798 2.7009456157684326 2.934882402420044 3.249992609024048 3.5833559036254883 0 0 0 -9999
-9999 -9999 0 0 0 3.565046548843384 3.287250518798828 3.0225579738616943 2.711683511734009 2.3485727310180664 2.0156924724578857 1.8443198204040527 1.8897995948791504 2.161015272140503 0.2876727283000946 3.1067874431610107 0 0 0 -9999
-9999 -9999 0 0 3.746408700942993 3.4305503368377686 3.091428756713867 2.700746774673462 2.263913631439209 1.825698733329773 1.4885361194610596 1.3076304197311401 1.32399582862854 1.544318675994873 1.9482063055038452 2.4827077388763428 3.0641417503356934 0 0 -9999
-9999 0 0 4.058096408843994 3.691690444946289 3.2801108360290527 2.795245885848999 2.2631115913391113 1.7581508159637451 1.3487093448638916 1.0801922082901 0.9425236582756042 0.935263454914093 1.0805312395095825 1.3766299486160278 0.40549278259277344 2.3656816482543945 2.8864195346832275 0 -9999
-9999 0 0 4.116634368896484 3.5886318683624268 2.9828927516937256 2.329763174057007 1.7088195085525513 1.2221227884292603 0.9047218561172485 0.7324121594429016 0.6480549573898315 0.6436562538146973 0.7230942249298096 0.9151918292045593 0.2738223969936371 1.676560640335083 2.133368968963623 0 -9999
-9999 0 0 4.074655532836914 3.347635507583618 2.5822253227233887 1.823014259338379 1.1851149797439575 0.7692694067955017 0.5428763628005981 0.4343335032463074 0.38950392603874207 0.3876275420188904 0.43175429105758667 0.5408114790916443 0.7443170547485352 1.0452535152435303 0 0 -9999
-9999 0 0 3.8174889087677 2.948707103729248 2.1235034465789795 1.3702753782272339 0.8001521825790405 0.46818000078201294 0.3015246093273163 0.22867876291275024 0.19775569438934326 0.08643998950719833 0.11728636175394058 0.2594244182109833 0.08096016198396683 0.5426891446113586 0 0 -9999
-9999 0 0 3.260502815246582 2.3725152015686035 1.607661247253418 0.9759653806686401 0.527057409286499 0.2788521349430084 0.1659862995147705 0.10854443162679672 0.08592227101325989 0.05194932222366333 0.07146286219358444 0.06501130014657974 0.13646569848060608 0.2230169028043747 0 0 -9999
-9999 0 0 2.496211290359497 1.677746295928955 1.0671765804290771 0.6203719973564148 0.3254416286945343 0.16060936450958252 0.09079638868570328 0.05798732116818428 0.042461078613996506 0.015505867078900337 0.025440607219934464 0.023352254182100296 0.0451999269425869 0.06927213072776794 0 0 -9999
-9999 0 0 1.7887895107269287 1.0811021327972412 0.6354761123657227 0.3552147448062897 0.1812821328639984 0.09582261741161346 0.05520561337471008 0.03551327809691429 0.02483375556766987 0.0190797857940197 0.01636086404323578 0.010186596773564816 0.00926110427826643 0.020942484959959984 0 -9999 -9999
-9999 0 0 1.3226184844970703 0.7239130139350891 0.38104790449142456 0.1986112892627716 0.10530197620391846 0.060048118233680725 0.03654159605503082 0.016191091388463974 0.013266031630337238 0.0015185894444584846 0.014964126981794834 0.007379536982625723 0.008168261498212814 0.02007358893752098 0.0030564398039132357 -9999 -9999
-9999 0 0 1.046069860458374 0.5305349826812744 0.23955407738685608 0.12035210430622101 0.06407054513692856 0.03779039904475212 0.01602376438677311 0.014774116687476635 0.014723445288836956 0.012264331802725792 0.017336973920464516 0.01924271695315838 0.021323177963495255 0.023497741669416428 0.025923646986484528 0.021125031635165215 0.031275346875190735
-9999 -9999 0 0.8454026579856873 0.41253140568733215 0.17428553104400635 0.08050365000963211 0.0416414737701416 0.013630197383463383 0.01448266301304102 0.01602102816104889 0.016558177769184113 0.01581835187971592 0.015230861492455006 0.014466926455497742 0.01597592420876026 0.01751025579869747 0.022196581587195396 0.027302643284201622 0.03183621168136597
-9999 -9999 0 0 0.32786551117897034 0.13164839148521423 0.05697045102715492 0.02802964299917221 0.012296045199036598 0.01750524528324604 0.017379703000187874 0.018048584461212158 0.019426625221967697 0.02135528065264225 0.023589637130498886 0.025912094861268997 0.028157910332083702 0.030118517577648163 0.03159060329198837 0.03235983848571777
-9999 -9999 -9999 0 0.2796917259693146 0.11456876993179321 0.048032261431217194 0.02303764596581459 0.012691502459347248 0.01819421350955963 0.018141992390155792 0.018870575353503227 0.02031824365258217 0.022316548973321915 0.024607326835393906 0.02693060226738453 0.02911677397787571 0.030849749222397804 0.03205499053001404 0.03267276659607887
