ncols         20
nrows         20
xllcorner     0
yllcorner     -3.5992928
cellsize      0.17996463
NODATA_value  -9999
-9999.0 -9999 -9999 -9999 -9999 -9999 -9999 -9999 -9999 -9999 -9999 -9999 -9999 -9999 -9999 -9999 -9999 -9999 -9999 -9999
-9999 -9999 -9999 -9999 -9999 -9999 -9999 -9999 -9999 -9999 -9999 3.0482914447784424 3.0633888244628906 -9999 -9999 3.391508102416992 3.4136123657226562 -9999 -9999 -9999
-9999 -9999 -9999 -9999 3.1915128231048584 3.1142969131469727 3.007697820663452 2.90366792678833 2.824129104614258 2.7830874919891357 2.7913589477539062 2.8756515979766846 2.923074245452881 2.9548518657684326 3.0557892322540283 3.217377185821533 3.3000240325927734 3.320003032684326 -9999 -9999
-9999 -9999 -9999 3.1594672203063965 3.0967283248901367 2.965031623840332 2.814917802810669 2.686603307723999 2.5954391956329346 2.545783042907715 2.540074110031128 2.576105833053589 2.628636598587036 2.701463460922241 2.8150253295898438 2.9625794887542725 3.1008312702178955 3.1851558685302734 -9999 -9999
-9999 -9999 -9999 3.0230488777160645 2.885989189147949 2.6717464923858643 2.437931537628174 2.2723193168640137 2.1670925617218018 2.1092171669006348 2.0918240547180176 2.110172748565674 2.1586546897888184 2.241201400756836 2.3700480461120605 2.5543508529663086 2.7871463298797607 2.9369399547576904 -9999 -9999
-9999 -9999 2.8817033767700195 2.804694414138794 2.5714142322540283 2.2423136234283447 1.8517652750015259 1.665671706199646 1.5668964385986328 1.5161899328231812 1.4983173608779907 1.507355809211731 1.5428500175476074 1.611261248588562 1.7299995422363281 1.9409321546554565 2.3611948490142822 2.594454050064087 2.609118938446045 -9999
-9999 -9999 2.705003023147583 2.5133910179138184 2.1701693534851074 1.7292613983154297 1.45452880859375 1.2988991737365723 1.2131189107894897 1.1688851118087769 1.1522307395935059 1.1576921939849854 1.1861658096313477 1.2450947761535645 1.352742314338684 1.5514699220657349 1.944387674331665 2.2324750423431396 2.365993022918701 -9999
-9999 -9999 2.4617276191711426 2.161045789718628 1.7019190788269043 1.3911266326904297 1.1894232034683228 1.0668598413467407 0.9970030784606934 0.9605029225349426 0.9463569521903992 0.9502280354499817 0.9730547666549683 1.020713448524475 1.1059101819992065 1.2524946928024292 1.4919652938842773 1.826470971107483 2.0153377056121826 -9999
-9999 2.4529635906219482 2.2584259510040283 1.7641152143478394 1.4116886854171753 1.1727501153945923 1.0164858102798462 0.9198095798492432 0.8632369637489319 0.8328089714050293 0.8206536173820496 0.8234373927116394 0.8415886163711548 0.8789913654327393 0.9434123635292053 1.0468754768371582 1.202878713607788 1.413231372833252 1.6521804332733154 -9999
-9999 2.3559176921844482 2.097064733505249 1.566043496131897 1.2425625324249268 1.0374146699905396 0.9074714183807373 0.8275544047355652 0.7798091769218445 0.7534191608428955 0.7423994541168213 0.743993878364563 0.7581827044487 0.7874146103858948 0.8366483449935913 0.9133977890014648 1.0270360708236694 1.186440110206604 1.3772304058074951 -9999
-9999 2.2303590774536133 1.961916208267212 1.444280743598938 1.139897346496582 0.9537461400032043 0.8395524024963379 0.7695574760437012 0.7273184061050415 0.7035466432571411 0.6931142807006836 0.693494975566864 0.7043963074684143 0.7274892926216125 0.7664065957069397 0.827416718006134 0.9216461777687073 1.072672963142395 1.1877295970916748 -9999
-9999 2.094209671020508 1.8369872570037842 1.3548734188079834 1.0714530944824219 0.8999127149581909 0.7959626913070679 0.7322902679443359 0.6937776803970337 0.6718506813049316 0.6617825627326965 0.6610714793205261 0.6692774295806885 0.6876848936080933 0.7190708518028259 0.7683783173561096 0.8446543216705322 0.9642782807350159 1.047326683998108 -9999
-9999 1.9496978521347046 1.711740493774414 1.2781462669372559 1.0187265872955322 0.8616929650306702 0.7660456895828247 0.7073971033096313 0.6718976497650146 0.6514129638671875 0.6417722702026367 0.640150785446167 0.6462376117706299 0.6610091924667358 0.6866234540939331 0.7270154356956482 0.7886790037155151 0.8835172057151794 0.9525560736656189 -9999
-9999 1.7967833280563354 1.5812031030654907 1.202945351600647 0.9714359641075134 0.8303189277648926 0.7434175610542297 0.6898512244224548 0.6573578715324402 0.6378886103630066 0.6280359029769897 0.6256458759307861 0.6300703287124634 0.6418876647949219 0.6627583503723145 0.6961065530776978 0.7487359642982483 0.8286480903625488 0.9021719694137573 -9999
-9999 1.6444854736328125 1.4507685899734497 1.1270705461502075 0.9263188242912292 0.8022632002830505 0.7249835729598999 0.6768666505813599 0.6464401483535767 0.6280224323272705 0.6182873845100403 0.615332841873169 0.6183944940567017 0.6276406049728394 0.6441253423690796 0.6702235341072083 0.7103075385093689 0.7592575550079346 -9999 -9999
-9999 1.5142775774002075 1.3334946632385254 1.056955337524414 0.8850104808807373 0.7776134610176086 0.7099172472953796 0.6660937070846558 0.6380283832550049 0.6207186579704285 0.6112105846405029 0.6078094840049744 0.6096728444099426 0.6166338324546814 0.6291095018386841 0.6483548879623413 0.6764299273490906 0.7042065858840942 -9999 -9999
-9999 1.4285143613815308 1.2306935787200928 0.9971941709518433 0.8497785329818726 0.7574012279510498 0.6970294713973999 0.6574177145957947 0.6316262483596802 0.6154032349586487 0.606209397315979 0.6024650931358337 0.6032739877700806 0.6082163453102112 0.6172233819961548 0.6306084394454956 0.648813784122467 0.6659915447235107 0.6623573899269104 0.6616324782371521
-9999 -9999 1.0890189409255981 0.9407957792282104 0.8210444450378418 0.740912139415741 0.6869474649429321 0.6508910655975342 0.6270251274108887 0.6117708683013916 0.602872908115387 0.5988557934761047 0.5987957715988159 0.6021121740341187 0.6083900332450867 0.6172992587089539 0.6281670331954956 0.6388728022575378 0.6429539322853088 0.644142210483551
-9999 -9999 1.0302780866622925 0.9228088855743408 0.8065959811210632 0.7305116653442383 0.680277943611145 0.646618127822876 0.6241312623023987 0.6095743179321289 0.6008738279342651 0.5966588854789734 0.5959944128990173 0.5981946587562561 0.6026633381843567 0.6088185906410217 0.6158215999603271 0.6221731305122375 0.6258255243301392 0.6273671388626099
-9999 -9999 -9999 0.8794969320297241 0.7939716577529907 0.7242432832717896 0.6767412424087524 0.6444761753082275 0.6227391958236694 0.6085482835769653 0.5999501943588257 0.5956234335899353 0.5946500897407532 0.5962933897972107 0.599888265132904 0.6047697067260742 0.6101564764976501 0.6149145364761353 0.6180748343467712 0.6195822358131409
