ncols         20
nrows         20
xllcorner     0
yllcorner     -3.5992928
cellsize      0.17996463
NODATA_value  -9999
-9999.0 -9999 -9999 -9999 -9999 -9999 -9999 -9999 -9999 -9999 -9999 -9999 -9999 -9999 -9999 -9999 -9999 -9999 -9999 -9999
-9999 -9999 -9999 -9999 -9999 -9999 -9999 -9999 -9999 -9999 -9999 0.13148091733455658 0.13007709383964539 -9999 -9999 0.12393421679735184 0.11638117581605911 -9999 -9999 -9999
-9999 -9999 -9999 -9999 0.12103881686925888 0.13000409305095673 0.14669756591320038 0.1617441028356552 0.17348860204219818 0.18297824263572693 0.17038828134536743 0.16140398383140564 0.16507114470005035 0.17139771580696106 0.15887145698070526 0.1395692378282547 0.12702424824237823 0.12089211493730545 -9999 -9999
-9999 -9999 -9999 0.11793485283851624 0.12614089250564575 0.13782942295074463 0.15541592240333557 0.17398618161678314 0.1958804875612259 0.217287078499794 0.2354077398777008 0.24287593364715576 0.24759028851985931 0.23665863275527954 0.21363288164138794 0.18300993740558624 0.15860983729362488 0.1459309309720993 -9999 -9999
-9999 -9999 -9999 0.12131406366825104 0.13123713433742523 0.15143759548664093 0.17571145296096802 0.20449045300483704 0.24319371581077576 0.2993704676628113 0.3636489808559418 0.4103637635707855 0.423211008310318 0.3887345790863037 0.33662059903144836 0.27400362491607666 0.22650019824504852 0.21573945879936218 -9999 -9999
-9999 -9999 0.11218450218439102 0.12428542226552963 0.14164185523986816 0.1667085736989975 0.19416815042495728 0.2274833619594574 0.2855823040008545 0.37485626339912415 0.4927847981452942 0.592665433883667 0.6502373218536377 0.6185804009437561 0.5256553292274475 0.4242802858352661 0.34608495235443115 0.3176511526107788 0.3064161539077759 -9999
-9999 -9999 0.11941882967948914 0.13227827847003937 0.15929102897644043 0.19025491178035736 0.21413883566856384 0.23602284491062164 0.28706294298171997 0.3783680200576782 0.5136837363243103 0.6727258563041687 0.8316150903701782 0.872121274471283 0.7980082035064697 0.6601790189743042 0.53936767578125 0.4583330452442169 0.42789140343666077 -9999
-9999 -9999 0.1414845585823059 0.16241967678070068 0.20093943178653717 0.23528984189033508 0.24686259031295776 0.21015475690364838 0.21947458386421204 0.2650810182094574 0.34748148918151855 0.505163848400116 0.9018575549125671 1.0923843383789062 1.0981899499893188 0.978938102722168 0.8335561156272888 0.7091265320777893 0.6571575403213501 -9999
-9999 0.16169260442256927 0.18321090936660767 0.2226898968219757 0.2855081558227539 0.33680152893066406 0.3325057625770569 0.246059387922287 0.22636345028877258 0.25024259090423584 0.32273367047309875 0.5032233595848083 1.00858473777771 1.32937753200531 1.4555363655090332 1.3993611335754395 1.2374587059020996 1.080817699432373 1.0075868368148804 -9999
-9999 0.2077266275882721 0.24527128040790558 0.32971152663230896 0.4369320273399353 0.5154640078544617 0.49845045804977417 0.3399939239025116 0.2925269901752472 0.30308812856674194 0.3735576868057251 0.5775278210639954 1.1786507368087769 1.61518132686615 1.8543604612350464 1.8962653875350952 1.7657313346862793 1.5991982221603394 1.5156123638153076 -9999
-9999 0.30741116404533386 0.366857647895813 0.4961760640144348 0.6473179459571838 0.758322536945343 0.7439165115356445 0.4983431100845337 0.4300035238265991 0.43273627758026123 0.5023916959762573 0.7230666279792786 1.4396733045578003 1.9577322006225586 2.2900359630584717 2.4275059700012207 2.392277479171753 2.253805637359619 2.1752097606658936 -9999
-9999 0.4865851402282715 0.5692226886749268 0.7514298558235168 0.9501307010650635 1.096948266029358 1.1073620319366455 0.7889851927757263 0.7165513634681702 0.7131828665733337 0.7719030380249023 0.9813812375068665 1.746203899383545 2.2685258388519287 2.642805337905884 2.8809666633605957 2.960707664489746 2.9110474586486816 2.8631656169891357 -9999
-9999 0.7758476138114929 0.8976203799247742 1.1477690935134888 1.3842829465866089 1.5729560852050781 1.6550935506820679 1.5790925025939941 1.4938017129898071 1.4453704357147217 1.4910707473754883 1.674401044845581 2.0425689220428467 2.3912904262542725 2.70855450630188 2.9899556636810303 3.212702512741089 3.3071327209472656 3.298693895339966 -9999
-9999 1.165233850479126 1.327576994895935 1.651443600654602 1.9371086359024048 2.125056743621826 2.1943702697753906 2.134827136993408 2.0170023441314697 1.9289013147354126 1.9155269861221313 1.9864089488983154 2.1256051063537598 2.2825355529785156 2.4482007026672363 2.67147159576416 2.9558725357055664 3.2577898502349854 3.3228683471679688 -9999
-9999 1.5472288131713867 1.741448998451233 2.1293399333953857 2.4311487674713135 2.5646088123321533 2.5567760467529297 2.4464805126190186 2.3029208183288574 2.184353828430176 2.118558883666992 2.0842649936676025 2.0704452991485596 2.068301200866699 2.070054769515991 2.146434783935547 2.3092241287231445 2.659113645553589 -9999 -9999
-9999 1.8182286024093628 2.040278911590576 2.4476656913757324 2.711355686187744 2.767780303955078 2.686873435974121 2.5398573875427246 2.394962787628174 2.270817756652832 2.177868604660034 2.0795955657958984 1.965993881225586 1.8422269821166992 1.7350232601165771 1.66207754611969 1.6432634592056274 1.4928864240646362 -9999 -9999
-9999 2.020519495010376 2.264030933380127 2.629812479019165 2.834733247756958 2.8028464317321777 2.6527183055877686 2.4702823162078857 2.31960129737854 2.1945579051971436 2.0877525806427 1.9560855627059937 1.7947096824645996 1.631730318069458 1.4714558124542236 1.3333534002304077 1.2247377634048462 1.1126831769943237 1.0440692901611328 0.931932270526886
-9999 -9999 2.4903225898742676 2.7477917671203613 2.879321575164795 2.763270139694214 2.533242702484131 2.3089852333068848 2.141815185546875 2.0161638259887695 1.9086230993270874 1.7748267650604248 1.614388108253479 1.4177802801132202 1.2483315467834473 1.1203336715698242 0.9984021186828613 0.9115930795669556 0.8469791412353516 0.8839424252510071
-9999 -9999 2.709376811981201 2.8398642539978027 2.8782005310058594 2.6761465072631836 2.369717597961426 2.0977768898010254 1.9072699546813965 1.7887378931045532 1.7171133756637573 1.5922861099243164 1.4302853345870972 1.2392792701721191 1.0915979146957397 0.9838588833808899 0.8909653425216675 0.8352094888687134 0.881378173828125 0.9077361822128296
-9999 -9999 -9999 2.880704402923584 2.8692829608917236 2.6292724609375 2.2812740802764893 1.9887340068817139 1.7966644763946533 1.6914316415786743 1.618718147277832 1.5215752124786377 1.360128402709961 1.1722568273544312 1.0166155099868774 0.9356236457824707 0.8336377143859863 0.8618297576904297 0.9008780717849731 0.9227603673934937
