ncols         20
nrows         20
xllcorner     0
yllcorner     -3.5992928
cellsize      0.17996463
NODATA_value  -9999
-9999.0 -9999 -9999 -9999 -9999 -9999 -9999 -9999 -9999 -9999 -9999 -9999 -9999 -9999 -9999 -9999 -9999 -9999 -9999 -9999
-9999 -9999 -9999 -9999 -9999 -9999 -9999 -9999 -9999 -9999 -9999 2.8293704986572266 2.8454627990722656 -9999 -9999 3.214043617248535 3.2386832237243652 -9999 -9999 -9999
-9999 -9999 -9999 -9999 3.007648468017578 2.925248622894287 2.8108205795288086 2.6989235877990723 2.6129612922668457 2.567821979522705 2.574741840362549 2.6591761112213135 2.7087509632110596 2.7461917400360107 2.855212926864624 3.028143882751465 3.114863395690918 3.1326096057891846 -9999 -9999
-9999 -9999 -9999 2.980313777923584 2.915297269821167 2.78011417388916 2.6255733966827393 2.492281675338745 2.3965518474578857 2.3436808586120605 2.336369037628174 2.3721976280212402 2.425931453704834 2.5014986991882324 2.618452787399292 2.768857002258301 2.9063470363616943 2.988332748413086 -9999 -9999
-9999 -9999 -9999 2.8452742099761963 2.7096049785614014 2.4977707862854004 2.267479658126831 2.1027143001556396 1.9968100786209106 1.938035011291504 1.9201298952102661 1.9382575750350952 1.986352801322937 2.0678038597106934 2.193758010864258 2.3713021278381348 2.5920228958129883 2.732924461364746 -9999 -9999
-9999 -9999 2.7036056518554688 2.6308627128601074 2.4056670665740967 2.0891499519348145 1.7166848182678223 1.5385831594467163 1.4437839984893799 1.3954765796661377 1.3790011405944824 1.388282060623169 1.4222228527069092 1.4864357709884644 1.5969630479812622 1.7921091318130493 2.1801674365997314 2.392678737640381 2.3954412937164307 -9999
-9999 -9999 2.53117036819458 2.3486721515655518 2.0218424797058105 1.6042566299438477 1.345477819442749 1.1998803615570068 1.1205881834030151 1.0808664560317993 1.066720724105835 1.072759985923767 1.0992485284805298 1.152635931968689 1.2497847080230713 1.4297149181365967 1.7875850200653076 2.0489096641540527 2.1678709983825684 -9999
-9999 -9999 2.2951409816741943 2.0106372833251953 1.5774799585342407 1.2865723371505737 1.0996880531311035 0.9883038401603699 0.9259812235832214 0.8943261504173279 0.8829112648963928 0.8874785900115967 0.9085334539413452 0.9511777758598328 1.0268572568893433 1.1569379568099976 1.3720667362213135 1.6747159957885742 1.845721960067749 -9999
-9999 2.2823166847229004 2.0985965728759766 1.632845163345337 1.303751826286316 1.0831120014190674 0.9413717985153198 0.8556321859359741 0.8064573407173157 0.780870795249939 0.7714592814445496 0.7750324010848999 0.7918093800544739 0.8251767754554749 0.8820971846580505 0.9734314680099487 1.1116681098937988 1.300912857055664 1.517564058303833 -9999
-9999 2.1891705989837646 1.9440873861312866 1.4456063508987427 1.1458232402801514 0.9587106704711914 0.843203067779541 0.7735359072685242 0.7328841090202332 0.71115642786026 0.7027902603149414 0.7052649855613708 0.7185268402099609 0.7447659373283386 0.788459300994873 0.856471061706543 0.9575806856155396 1.100603461265564 1.273794412612915 -9999
-9999 2.069725751876831 1.8161593675613403 1.3320258855819702 1.051584243774414 0.8836644291877747 0.7832856178283691 0.7230390906333923 0.6875093579292297 0.6681035757064819 0.6601724028587341 0.6615069508552551 0.6719020009040833 0.6929274201393127 0.7279375791549683 0.7827414870262146 0.8677634596824646 1.005157709121704 1.110041856765747 -9999
-9999 1.9415781497955322 1.6994177103042603 1.2501758337020874 0.9904599785804749 0.8371425867080688 0.7461710572242737 0.6916173696517944 0.6592918038368225 0.6413491368293762 0.6335838437080383 0.6338713765144348 0.6419225931167603 0.6590194702148438 0.6878042817115784 0.7329565286636353 0.8030829429626465 0.9138211607933044 0.9907276034355164 -9999
-9999 1.8068522214889526 1.5837860107421875 1.1815439462661743 0.9452023506164551 0.8055176734924316 0.7218830585479736 0.6714968681335449 0.6415107250213623 0.6245619058609009 0.6169716715812683 0.616361141204834 0.6225608587265015 0.6365910768508911 0.6605663895606995 0.6983092427253723 0.7561677098274231 0.8456303477287292 0.9105100631713867 -9999
-9999 1.6645829677581787 1.4646106958389282 1.115877628326416 0.9065501689910889 0.7808045744895935 0.7044247388839722 0.6579715013504028 0.6301632523536682 0.6137747168540955 0.6057932376861572 0.6043949723243713 0.6091092824935913 0.6205907464027405 0.640510082244873 0.6722314953804016 0.7224084138870239 0.7987697124481201 0.8676626682281494 -9999
-9999 1.5259432792663574 1.347629427909851 1.0508702993392944 0.8699328303337097 0.7590767741203308 0.6906030178070068 0.6483431458473206 0.621873676776886 0.6060641407966614 0.5979611873626709 0.595935583114624 0.5993835926055908 0.6085606813430786 0.6245643496513367 0.6497611403465271 0.6885067820549011 0.7360470294952393 -9999 -9999
-9999 1.409515619277954 1.2443552017211914 0.9918190240859985 0.8364277482032776 0.739934504032135 0.6793833374977112 0.6403906345367432 0.6155778169631958 0.6004340052604675 0.5923181176185608 0.5897566676139832 0.5920405387878418 0.5990848541259766 0.6113672256469727 0.6301664710044861 0.6575710773468018 0.6847514510154724 -9999 -9999
-9999 1.333932876586914 1.1553633213043213 0.9417545795440674 0.8077991604804993 0.7241805791854858 0.6696511507034302 0.6339720487594604 0.6108381152153015 0.5964051485061646 0.5883858799934387 0.5853792428970337 0.5866001844406128 0.5917014479637146 0.6006755828857422 0.613880455493927 0.6318236589431763 0.64891517162323 0.6461052894592285 0.6456695199012756
-9999 -9999 1.031690001487732 0.8946498036384583 0.7846111059188843 0.7112748622894287 0.6620030403137207 0.6291548013687134 0.6074819564819336 0.5937200784683228 0.5858145952224731 0.5824410915374756 0.5827674865722656 0.5862761735916138 0.5926003456115723 0.601456880569458 0.612237274646759 0.6229208111763 0.627204179763794 0.6285083293914795
-9999 -9999 0.9817605018615723 0.8827208280563354 0.7740398049354553 0.7033979296684265 0.657016396522522 0.6260478496551514 0.6054266095161438 0.5921496152877808 0.5843105912208557 0.5806675553321838 0.5803629159927368 0.5827628970146179 0.5873098373413086 0.5934632420539856 0.6004337072372437 0.6067718267440796 0.6104670763015747 0.6120396256446838
-9999 -9999 -9999 0.8449166417121887 0.7638384103775024 0.6985141038894653 0.6543529629707336 0.6244943141937256 0.6044469475746155 0.5914257764816284 0.583622932434082 0.579829216003418 0.5791996717453003 0.5810427665710449 0.584726870059967 0.5896231532096863 0.5949922800064087 0.5997299551963806 0.6028885245323181 0.6043984889984131
