ncols         20
nrows         20
xllcorner     0
yllcorner     -3.5992928
cellsize      0.17996463
NODATA_value  -9999
-9999.0 -9999 -9999 -9999 -9999 -9999 -9999 -9999 -9999 -9999 -9999 -9999 -9999 -9999 -9999 -9999 -9999 -9999 -9999 -9999
-9999 -9999 -9999 -9999 -9999 -9999 -9999 -9999 -9999 -9999 -9999 1.1365084648132324 1.1190091371536255 -9999 -9999 1.0766801834106445 1.0122214555740356 -9999 -9999 -9999
-9999 -9999 -9999 -9999 1.1580063104629517 1.2327266931533813 1.364911675453186 1.4651870727539062 1.524052381515503 1.5607287883758545 1.4209026098251343 1.3353246450424194 1.344111442565918 1.3587874174118042 1.2583353519439697 1.1365255117416382 1.038338303565979 0.9678701162338257 -9999 -9999
-9999 -9999 -9999 1.080303430557251 1.1670799255371094 1.2664328813552856 1.4016600847244263 1.5263808965682983 1.6605619192123413 1.7758562564849854 1.856660008430481 1.8607650995254517 1.851080060005188 1.7364574670791626 1.5575119256973267 1.3428130149841309 1.1671777963638306 1.068753719329834 -9999 -9999
-9999 -9999 -9999 1.0516688823699951 1.14082670211792 1.3058507442474365 1.4892100095748901 1.6874123811721802 1.9334955215454102 2.2763309478759766 2.6323068141937256 2.837151288986206 2.815634250640869 2.511091947555542 2.1350603103637695 1.7283278703689575 1.4231325387954712 1.343949317932129 -9999 -9999
-9999 -9999 0.8264768123626709 0.9635375142097473 1.110176920890808 1.3031100034713745 1.5054900646209717 1.7370045185089111 2.11167311668396 2.6332192420959473 3.250082015991211 3.6550419330596924 3.76804256439209 3.41398549079895 2.813948154449463 2.2305259704589844 1.7896405458450317 1.6000864505767822 1.435035228729248 -9999
-9999 -9999 0.7937628626823425 0.893207311630249 1.079532265663147 1.2916219234466553 1.4688315391540527 1.650355577468872 1.981027603149414 2.4747467041015625 3.0813610553741455 3.6362972259521484 4.062815189361572 3.972442150115967 3.480989456176758 2.811188220977783 2.2633557319641113 1.9001585245132446 1.739322304725647 -9999
-9999 -9999 0.7841916680335999 0.902961015701294 1.1135845184326172 1.3095142841339111 1.4169044494628906 1.3016242980957031 1.3868019580841064 1.5923664569854736 1.859919786453247 2.2894811630249023 3.484713077545166 3.9006311893463135 3.752936840057373 3.2709736824035645 2.7566275596618652 2.3362643718719482 2.1570162773132324 -9999
-9999 0.6463043689727783 0.7962738871574402 0.975583553314209 1.2366561889648438 1.4503650665283203 1.4685720205307007 1.1673108339309692 1.1013866662979126 1.1511629819869995 1.2902231216430664 1.6613473892211914 2.8679001331329346 3.5268261432647705 3.72314190864563 3.52968692779541 3.123039722442627 2.7419488430023193 2.5653157234191895 -9999
-9999 0.7232469320297241 0.8623631000518799 1.1365336179733276 1.4616707563400269 1.6791378259658813 1.6084502935409546 1.1136995553970337 0.9354277849197388 0.896494448184967 0.9703078866004944 1.2854543924331665 2.3574025630950928 3.078373908996582 3.4531123638153076 3.514810800552368 3.30216646194458 3.0313901901245117 2.899325370788574 -9999
-9999 0.8871120810508728 1.043778657913208 1.3624471426010132 1.698428750038147 1.8855500221252441 1.732094407081604 1.0694750547409058 0.8236284255981445 0.7420684695243835 0.7852923274040222 1.0492558479309082 2.0035691261291504 2.675105571746826 3.1033923625946045 3.2996177673339844 3.2915191650390625 3.1554837226867676 3.0830633640289307 -9999
-9999 1.1622343063354492 1.3276172876358032 1.6715837717056274 1.9813185930252075 2.095986843109131 1.8693206310272217 1.102472186088562 0.836323618888855 0.7351201176643372 0.7510474324226379 0.9549080729484558 1.7642455101013184 2.3210527896881104 2.717578649520874 2.9788808822631836 3.094320297241211 3.0914270877838135 3.081005096435547 -9999
-9999 1.560307502746582 1.7479370832443237 2.1019039154052734 2.3235857486724854 2.3421378135681152 2.1104726791381836 1.6643415689468384 1.335524082183838 1.1518588066101074 1.1254684925079346 1.2703943252563477 1.6220003366470337 1.9578197002410889 2.259101390838623 2.5243537425994873 2.731922149658203 2.847283363342285 2.886221408843994 -9999
-9999 2.0163698196411133 2.201608419418335 2.521378993988037 2.644131898880005 2.5365848541259766 2.2508063316345215 1.8718806505203247 1.5463365316390991 1.3348641395568848 1.2569246292114258 1.2981140613555908 1.4290188550949097 1.5834980010986328 1.7417426109313965 1.936109185218811 2.176649570465088 2.4501919746398926 2.598567247390747 -9999
-9999 2.34140682220459 2.484837770462036 2.7335596084594727 2.750859260559082 2.5382559299468994 2.211498737335205 1.863103985786438 1.5628118515014648 1.361192226409912 1.2617079019546509 1.2331843376159668 1.2503427267074585 1.2873762845993042 1.3266862630844116 1.4086458683013916 1.5456420183181763 1.8074909448623657 -9999 -9999
-9999 2.434668779373169 2.518968105316162 2.6780638694763184 2.6075916290283203 2.3537838459014893 2.0372283458709717 1.7237694263458252 1.4799306392669678 1.3127497434616089 1.2165725231170654 1.1576581001281738 1.115732192993164 1.078122854232788 1.049013614654541 1.0345182418823242 1.0482301712036133 0.9704638719558716 -9999 -9999
-9999 2.472607374191284 2.425180435180664 2.4821958541870117 2.3710286617279053 2.111302614212036 1.8062812089920044 1.5362552404403687 1.3416519165039062 1.20858895778656 1.1236811876296997 1.054938793182373 0.9887720942497253 0.928585410118103 0.8677238821983337 0.8130717873573303 0.7696403861045837 0.7180030941963196 0.6864649057388306 0.6192073822021484
-9999 -9999 2.2205073833465576 2.2500908374786377 2.13792085647583 1.881090760231018 1.5895458459854126 1.3511769771575928 1.1881428956985474 1.080917477607727 1.009934663772583 0.9459847211837769 0.8811140060424805 0.8010509014129639 0.7327702641487122 0.6819064617156982 0.6278473138809204 0.5892530083656311 0.5583162307739258 0.5880110263824463
-9999 -9999 2.1690714359283447 2.085355520248413 1.9540330171585083 1.6931614875793457 1.4069889783859253 1.1821776628494263 1.0341262817382812 0.9477040767669678 0.9040111303329468 0.8475126624107361 0.7811478972434998 0.7018793821334839 0.643417239189148 0.6023158431053162 0.5641701817512512 0.5432010889053345 0.5830762386322021 0.605500340461731
-9999 -9999 -9999 1.94197416305542 1.850612998008728 1.5997860431671143 1.3171403408050537 1.1007816791534424 0.9645385146141052 0.8922879695892334 0.8515191078186035 0.8105661869049072 0.744271993637085 0.6658058166503906 0.6017122864723206 0.5755118727684021 0.5309970378875732 0.5630281567573547 0.5981331467628479 0.6175419688224792
