ncols         20
nrows         20
xllcorner     0
yllcorner     -3.5992928
cellsize      0.17996463
NODATA_value  -9999
-9999.0 -9999 -9999 -9999 -9999 -9999 -9999 -9999 -9999 -9999 -9999 -9999 -9999 -9999 -9999 -9999 -9999 -9999 -9999 -9999
-9999 -9999 -9999 -9999 -9999 -9999 -9999 -9999 -9999 -9999 -9999 13.25780200958252 13.262463569641113 -9999 -9999 13.081686973571777 13.153451919555664 -9999 -9999 -9999
-9999 -9999 -9999 -9999 13.129951477050781 13.101061820983887 13.042402267456055 13.038901329040527 13.065869331359863 13.082159042358398 13.18670654296875 13.169198036193848 13.106643676757812 13.055570602416992 13.056467056274414 13.063728332519531 13.114629745483398 13.165003776550293 -9999 -9999
-9999 -9999 -9999 13.069840431213379 13.06476879119873 13.074455261230469 13.087324142456055 13.11455249786377 13.123416900634766 13.116926193237305 13.09086799621582 13.044486045837402 12.985325813293457 12.964668273925781 12.943451881408691 12.948020935058594 12.973636627197266 12.99988079071045 -9999 -9999
-9999 -9999 -9999 13.034981727600098 13.069623947143555 13.12736988067627 13.261686325073242 13.344499588012695 13.380697250366211 13.384725570678711 13.373331069946289 13.34540843963623 13.284457206726074 13.210330963134766 13.10696792602539 13.00359058380127 12.852730751037598 12.707643508911133 -9999 -9999
-9999 -9999 12.98598575592041 13.013725280761719 13.13298511505127 13.393054008483887 13.82020092010498 14.008685111999512 14.107711791992188 14.21533203125 14.331872940063477 14.390993118286133 14.335121154785156 14.16343879699707 13.910723686218262 13.572526931762695 12.980696678161621 12.645853996276855 12.585858345031738 -9999
-9999 -9999 12.947630882263184 13.069180488586426 13.327594757080078 13.811779975891113 14.16454792022705 14.403003692626953 14.632819175720215 14.90224838256836 15.151362419128418 15.283893585205078 15.246760368347168 15.023397445678711 14.62863540649414 14.108454704284668 13.340415954589844 12.832521438598633 12.613951683044434 -9999
-9999 -9999 12.7922945022583 13.099212646484375 13.612369537353516 14.016212463378906 14.35671329498291 14.704941749572754 15.08731746673584 15.467695236206055 15.764079093933105 15.920352935791016 15.908392906188965 15.714519500732422 15.334088325500488 14.79248046875 14.11308765411377 13.374725341796875 12.975239753723145 -9999
-9999 12.221612930297852 12.484649658203125 13.194634437561035 13.687576293945312 14.119194030761719 14.590405464172363 15.096551895141602 15.580610275268555 15.975582122802734 16.24008560180664 16.375091552734375 16.38136100769043 16.244800567626953 15.948972702026367 15.47802448272705 14.910406112670898 14.284436225891113 13.745689392089844 -9999
-9999 11.936349868774414 12.189168930053711 13.068965911865234 13.714179992675781 14.343792915344238 15.00271224975586 15.6266450881958 16.120773315429688 16.451387405395508 16.640426635742188 16.73187828063965 16.7374210357666 16.655513763427734 16.456480026245117 16.108781814575195 15.660345077514648 15.135858535766602 14.687238693237305 -9999
-9999 11.58751392364502 11.900919914245605 13.005594253540039 13.889914512634277 14.714977264404297 15.504416465759277 16.164487838745117 16.605304718017578 16.854787826538086 16.977554321289062 17.025102615356445 17.017444610595703 16.97060203552246 16.863689422607422 16.649089813232422 16.335914611816406 15.92109203338623 15.649373054504395 -9999
-9999 11.41272258758545 11.871208190917969 13.193175315856934 14.26019287109375 15.176628112792969 15.979609489440918 16.58767318725586 16.955657958984375 17.14755630493164 17.227718353271484 17.244169235229492 17.20067024230957 17.175748825073242 17.152698516845703 17.037296295166016 16.875009536743164 16.63333511352539 16.491798400878906 -9999
-9999 11.63031005859375 12.316685676574707 13.756237983703613 14.856902122497559 15.719966888427734 16.407499313354492 16.900060653686523 17.190643310546875 17.333026885986328 17.39749526977539 17.405120849609375 17.364505767822266 17.351089477539062 17.345033645629883 17.332496643066406 17.245702743530273 17.115793228149414 17.05516815185547 -9999
-9999 12.473306655883789 13.221579551696777 14.604264259338379 15.61148738861084 16.307649612426758 16.80234146118164 17.138103485107422 17.34082794189453 17.438688278198242 17.48248291015625 17.494361877441406 17.478578567504883 17.48541259765625 17.501890182495117 17.51910972595215 17.480770111083984 17.38544464111328 17.382610321044922 -9999
-9999 13.471343994140625 14.173519134521484 15.416940689086914 16.284114837646484 16.801111221313477 17.116655349731445 17.317628860473633 17.428768157958984 17.485137939453125 17.50838851928711 17.528701782226562 17.54922866821289 17.576597213745117 17.597721099853516 17.619060516357422 17.62278938293457 17.540109634399414 -9999 -9999
-9999 14.20020580291748 14.861031532287598 15.96508502960205 16.706361770629883 17.113563537597656 17.3189640045166 17.426856994628906 17.475303649902344 17.492399215698242 17.486610412597656 17.50635528564453 17.54477882385254 17.5971736907959 17.628368377685547 17.664989471435547 17.698955535888672 17.74953842163086 -9999 -9999
-9999 14.683805465698242 15.368054389953613 16.297277450561523 16.939559936523438 17.295215606689453 17.437047958374023 17.497289657592773 17.508634567260742 17.496967315673828 17.494924545288086 17.51325035095215 17.549842834472656 17.59981346130371 17.639867782592773 17.677661895751953 17.709692001342773 17.73114776611328 17.685911178588867 17.69782066345215
-9999 -9999 15.926769256591797 16.54545783996582 17.082305908203125 17.38690185546875 17.50818634033203 17.546401977539062 17.534727096557617 17.52583122253418 17.520645141601562 17.53358268737793 17.559974670410156 17.602855682373047 17.6380615234375 17.665145874023438 17.694013595581055 17.711641311645508 17.71005630493164 17.68882942199707
-9999 -9999 16.393150329589844 16.771377563476562 17.190570831298828 17.45556640625 17.56640625 17.599075317382812 17.583534240722656 17.56775665283203 17.552804946899414 17.56145668029785 17.584125518798828 17.618282318115234 17.64148712158203 17.657663345336914 17.677146911621094 17.686513900756836 17.665138244628906 17.652082443237305
-9999 -9999 -9999 16.925668716430664 17.24790382385254 17.481189727783203 17.589448928833008 17.62016487121582 17.598722457885742 17.579729080200195 17.565946578979492 17.56524658203125 17.58651351928711 17.61784553527832 17.641700744628906 17.648191452026367 17.669940948486328 17.65521240234375 17.639249801635742 17.631458282470703
