ncols         20
nrows         20
xllcorner     0
yllcorner     -3.5992928
cellsize      0.17996463
NODATA_value  -9999
-9999.0 -9999 -9999 -9999 -9999 -9999 -9999 -9999 -9999 -9999 -9999 -9999 -9999 -9999 -9999 -9999 -9999 -9999 -9999 -9999
-9999 -9999 -9999 -9999 -9999 -9999 -9999 -9999 -9999 -9999 -9999 19.10953140258789 19.11728286743164 -9999 -9999 19.052968978881836 19.052871704101562 -9999 -9999 -9999
-9999 -9999 -9999 -9999 19.051532745361328 19.071773529052734 19.090486526489258 19.118051528930664 19.14227867126465 19.141185760498047 19.17412757873535 19.148277282714844 19.141193389892578 19.169275283813477 19.1654109954834 19.118494033813477 19.0988826751709 19.110843658447266 -9999 -9999
-9999 -9999 -9999 19.066282272338867 19.05559539794922 19.069108963012695 19.082134246826172 19.097448348999023 19.098560333251953 19.095319747924805 19.076074600219727 19.07344627380371 19.083547592163086 19.121110916137695 19.14037322998047 19.15011978149414 19.165407180786133 19.18934440612793 -9999 -9999
-9999 -9999 -9999 19.094358444213867 19.086118698120117 19.057790756225586 19.032276153564453 19.002105712890625 18.96185874938965 18.889360427856445 18.816640853881836 18.788028717041016 18.817710876464844 18.909839630126953 19.009843826293945 19.113100051879883 19.213102340698242 19.253583908081055 -9999 -9999
-9999 -9999 19.179574966430664 19.136812210083008 19.095441818237305 19.032150268554688 19.02251625061035 18.925710678100586 18.789587020874023 18.635723114013672 18.496288299560547 18.435993194580078 18.466602325439453 18.599536895751953 18.7977352142334 19.020015716552734 19.150962829589844 19.29511260986328 19.434432983398438 -9999
-9999 -9999 19.23887062072754 19.19071388244629 19.09756851196289 19.045137405395508 18.905519485473633 18.729293823242188 18.525344848632812 18.317745208740234 18.144304275512695 18.056720733642578 18.079965591430664 18.215452194213867 18.419330596923828 18.716711044311523 18.94375228881836 19.187774658203125 19.32372283935547 -9999
-9999 -9999 19.336875915527344 19.231481552124023 19.14396095275879 18.964609146118164 18.74321746826172 18.504974365234375 18.268075942993164 18.05147933959961 17.889211654663086 17.80255889892578 17.8118953704834 17.92099952697754 18.113685607910156 18.378942489624023 18.679637908935547 18.898048400878906 19.065641403198242 -9999
-9999 19.585695266723633 19.46282196044922 19.340347290039062 19.089195251464844 18.8135929107666 18.526485443115234 18.247785568237305 18.007915496826172 17.821279525756836 17.69702911376953 17.633033752441406 17.633386611938477 17.70448875427246 17.843896865844727 18.034282684326172 18.31131362915039 18.56732749938965 18.67804718017578 -9999
-9999 19.619306564331055 19.570388793945312 19.333547592163086 18.97663688659668 18.614063262939453 18.273958206176758 17.985219955444336 17.76957130432129 17.626174926757812 17.543027877807617 17.50394058227539 17.50250816345215 17.544254302978516 17.633142471313477 17.759511947631836 17.972402572631836 18.169315338134766 18.262250900268555 -9999
-9999 19.631139755249023 19.60261344909668 19.26227378845215 18.80777931213379 18.390111923217773 18.034936904907227 17.765743255615234 17.586029052734375 17.480873107910156 17.42609405517578 17.400236129760742 17.394046783447266 17.416061401367188 17.473522186279297 17.563777923583984 17.698490142822266 17.813295364379883 17.898881912231445 -9999
-9999 19.567110061645508 19.48575210571289 19.056564331054688 18.56230926513672 18.150747299194336 17.83000946044922 17.604183197021484 17.46607780456543 17.394580841064453 17.355052947998047 17.330825805664062 17.290393829345703 17.296968460083008 17.35345458984375 17.390106201171875 17.492769241333008 17.571252822875977 17.631193161010742 -9999
-9999 19.39267349243164 19.15894889831543 18.717498779296875 18.262046813964844 17.912460327148438 17.65744400024414 17.490345001220703 17.397727966308594 17.351533889770508 17.32834815979004 17.308927536010742 17.269290924072266 17.26622200012207 17.281408309936523 17.33355712890625 17.37497901916504 17.417083740234375 17.461366653442383 -9999
-9999 19.028406143188477 18.7243709564209 18.34429359436035 17.973770141601562 17.705280303955078 17.52353858947754 17.412160873413086 17.356761932373047 17.332796096801758 17.321744918823242 17.3128719329834 17.289871215820312 17.292095184326172 17.305204391479492 17.3360595703125 17.34717559814453 17.339649200439453 17.40941619873047 -9999
-9999 18.595020294189453 18.337966918945312 18.04169273376465 17.756820678710938 17.558704376220703 17.43583106994629 17.368083953857422 17.336666107177734 17.324798583984375 17.317214965820312 17.31938362121582 17.325998306274414 17.337848663330078 17.343128204345703 17.355539321899414 17.375757217407227 17.32413673400879 -9999 -9999
-9999 18.2817440032959 18.065319061279297 17.83761978149414 17.615650177001953 17.47216796875 17.38856315612793 17.348739624023438 17.32701873779297 17.313886642456055 17.291902542114258 17.29746437072754 17.317302703857422 17.352996826171875 17.364765167236328 17.385480880737305 17.4055233001709 17.45381736755371 -9999 -9999
-9999 18.121973037719727 17.882831573486328 17.702131271362305 17.531869888305664 17.430919647216797 17.37220001220703 17.347036361694336 17.32744026184082 17.30344009399414 17.297330856323242 17.30679702758789 17.329206466674805 17.362451553344727 17.385587692260742 17.40740394592285 17.425079345703125 17.442176818847656 17.41438865661621 17.43765640258789
-9999 -9999 17.68128204345703 17.594392776489258 17.48182487487793 17.407241821289062 17.37068748474121 17.352317810058594 17.325963973999023 17.31719970703125 17.31464958190918 17.323999404907227 17.34026336669922 17.369176864624023 17.392061233520508 17.407930374145508 17.426753997802734 17.43992805480957 17.45274543762207 17.43484115600586
-9999 -9999 17.633426666259766 17.526960372924805 17.45162010192871 17.403427124023438 17.381881713867188 17.3718204498291 17.35276222229004 17.345256805419922 17.33673858642578 17.346023559570312 17.362180709838867 17.386734008789062 17.402326583862305 17.414005279541016 17.42697525024414 17.43866539001465 17.422489166259766 17.417287826538086
-9999 -9999 -9999 17.460391998291016 17.428569793701172 17.396427154541016 17.385295867919922 17.37881851196289 17.359954833984375 17.3516902923584 17.346799850463867 17.34833526611328 17.36516761779785 17.388446807861328 17.407991409301758 17.411869049072266 17.432741165161133 17.420635223388672 17.413782119750977 17.41135597229004
