ncols         20
nrows         20
xllcorner     0
yllcorner     -3.5992928
cellsize      0.17996463
NODATA_value  -9999
-9999.0 -9999 -9999 -9999 -9999 -9999 -9999 -9999 -9999 -9999 -9999 -9999 -9999 -9999 -9999 -9999 -9999 -9999 -9999 -9999
-9999 -9999 -9999 -9999 -9999 -9999 -9999 -9999 -9999 -9999 -9999 1.1848440170288086 1.1838886737823486 -9999 -9999 1.219236969947815 1.2062779664993286 -9999 -9999 -9999
-9999 -9999 -9999 -9999 1.1841281652450562 1.1916571855545044 1.2040292024612427 1.2062231302261353 1.2039483785629272 1.2054483890533447 1.1932568550109863 1.2010300159454346 1.2132858037948608 1.2230201959609985 1.2259756326675415 1.2259925603866577 1.2159367799758911 1.205007553100586 -9999 -9999
-9999 -9999 -9999 1.1973694562911987 1.204020380973816 1.2107362747192383 1.2176611423492432 1.2177459001541138 1.2179778814315796 1.2151423692703247 1.216191053390503 1.2232908010482788 1.2354178428649902 1.245134949684143 1.2554359436035156 1.2568713426589966 1.2452480792999268 1.2328505516052246 -9999 -9999
-9999 -9999 -9999 1.212860345840454 1.2217466831207275 1.2373751401901245 1.2416439056396484 1.2368443012237549 1.2167013883590698 1.1824877262115479 1.1476296186447144 1.13444983959198 1.1538270711898804 1.1996288299560547 1.2489993572235107 1.2743645906448364 1.2756837606430054 1.2815428972244263 -9999 -9999
-9999 -9999 1.2182326316833496 1.2319176197052002 1.2473849058151245 1.2577861547470093 1.2496724128723145 1.2174088954925537 1.1491203308105469 1.046817421913147 0.9400117993354797 0.8880050182342529 0.9105993509292603 1.00946843624115 1.136441946029663 1.225750207901001 1.273701786994934 1.2885180711746216 1.2754807472229004 -9999
-9999 -9999 1.2327908277511597 1.248120903968811 1.2713276147842407 1.273236870765686 1.2410650253295898 1.1619349718093872 1.0272936820983887 0.8539320826530457 0.6958346366882324 0.6152721643447876 0.6322664022445679 0.750125527381897 0 1.0939844846725464 1.2069295644760132 1.2607263326644897 1.2746784687042236 -9999
-9999 -9999 1.2652225494384766 1.2827893495559692 1.2941862344741821 1.2714272737503052 1.19209623336792 1.0495169162750244 0.858959972858429 0.6580144762992859 0.5046405792236328 0.42476966977119446 0.42985799908638 0.5204692482948303 0.6865320205688477 0.8803859353065491 1.045565128326416 1.1568470001220703 1.202165961265564 -9999
-9999 1.2804300785064697 1.3039755821228027 1.312530755996704 1.2969512939453125 1.2173655033111572 1.0647602081298828 0.8584362864494324 0.645923376083374 0.46989408135414124 0.35522741079330444 0.297761470079422 0.2945287823677063 0.3516683876514435 0.4698084890842438 0 0.8186973929405212 0.9587037563323975 1.027996301651001 -9999
-9999 1.3140342235565186 1.3277300596237183 1.3165807723999023 1.2433836460113525 1.0794453620910645 0.8522801399230957 0.6144128441810608 0.4234623312950134 0.29918551445007324 0.2317623347043991 0.19919349253177643 0.1974596232175827 0.22743450105190277 0.29969993233680725 0 0.5649867653846741 0.7001709342002869 0.7718676924705505 -9999
-9999 1.3405730724334717 1.3323347568511963 1.2731270790100098 1.1278008222579956 0.8982847332954407 0.6316689848899841 0.3990398943424225 0.2496146410703659 0.1701250523328781 0.13236847519874573 0.11684601753950119 0.11638598144054413 0.13177454471588135 0.16919443011283875 0.23785141110420227 0.3326568901538849 0.4355657994747162 0.4919419586658478 -9999
-9999 1.3197970390319824 1.2834721803665161 1.1602284908294678 0.9574747085571289 0.7049564123153687 0.44930216670036316 0.254428893327713 0.14453168213367462 0.0911366268992424 0.06796227395534515 0.058453116565942764 0 0 0.07846444100141525 0 0.16385874152183533 0.22454063594341278 0.2583870589733124 -9999
-9999 1.2180628776550293 1.141593337059021 0.9569644331932068 0.7350839972496033 0.5061308145523071 0.304008424282074 0.16060185432434082 0.08331290632486343 0.04909176006913185 0.03071247600018978 0.024289002642035484 0 0 0 0.03908136487007141 0.06534872949123383 0.09632153809070587 0.11611731350421906 -9999
-9999 1.022894263267517 0.9169253706932068 0.7013201117515564 0.49079760909080505 0.3169708847999573 0.18424971401691437 0.09563225507736206 0.04541050270199776 0.026076488196849823 0.017273366451263428 0.013374876230955124 0 0 0 0.014545042999088764 0.020938504487276077 0.03383524715900421 0.04407580569386482 -9999
-9999 0.8128868937492371 0.6987342834472656 0.4815717935562134 0.2996154725551605 0.1794496476650238 0.10131823271512985 0.05071086809039116 0.027504093945026398 0.01718502677977085 0.01243647001683712 0.009931249544024467 0.008603516034781933 0.008053646422922611 0 0 0.009597256779670715 0.013826495036482811 -9999 -9999
-9999 0.666158139705658 0.5505051016807556 0.34701088070869446 0.19446514546871185 0.10424437373876572 0.054223816841840744 0.02998882532119751 0.01883716695010662 0.013307333923876286 0 0 0 0.009716681204736233 0 0 0.012766323052346706 0 -9999 -9999
-9999 0.5670320987701416 0.4472748935222626 0.27269822359085083 0.14147250354290009 0.06366557627916336 0.03347361460328102 0.01981600746512413 0.013746517710387707 0 0 0 0 0.013079655356705189 0.014721982181072235 0.016131136566400528 0.017349498346447945 0.018733326345682144 0 0
-9999 -9999 0.34355098009109497 0.22186733782291412 0.1112232580780983 0.04732762277126312 0.023821000009775162 0.014510990120470524 0 0 0 0 0 0 0 0 0 0 0 0
-9999 -9999 0.24472375214099884 0.1729896366596222 0.08905209600925446 0.03686821088194847 0.018072327598929405 0.011041779071092606 0 0 0 0 0 0 0 0 0 0 0 0
-9999 -9999 -9999 0.14310471713542938 0.07499769330024719 0.032595839351415634 0.015896009281277657 0.009783944115042686 0 0 0 0 0 0 0 0 0 0 0 0
