ncols         20
nrows         20
xllcorner     0
yllcorner     -3.5992928
cellsize      0.17996463
NODATA_value  -9999
-9999.0 -9999 -9999 -9999 -9999 -9999 -9999 -9999 -9999 -9999 -9999 -9999 -9999 -9999 -9999 -9999 -9999 -9999 -9999 -9999
-9999 -9999 -9999 -9999 -9999 -9999 -9999 -9999 -9999 -9999 -9999 1.0732181072235107 1.0564618110656738 -9999 -9999 1.007568359375 0.9468333721160889 -9999 -9999 -9999
-9999 -9999 -9999 -9999 1.0991994142532349 1.1699256896972656 1.2954163551330566 1.3909687995910645 1.4474469423294067 1.4826838970184326 1.349422812461853 1.2659956216812134 1.2734705209732056 1.2870458364486694 1.189168930053711 1.0693730115890503 0.9755881428718567 0.9102779626846313 -9999 -9999
-9999 -9999 -9999 1.0297354459762573 1.1108322143554688 1.2048097848892212 1.3335342407226562 1.4529367685317993 1.5820077657699585 1.6934196949005127 1.7717878818511963 1.7758296728134155 1.7659015655517578 1.654775857925415 1.4810751676559448 1.2732220888137817 1.1046706438064575 1.0111210346221924 -9999 -9999
-9999 -9999 -9999 1.006598949432373 1.0909855365753174 1.2484406232833862 1.424343228340149 1.6157525777816772 1.8545541763305664 2.1878533363342285 2.5350780487060547 2.7357640266418457 2.7153921127319336 2.419119358062744 2.0526065826416016 1.6572093963623047 1.3619108200073242 1.2854971885681152 -9999 -9999
-9999 -9999 0.8018849492073059 0.9303234815597534 1.0702236890792847 1.2560826539993286 1.4527184963226318 1.6797536611557007 2.047804832458496 2.5619964599609375 3.172379493713379 3.575273036956787 3.6863088607788086 3.3355255126953125 2.7426393032073975 2.168370008468628 1.736732006072998 1.553441047668457 1.4004782438278198 -9999
-9999 -9999 0.7764098644256592 0.8719363808631897 1.053121566772461 1.2611931562423706 1.438202977180481 1.624042272567749 1.9575949907302856 2.4560985565185547 3.0701730251312256 3.629722833633423 4.0441813468933105 3.9427459239959717 3.445091962814331 2.7743663787841797 2.2288875579833984 1.8696017265319824 1.7130414247512817 -9999
-9999 -9999 0.7788634300231934 0.8960400819778442 1.105713963508606 1.3041032552719116 1.421721339225769 1.334233283996582 1.432856559753418 1.6554895639419556 1.9468574523925781 2.4005165100097656 3.5519843101501465 3.9412596225738525 3.7740471363067627 3.2780027389526367 2.7554054260253906 2.3314666748046875 2.1516263484954834 -9999
-9999 0.6638163328170776 0.8093149662017822 0.989641010761261 1.257036805152893 1.48267662525177 1.5196462869644165 1.247430443763733 1.1920863389968872 1.2538650035858154 1.4116560220718384 1.8063791990280151 2.994291067123413 3.6337664127349854 3.8090593814849854 3.593623161315918 3.168182134628296 2.7751083374023438 2.593635320663452 -9999
-9999 0.7524430751800537 0.8947556018829346 1.180275797843933 1.5243159532546997 1.7662451267242432 1.721943974494934 1.2476400136947632 1.0700109004974365 1.0332343578338623 1.1167168617248535 1.4525480270385742 2.528135061264038 3.2420494556427 3.600348949432373 3.6386756896972656 3.400517463684082 3.1110596656799316 2.9708404541015625 -9999
-9999 0.9384253025054932 1.1045366525650024 1.4454879760742188 1.8125739097595215 2.034946918487549 1.9123553037643433 1.258346438407898 1.0025112628936768 0.9142418503761292 0.9600288271903992 1.2410622835159302 2.2154250144958496 2.888068199157715 3.304508686065674 3.4779677391052246 3.443044662475586 3.284097671508789 3.201118230819702 -9999
-9999 1.2474596500396729 1.426572561264038 1.802220106124878 2.1505393981933594 2.304344654083252 2.1100950241088867 1.3449695110321045 1.0625596046447754 0.9488170146942139 0.9611091017723083 1.1764609813690186 2.0092742443084717 2.5686306953430176 2.955794334411621 3.198367118835449 3.2892813682556152 3.2636935710906982 3.241542100906372 -9999
-9999 1.6886308193206787 1.8941270112991333 2.285487651824951 2.5448646545410156 2.6004953384399414 2.4003689289093018 1.9666612148284912 1.6279582977294922 1.4277780055999756 1.389885663986206 1.531129002571106 1.8823121786117554 2.2121386528015137 2.5033466815948486 2.7549896240234375 2.9477341175079346 3.0472683906555176 3.0740795135498047 -9999
-9999 2.184727191925049 2.388268232345581 2.745124578475952 2.9028728008270264 2.827418804168701 2.567777633666992 2.198458433151245 1.8624132871627808 1.6331126689910889 1.538114309310913 1.5647474527359009 1.6811845302581787 1.8203274011611938 1.9633514881134033 2.1468701362609863 2.381781578063965 2.6543984413146973 2.79068660736084 -9999
-9999 2.527961254119873 2.686495780944824 2.968679904937744 3.0182576179504395 2.8335022926330566 2.5269546508789062 2.1842002868652344 1.8753631114959717 1.6573948860168457 1.539379596710205 1.4896451234817505 1.4837788343429565 1.4978268146514893 1.5150717496871948 1.5832159519195557 1.7152142524719238 1.9889205694198608 -9999 -9999
-9999 2.6167688369750977 2.7127726078033447 2.9013607501983643 2.8602097034454346 2.630176067352295 2.3296689987182617 2.022489070892334 1.7743295431137085 1.5945971012115479 1.4812766313552856 1.399064064025879 1.3293509483337402 1.262629747390747 1.2075368165969849 1.1726911067962646 1.1739790439605713 1.078548550605774 -9999 -9999
-9999 2.649639129638672 2.606950283050537 2.688190460205078 2.6035420894622803 2.3620176315307617 2.070655107498169 1.8060214519500732 1.6087018251419067 1.4655053615570068 1.3649823665618896 1.2731894254684448 1.1786656379699707 1.0899426937103271 1.0021530389785767 0.924942672252655 0.8642958402633667 0.7980163097381592 0.7569116353988647 0.6800796985626221
-9999 -9999 2.391875743865967 2.4428532123565674 2.3544723987579346 2.1119041442871094 1.8290388584136963 1.5925707817077637 1.425307273864746 1.3087111711502075 1.2237508296966553 1.1391575336456299 1.0491306781768799 0.9401137232780457 0.846680760383606 0.7762088179588318 0.7051515579223633 0.6546040773391724 0.6153784990310669 0.6456760764122009
-9999 -9999 2.342475414276123 2.2739639282226562 2.160397529602051 1.908877968788147 1.6255522966384888 1.3968135118484497 1.2411272525787354 1.146008014678955 1.0931751728057861 1.0185543298721313 0.9287430644035339 0.822945237159729 0.7429584264755249 0.6851904392242432 0.6331098079681396 0.6028591990470886 0.6423407196998596 0.6646407842636108
-9999 -9999 -9999 2.1315605640411377 2.0514979362487793 1.8084406852722168 1.5254924297332764 1.302474856376648 1.1578952074050903 1.0783119201660156 1.0285974740982056 0.9731250405311584 0.8841652274131775 0.7801899909973145 0.6943904757499695 0.6543667912483215 0.5954177379608154 0.6245574355125427 0.6587375402450562 0.677703857421875
