ncols         20
nrows         20
xllcorner     0
yllcorner     -3.5992928
cellsize      0.17996463
NODATA_value  -9999
-9999.0 -9999 -9999 -9999 -9999 -9999 -9999 -9999 -9999 -9999 -9999 -9999 -9999 -9999 -9999 -9999 -9999 -9999 -9999 -9999
-9999 -9999 -9999 -9999 -9999 -9999 -9999 -9999 -9999 -9999 -9999 0.006507250014692545 0.00627836724743247 -9999 -9999 0.004941722843796015 0.0043254089541733265 -9999 -9999 -9999
-9999 -9999 -9999 -9999 0.005751272197812796 0.0067700487561523914 0.008870383724570274 0.011040175333619118 0.01282185036689043 0.014129679650068283 0.011893292888998985 0.010125462897121906 0.010106166824698448 0.010336569510400295 0.008456986397504807 0.006273974664509296 0.0050733149982988834 0.004511719103902578 -9999 -9999
-9999 -9999 -9999 0.005437911953777075 0.006334560923278332 0.007835718803107738 0.010412435047328472 0.01355708483606577 0.01750664785504341 0.02135893516242504 0.02415693923830986 0.024201616644859314 0.023423803970217705 0.019881146028637886 0.015164497308433056 0.010562754236161709 0.007661725860089064 0.006365632638335228 -9999 -9999
-9999 -9999 -9999 0.005832411348819733 0.007087368052452803 0.010088774375617504 0.014745748601853848 0.021579274907708168 0.03197081387042999 0.04848768934607506 0.06765855848789215 0.07823078334331512 0.07403448224067688 0.05534297600388527 0.037306394428014755 0.022844843566417694 0.014793859794735909 0.013030488975346088 -9999 -9999
-9999 -9999 0.004818710498511791 0.00616067461669445 0.00863625854253769 0.013498124666512012 0.02141817845404148 0.03474380448460579 0.061124395579099655 0.10617987811565399 0.167758509516716 0.20497740805149078 0.20003408193588257 0.14823728799819946 0.09136111289262772 0.05272846296429634 0.032246485352516174 0.025761833414435387 0.022824205458164215 -9999
-9999 -9999 0.0053688776679337025 0.006978364661335945 0.011447369121015072 0.0199945829808712 0.03409610688686371 0.06048664078116417 0.11242088675498962 0.20181626081466675 0.31955036520957947 0.40271469950675964 0.4021199643611908 0.3177729547023773 0 0.12255723774433136 0.07332069426774979 0.049691736698150635 0.041907623410224915 -9999
-9999 -9999 0.007160161156207323 0.010226795449852943 0.018633397296071053 0.03456169739365578 0.06377746164798737 0.11601953208446503 0.20291942358016968 0.33472248911857605 0.4772663712501526 0.5872569680213928 0.6042360067367554 0.5227375626564026 0.38863033056259155 0.25451964139938354 0.1619311422109604 0.10882453620433807 0.09044235199689865 -9999
-9999 0.007836426608264446 0.010866175405681133 0.017930570989847183 0.03650670871138573 0.07344464212656021 0.13600163161754608 0.23855683207511902 0.3770816922187805 0.5324459075927734 0.6655214428901672 0.7632319331169128 0.8028742671012878 0.7530315518379211 0.6393291354179382 0 0.3268221616744995 0.22923769056797028 0.19237558543682098 -9999
-9999 0.012100117281079292 0.017742978408932686 0.035807717591524124 0.07810550928115845 0.15910013020038605 0.2905717194080353 0.4736359417438507 0.667116641998291 0.8208984732627869 0.9151625037193298 0.9861223101615906 1.026065707206726 1.0190708637237549 0.9411255717277527 0 0.5973876118659973 0.4496385455131531 0.390095978975296 -9999
-9999 0.024111533537507057 0.03576233237981796 0.07219076156616211 0.14983391761779785 0.29138946533203125 0.5139221549034119 0.7873778343200684 1.0098391771316528 1.139987826347351 1.2088420391082764 1.2630972862243652 1.3170039653778076 1.3326878547668457 1.2861512899398804 1.1714280843734741 0.9804426431655884 0.7999135851860046 0.7192102670669556 -9999
-9999 0.05501450225710869 0.07762158662080765 0.14636552333831787 0.2735656797885895 0.4767211377620697 0.7675285339355469 1.0708438158035278 1.262021780014038 1.344849944114685 1.3872648477554321 1.449260950088501 0 0 1.571084976196289 0 1.3786541223526 1.2200359106063843 1.137569785118103 -9999
-9999 0.1294599324464798 0.17654302716255188 0.30395057797431946 0.4877844452857971 0.7356434464454651 1.0288670063018799 1.2766412496566772 1.3732335567474365 1.3701434135437012 1.3616013526916504 1.3918869495391846 0 0 0 1.5171029567718506 1.5166743993759155 1.4806346893310547 1.4222851991653442 -9999
-9999 0.276808500289917 0.36141809821128845 0.5689306259155273 0.8159468173980713 1.0629639625549316 1.2754669189453125 1.3856260776519775 1.3662216663360596 1.2935527563095093 1.2306978702545166 1.1963064670562744 0 0 0 1.1419185400009155 1.2324494123458862 1.391561508178711 1.4034287929534912 -9999
-9999 0.4705159068107605 0.5892349481582642 0.8689705729484558 1.1424109935760498 1.31963312625885 1.3958253860473633 1.3735532760620117 1.2852072715759277 1.183618426322937 1.097790002822876 1.0028446912765503 0.9066246747970581 0.8139074444770813 0 0 0.7382726073265076 0.9234465956687927 -9999 -9999
-9999 0.6269116997718811 0.7701193690299988 1.0781311988830566 1.3130751848220825 1.3905634880065918 1.3565665483474731 1.2642993927001953 1.16804838180542 1.079453945159912 0 0 0 0.5817949771881104 0 0 0.36299437284469604 0 -9999 -9999
-9999 0.7533692717552185 0.9095664024353027 1.1896928548812866 1.3641166687011719 1.3431572914123535 1.2303948402404785 1.1029200553894043 1.0120123624801636 0 0 0 0 0.4238852262496948 0.318781316280365 0.24221333861351013 0.1894318163394928 0.14637044072151184 0 0
-9999 -9999 1.0508065223693848 1.2554212808609009 1.3632094860076904 1.2622339725494385 1.0826482772827148 0.9317164421081543 0 0 0 0 0 0 0 0 0 0 0 0
-9999 -9999 1.2136526107788086 1.3120813369750977 1.3374398946762085 1.163828730583191 0.9321508407592773 0.7573375105857849 0 0 0 0 0 0 0 0 0 0 0 0
-9999 -9999 -9999 1.3298882246017456 1.3169405460357666 1.1148931980133057 0.8582165241241455 0.6762023568153381 0 0 0 0 0 0 0 0 0 0 0 0
