ncols         20
nrows         20
xllcorner     0
yllcorner     -3.5992928
cellsize      0.17996463
NODATA_value  -9999
-9999.0 -9999 -9999 -9999 -9999 -9999 -9999 -9999 -9999 -9999 -9999 -9999 -9999 -9999 -9999 -9999 -9999 -9999 -9999 -9999
-9999 -9999 -9999 -9999 -9999 -9999 -9999 -9999 -9999 -9999 -9999 0.017972543835639954 0.01797071285545826 -9999 -9999 0.018045175820589066 0.018051670864224434 -9999 -9999 -9999
-9999 -9999 -9999 -9999 0.018131351098418236 0.01809241622686386 0.01803455501794815 0.017963536083698273 0.01789196953177452 0.017834002152085304 0.01780284382402897 0.03774818032979965 0.03773733228445053 0.017780354246497154 0.01780172437429428 0.037871018052101135 0.03791362792253494 0.01788875088095665 -9999 -9999
-9999 -9999 -9999 0.0180289875715971 0.03815832361578941 0.0793439969420433 0.07906840741634369 0.07870689779520035 0.07833568006753922 0.0780230164527893 0.0778210312128067 0.09364629536867142 0.093594990670681 0.07767181098461151 0.0777633786201477 0.09389910101890564 0.07813283056020737 0.017721964046359062 -9999 -9999
-9999 -9999 -9999 0.017888542264699936 0.07884642481803894 0.11386077105998993 0.11337488144636154 0.11274386197328568 0.1121036633849144 0.11156188696622849 0.111194908618927 0.11105356365442276 0.11097587645053864 0.11094155162572861 0.11109079420566559 0.11135736107826233 0.07707303762435913 0.017440255731344223 -9999 -9999
-9999 -9999 0.017621275037527084 0.037378471344709396 0.09384375065565109 0.11247896403074265 0.11182600259780884 0.11102050542831421 0.11022764444351196 0.10956907272338867 0.10910826176404953 0.10886131972074509 0.10877460986375809 0.10882604867219925 0.10901578515768051 0.10923641920089722 0.09087911993265152 0.036031320691108704 0.016907725483179092 -9999
-9999 -9999 0.01744495891034603 0.07684510946273804 0.11107136309146881 0.11056110262870789 0.10966827720403671 0.10862864553928375 0.1076551005244255 0.10686586797237396 0.1063225120306015 0.10601838678121567 0.10591088235378265 0.10598447173833847 0.10622551292181015 0.10651852190494537 0.10659138113260269 0.07347266376018524 0.016658002510666847 -9999
-9999 -9999 0.017173556610941887 0.07569531351327896 0.10910293459892273 0.1082867830991745 0.10712501406669617 0.10588198900222778 0.10482161492109299 0.10398388653993607 0.10338421911001205 0.10301464051008224 0.10284882038831711 0.10287138819694519 0.1030740737915039 0.10343842953443527 0.1037752628326416 0.07183399051427841 0.01629653200507164 -9999
-9999 0.016768520697951317 0.03559286892414093 0.08932901918888092 0.10683760046958923 0.10577981173992157 0.10440332442522049 0.10309047996997833 0.10198089480400085 0.10110269486904144 0.10045504570007324 0.10002993047237396 0.09980865567922592 0.09977506101131439 0.09991589933633804 0.10020507127046585 0.10057692229747772 0.06974537670612335 0.015844373032450676 -9999
-9999 0.016581429168581963 0.07290742546319962 0.10522619634866714 0.10447417199611664 0.10316450148820877 0.10166718065738678 0.10032337158918381 0.09919092059135437 0.09828473627567291 0.09759724885225296 0.09712409228086472 0.09685179591178894 0.09676461666822433 0.09684478491544724 0.09706269204616547 0.09735433012247086 0.06750836968421936 0.015347473323345184 -9999
-9999 0.016323959454894066 0.07171403616666794 0.10310683399438858 0.10202670097351074 0.100494883954525 0.09897474944591522 0.09762809425592422 0.09649035334587097 0.0955660417675972 0.09484749287366867 0.0943346917629242 0.09401831775903702 0.09388348460197449 0.09391452372074127 0.09408719837665558 0.09434477239847183 0.06540057063102722 0.014860847033560276 -9999
-9999 0.016009289771318436 0.07022995501756668 0.1007436066865921 0.09947219491004944 0.09786444157361984 0.09636258333921432 0.09503631293773651 0.09390506148338318 0.09297101199626923 0.09222904592752457 0.09168371558189392 0.0913289338350296 0.09115070849657059 0.09114301204681396 0.09130378812551498 0.09160148352384567 0.06356363743543625 0.014440002851188183 -9999
-9999 0.015660777688026428 0.06859616935253143 0.09822957217693329 0.09685201942920685 0.09530551731586456 0.09386304020881653 0.0925770029425621 0.09146339446306229 0.09052835404872894 0.08976741880178452 0.08919084072113037 0.08879289031028748 0.08856438845396042 0.0885130763053894 0.08867146819829941 0.0891355350613594 0.06210212782025337 0.014106431975960732 -9999
-9999 0.015303928405046463 0.06693165004253387 0.0956931859254837 0.09430999308824539 0.0928751677274704 0.09151659905910492 0.09028513729572296 0.08919995278120041 0.08827639371156693 0.0875076875090599 0.08689884841442108 0.0864470899105072 0.08614770323038101 0.08601050823926926 0.086063914000988 0.0716068372130394 0.028958141803741455 0.01386480312794447 -9999
-9999 0.014969143085181713 0.06538022309541702 0.09330253303050995 0.09198068827390671 0.09064015001058578 0.0893673375248909 0.0881996601819992 0.08716240525245667 0.08626049757003784 0.0854882150888443 0.08484695851802826 0.08433342725038528 0.08394503593444824 0.0836859866976738 0.08356170356273651 0.05772954970598221 0.013090677559375763 -9999 -9999
-9999 0.01469151210039854 0.06376668810844421 0.09123016893863678 0.08988721668720245 0.08863277733325958 0.08745171874761581 0.08636559545993805 0.08538448065519333 0.08451303839683533 0.08374398946762085 0.08307532221078873 0.0825018361210823 0.08201910555362701 0.08162663877010345 0.081321582198143 0.055658385157585144 0.012598972767591476 -9999 -9999
-9999 0.014495442621409893 0.030125822871923447 0.07386741042137146 0.08795490115880966 0.08686767518520355 0.08581201732158661 0.0848165974020958 0.08389773219823837 0.08306144177913666 0.08229920268058777 0.08160967379808426 0.08098536729812622 0.08041729032993317 0.07989312708377838 0.0793837159872055 0.06521937251091003 0.025650952011346817 0.011826973408460617 0.01171092689037323
-9999 -9999 0.013837980106472969 0.06007840484380722 0.0863802507519722 0.08542227745056152 0.08449336141347885 0.08359096199274063 0.08273415267467499 0.08193211257457733 0.08118017017841339 0.08047804236412048 0.07981738448143005 0.07918582111597061 0.07856296747922897 0.07789937406778336 0.07707415521144867 0.06317421793937683 0.051814839243888855 0.051507167518138885
-9999 -9999 0.013465243391692638 0.028535271063447 0.07048726081848145 0.08430936932563782 0.08354029804468155 0.08272868394851685 0.08192576467990875 0.08115334063768387 0.08041274547576904 0.07970516383647919 0.07902320474386215 0.0783560574054718 0.07768800109624863 0.07699020951986313 0.07622488588094711 0.07539664953947067 0.07474374771118164 0.07440582662820816
-9999 -9999 -9999 0.013130128383636475 0.057904552668333054 0.0836912989616394 0.08303090929985046 0.0822770744562149 0.0815064087510109 0.08075080811977386 0.08001789450645447 0.07930940389633179 0.07861843705177307 0.07793668657541275 0.0772538110613823 0.07655684649944305 0.07584135234355927 0.07515344023704529 0.07461577653884888 0.07432592660188675
