ncols         20
nrows         20
xllcorner     0
yllcorner     -3.5992928
cellsize      0.17996463
NODATA_value  -9999
-9999.0 -9999 -9999 -9999 -9999 -9999 -9999 -9999 -9999 -9999 -9999 -9999 -9999 -9999 -9999 -9999 -9999 -9999 -9999 -9999
-9999 -9999 -9999 -9999 -9999 -9999 -9999 -9999 -9999 -9999 -9999 0 0 -9999 -9999 0 0 -9999 -9999 -9999
-9999 -9999 -9999 -9999 0 0 0 0 0 0 0 0 0 0 0 0 0 0 -9999 -9999
-9999 -9999 -9999 0 0 0 0 0 0 0 0 0 0 0 0 0 0 0 -9999 -9999
-9999 -9999 -9999 0 0 0 0 0 0 0 0 0 0 0 0 0 0 0 -9999 -9999
-9999 -9999 0 0 0 0 3.388819456100464 3.258491039276123 3.1268835067749023 2.9504001140594482 2.7556610107421875 2.6597561836242676 2.7100720405578613 2.9176883697509766 3.194735050201416 3.4847865104675293 0 0 0 -9999
-9999 -9999 0 0 0 3.4350786209106445 3.213336944580078 2.9984822273254395 2.7299227714538574 2.397512435913086 2.0798473358154297 1.9098654985427856 1.9471811056137085 2.1997437477111816 0.28845474123954773 3.0717289447784424 0 0 0 -9999
-9999 -9999 0 0 3.5917751789093018 3.3371963500976562 3.0552401542663574 2.714223623275757 2.3157105445861816 1.8998823165893555 1.5698992013931274 1.386317253112793 1.3965766429901123 1.6068955659866333 1.9920439720153809 2.4972541332244873 3.0430233478546143 0 0 -9999
-9999 0 0 3.865630865097046 3.565309524536133 3.2169623374938965 2.788536548614502 2.3004331588745117 1.8227628469467163 1.4246537685394287 1.1572160720825195 1.0154422521591187 1.0029488801956177 1.1434530019760132 1.4315484762191772 0.4145675599575043 2.3870134353637695 2.887723922729492 0 -9999
-9999 0 0 3.9402213096618652 3.484853506088257 2.944167375564575 2.341708183288574 1.7523863315582275 1.2791632413864136 0.9646077156066895 0.7913733720779419 0.703904390335083 0.6962671875953674 0.7731066942214966 0.9633126258850098 0.2838170528411865 1.7168785333633423 2.1677749156951904 0 -9999
-9999 0 0 3.915682315826416 3.2644543647766113 2.559847831726074 1.8409656286239624 1.220871925354004 0.8081969022750854 0.5803189277648926 0.4700619876384735 0.4235885739326477 0.4200993776321411 0.4634048342704773 0.5731101632118225 0.7790368795394897 1.083618402481079 0 0 -9999
-9999 0 0 3.6828019618988037 2.885185718536377 2.110765218734741 1.3859955072402954 0.8241252303123474 0.49082043766975403 0.3212031126022339 0.24654479324817657 0.21424958109855652 0.09338195621967316 0.12573598325252533 0.27548328042030334 0.08518806844949722 0.5672955513000488 0 0 -9999
-9999 0 0 3.1582303047180176 2.328193426132202 1.6003985404968262 0.9864115118980408 0.5409807562828064 0.29074758291244507 0.175641268491745 0.11641434580087662 0.09265005588531494 0.055883362889289856 0.07642856240272522 0.06909916549921036 0.14427444338798523 0.2344123274087906 0 0 -9999
-9999 0 0 2.4274954795837402 1.6500911712646484 1.0625362396240234 0.6254889369010925 0.33247289061546326 0.16661538183689117 0.09539244323968887 0.061518196016550064 0.04525158181786537 0.016502855345606804 0.026977328583598137 0.024688590317964554 0.047737542539834976 0.07310912013053894 0 0 -9999
-9999 0 0 1.7448110580444336 1.0641802549362183 0.6316938996315002 0.35681116580963135 0.18436899781227112 0.09854976087808609 0.0573062039911747 0.03709292784333229 0.026016702875494957 0.01998712681233883 0.017103934660553932 0.010631188750267029 0.009669385850429535 0.02190472185611725 0 -9999 -9999
-9999 0 0 1.2919007539749146 0.7118586897850037 0.3776061534881592 0.19869375228881836 0.10628189891576767 0.061080094426870346 0.037389881908893585 0.01662347838282585 0.013645820319652557 0.0015632313443347812 0.015422182157635689 0.007610637228935957 0.00843165721744299 0.020736195147037506 0.0031563518568873405 -9999 -9999
-9999 0 0 1.021888017654419 0.5205857753753662 0.2365696281194687 0.11960197985172272 0.06405161321163177 0.0379624180495739 0.016152214258909225 0.014929497614502907 0.014920351095497608 0.012468029744923115 0.017679892480373383 0.019663427025079727 0.021812796592712402 0.024033892899751663 0.026457415893673897 0.021438825875520706 0.03167009353637695
-9999 -9999 0 0.8253915905952454 0.4037564694881439 0.17125174403190613 0.07941646128892899 0.041225701570510864 0.013532223179936409 0.014422341249883175 0.016012001782655716 0.016617896035313606 0.01594320312142372 0.015410720370709896 0.01467744167894125 0.016231149435043335 0.017791762948036194 0.02252587117254734 0.027646442875266075 0.03219573572278023
-9999 -9999 0 0 0.3201300799846649 0.12879426777362823 0.055861830711364746 0.027542253956198692 0.012115422636270523 0.017310507595539093 0.01726004295051098 0.018009265884757042 0.01947742886841297 0.021501321345567703 0.02382192760705948 0.026210276409983635 0.02849472500383854 0.030463499948382378 0.03192122280597687 0.032676320523023605
-9999 -9999 -9999 0 0.27276134490966797 0.1118180900812149 0.04693283513188362 0.022554438561201096 0.012460609897971153 0.01793210208415985 0.01796294003725052 0.01877690479159355 0.020318808034062386 0.022414157167077065 0.02479184791445732 0.027180394157767296 0.02940613031387329 0.03115089237689972 0.03235134109854698 0.03296169638633728
