ncols         20
nrows         20
xllcorner     0
yllcorner     -3.5992928
cellsize      0.17996463
NODATA_value  -9999
-9999.0 -9999 -9999 -9999 -9999 -9999 -9999 -9999 -9999 -9999 -9999 -9999 -9999 -9999 -9999 -9999 -9999 -9999 -9999 -9999
-9999 -9999 -9999 -9999 -9999 -9999 -9999 -9999 -9999 -9999 -9999 0 0 -9999 -9999 0 0 -9999 -9999 -9999
-9999 -9999 -9999 -9999 0 0 0 0 0 0 0 0 0 0 0 0 0 0 -9999 -9999
-9999 -9999 -9999 0 0 0 0 0 0 0 0 0 0 0 0 0 0 0 -9999 -9999
-9999 -9999 -9999 0 0 0 0 0 0 0 0 0 0 0 0 0 0 0 -9999 -9999
-9999 -9999 0 0 0 0 8.496402740478516 7.523301601409912 6.74525785446167 5.9507880210876465 5.227841377258301 4.928896903991699 5.164420127868652 6.0171613693237305 7.30433464050293 8.931944847106934 0 0 0 -9999
-9999 -9999 0 0 0 8.544218063354492 7.059662342071533 5.916074752807617 4.817443370819092 3.734374761581421 2.8813669681549072 2.495356798171997 2.619969606399536 3.3208653926849365 4.608490467071533 6.534544944763184 0 0 0 -9999
-9999 -9999 0 0 9.24642562866211 7.500681400299072 6.005090713500977 4.617946624755859 3.3477747440338135 2.3027124404907227 1.6373546123504639 1.3317030668258667 1.3713769912719727 1.7876675128936768 2.6878914833068848 4.189647197723389 6.302052974700928 0 0 -9999
-9999 0 0 10.705451011657715 8.547142028808594 6.632571220397949 4.840610504150391 3.271587610244751 2.0906169414520264 1.3322041034698486 0.9280517101287842 0.7513126134872437 0.7496916055679321 0.9555448889732361 1.4424632787704468 2.367856979370117 3.814188003540039 5.603538513183594 0 -9999
-9999 0 0 10.612269401550293 7.873420715332031 5.44856595993042 3.4262709617614746 1.9667437076568604 1.1082741022109985 0.6784390211105347 0.487989604473114 0.4072413146495819 0.4071432650089264 0.49280181527137756 0.7236757874488831 1.1940882205963135 2.048311471939087 3.1993672847747803 0 -9999
-9999 0 0 10.209327697753906 6.824482440948486 4.1477952003479 2.2027511596679688 1.0489811897277832 0.5201819539070129 0.305331289768219 0.22087053954601288 0.19023863971233368 0.19086292386054993 0.22563229501247406 0.31872883439064026 0.5277398824691772 0.9280267357826233 0 0 -9999
-9999 0 0 8.965235710144043 5.38306188583374 2.914289712905884 1.3450099229812622 0.5540246367454529 0.24521739780902863 0.13216307759284973 0.0917009636759758 0.07649873942136765 0.07567129284143448 0.08544488251209259 0.11427304893732071 0.18582060933113098 0.33930638432502747 0 0 -9999
-9999 0 0 6.712748050689697 3.6487340927124023 1.7990061044692993 0.7688946723937988 0.29340660572052 0.1193208247423172 0.06104922667145729 0.03665453568100929 0.028091836720705032 0.025413673371076584 0.02683720551431179 0.034414034336805344 0.05301748216152191 0.10158424824476242 0 0 -9999
-9999 0 0 4.18022346496582 2.0107650756835938 0.9150668382644653 0.38164815306663513 0.14876560866832733 0.05909086763858795 0.029780473560094833 0.017923898994922638 0.012792221270501614 0.010465208441019058 0.009953651577234268 0.011021997779607773 0.015103265643119812 0.025537753477692604 0 0 -9999
-9999 0 0 2.355966329574585 0.9788436889648438 0.41155368089675903 0.17266616225242615 0.06996530294418335 0.032013267278671265 0.01700000837445259 0.010478528216481209 0.0071813855320215225 0.005497362930327654 0.004763368051499128 0.004554951563477516 0.005175775848329067 0.006921813357621431 0 -9999 -9999
-9999 0 0 1.4203789234161377 0.524524986743927 0.19853200018405914 0.08111695200204849 0.03655014559626579 0.01889181323349476 0.010841422714293003 0.006976114585995674 0.004821917973458767 0.0038569679018110037 0.004281052388250828 0.004857823718339205 0.005553123541176319 0.006337366532534361 0.007038658484816551 -9999 -9999
-9999 0 0 0.9651796221733093 0.32987847924232483 0.10737470537424088 0.04425223544239998 0.020825468003749847 0.01141689345240593 0.006946988869458437 0.004684858024120331 0.004116527736186981 0.004425319842994213 0.004919341299682856 0.00555754266679287 0.006310155149549246 0.007173812948167324 0.00815004575997591 0.009309332817792892 0.009862827137112617
-9999 -9999 0 0.683016300201416 0.22953467071056366 0.07181088626384735 0.02783002145588398 0.013009809888899326 0.007223372347652912 0.004630447831004858 0.004492183215916157 0.004620926920324564 0.004979196935892105 0.005527399480342865 0.006210420746356249 0.0069822221994400024 0.007812732830643654 0.008660992607474327 0.009413969703018665 0.009793339297175407
-9999 -9999 0 0 0.16797330975532532 0.05116426199674606 0.0189423318952322 0.008540167473256588 0.005360702518373728 0.004972018767148256 0.004871924873441458 0.005034417379647493 0.005428463686257601 0.006010359153151512 0.006713597569614649 0.007476728409528732 0.00824547465890646 0.008935892954468727 0.009448574855923653 0.00971389189362526
-9999 -9999 -9999 0 0.13573221862316132 0.043360963463783264 0.01571236364543438 0.006949356757104397 0.005529675167053938 0.005167391151189804 0.0050862133502960205 0.005263519007712603 0.005674993619322777 0.006272954400628805 0.006985214073210955 0.007735120598226786 0.008465355262160301 0.009062048979103565 0.009481149725615978 0.009696208871901035
