ncols         20
nrows         20
xllcorner     0
yllcorner     -3.5992928
cellsize      0.17996463
NODATA_value  -9999
-9999.0 -9999 -9999 -9999 -9999 -9999 -9999 -9999 -9999 -9999 -9999 -9999 -9999 -9999 -9999 -9999 -9999 -9999 -9999 -9999
-9999 -9999 -9999 -9999 -9999 -9999 -9999 -9999 -9999 -9999 -9999 2.37221097946167 2.367058753967285 -9999 -9999 2.447366237640381 2.421483039855957 -9999 -9999 -9999
-9999 -9999 -9999 -9999 2.4966824054718018 2.5074315071105957 2.521160125732422 2.5035040378570557 2.4691500663757324 2.441344976425171 2.391827344894409 2.3926966190338135 2.4073779582977295 2.4175541400909424 2.427436351776123 2.4405016899108887 2.4234883785247803 2.396677017211914 -9999 -9999
-9999 -9999 -9999 2.5322458744049072 2.5429935455322266 2.5494890213012695 2.5460097789764404 2.5144901275634766 2.4740102291107178 2.430835247039795 2.402608633041382 2.3947689533233643 2.4051554203033447 2.4213809967041016 2.451472043991089 2.4661991596221924 2.4497134685516357 2.42604660987854 -9999 -9999
-9999 -9999 -9999 2.5663375854492188 2.5824289321899414 2.603071451187134 2.578822612762451 2.510535955429077 2.422781229019165 2.325371265411377 2.2336432933807373 2.1827971935272217 2.1962482929229736 2.2674543857574463 2.363339424133301 2.4315500259399414 2.4474401473999023 2.4629368782043457 -9999 -9999
-9999 -9999 2.57315731048584 2.6052141189575195 2.633612871170044 2.6282172203063965 2.538590431213379 2.370620012283325 2.1982853412628174 2.011888265609741 1.825362205505371 1.7196406126022339 1.736480712890625 1.8741120100021362 2.0751991271972656 2.2442097663879395 2.3397305011749268 2.370790719985962 2.315176248550415 -9999
-9999 -9999 2.600720167160034 2.635662317276001 2.67274808883667 2.6097824573516846 2.376596450805664 1.9704817533493042 1.7011338472366333 1.4529136419296265 1.2324762344360352 1.128170132637024 1.1984076499938965 1.3873779773712158 1.6501487493515015 1.905731439590454 2.0999436378479004 2.194901704788208 2.215580463409424 -9999
-9999 -9999 2.659914493560791 2.701456308364868 2.7012486457824707 2.5249907970428467 2.045245409011841 0.9023573398590088 0.6621418595314026 0.5552970767021179 0.49113887548446655 0.49693650007247925 0.7466785311698914 0.9479530453681946 1.2035446166992188 1.4947986602783203 1.7405154705047607 1.8983784914016724 1.9668550491333008 -9999
-9999 2.6431663036346436 2.7124905586242676 2.742385149002075 2.668780565261841 2.382455825805664 1.8026639223098755 0.6742179989814758 0.4135374128818512 0.32561400532722473 0.2959934175014496 0.3214947581291199 0.4891057312488556 0.6238359212875366 0.7976630926132202 1.0377633571624756 1.301877498626709 1.506218671798706 1.6005315780639648 -9999
-9999 2.6707005500793457 2.707303285598755 2.6896345615386963 2.497445821762085 2.093782901763916 1.486999750137329 0.5456639528274536 0.3096296489238739 0.23279918730258942 0.21343472599983215 0.23212167620658875 0.32586780190467834 0.3921477198600769 0.48663070797920227 0.6353463530540466 0.8413065671920776 1.029815435409546 1.1254209280014038 -9999
-9999 2.6325955390930176 2.612198829650879 2.4839444160461426 2.176450729370117 1.7324906587600708 1.1454373598098755 0.4278295934200287 0.236110121011734 0.1712179034948349 0.1518329381942749 0.1576853096485138 0.19588515162467957 0.2214410901069641 0.2615438401699066 0.3387337625026703 0.4542447328567505 0.5825352072715759 0.6518979072570801 -9999
-9999 2.4407081604003906 2.353700637817383 2.1125004291534424 1.746805191040039 1.325579047203064 0.8283098936080933 0.33051633834838867 0.17990973591804504 0.12152393162250519 0.09930440038442612 0.09289128333330154 0.10015393793582916 0.1036345362663269 0.1146927922964096 0.14592920243740082 0.20263972878456116 0.2689933776855469 0.3054301142692566 -9999
-9999 2.0557045936584473 1.9109487533569336 1.6052769422531128 1.2626230716705322 0.9028037190437317 0.5541346073150635 0.275400310754776 0.14202703535556793 0.0868634581565857 0.05860336124897003 0.04654904454946518 0.04028024151921272 0.036742303520441055 0.03795871138572693 0.04635688662528992 0.07285360246896744 0.10312264412641525 0.12193570286035538 -9999
-9999 1.5698556900024414 1.4066002368927002 1.0830609798431396 0.7726082801818848 0.516328752040863 0.3116263151168823 0.1650100201368332 0.08210031688213348 0.04909229278564453 0.03317299485206604 0.024702755734324455 0.01937994547188282 0.016204962506890297 0.014789871871471405 0.01599017158150673 0.02100924216210842 0.03189443051815033 0.039991721510887146 -9999
-9999 1.1489423513412476 0.9805355072021484 0.6717427968978882 0.42036110162734985 0.25832512974739075 0.1515638530254364 0.07886083424091339 0.04474296793341637 0.028790710493922234 0.02070632204413414 0.01569245383143425 0.012436737306416035 0.010525836609303951 0.009323249571025372 0.009255696088075638 0.010167350992560387 0.013969535008072853 -9999 -9999
-9999 0.8681033253669739 0.7041406631469727 0.4340691864490509 0.2405863106250763 0.13008186221122742 0.06871878355741501 0.03941996395587921 0.025819141417741776 0.018755372613668442 0.014893537387251854 0.012138044461607933 0.010713864117860794 0.012095661833882332 0.01329631544649601 0.014200793579220772 0.014814237132668495 0.015383309684693813 -9999 -9999
-9999 0.6949672102928162 0.5238989591598511 0.30765825510025024 0.155036062002182 0.0674433559179306 0.03565862402319908 0.021902009844779968 0.01598495803773403 0.01300819031894207 0.011368045583367348 0.011931504122912884 0.014092562720179558 0.016194507479667664 0.018136825412511826 0.01984325237572193 0.021441232413053513 0.02351301908493042 0.02778943069279194 0.029574304819107056
-9999 -9999 0.36200106143951416 0.22684405744075775 0.10955885052680969 0.04399899020791054 0.022071020677685738 0.014086044393479824 0.011083207093179226 0.009962176904082298 0.012240765616297722 0.014739086851477623 0.017368964850902557 0.020020559430122375 0.022459281608462334 0.024550840258598328 0.02639264240860939 0.028104912489652634 0.02988479845225811 0.030606495216488838
-9999 -9999 0.23954342305660248 0.16258136928081512 0.0800730511546135 0.031130891293287277 0.015279409475624561 0.01001046784222126 0.009302286431193352 0.011713082902133465 0.014297224581241608 0.01708303764462471 0.020031673833727837 0.023000579327344894 0.025654757395386696 0.02780459076166153 0.02948588877916336 0.03060714527964592 0.031161773949861526 0.031349167227745056
-9999 -9999 -9999 0.12507525086402893 0.06197661906480789 0.02590196393430233 0.01285039447247982 0.008680904284119606 0.010131780058145523 0.012729348614811897 0.015469708479940891 0.018372561782598495 0.02146662212908268 0.02457047998905182 0.027311507612466812 0.02939963899552822 0.030942244455218315 0.031576622277498245 0.03172214329242706 0.03171464055776596
