ncols         20
nrows         20
xllcorner     0
yllcorner     -3.5992928
cellsize      0.17996463
NODATA_value  -9999
-9999.0 -9999 -9999 -9999 -9999 -9999 -9999 -9999 -9999 -9999 -9999 -9999 -9999 -9999 -9999 -9999 -9999 -9999 -9999 -9999
-9999 -9999 -9999 -9999 -9999 -9999 -9999 -9999 -9999 -9999 -9999 0 0 -9999 -9999 0 0 -9999 -9999 -9999
-9999 -9999 -9999 -9999 0 0 0 0 0 0 0 0 0 0 0 0 0 0 -9999 -9999
-9999 -9999 -9999 0 0 0 0 0 0 0 0 0 0 0 0 0 0 0 -9999 -9999
-9999 -9999 -9999 0 0 0 0 0 0 0 0 0 0 0 0 0 0 0 -9999 -9999
-9999 -9999 0 0 0 0 8.438193321228027 7.426734924316406 6.619246006011963 5.809274673461914 5.084489345550537 4.788768291473389 5.026861667633057 5.881742000579834 7.177585124969482 8.819747924804688 0 0 0 -9999
-9999 -9999 0 0 0 8.485654830932617 6.962560176849365 5.792309761047363 4.682363510131836 3.6042234897613525 2.765913724899292 2.3905303478240967 2.514667510986328 3.2039737701416016 4.47642707824707 6.387787342071533 0 0 0 -9999
-9999 -9999 0 0 9.189066886901855 7.402461528778076 5.880897045135498 4.485395431518555 3.223477840423584 2.198930025100708 1.5538396835327148 1.260664463043213 1.3004957437515259 1.7042874097824097 2.5812973976135254 4.052480220794678 6.130326271057129 0 0 -9999
-9999 0 0 10.65128231048584 8.448013305664062 6.5067033767700195 4.709409713745117 3.15376877784729 1.996672511100769 1.2618497610092163 0.8738434910774231 0.7057731747627258 0.7053172588348389 0.9031160473823547 1.3721977472305298 2.2678558826446533 3.6730151176452637 5.415585041046143 0 -9999
-9999 0 0 10.516755104064941 7.74604606628418 5.316495418548584 3.3133325576782227 1.8842006921768188 1.052651047706604 0.6398777961730957 0.458011656999588 0.3814943730831146 0.3818458914756775 0.46381404995918274 0.6843658089637756 1.134879231452942 1.9546016454696655 3.0613856315612793 0 -9999
-9999 0 0 10.079880714416504 6.685995578765869 4.029240131378174 2.120514154434204 1.0014219284057617 0.49330630898475647 0.28810441493988037 0.2076694816350937 0.17860591411590576 0.17934349179267883 0.21250636875629425 0.30101078748703003 0.4995947480201721 0.8799669742584229 0 0 -9999
-9999 0 0 8.815884590148926 5.2526021003723145 2.8204081058502197 1.2913017272949219 0.5285946130752563 0.2329932600259781 0.1251930147409439 0.08664210140705109 0.07220973074436188 0.07148686051368713 0.08084794878959656 0.10825522243976593 0.17608702182769775 0.3212624788284302 0 0 -9999
-9999 0 0 6.5700602531433105 3.5460596084594727 1.7359439134597778 0.7374565005302429 0.2803420424461365 0.11375101655721664 0.058073677122592926 0.03476604074239731 0.02662002108991146 0.024107614532113075 0.025490669533610344 0.032701462507247925 0.05035116523504257 0.09640815109014511 0 0 -9999
-9999 0 0 4.070659160614014 1.9469846487045288 0.8814460039138794 0.36626702547073364 0.14246538281440735 0.05645051226019859 0.02839609608054161 0.017057063058018684 0.012163086794316769 0.009956790134310722 0.009477897547185421 0.010498528368771076 0.014377385377883911 0.02428455837070942 0 0 -9999
-9999 0 0 2.2838284969329834 0.9453948140144348 0.39638593792915344 0.16599141061306 0.0671188086271286 0.030662162229418755 0.016256527975201607 0.010005516931414604 0.006851408630609512 0.005245595704764128 0.004548223689198494 0.004351901821792126 0.004944289103150368 0.006607291754335165 0 -9999 -9999
-9999 0 0 1.3725347518920898 0.506068229675293 0.19137072563171387 0.07807420194149017 0.035144783556461334 0.01814429461956024 0.010400271974503994 0.0066856564953923225 0.004619299434125423 0.0036956274416297674 0.004102241713553667 0.004656536038964987 0.005324352532625198 0.0060779014602303505 0.006754343863576651 -9999 -9999
-9999 0 0 0.9309934973716736 0.3182215094566345 0.10355207324028015 0.04267459735274315 0.020075902342796326 0.010998193174600601 0.00668681226670742 0.004506957251578569 0.003958797547966242 0.004254875238984823 0.004729707259684801 0.005345097742974758 0.006072456017136574 0.0069099972024559975 0.007863307371735573 0.009009024128317833 0.009555247612297535
-9999 -9999 0 0.6582480669021606 0.22151970863342285 0.06935283541679382 0.026894018054008484 0.012572715990245342 0.0069774240255355835 0.004470071755349636 0.004333649296313524 0.004456376191228628 0.004801496863365173 0.005330306477844715 0.005990948993712664 0.006739606149494648 0.007548066321760416 0.008377734571695328 0.009118524380028248 0.009492412209510803
-9999 -9999 0 0 0.16220329701900482 0.049481071531772614 0.018336700275540352 0.00826778169721365 0.005187041591852903 0.004807359538972378 0.00470817182213068 0.004864372778683901 0.00524467509239912 0.0058073615655303 0.006489038933068514 0.007230785675346851 0.007980224676430225 0.008655605837702751 0.009159151464700699 0.009420299902558327
-9999 -9999 -9999 0 0.13102859258651733 0.041953474283218384 0.01522387471050024 0.0067331185564398766 0.005354135762900114 0.005000118166208267 0.004919526167213917 0.005090252496302128 0.005487804766744375 0.006066692993044853 0.006757810711860657 0.007487304974347353 0.00819945614784956 0.00878311600536108 0.009194501675665379 0.009406055323779583
