ncols         20
nrows         20
xllcorner     0
yllcorner     -3.5992928
cellsize      0.17996463
NODATA_value  -9999
-9999.0 -9999 -9999 -9999 -9999 -9999 -9999 -9999 -9999 -9999 -9999 -9999 -9999 -9999 -9999 -9999 -9999 -9999 -9999 -9999
-9999 -9999 -9999 -9999 -9999 -9999 -9999 -9999 -9999 -9999 -9999 18.97394371032715 18.98253631591797 -9999 -9999 18.912485122680664 18.91693115234375 -9999 -9999 -9999
-9999 -9999 -9999 -9999 18.919925689697266 18.941890716552734 18.95920753479004 18.984628677368164 19.00606918334961 19.00075340270996 19.039636611938477 19.012134552001953 19.00077247619629 19.025218963623047 19.022327423095703 18.975404739379883 18.954702377319336 18.963953018188477 -9999 -9999
-9999 -9999 -9999 18.922473907470703 18.920446395874023 18.945281982421875 18.96646499633789 18.982269287109375 18.97819709777832 18.969926834106445 18.94589614868164 18.941667556762695 18.949039459228516 18.9864444732666 19.002933502197266 19.00617218017578 19.008588790893555 19.023256301879883 -9999 -9999
-9999 -9999 -9999 18.94662094116211 18.959861755371094 18.958927154541016 18.95144271850586 18.92052459716797 18.872798919677734 18.79676055908203 18.71739959716797 18.683652877807617 18.713916778564453 18.81085205078125 18.903736114501953 18.988508224487305 19.049640655517578 19.046321868896484 -9999 -9999
-9999 -9999 18.991592407226562 18.98463249206543 18.99457359313965 18.97617530822754 18.911741256713867 18.798357009887695 18.659048080444336 18.5054931640625 18.357311248779297 18.291040420532227 18.32621192932129 18.47678565979004 18.67906379699707 18.858928680419922 18.990673065185547 19.04714584350586 19.131744384765625 -9999
-9999 -9999 19.049026489257812 19.0605525970459 19.040307998657227 18.960126876831055 18.790363311767578 18.561325073242188 18.331985473632812 18.157081604003906 18.0216064453125 17.947736740112305 17.94620704650879 18.081016540527344 18.311010360717773 18.580913543701172 18.790922164916992 18.938817977905273 19.006866455078125 -9999
-9999 -9999 19.139142990112305 19.134538650512695 19.071563720703125 18.904823303222656 18.612545013427734 18.62871551513672 18.29411506652832 18.117469787597656 18.04241180419922 18.0423583984375 17.73317527770996 17.777414321899414 17.957304000854492 18.212369918823242 18.464645385742188 18.668060302734375 18.764076232910156 -9999
-9999 19.274473190307617 19.22237205505371 19.197736740112305 19.065385818481445 18.790672302246094 18.4049072265625 18.319171905517578 17.999385833740234 17.85532569885254 17.810283660888672 17.822755813598633 17.572668075561523 17.56179428100586 17.6601505279541 17.84872055053711 18.079524993896484 18.284975051879883 18.396514892578125 -9999
-9999 19.332334518432617 19.303380966186523 19.196964263916016 18.970735549926758 18.61936378479004 18.214479446411133 18.123994827270508 17.84308433532715 17.721431732177734 17.686325073242188 17.695720672607422 17.460750579833984 17.404626846313477 17.433265686035156 17.542268753051758 17.71471405029297 17.885082244873047 17.981563568115234 -9999
-9999 19.365198135375977 19.291431427001953 19.097875595092773 18.78544044494629 18.38254737854004 18.019947052001953 17.993728637695312 17.7589111328125 17.65380859375 17.624258041381836 17.627777099609375 17.366605758666992 17.275453567504883 17.25483512878418 17.299123764038086 17.401330947875977 17.52535629272461 17.599327087402344 -9999
-9999 19.261375427246094 19.128921508789062 18.85080337524414 18.491294860839844 18.097305297851562 17.810508728027344 17.891002655029297 17.70099449157715 17.61062240600586 17.584285736083984 17.585494995117188 17.283798217773438 17.17964744567871 17.133136749267578 17.125001907348633 17.165058135986328 17.240129470825195 17.294153213500977 -9999
-9999 18.96003532409668 18.779895782470703 18.459400177001953 18.10416603088379 17.781482696533203 17.545690536499023 17.43720245361328 17.367412567138672 17.33705711364746 17.316450119018555 17.28384017944336 17.204668045043945 17.150177001953125 17.10399055480957 17.068891525268555 17.045957565307617 17.065576553344727 17.113075256347656 -9999
-9999 18.531780242919922 18.333608627319336 18.013927459716797 17.711811065673828 17.474531173706055 17.317941665649414 17.243600845336914 17.223793029785156 17.222509384155273 17.220552444458008 17.210166931152344 17.19432258605957 17.181381225585938 17.172348022460938 17.14254379272461 17.0898380279541 17.01677703857422 17.1007137298584 -9999
-9999 18.115873336791992 17.93044662475586 17.640710830688477 17.402925491333008 17.250621795654297 17.170595169067383 17.14896583557129 17.157089233398438 17.174301147460938 17.18536376953125 17.19750213623047 17.21044921875 17.224567413330078 17.24814224243164 17.249799728393555 17.2302188873291 17.093931198120117 -9999 -9999
-9999 17.83188819885254 17.657682418823242 17.40640640258789 17.22572135925293 17.141508102416992 17.11235809326172 17.12067222595215 17.13644027709961 17.15651512145996 17.171627044677734 17.194368362426758 17.224512100219727 17.259918212890625 17.29368782043457 17.323347091674805 17.337318420410156 17.42791175842285 -9999 -9999
-9999 17.665117263793945 17.484622955322266 17.27461814880371 17.137914657592773 17.104854583740234 17.11134910583496 17.137115478515625 17.155710220336914 17.174884796142578 17.19219970703125 17.218896865844727 17.25400733947754 17.28679084777832 17.3234920501709 17.358383178710938 17.38628387451172 17.415098190307617 17.377927780151367 17.408327102661133
-9999 -9999 17.32518768310547 17.18932342529297 17.094736099243164 17.09358024597168 17.132789611816406 17.171499252319336 17.194046020507812 17.212738037109375 17.228044509887695 17.252225875854492 17.27977752685547 17.321048736572266 17.353763580322266 17.375768661499023 17.40167999267578 17.418397903442383 17.432540893554688 17.40821647644043
-9999 -9999 17.228527069091797 17.136756896972656 17.078088760375977 17.11112403869629 17.175209045410156 17.22664451599121 17.25571060180664 17.268245697021484 17.267019271850586 17.288969039916992 17.316280364990234 17.351951599121094 17.37282371520996 17.387479782104492 17.403688430786133 17.417930603027344 17.396007537841797 17.389127731323242
-9999 -9999 -9999 17.09813690185547 17.06841278076172 17.114046096801758 17.192829132080078 17.24752426147461 17.27305793762207 17.280445098876953 17.283937454223633 17.293231964111328 17.32135009765625 17.355030059814453 17.381221771240234 17.385284423828125 17.41172218322754 17.395166397094727 17.386098861694336 17.383020401000977
