ncols         20
nrows         20
xllcorner     0
yllcorner     -3.5992928
cellsize      0.17996463
NODATA_value  -9999
-9999.0 -9999 -9999 -9999 -9999 -9999 -9999 -9999 -9999 -9999 -9999 -9999 -9999 -9999 -9999 -9999 -9999 -9999 -9999 -9999
-9999 -9999 -9999 -9999 -9999 -9999 -9999 -9999 -9999 -9999 -9999 1.733217716217041 1.7317239046096802 -9999 -9999 1.7809172868728638 1.7616617679595947 -9999 -9999 -9999
-9999 -9999 -9999 -9999 1.7301424741744995 1.7418534755706787 1.7609633207321167 1.7650929689407349 1.7621952295303345 1.7644919157028198 1.7479290962219238 1.7590017318725586 1.7766276597976685 1.7906243801116943 1.7940921783447266 1.792354702949524 1.776699185371399 1.7603793144226074 -9999 -9999
-9999 -9999 -9999 1.7492982149124146 1.7596396207809448 1.7705656290054321 1.7819448709487915 1.7832194566726685 1.7837046384811401 1.7814444303512573 1.7848886251449585 1.7957621812820435 1.8127018213272095 1.8252726793289185 1.8399269580841064 1.839866042137146 1.8213768005371094 1.8023681640625 -9999 -9999
-9999 -9999 -9999 1.7724668979644775 1.7865313291549683 1.811033844947815 1.8188287019729614 1.8139064311981201 1.788495659828186 1.7431583404541016 1.6956123113632202 1.6775543689727783 1.7047964334487915 1.7685611248016357 1.8362312316894531 1.868430733680725 1.8687247037887573 1.8759053945541382 -9999 -9999
-9999 -9999 1.7801504135131836 1.8010567426681519 1.8254733085632324 1.842995285987854 1.8336739540100098 1.7922807931900024 1.6994904279708862 1.5557419061660767 1.402843952178955 1.327682375907898 1.3598597049713135 1.5017666816711426 1.6823039054870605 1.8058078289031982 1.8699004650115967 1.8887414932250977 1.8700916767120361 -9999
-9999 -9999 1.8022925853729248 1.8261417150497437 1.8626307249069214 1.8678791522979736 1.8273918628692627 1.7201813459396362 1.5309373140335083 1.281884789466858 1.05142343044281 0.9327683448791504 0.9571647047996521 1.129278302192688 1.413581132888794 1.623680830001831 1.7815061807632446 1.8542588949203491 1.871722936630249 -9999
-9999 -9999 1.851256012916565 1.8791155815124512 1.899629831314087 1.8712923526763916 1.7640743255615234 1.5642001628875732 1.2911880016326904 0.998481273651123 0.7723369002342224 0.6531546115875244 0.6600581407546997 0.7938098311424255 1.0375781059265137 1.3190971612930298 1.5554611682891846 1.7126481533050537 1.7754112482070923 -9999
-9999 1.8740462064743042 1.9098687171936035 1.9255439043045044 1.9073702096939087 1.7995340824127197 1.585265874862671 1.289432406425476 0.9801522493362427 0.7207873463630676 0.5501645803451538 0.46365565061569214 0.45808112621307373 0.5430953502655029 0.718448281288147 0.9834833145141602 1.2300407886505127 1.432251214981079 1.5314842462539673 -9999
-9999 1.92510986328125 1.9475842714309692 1.9348407983779907 1.835354208946228 1.604513168334961 1.2781238555908203 0.9309778213500977 0.6489256620407104 0.463711142539978 0.36267855763435364 0.31334373354911804 0.310270756483078 0.35498547554016113 0.46334123611450195 0.6439950466156006 0.8582727909088135 1.0575988292694092 1.1626042127609253 -9999
-9999 1.9676463603973389 1.9589484930038452 1.8770288228988647 1.6730049848556519 1.3438721895217896 0.954693078994751 0.6099736094474792 0.3860563337802887 0.2660706639289856 0.20888473093509674 0.18521521985530853 0.18424376845359802 0.20733919739723206 0.263961523771286 0.36793750524520874 0.5109967589378357 0.6657854318618774 0.750095546245575 -9999
-9999 1.9417937994003296 1.8922425508499146 1.7187526226043701 1.429060697555542 1.062179446220398 0.6843556761741638 0.39201077818870544 0.22525477409362793 0.1435590535402298 0.10794880986213684 0.09317851811647415 0.09197884052991867 0.10019707679748535 0.12327137589454651 0.1733233481645584 0.254203736782074 0.3470916748046875 0.39873480796813965 -9999
-9999 1.8004709482192993 1.6924275159835815 1.4270504713058472 1.1052746772766113 0.7685038447380066 0.4665178656578064 0.24915754795074463 0.13069525361061096 0.07779910415410995 0.049157582223415375 0.038987040519714355 0.03563765808939934 0.0367862805724144 0.044255077838897705 0.06150966137647629 0.10218876600265503 0.15028929710388184 0.18110282719135284 -9999
-9999 1.522899866104126 1.3697282075881958 1.0544261932373047 0.7442113161087036 0.48517581820487976 0.28478774428367615 0.1493520736694336 0.07182960957288742 0.04160613566637039 0.027684351429343224 0.021404853090643883 0.018416481092572212 0.017604760825634003 0.018545648083090782 0.022835785523056984 0.032848652452230453 0.05317731946706772 0.06956684589385986 -9999
-9999 1.2204385995864868 1.0527665615081787 0.7303674221038818 0.45815181732177734 0.2767886519432068 0.15771444141864777 0.07985350489616394 0.04368682578206062 0.027387259528040886 0.019769947975873947 0.015668800100684166 0.013438533060252666 0.012457950972020626 0.011938028037548065 0.012635761871933937 0.014696012251079082 0.02123553492128849 -9999 -9999
-9999 1.007793664932251 0.835968554019928 0.5303217768669128 0.2994455397129059 0.1618691384792328 0.08507820218801498 0.04741126298904419 0.029862023890018463 0.021022062748670578 0.016557317227125168 0.013792546465992928 0.012637888081371784 0.014755984768271446 0.01666128635406494 0.01815362647175789 0.019153472036123276 0.019866036251187325 -9999 -9999
-9999 0.8621348738670349 0.6835873126983643 0.41923338174819946 0.21896862983703613 0.09951811283826828 0.05270256847143173 0.03127865493297577 0.021620094776153564 0.016667384654283524 0.014066783711314201 0.01451151818037033 0.01706310734152794 0.01962781883776188 0.021988723427057266 0.023998089134693146 0.025714661926031113 0.02764197438955307 0.031420111656188965 0.0329073891043663
-9999 -9999 0.5289143919944763 0.3427981436252594 0.1727580726146698 0.07414364814758301 0.0374741367995739 0.022774921730160713 0.016521601006388664 0.013676894828677177 0.015826348215341568 0.018303848803043365 0.02103087119758129 0.023835083469748497 0.026388922706246376 0.02850765362381935 0.030260829254984856 0.031754352152347565 0.033213529735803604 0.033747948706150055
-9999 -9999 0.378286212682724 0.2682759463787079 0.13871319591999054 0.05779794976115227 0.028362000361084938 0.017216362059116364 0.014342197217047215 0.016461987048387527 0.01872781105339527 0.021275054663419724 0.024072887375950813 0.02692686766386032 0.029442500323057175 0.03141682595014572 0.032896608114242554 0.033814720809459686 0.03419782966375351 0.03429713472723961
-9999 -9999 -9999 0.22272415459156036 0.11726846545934677 0.05114646255970001 0.02490643598139286 0.015193108469247818 0.015785282477736473 0.018006205558776855 0.02031560055911541 0.022852284833788872 0.025649219751358032 0.02848772518336773 0.030958175659179688 0.03277696669101715 0.034082911908626556 0.034553639590740204 0.03460445627570152 0.034557126462459564
