ncols         20
nrows         20
xllcorner     0
yllcorner     -3.5992928
cellsize      0.17996463
NODATA_value  -9999
-9999.0 -9999 -9999 -9999 -9999 -9999 -9999 -9999 -9999 -9999 -9999 -9999 -9999 -9999 -9999 -9999 -9999 -9999 -9999 -9999
-9999 -9999 -9999 -9999 -9999 -9999 -9999 -9999 -9999 -9999 -9999 11.814661026000977 11.787841796875 -9999 -9999 11.801680564880371 11.647624969482422 -9999 -9999 -9999
-9999 -9999 -9999 -9999 11.738780975341797 11.885910034179688 12.121393203735352 12.241477012634277 12.271977424621582 12.287729263305664 12.104127883911133 12.069866180419922 12.144116401672363 12.213058471679688 12.138137817382812 11.975462913513184 11.80856704711914 11.708438873291016 -9999 -9999
-9999 -9999 -9999 11.7918701171875 11.902287483215332 12.034104347229004 12.195290565490723 12.262420654296875 12.293072700500488 12.287647247314453 12.301079750061035 12.335479736328125 12.420713424682617 12.471385955810547 12.484383583068848 12.370017051696777 12.191113471984863 12.076902389526367 -9999 -9999
-9999 -9999 -9999 11.94892692565918 12.059325218200684 12.257291793823242 12.32358169555664 12.229451179504395 12.06483268737793 11.869997024536133 11.682868003845215 11.630027770996094 11.802010536193848 12.141749382019043 12.482708930969238 12.639023780822754 12.613914489746094 12.697359085083008 -9999 -9999
-9999 -9999 11.98817253112793 12.150169372558594 12.325119972229004 12.404996871948242 12.148452758789062 11.573234558105469 10.973431587219238 10.310015678405762 9.642326354980469 9.369556427001953 9.66226863861084 10.500370025634766 11.485784530639648 12.224143028259277 12.615752220153809 12.818679809570312 12.754679679870605 -9999
-9999 -9999 12.223933219909668 12.3927583694458 12.620842933654785 12.432428359985352 11.492789268493652 9.857625007629395 8.643219947814941 7.581036567687988 6.697714805603027 6.370599746704102 6.856799602508545 7.973021030426025 9.44810962677002 10.879546165466309 11.856924057006836 12.37644100189209 12.570392608642578 -9999
-9999 -9999 12.744451522827148 12.955423355102539 13.023784637451172 12.289978981018066 10.251008987426758 6.213532447814941 4.8207855224609375 4.022758483886719 3.5340576171875 3.4809741973876953 4.517104148864746 5.623027801513672 7.093628883361816 8.76052188873291 10.187618255615234 11.167012214660645 11.604281425476074 -9999
-9999 13.172398567199707 13.403350830078125 13.579092025756836 13.319541931152344 11.97618293762207 9.207828521728516 4.906212329864502 3.3647043704986572 2.641845703125 2.3145525455474854 2.3433938026428223 3.053940534591675 3.8259754180908203 4.896467685699463 6.328500747680664 7.869965076446533 9.088356971740723 9.68795394897461 -9999
-9999 13.708223342895508 13.903818130493164 13.933358192443848 13.100889205932617 11.052462577819824 7.8641815185546875 3.919652223587036 2.460953950881958 1.8359174728393555 1.6064531803131104 1.6323673725128174 2.057945489883423 2.484079360961914 3.1403090953826904 4.111057758331299 5.378381252288818 6.517818450927734 7.110753536224365 -9999
-9999 14.230757713317871 14.190670013427734 13.672994613647461 12.160493850708008 9.613530158996582 6.349372386932373 2.98957896232605 1.7387309074401855 1.223279356956482 1.0334446430206299 1.0297152996063232 1.2339481115341187 1.4437341690063477 1.7802892923355103 2.3549978733062744 3.1491432189941406 3.9983725547790527 4.459243297576904 -9999
-9999 14.142702102661133 13.739046096801758 12.544755935668945 10.493160247802734 7.817439079284668 4.870776653289795 2.240013837814331 1.2154265642166138 0.7777702212333679 0.6074457764625549 0.5602261424064636 0.6257010698318481 0.692084014415741 0.8207015991210938 1.091544270515442 1.5337796211242676 2.0372962951660156 2.3174192905426025 -9999
-9999 12.940200805664062 12.141131401062012 10.340643882751465 8.122135162353516 5.739311218261719 3.493563652038574 1.7736862897872925 0.9029679298400879 0.5316570997238159 0.3563426733016968 0.2863554060459137 0.26247578859329224 0.2614190876483917 0.2963253855705261 0.3844967186450958 0.5930584669113159 0.8528254628181458 1.0257036685943604 -9999
-9999 10.660852432250977 9.597695350646973 7.508131980895996 5.4146318435668945 3.6080403327941895 2.149489641189575 1.1276578903198242 0.561043381690979 0.31912291049957275 0.20512042939662933 0.14868058264255524 0.11830811202526093 0.1041056215763092 0.10268289595842361 0.12157641351222992 0.17307525873184204 0.2855643033981323 0.3915601372718811 -9999
-9999 8.225955963134766 7.111579418182373 5.032955169677734 3.2343413829803467 1.9937098026275635 1.1552612781524658 0.6054875254631042 0.32820433378219604 0.19250212609767914 0.1243281438946724 0.08524613082408905 0.06251542270183563 0.050022777169942856 0.04329225420951843 0.044028595089912415 0.051953885704278946 0.07919000834226608 -9999 -9999
-9999 6.504608154296875 5.388422012329102 3.4710845947265625 1.9957084655761719 1.096441626548767 0.592217206954956 0.3263072967529297 0.19297468662261963 0.12057269364595413 0.08065929263830185 0.055353064090013504 0.04223141446709633 0.0438021644949913 0.04611330106854439 0.04873240739107132 0.051346950232982635 0.053669486194849014 -9999 -9999
-9999 5.389631271362305 4.197146892547607 2.579221725463867 1.3542531728744507 0.6268149018287659 0.3269750475883484 0.18206852674484253 0.11222665011882782 0.07372715324163437 0.051367320120334625 0.04483117535710335 0.046604909002780914 0.04941485449671745 0.05297153443098068 0.057018574327230453 0.06159808859229088 0.06749846041202545 0.07775812596082687 0.0825384259223938
-9999 -9999 3.056994915008545 1.97365403175354 0.9859633445739746 0.4217139780521393 0.2015242576599121 0.10930345952510834 0.06762735545635223 0.04661308974027634 0.04672455042600632 0.0482788123190403 0.05112029239535332 0.05502030998468399 0.05960353836417198 0.06457430124282837 0.06985935568809509 0.07546582072973251 0.08126931637525558 0.08430305868387222
-9999 -9999 2.1048481464385986 1.4613913297653198 0.7402019500732422 0.299912691116333 0.13396821916103363 0.06934323161840439 0.048305027186870575 0.04795985668897629 0.048940032720565796 0.051275014877319336 0.05488511174917221 0.059533193707466125 0.0647549107670784 0.07015818357467651 0.07548008859157562 0.08026763796806335 0.08398520946502686 0.08596611022949219
-9999 -9999 -9999 1.1583350896835327 0.6055409908294678 0.25195810198783875 0.10922839492559433 0.05542219430208206 0.04867467284202576 0.048851750791072845 0.050266437232494354 0.052973754703998566 0.05697404593229294 0.061999645084142685 0.06754183769226074 0.07307998836040497 0.07832442224025726 0.08249158412218094 0.0854295939207077 0.0869574174284935
