ncols         20
nrows         20
xllcorner     0
yllcorner     -3.5992928
cellsize      0.17996463
NODATA_value  -9999
-9999.0 -9999 -9999 -9999 -9999 -9999 -9999 -9999 -9999 -9999 -9999 -9999 -9999 -9999 -9999 -9999 -9999 -9999 -9999 -9999
-9999 -9999 -9999 -9999 -9999 -9999 -9999 -9999 -9999 -9999 -9999 0.13472360372543335 0.13484348356723785 -9999 -9999 0.13742882013320923 0.1376255750656128 -9999 -9999 -9999
-9999 -9999 -9999 -9999 0.1344984471797943 0.1344107985496521 0.13434042036533356 0.13432691991329193 0.13439784944057465 0.13455678522586823 0.13476260006427765 0.12479706108570099 0.1251658946275711 0.13617749512195587 0.1368773877620697 0.12719745934009552 0.12778258323669434 0.13888993859291077 -9999 -9999
-9999 -9999 -9999 0.13497605919837952 0.12460371851921082 0.10595165938138962 0.10591094195842743 0.10594716668128967 0.10606732964515686 0.1062609925866127 0.10650807619094849 0.09870213270187378 0.09906046092510223 0.10772861540317535 0.108316570520401 0.10076828300952911 0.10978008806705475 0.14008525013923645 -9999 -9999
-9999 -9999 -9999 0.1353272944688797 0.10642176121473312 0.07740574330091476 0.07136601954698563 0.07146994769573212 0.07164789736270905 0.07188066095113754 0.07214388251304626 0.0670052319765091 0.06730538606643677 0.07316272705793381 0.07366275787353516 0.0743548795580864 0.11166110634803772 0.142523393034935 -9999 -9999
-9999 -9999 0.13622111082077026 0.12570424377918243 0.09886370599269867 0.06644770503044128 0.04115680977702141 0.04128417745232582 0.04147625342011452 0.04170151799917221 0.04193960875272751 0.03890548646450043 0.039157167077064514 0.04280414059758186 0.043256837874650955 0.07067107409238815 0.10593338310718536 0.13577578961849213 0.1491517424583435 -9999
-9999 -9999 0.13679808378219604 0.10765570402145386 0.07845111936330795 0.05287386476993561 0.030227988958358765 0.020447654649615288 0.020600061863660812 0.020772352814674377 0.020952504128217697 0.01951444335281849 0.01972752809524536 0.02168039232492447 0.03271663933992386 0.05797090008854866 0.08667050302028656 0.11967498809099197 0.15283729135990143 -9999
-9999 -9999 0.13782863318920135 0.10858447849750519 0.07309405505657196 0.042062316089868546 0.020700886845588684 0.010187084786593914 0.008792090229690075 0.008899576961994171 0.009016020223498344 0.00845155119895935 0.008625896647572517 0.011244877241551876 0.023413855582475662 0.048046208918094635 0.08382701873779297 0.12483715265989304 0.15870511531829834 -9999
-9999 0.14003899693489075 0.12898267805576324 0.1015988364815712 0.06859056651592255 0.03946233540773392 0.01950533501803875 0.008250380866229534 0.003244179068133235 0.0033101006411015987 0.003380730515345931 0.0031885607168078423 0.003588808234781027 0.010336704552173615 0.02492770180106163 0.050874125212430954 0.08837776631116867 0.1310821771621704 0.16623088717460632 -9999
-9999 0.14179757237434387 0.11163267493247986 0.08154083788394928 0.05519207939505577 0.0319482684135437 0.015798278152942657 0.006701469887048006 0.0024805841967463493 0.001654422259889543 0.0017098968382924795 0.0017592095537111163 0.0038743270561099052 0.011033028364181519 0.02645725943148136 0.053848154842853546 0.0933644101023674 0.13823559880256653 0.17504775524139404 -9999
-9999 0.14482291042804718 0.11423580348491669 0.07714089006185532 0.04461605101823807 0.022102614864706993 0.01095988042652607 0.004688234534114599 0.0017509006429463625 0.0017594086239114404 0.001826671650633216 0.0018828485626727343 0.004134069662541151 0.011703495867550373 0.027974864467978477 0.05685858801007271 0.09850282222032547 0.14571617543697357 0.18437668681144714 -9999
-9999 0.14896166324615479 0.11765217781066895 0.07963550090789795 0.046193208545446396 0.022946953773498535 0.009760008193552494 0.003578298492357135 0.0017665744526311755 0.0018539621960371733 0.0019298820989206433 0.0021053797099739313 0.0060968222096562386 0.014590173028409481 0.029470182955265045 0.05983521416783333 0.10356663167476654 0.15299813449382782 0.1932763159275055 -9999
-9999 0.15409809350967407 0.12186013162136078 0.08265390247106552 0.04803159460425377 0.024050738662481308 0.010257536545395851 0.0037729598116129637 0.0018447525799274445 0.00193584687076509 0.002018618630245328 0.0032932788599282503 0.009492508135735989 0.022685639560222626 0.04631893336772919 0.0800635814666748 0.11771818995475769 0.1598145067691803 0.20090587437152863 -9999
-9999 0.16005943715572357 0.12678033113479614 0.08646775782108307 0.05035434663295746 0.025079788640141487 0.010692613199353218 0.003925361204892397 0.0019119679927825928 0.002002354944124818 0.002086044754832983 0.004315797705203295 0.01241043210029602 0.029851524159312248 0.06087248772382736 0.10549312084913254 0.1557447761297226 0.19545739889144897 0.20620374381542206 -9999
-9999 0.16642701625823975 0.13201984763145447 0.09015317261219025 0.052526041865348816 0.026162711903452873 0.013051921501755714 0.005605294369161129 0.0020743701606988907 0.0020540719851851463 0.0021359892562031746 0.00479672197252512 0.013732616789638996 0.0330987311899662 0.06770624220371246 0.11786683648824692 0.17435921728610992 0.22083412110805511 -9999 -9999
-9999 0.1721656173467636 0.1374329775571823 0.10138671100139618 0.069417804479599 0.04051978141069412 0.02024972066283226 0.008607045747339725 0.0034302163403481245 0.002090913476422429 0.0021722002420574427 0.0048718941397964954 0.013962596654891968 0.03371838852763176 0.06914445757865906 0.12073373794555664 0.1797536015510559 0.22800451517105103 -9999 -9999
-9999 0.17618200182914734 0.16649985313415527 0.13320276141166687 0.09088711440563202 0.05294851213693619 0.028520220890641212 0.014164328575134277 0.006051796488463879 0.002227956894785166 0.0021966397762298584 0.004529116675257683 0.013062609359622002 0.0316024012863636 0.06491908431053162 0.11354545503854752 0.16971179842948914 0.21740053594112396 0.2396777868270874 0.24147675931453705
-9999 -9999 0.18598654866218567 0.14826196432113647 0.10902348160743713 0.07429754734039307 0.043143950402736664 0.02147343009710312 0.009097835049033165 0.003357073524966836 0.0022102240473031998 0.0035909872967749834 0.010395020246505737 0.025259781628847122 0.05181729048490524 0.09090513736009598 0.13591909408569336 0.1737622618675232 0.1897078901529312 0.19062359631061554
-9999 -9999 0.18929068744182587 0.17683890461921692 0.14059671759605408 0.09545580297708511 0.05537520349025726 0.02741880528628826 0.011617708019912243 0.004267152864485979 0.002216412452980876 0.0024201967753469944 0.007029200904071331 0.017051847651600838 0.03523308411240578 0.06152945011854172 0.0923781469464302 0.11783841997385025 0.12803128361701965 0.1284080147743225
-9999 -9999 -9999 0.19388552010059357 0.15370748937129974 0.10417532175779343 0.060300447046756744 0.029816996306180954 0.012619002722203732 0.004644976928830147 0.002219062065705657 0.0022983357775956392 0.0040428549982607365 0.009778172709047794 0.020261790603399277 0.03538915887475014 0.05319225415587425 0.0675247311592102 0.07348805665969849 0.07363509386777878
