ncols         20
nrows         20
xllcorner     0
yllcorner     -3.5992928
cellsize      0.17996463
NODATA_value  -9999
-9999.0 -9999 -9999 -9999 -9999 -9999 -9999 -9999 -9999 -9999 -9999 -9999 -9999 -9999 -9999 -9999 -9999 -9999 -9999 -9999
-9999 -9999 -9999 -9999 -9999 -9999 -9999 -9999 -9999 -9999 -9999 11.814862251281738 11.787873268127441 -9999 -9999 11.796882629394531 11.642600059509277 -9999 -9999 -9999
-9999 -9999 -9999 -9999 11.729262351989746 11.877618789672852 12.115419387817383 12.238655090332031 12.272491455078125 12.290968894958496 12.108502388000488 12.07329273223877 12.147076606750488 12.215869903564453 12.139089584350586 11.973514556884766 11.805612564086914 11.705835342407227 -9999 -9999
-9999 -9999 -9999 11.782391548156738 11.893357276916504 12.026840209960938 12.191056251525879 12.262107849121094 12.296895027160645 12.295014381408691 12.31052303314209 12.345303535461426 12.43004035949707 12.479381561279297 12.489936828613281 12.372779846191406 12.192306518554688 12.077816009521484 -9999 -9999
-9999 -9999 -9999 11.940889358520508 12.052399635314941 12.253108024597168 12.323838233947754 12.235013961791992 12.075790405273438 11.885683059692383 11.701534271240234 11.649975776672363 11.821836471557617 12.16002082824707 12.498048782348633 12.650959014892578 12.623503684997559 12.706345558166504 -9999 -9999
-9999 -9999 11.982369422912598 12.14474868774414 12.322063446044922 12.406603813171387 12.156196594238281 11.587251663208008 10.993276596069336 10.334583282470703 9.669717788696289 9.398701667785645 9.692517280578613 10.530569076538086 11.514052391052246 12.249433517456055 12.638397216796875 12.84101676940918 12.780937194824219 -9999
-9999 -9999 12.220650672912598 12.39123249053955 12.623827934265137 12.442401885986328 11.509807586669922 9.879579544067383 8.668944358825684 7.609347820281982 6.7273406982421875 6.402014255523682 6.891927719116211 8.011536598205566 9.48820686340332 10.919098854064941 11.894646644592285 12.413183212280273 12.607771873474121 -9999
-9999 -9999 12.745684623718262 12.960088729858398 13.035608291625977 12.310576438903809 10.277355194091797 6.237900733947754 4.84426212310791 4.0458526611328125 3.5573134422302246 3.506406545639038 4.551496982574463 5.6640424728393555 7.140039920806885 8.810565948486328 10.23908805847168 11.21894359588623 11.656570434570312 -9999
-9999 13.178485870361328 13.410844802856445 13.592560768127441 13.342958450317383 12.008846282958984 9.243083000183105 4.932333469390869 3.3872435092926025 2.662975549697876 2.3357982635498047 2.3671154975891113 3.0861899852752686 3.8649067878723145 4.941939353942871 6.380911350250244 7.928462982177734 9.15097713470459 9.75234317779541 -9999
-9999 13.720979690551758 13.920409202575684 13.95877456665039 13.13751220703125 11.096881866455078 7.906385898590088 3.9466962814331055 2.4824562072753906 1.8554221391677856 1.62608003616333 1.6541301012039185 2.08638858795166 2.5173163414001465 3.1791677474975586 4.157261371612549 5.43352746963501 6.580546855926514 7.17701530456543 -9999
-9999 14.256372451782227 14.221298217773438 13.712980270385742 12.210598945617676 9.667723655700684 6.395603179931641 3.016385316848755 1.7584973573684692 1.240324854850769 1.04997718334198 1.0474469661712646 1.2556339502334595 1.468225359916687 1.8084161281585693 2.3892436027526855 3.1916258335113525 4.049516677856445 4.5147504806518555 -9999
-9999 14.185836791992188 13.786582946777344 12.599534034729004 10.553950309753418 7.8768486976623535 4.917681694030762 2.2664313316345215 1.2336077690124512 0.7920867800712585 0.6202884912490845 0.5728533864021301 0.6397762298583984 0.7069745659828186 0.83713299036026 1.1116865873336792 1.5601774454116821 2.070786952972412 2.354630708694458 -9999
-9999 13.001123428344727 12.203974723815918 10.40498161315918 8.185934066772461 5.796368598937988 3.5368804931640625 1.8011460304260254 0.9205524325370789 0.5443835854530334 0.3664025068283081 0.2951048016548157 0.27052366733551025 0.26909199357032776 0.30438053607940674 0.39400604367256165 0.6062578558921814 0.8707652688026428 1.04654061794281 -9999
-9999 10.733360290527344 9.667938232421875 7.5715765953063965 5.470223903656006 3.653475284576416 2.1826059818267822 1.1492846012115479 0.5748778581619263 0.32887738943099976 0.2125600278377533 0.15469565987586975 0.12332699447870255 0.10850643366575241 0.10681553184986115 0.12605266273021698 0.17875446379184723 0.2940187156200409 0.401716023683548 -9999
-9999 8.30057144165039 7.1799774169921875 5.087309837341309 3.2754642963409424 2.024523973464966 1.1770217418670654 0.619999885559082 0.3381689190864563 0.19978992640972137 0.13001058995723724 0.08975961804389954 0.06621167063713074 0.05322423577308655 0.04616951197385788 0.04692435637116432 0.055197302252054214 0.08378676325082779 -9999 -9999
-9999 6.577206611633301 5.452155113220215 3.5165932178497314 2.0258331298828125 1.1164920330047607 0.6058826446533203 0.33578091859817505 0.20005618035793304 0.12613919377326965 0.08524350821971893 0.059126876294612885 0.045555658638477325 0.047528740018606186 0.05019041895866394 0.05310085415840149 0.055964790284633636 0.058522745966911316 -9999 -9999
-9999 5.457719802856445 4.25540828704834 2.6186068058013916 1.3776764869689941 0.6400715708732605 0.3357400894165039 0.18827636539936066 0.11713317036628723 0.07785339653491974 0.054982639849185944 0.04857984930276871 0.050959259271621704 0.05433843284845352 0.05842803791165352 0.06299067288637161 0.06814184039831161 0.07486335188150406 0.08677593618631363 0.09227810055017471
-9999 -9999 3.107089042663574 2.008049488067627 1.0050522089004517 0.43158212304115295 0.20747756958007812 0.11354666948318481 0.07110072672367096 0.0497499443590641 0.05054974928498268 0.05282134562730789 0.05638531595468521 0.06099541857838631 0.06625929474830627 0.07188543677330017 0.0778425931930542 0.08419892936944962 0.09084737300872803 0.09431540220975876
-9999 -9999 2.1428442001342773 1.489672303199768 0.7559524178504944 0.3075041174888611 0.13825753331184387 0.07234475016593933 0.051140349358320236 0.051533833146095276 0.053281161934137344 0.056412242352962494 0.06083333119750023 0.06628606468439102 0.07227499783039093 0.07839539647102356 0.08438992500305176 0.08978821337223053 0.09400202333927155 0.09624256938695908
-9999 -9999 -9999 1.1828817129135132 0.6194807887077332 0.2586721181869507 0.11289840936660767 0.057994239032268524 0.05169430747628212 0.05264992639422417 0.05487344041466713 0.05841603875160217 0.06327162683010101 0.06915025413036346 0.0755029171705246 0.08177604526281357 0.08767753839492798 0.09236172586679459 0.09566915035247803 0.09738555550575256
