ncols         20
nrows         20
xllcorner     0
yllcorner     -3.5992928
cellsize      0.17996463
NODATA_value  -9999
-9999.0 -9999 -9999 -9999 -9999 -9999 -9999 -9999 -9999 -9999 -9999 -9999 -9999 -9999 -9999 -9999 -9999 -9999 -9999 -9999
-9999 -9999 -9999 -9999 -9999 -9999 -9999 -9999 -9999 -9999 -9999 13.286770820617676 13.298645973205566 -9999 -9999 13.183218002319336 13.267030715942383 -9999 -9999 -9999
-9999 -9999 -9999 -9999 13.142112731933594 13.079676628112793 12.979601860046387 12.948814392089844 12.965744018554688 12.987512588500977 13.115614891052246 13.137212753295898 13.09278678894043 13.0513916015625 13.08306884765625 13.136927604675293 13.228177070617676 13.309741973876953 -9999 -9999
-9999 -9999 -9999 13.10730266571045 13.054492950439453 12.991374969482422 12.930063247680664 12.92194938659668 12.923830032348633 12.927791595458984 12.920225143432617 12.894261360168457 12.848184585571289 12.843583106994629 12.861164093017578 12.937992095947266 13.059395790100098 13.147807121276855 -9999 -9999
-9999 -9999 -9999 13.046690940856934 12.980525970458984 12.883452415466309 12.863691329956055 12.920900344848633 12.981820106506348 13.014528274536133 13.022214889526367 12.995636940002441 12.91783332824707 12.830255508422852 12.752429008483887 12.76872444152832 12.854890823364258 12.85535717010498 -9999 -9999
-9999 -9999 13.087952613830566 12.983591079711914 12.878190994262695 12.840767860412598 12.984615325927734 13.265443801879883 13.476449012756348 13.648401260375977 13.781118392944336 13.79804801940918 13.639786720275879 13.369088172912598 13.08215618133545 12.89436149597168 12.833601951599121 12.820873260498047 12.947648048400879 -9999
-9999 -9999 13.002020835876465 12.894280433654785 12.768475532531738 12.871298789978027 13.361931800842285 14.155719757080078 14.576746940612793 14.872958183288574 15.087337493896484 15.089052200317383 14.742324829101562 14.29161548614502 13.804649353027344 13.385305404663086 13.11097240447998 12.996739387512207 12.988166809082031 -9999
-9999 -9999 12.776322364807129 12.645837783813477 12.594023704528809 12.968997955322266 14.006643295288086 15.907561302185059 16.420284271240234 16.621620178222656 16.739572525024414 16.642166137695312 15.825803756713867 15.233007431030273 14.683195114135742 14.150550842285156 13.719049453735352 13.450387954711914 13.33398151397705 -9999
-9999 12.656963348388672 12.488524436950684 12.347038269042969 12.438602447509766 13.073955535888672 14.383440971374512 16.392438888549805 16.964256286621094 17.155292510986328 17.236425399780273 17.136066436767578 16.453723907470703 15.95704460144043 15.505642890930176 15.022709846496582 14.550909042358398 14.197412490844727 14.025497436523438 -9999
-9999 12.408279418945312 12.254179000854492 12.167893409729004 12.498065948486328 13.406645774841309 14.834105491638184 16.674829483032227 17.221744537353516 17.392253875732422 17.44924545288086 17.370458602905273 16.84705352783203 16.482494354248047 16.163955688476562 15.816269874572754 15.430572509765625 15.103925704956055 14.934952735900879 -9999
-9999 12.171245574951172 12.131497383117676 12.280245780944824 12.88612174987793 13.947200775146484 15.363292694091797 16.970849990844727 17.44505500793457 17.58242416381836 17.62677574157715 17.567338943481445 17.1353759765625 16.859420776367188 16.648021697998047 16.426340103149414 16.181123733520508 15.954505920410156 15.835188865661621 -9999
-9999 12.224746704101562 12.351374626159668 12.776508331298828 13.565963745117188 14.61628532409668 15.856094360351562 17.169803619384766 17.562145233154297 17.678421020507812 17.71825408935547 17.679460525512695 17.315086364746094 17.11378288269043 16.979869842529297 16.84482765197754 16.69671630859375 16.571006774902344 16.516578674316406 -9999
-9999 12.758658409118652 13.034208297729492 13.654611587524414 14.458393096923828 15.337376594543457 16.209632873535156 16.95667839050293 17.308870315551758 17.449607849121094 17.499662399291992 17.479833602905273 17.364139556884766 17.280017852783203 17.208498001098633 17.127683639526367 17.018695831298828 16.935482025146484 16.92959213256836 -9999
-9999 13.673147201538086 14.018657684326172 14.693548202514648 15.40512466430664 16.039236068725586 16.57874870300293 16.997135162353516 17.245004653930664 17.360912322998047 17.409439086914062 17.419151306152344 17.40532684326172 17.39611053466797 17.389394760131836 17.353221893310547 17.27196502685547 17.16175079345703 17.19391441345215 -9999
-9999 14.5867338180542 14.934982299804688 15.565771102905273 16.143022537231445 16.570222854614258 16.8853816986084 17.118616104125977 17.2628116607666 17.34398651123047 17.385318756103516 17.413606643676758 17.439361572265625 17.469440460205078 17.507490158081055 17.519107818603516 17.48845100402832 17.363218307495117 -9999 -9999
-9999 15.233250617980957 15.573328971862793 16.123010635375977 16.582345962524414 16.896530151367188 17.095340728759766 17.225072860717773 17.301870346069336 17.350568771362305 17.38009262084961 17.413005828857422 17.454511642456055 17.503141403198242 17.555347442626953 17.601741790771484 17.633956909179688 17.70684051513672 -9999 -9999
-9999 15.619683265686035 16.012657165527344 16.458032608032227 16.828142166137695 17.093894958496094 17.234838485717773 17.31829833984375 17.360498428344727 17.387027740478516 17.406391143798828 17.434986114501953 17.475006103515625 17.520097732543945 17.571449279785156 17.621715545654297 17.663381576538086 17.694387435913086 17.641157150268555 17.65325164794922
-9999 -9999 16.43268394470215 16.695894241333008 16.979463577270508 17.204235076904297 17.333602905273438 17.400846481323242 17.42850685119629 17.44117546081543 17.44735336303711 17.466976165771484 17.49746322631836 17.54414176940918 17.586074829101562 17.6197509765625 17.655189514160156 17.67595100402832 17.67151641845703 17.645870208740234
-9999 -9999 16.70815658569336 16.88062858581543 17.090023040771484 17.2913818359375 17.421480178833008 17.487154006958008 17.508638381958008 17.505294799804688 17.49169921875 17.503292083740234 17.529699325561523 17.56843376159668 17.595335006713867 17.61447525024414 17.637069702148438 17.6474552154541 17.622215270996094 17.607067108154297
-9999 -9999 -9999 16.993633270263672 17.148597717285156 17.32778549194336 17.460025787353516 17.524269104003906 17.537141799926758 17.525007247924805 17.509963989257812 17.509366989135742 17.53400230407715 17.56955909729004 17.596595764160156 17.604137420654297 17.628625869750977 17.611833572387695 17.593666076660156 17.58506965637207
