ncols         20
nrows         20
xllcorner     0
yllcorner     -3.5992928
cellsize      0.17996463
NODATA_value  -9999
-9999.0 -9999 -9999 -9999 -9999 -9999 -9999 -9999 -9999 -9999 -9999 -9999 -9999 -9999 -9999 -9999 -9999 -9999 -9999 -9999
-9999 -9999 -9999 -9999 -9999 -9999 -9999 -9999 -9999 -9999 -9999 0.22113047540187836 0.21765685081481934 -9999 -9999 0.19447317719459534 0.18188787996768951 -9999 -9999 -9999
-9999 -9999 -9999 -9999 0.19356462359428406 0.21179625391960144 0.24588769674301147 0.2787431478500366 0.3052326440811157 0.32498079538345337 0.30146917700767517 0.27965831756591797 0.28117886185646057 0.28720390796661377 0.26048168540000916 0.22314250469207764 0.20066191256046295 0.19049599766731262 -9999 -9999
-9999 -9999 -9999 0.19096848368644714 0.20610779523849487 0.23134459555149078 0.2705881893634796 0.3140197694301605 0.36306002736091614 0.40749385952949524 0.4393162429332733 0.4440239369869232 0.43995046615600586 0.40754446387290955 0.3568691909313202 0.297697514295578 0.25358596444129944 0.23157350718975067 -9999 -9999
-9999 -9999 -9999 0.20215483009815216 0.22377923130989075 0.2700504660606384 0.33176499605178833 0.40887749195098877 0.5074161887168884 0.6361972689628601 0.7628529071807861 0.8291595578193665 0.812298595905304 0.7055718898773193 0.5808429718017578 0.4547498822212219 0.36614200472831726 0.3442259132862091 -9999 -9999
-9999 -9999 0.19304358959197998 0.21568289399147034 0.25644397735595703 0.3246919512748718 0.4161183536052704 0.5406221151351929 0.7316831350326538 0.9822518825531006 1.2532380819320679 1.3999741077423096 1.3925542831420898 1.2043406963348389 0.9480555057525635 0.7206854224205017 0.5642280578613281 0.506380021572113 0.4833509922027588 -9999
-9999 -9999 0.20957694947719574 0.2389424741268158 0.3086397051811218 0.41384345293045044 0.5501485466957092 0.7470026016235352 1.0381046533584595 1.4148746728897095 1.805113434791565 2.047065019607544 2.0592010021209717 1.8393245935440063 1.5126667022705078 1.1463109254837036 0.8859645128250122 0.7294533848762512 0.6716679334640503 -9999
-9999 -9999 0.25272509455680847 0.30324700474739075 0.41371840238571167 0.571858286857605 0.7901287078857422 1.08469557762146 1.4585610628128052 1.9010111093521118 2.2973175048828125 2.572115659713745 2.6259045600891113 2.453340530395508 2.1215744018554688 1.7188498973846436 1.368677020072937 1.1198358535766602 1.0201526880264282 -9999
-9999 0.28177952766418457 0.3270707130432129 0.4213331341743469 0.6075611114501953 0.8741970658302307 1.2083191871643066 1.6255578994750977 2.0732507705688477 2.4942257404327393 2.8172459602355957 3.0419540405273438 3.139432430267334 3.0536861419677734 2.822216749191284 2.47379994392395 2.0149433612823486 1.681661605834961 1.5374408960342407 -9999
-9999 0.35860058665275574 0.4339370131492615 0.6203828454017639 0.9262186884880066 1.3395845890045166 1.8364555835723877 2.377835512161255 2.857996940612793 3.2047102451324463 3.4145567417144775 3.571725606918335 3.665616512298584 3.6678929328918457 3.5328564643859863 3.286428689956665 2.807070732116699 2.4255144596099854 2.2537200450897217 -9999
-9999 0.5215559005737305 0.6369117498397827 0.911390483379364 1.3262341022491455 1.8719193935394287 2.5187366008758545 3.157741069793701 3.616840124130249 3.8804593086242676 4.030377388000488 4.152106761932373 4.269327640533447 4.310481071472168 4.236580848693848 4.040715217590332 3.682210922241211 3.3128256797790527 3.133298635482788 -9999
-9999 0.8097645044326782 0.9651857018470764 1.3347986936569214 1.841690182685852 2.4573557376861572 3.1541829109191895 3.7674124240875244 4.130646228790283 4.301717281341553 4.4050374031066895 4.54091739654541 4.7683186531066895 4.853868007659912 4.782139778137207 4.736268043518066 4.447493076324463 4.165185928344727 4.01090669631958 -9999
-9999 1.2706689834594727 1.4894647598266602 1.9682852029800415 2.5148277282714844 3.1177823543548584 3.7236242294311523 4.187152862548828 4.379897117614746 4.409726142883301 4.430450916290283 4.517580509185791 4.719630718231201 4.798653602600098 4.813683032989502 4.746849060058594 4.7212419509887695 4.644996166229248 4.537715435028076 -9999
-9999 1.8911423683166504 2.169734001159668 2.7421557903289795 3.3111507892608643 3.811342477798462 4.210129261016846 4.4235334396362305 4.426220417022705 4.341150283813477 4.2674407958984375 4.23989200592041 4.285711288452148 4.2510151863098145 4.198729515075684 4.163252353668213 4.299269676208496 4.54461669921875 4.536829948425293 -9999
-9999 2.498934507369995 2.8090124130249023 3.43683123588562 3.972055196762085 4.30180549621582 4.457144737243652 4.454378128051758 4.343949317932129 4.2039642333984375 4.081544399261475 3.9258241653442383 3.7505509853363037 3.561424970626831 3.4181134700775146 3.337932586669922 3.3646328449249268 3.7469866275787354 -9999 -9999
-9999 2.9131317138671875 3.2460289001464844 3.870015859603882 4.3030781745910645 4.459450721740723 4.435877799987793 4.317197322845459 4.187376499176025 4.064970970153809 3.9709770679473877 3.739593029022217 3.4166290760040283 3.0354976654052734 2.767364978790283 2.5349724292755127 2.384765148162842 2.126016616821289 -9999 -9999
-9999 3.2132396697998047 3.558825969696045 4.100326061248779 4.421306133270264 4.416118621826172 4.259063243865967 4.069051265716553 3.939517021179199 3.852315664291382 3.6894898414611816 3.404346227645874 3.0227041244506836 2.6103434562683105 2.2615444660186768 1.9680944681167603 1.7367393970489502 1.5260316133499146 1.3823134899139404 1.2121391296386719
-9999 -9999 3.8622889518737793 4.242283344268799 4.44725227355957 4.307114601135254 4.0213518142700195 3.7688193321228027 3.6458547115325928 3.499173164367676 3.307457447052002 3.020524740219116 2.6643853187561035 2.2468345165252686 1.898447036743164 1.6348739862442017 1.3988604545593262 1.2316317558288574 1.1110239028930664 1.142467975616455
-9999 -9999 4.17153787612915 4.358314514160156 4.423626899719238 4.153168678283691 3.7481024265289307 3.4150753021240234 3.237978935241699 3.0794999599456787 2.93798828125 2.669318675994873 2.32527494430542 1.938938021659851 1.6384949684143066 1.4161162376403809 1.2311850786209106 1.1139578819274902 1.1463384628295898 1.1656014919281006
-9999 -9999 -9999 4.404692649841309 4.399556636810303 4.073612213134766 3.6044607162475586 3.234889030456543 3.043952226638794 2.8992702960968018 2.7516162395477295 2.5311787128448486 2.1934266090393066 1.819886326789856 1.5134998559951782 1.3360304832458496 1.1426961421966553 1.1424226760864258 1.166625738143921 1.1808524131774902
