ncols         20
nrows         20
xllcorner     0
yllcorner     -3.5992928
cellsize      0.17996463
NODATA_value  -9999
-9999.0 -9999 -9999 -9999 -9999 -9999 -9999 -9999 -9999 -9999 -9999 -9999 -9999 -9999 -9999 -9999 -9999 -9999 -9999 -9999
-9999 -9999 -9999 -9999 -9999 -9999 -9999 -9999 -9999 -9999 -9999 1.2680076360702515 1.265254259109497 -9999 -9999 1.323372483253479 1.2928526401519775 -9999 -9999 -9999
-9999 -9999 -9999 -9999 1.2616605758666992 1.2832359075546265 1.3179739713668823 1.3297888040542603 1.3288935422897339 1.3335767984390259 1.3063549995422363 1.3172541856765747 1.3421283960342407 1.3634066581726074 1.362009882926941 1.3487643003463745 1.3194166421890259 1.2929797172546387 -9999 -9999
-9999 -9999 -9999 1.2852802276611328 1.3051340579986572 1.328277826309204 1.3531376123428345 1.3610496520996094 1.3651500940322876 1.3646297454833984 1.3724628686904907 1.389855980873108 1.4154675006866455 1.432774305343628 1.446497917175293 1.4344059228897095 1.396339774131775 1.3625417947769165 -9999 -9999
-9999 -9999 -9999 1.3197238445281982 1.347328543663025 1.3946037292480469 1.4164570569992065 1.4139649868011475 1.3930656909942627 1.3525902032852173 1.302228569984436 1.2824301719665527 1.3149594068527222 1.3891971111297607 1.4634881019592285 1.4992069005966187 1.4857995510101318 1.4900879859924316 -9999 -9999
-9999 -9999 1.3232027292251587 1.3617829084396362 1.4101489782333374 1.4510139226913452 1.4477720260620117 1.409233808517456 1.3144491910934448 1.148567795753479 0.9676114320755005 0.8794603943824768 0.9115849733352661 1.0738074779510498 1.2907090187072754 1.4338576793670654 1.5060745477676392 1.527269959449768 1.4952226877212524 -9999
-9999 -9999 1.3582981824874878 1.403176188468933 1.474916934967041 1.4995477199554443 1.4615533351898193 1.3504202365875244 1.131362795829773 0.844691812992096 0.600608766078949 0.4851189851760864 0.5030820965766907 0.6657671332359314 0 1.2199296951293945 1.4080588817596436 1.4876911640167236 1.5058602094650269 -9999
-9999 -9999 1.437520980834961 1.493495225906372 1.545994758605957 1.5204191207885742 1.4070625305175781 1.1729718446731567 0.8590550422668457 0.5559788346290588 0.3566213846206665 0.2641982138156891 0.2656428813934326 0.362062931060791 0.5724280476570129 0.8614276051521301 1.1319011449813843 1.3227287530899048 1.3978842496871948 -9999
-9999 1.4672216176986694 1.5351288318634033 1.5803383588790894 1.5724241733551025 1.4457494020462036 1.1858493089675903 0.8429787158966064 0.5294761061668396 0.3124333918094635 0.19606700539588928 0.14466135203838348 0.1392238736152649 0.184330016374588 0.29753443598747253 0 0.7573959231376648 0.9834160208702087 1.101545810699463 -9999
-9999 1.5554314851760864 1.6071254014968872 1.613391637802124 1.4838393926620483 1.1913810968399048 0.8091766834259033 0.46579068899154663 0.2473977655172348 0.13789485394954681 0.09052127599716187 0.0699603408575058 0.06769414246082306 0.08389918506145477 0.1325213760137558 0 0.396564781665802 0.57680344581604 0.6825820803642273 -9999
-9999 1.6380300521850586 1.6393554210662842 1.5287010669708252 1.266972303390503 0.8691827058792114 0.4733579158782959 0.2105669528245926 0.09215495735406876 0.047541167587041855 0.031216030940413475 0.02525869570672512 0.02466343715786934 0.02977985143661499 0.04521423205733299 0.08234023302793503 0.1505889743566513 0.24643296003341675 0.30716660618782043 -9999
-9999 1.6130597591400146 1.5434343814849854 1.3152259588241577 0.9574978351593018 0.5653541088104248 0.2535654306411743 0.0903797522187233 0.03240419551730156 0.01419130153954029 0.008494646288454533 0.006476549431681633 0 0 0.010164099745452404 0 0.03939656913280487 0.07155562192201614 0.09329037368297577 -9999
-9999 1.4083828926086426 1.27193284034729 0.9415056109428406 0.5968533158302307 0.30816757678985596 0.12200519442558289 0.0374738946557045 0.011109897866845131 0.0042101494036614895 0.0017861209344118834 0.0011418628273531795 0 0 0 0.002487796125933528 0.006605575792491436 0.01408391259610653 0.020399700850248337 -9999
-9999 1.0538841485977173 0.872146725654602 0.537982702255249 0.2828003168106079 0.12761914730072021 0.04678453505039215 0.013726627454161644 0.0034228956792503595 0.0012067503994330764 0.0005459442036226392 0.00032207468757405877 0 0 0 0.00032711957464925945 0.0006789022590965033 0.0018067623022943735 0.003189167706295848 -9999
-9999 0.710750162601471 0.5397252440452576 0.2698800563812256 0.11147905886173248 0.04283186420798302 0.014664556831121445 0.004000331275165081 0.0012506513157859445 0.0004971587331965566 0.0002527491596993059 0.00015105275087989867 0.00010463678336236626 8.501174306729808E-05 0 0 0.00011349160922691226 0.00024230362032540143 -9999 -9999
-9999 0.5040745139122009 0.35376468300819397 0.14729447662830353 0.04891527444124222 0.014937800355255604 0.004340765997767448 0.001394691993482411 0.0005564686143770814 0.000267631869064644 0 0 0 0.00010545364784775302 0 0 0.0001692280056886375 0 -9999 -9999
-9999 0.37773850560188293 0.24335001409053802 0.09415189176797867 0.026519274339079857 0.005713331513106823 0.0016482301289215684 0.0005821438389830291 0.00026968022575601935 0 0 0 0 0.00017355961608700454 0.00021386021398939192 0.0002509254263713956 0.0002838590880855918 0.00032121382537297904 0 0
-9999 -9999 0.1499861180782318 0.06394839286804199 0.01658356562256813 0.003143052337691188 0.0008090576156973839 0.0002911178453359753 0 0 0 0 0 0 0 0 0 0 0 0
-9999 -9999 0.07773027569055557 0.03951601684093475 0.010706773027777672 0.0018854300724342465 0.00044923636596649885 0.00015772032202221453 0 0 0 0 0 0 0 0 0 0 0 0
-9999 -9999 -9999 0.027458591386675835 0.007692668586969376 0.0014667343348264694 0.00033981751766987145 0.00011926228035008535 0 0 0 0 0 0 0 0 0 0 0 0
