ncols         20
nrows         20
xllcorner     0
yllcorner     -3.5992928
cellsize      0.17996463
NODATA_value  -9999
-9999.0 -9999 -9999 -9999 -9999 -9999 -9999 -9999 -9999 -9999 -9999 -9999 -9999 -9999 -9999 -9999 -9999 -9999 -9999 -9999
-9999 -9999 -9999 -9999 -9999 -9999 -9999 -9999 -9999 -9999 -9999 1.262351155281067 1.2597053050994873 -9999 -9999 1.3236252069473267 1.2938508987426758 -9999 -9999 -9999
-9999 -9999 -9999 -9999 1.2554237842559814 1.275142788887024 1.3070507049560547 1.316423773765564 1.3140895366668701 1.318637490272522 1.2937235832214355 1.3070377111434937 1.3319966793060303 1.3533581495285034 1.3551141023635864 1.3459839820861816 1.3188681602478027 1.293266773223877 -9999 -9999
-9999 -9999 -9999 1.2808901071548462 1.298840880393982 1.319085717201233 1.3404844999313354 1.3455370664596558 1.3475699424743652 1.345771074295044 1.3557555675506592 1.3730056285858154 1.396429419517517 1.4156084060668945 1.4346216917037964 1.4267799854278564 1.3921531438827515 1.3601740598678589 -9999 -9999
-9999 -9999 -9999 1.3154658079147339 1.3403719663619995 1.383221983909607 1.4003961086273193 1.3949021100997925 1.3725697994232178 1.3234294652938843 1.2670576572418213 1.2452436685562134 1.279899001121521 1.3617265224456787 1.4465796947479248 1.484194278717041 1.4750795364379883 1.4821274280548096 -9999 -9999
-9999 -9999 1.322756052017212 1.358312726020813 1.4020684957504272 1.4369194507598877 1.4277849197387695 1.3854924440383911 1.2775267362594604 1.1003233194351196 0.9154839515686035 0.8278786540031433 0.8619511723518372 1.0283228158950806 1.255134105682373 1.4106743335723877 1.4868054389953613 1.5128039121627808 1.4804116487503052 -9999
-9999 -9999 1.357591152191162 1.3991026878356934 1.464811086654663 1.4828282594680786 1.4393463134765625 1.311963677406311 1.078064203262329 0.787366509437561 0.5490581393241882 0.4395524263381958 0.4584389328956604 0.6178123354911804 0 1.1808040142059326 1.3814821243286133 1.4710514545440674 1.4861844778060913 -9999
-9999 -9999 1.4360440969467163 1.4872087240219116 1.5323039293289185 1.502848505973816 1.372436761856079 1.1212316751480103 0.8007314801216125 0.5041906237602234 0.31571319699287415 0.2311479151248932 0.23377642035484314 0.32538601756095886 0.5286237001419067 0.8154933452606201 1.0924293994903564 1.2921279668807983 1.371606707572937 -9999
-9999 1.4702354669570923 1.5332831144332886 1.5702519416809082 1.5521330833435059 1.4160685539245605 1.1404719352722168 0.7909446358680725 0.4826866686344147 0.2764674127101898 0.1691892296075821 0.12329433113336563 0.1193009540438652 0.16127395629882812 0.26769405603408813 0 0.7153167724609375 0.9424322843551636 1.062515377998352 -9999
-9999 1.5578606128692627 1.6040332317352295 1.6000524759292603 1.4609079360961914 1.154266119003296 0.7662236094474792 0.42900004982948303 0.2210771143436432 0.11966873705387115 0.07674187421798706 0.05866041034460068 0.057045139372348785 0.07203999161720276 0.11676162481307983 0 0.36607980728149414 0.5402450561523438 0.6436826586723328 -9999
-9999 1.638660192489624 1.63487708568573 1.5166120529174805 1.2383784055709839 0.8322814106941223 0.44188427925109863 0.19102033972740173 0.08118484169244766 0.04076610133051872 0.02622043713927269 0.021024411544203758 0.020627018064260483 0.025311507284641266 0.039288170635700226 0.07313156127929688 0.1361786127090454 0.22559578716754913 0.2828461527824402 -9999
-9999 1.610667109489441 1.5372064113616943 1.29474675655365 0.926272451877594 0.5350757837295532 0.23401160538196564 0.08120586723089218 0.028353136032819748 0.012121752835810184 0.0071235401555895805 0.005390658508986235 0 0 0.008773074485361576 0 0.035084765404462814 0.06427791714668274 0.08412463217973709 -9999
-9999 1.403182029724121 1.2569295167922974 0.9166263937950134 0.5706128478050232 0.28847646713256836 0.11165380477905273 0.03351224958896637 0.009708606638014317 0.0036038935650140047 0.0015017642872408032 0.0009551904513500631 0 0 0 0.002172409789636731 0.005834427662193775 0.012497153133153915 0.018113303929567337 -9999
-9999 1.0343220233917236 0.8485567569732666 0.5167903304100037 0.2671380639076233 0.11834760010242462 0.04257864132523537 0.01225610263645649 0.0029925736598670483 0.0010404050117358565 0.00046789145562797785 0.0002771653525996953 0 0 0 0.00029139217804186046 0.0006040610605850816 0.0015996717847883701 0.0027949775103479624 -9999
-9999 0.6860570907592773 0.5178951025009155 0.2561134099960327 0.10430169105529785 0.03948124870657921 0.013316103257238865 0.0035740083549171686 0.0011051301844418049 0.00043836943223141134 0.00022459725732915103 0.0001364274648949504 9.62070407695137E-05 7.946437108330429E-05 0 0 0.00010719875717768446 0.0002272875717608258 -9999 -9999
-9999 0.4811033606529236 0.33592429757118225 0.13861651718616486 0.045535750687122345 0.013746675103902817 0.00394675275310874 0.0012583612697198987 0.0005020563257858157 0.00024385147844441235 0 0 0 0.00010251667845295742 0 0 0.00016625880380161107 0 -9999 -9999
-9999 0.3582916557788849 0.22951439023017883 0.08821754902601242 0.02466626837849617 0.00526969600468874 0.0015122236218303442 0.0005347088444977999 0.00025021572946570814 0 0 0 0 0.0001723674067761749 0.00021315680351108313 0.00025083019863814116 0.0002846423303708434 0.0003237593045923859 0 0
-9999 -9999 0.1406189650297165 0.05979371443390846 0.01545096468180418 0.002918835263699293 0.0007520143408328295 0.0002730344422161579 0 0 0 0 0 0 0 0 0 0 0 0
-9999 -9999 0.07274682074785233 0.03694295138120651 0.010000428184866905 0.001763054053299129 0.0004225768498145044 0.00015071796951815486 0 0 0 0 0 0 0 0 0 0 0 0
-9999 -9999 -9999 0.025671452283859253 0.007199193816632032 0.0013768954668194056 0.0003217162739019841 0.00011504052963573486 0 0 0 0 0 0 0 0 0 0 0 0
