ncols         20
nrows         20
xllcorner     0
yllcorner     -3.5992928
cellsize      0.17996463
NODATA_value  -9999
-9999.0 -9999 -9999 -9999 -9999 -9999 -9999 -9999 -9999 -9999 -9999 -9999 -9999 -9999 -9999 -9999 -9999 -9999 -9999 -9999
-9999 -9999 -9999 -9999 -9999 -9999 -9999 -9999 -9999 -9999 -9999 0.14333650469779968 0.1431063711643219 -9999 -9999 0.155284583568573 0.14686588943004608 -9999 -9999 -9999
-9999 -9999 -9999 -9999 0.12169283628463745 0.13036267459392548 0.14698216319084167 0.16261227428913116 0.17606283724308014 0.18868383765220642 0.1797633320093155 0.17526254057884216 0.18423306941986084 0.19832168519496918 0.19059090316295624 0.1734192669391632 0.16122078895568848 0.1556123048067093 -9999 -9999
-9999 -9999 -9999 0.1209651455283165 0.1282462626695633 0.13928230106830597 0.15657421946525574 0.1756228506565094 0.19954746961593628 0.2252163589000702 0.25007718801498413 0.2656084895133972 0.2792598009109497 0.2761964499950409 0.2582912743091583 0.2288607358932495 0.2035280466079712 0.19003155827522278 -9999 -9999
-9999 -9999 -9999 0.12668907642364502 0.1359061747789383 0.1554330736398697 0.1791526824235916 0.20826902985572815 0.24975857138633728 0.31345489621162415 0.3917178511619568 0.4567733705043793 0.4872192144393921 0.4636554718017578 0.4157761335372925 0.3498930335044861 0.2973175048828125 0.28790247440338135 -9999 -9999
-9999 -9999 0.12416678667068481 0.13464273512363434 0.15130193531513214 0.17574633657932281 0.20226922631263733 0.23534536361694336 0.2971201539039612 0.3981652557849884 0.5415109395980835 0.6779795289039612 0.7742611169815063 0.7653920650482178 0.6736132502555847 0.5611566305160522 0.4701669216156006 0.4406171441078186 0.4334946274757385 -9999
-9999 -9999 0.1367499977350235 0.14978928864002228 0.1780465543270111 0.20949460566043854 0.23171982169151306 0.25099462270736694 0.3049037456512451 0.41064947843551636 0.5803655385971069 0.7989607453346252 1.0390703678131104 1.134627342224121 1.0725185871124268 0.9121711254119873 0.7622089385986328 0.6585545539855957 0.621146559715271 -9999
-9999 -9999 0.17196400463581085 0.19569998979568481 0.2395705133676529 0.27692103385925293 0.2853667140007019 0.23607505857944489 0.24252445995807648 0.29592037200927734 0.40218791365623474 0.6185427904129028 1.1881000995635986 1.4949581623077393 1.5471988916397095 1.4127423763275146 1.225701928138733 1.057346224784851 0.9869677424430847 -9999
-9999 0.21889419853687286 0.24098238348960876 0.2892861068248749 0.3685499429702759 0.4320944845676422 0.4215632379055023 0.3015194237232208 0.27001649141311646 0.29756009578704834 0.39431697130203247 0.6480444073677063 1.396346092224121 1.9008839130401611 2.131500720977783 2.0905628204345703 1.8794511556625366 1.661618947982788 1.5587784051895142 -9999
-9999 0.2954641878604889 0.34604257345199585 0.46326062083244324 0.6143969893455505 0.7258879542350769 0.6983471512794495 0.45422500371932983 0.37787455320358276 0.3853287100791931 0.47918593883514404 0.7709121108055115 1.6928759813308716 2.385248899459839 2.7910752296447754 2.8994431495666504 2.736685276031494 2.50543212890625 2.389129638671875 -9999
-9999 0.469001829624176 0.55869460105896 0.7559860944747925 0.9920833110809326 1.1698676347732544 1.1403300762176514 0.7131826877593994 0.5929358601570129 0.5824903845787048 0.6694706678390503 0.9856011271476746 2.117807149887085 2.950971841812134 3.504868984222412 3.7610573768615723 3.745676279067993 3.5594754219055176 3.4532742500305176 -9999
-9999 0.8000080585479736 0.9368772506713867 1.2425912618637085 1.582900047302246 1.8351653814315796 1.8271864652633667 1.2037698030471802 1.0580898523330688 1.0244587659835815 1.0822346210479736 1.3737679719924927 2.612581491470337 3.458472967147827 4.07641077041626 4.48643159866333 4.649110317230225 4.60374641418457 4.549680709838867 -9999
-9999 1.3689888715744019 1.587733268737793 2.041511297225952 2.4694528579711914 2.7914388179779053 2.894538640975952 2.687983274459839 2.4642934799194336 2.3042962551116943 2.3063220977783203 2.54597806930542 3.113185167312622 3.6662039756774902 4.181515216827393 4.649125576019287 5.030340194702148 5.212601661682129 5.2302422523498535 -9999
-9999 2.18280029296875 2.490337610244751 3.097939968109131 3.612720489501953 3.917379140853882 3.970677137374878 3.7622485160827637 3.4398975372314453 3.1730942726135254 3.048269033432007 3.086333751678467 3.264549493789673 3.4951181411743164 3.756124973297119 4.116988658905029 4.582050800323486 5.087187767028809 5.249507427215576 -9999
-9999 3.030484437942505 3.4022271633148193 4.1307549476623535 4.667427062988281 4.8491926193237305 4.730233192443848 4.396971702575684 3.995112180709839 3.646630048751831 3.411489486694336 3.2606701850891113 3.1772329807281494 3.1408538818359375 3.1305832862854004 3.2457706928253174 3.500155210494995 4.045904636383057 -9999 -9999
-9999 3.656682252883911 4.087634086608887 4.859869003295898 5.316967487335205 5.334078311920166 5.053573131561279 4.626218795776367 4.19789981842041 3.8196487426757812 3.5224850177764893 3.253084897994995 2.9976987838745117 2.7591161727905273 2.567826747894287 2.4398818016052246 2.3970673084259033 2.1637439727783203 -9999 -9999
-9999 4.118372917175293 4.614896297454834 5.315093040466309 5.654460430145264 5.48709774017334 5.056186676025391 4.545567035675049 4.094203472137451 3.705636978149414 3.3784360885620117 3.048395872116089 2.7108187675476074 2.404029607772827 2.1245272159576416 1.8904268741607666 1.7023543119430542 1.5020678043365479 1.3336509466171265 1.1599491834640503
-9999 -9999 5.1424970626831055 5.629809379577637 5.821753025054932 5.4781646728515625 4.880618572235107 4.283133029937744 3.7989869117736816 3.4102783203125 3.083976984024048 2.751457452774048 2.414464235305786 2.0556652545928955 1.7611750364303589 1.540572166442871 1.3362150192260742 1.1830124855041504 1.0623821020126343 1.088801622390747
-9999 -9999 5.634085178375244 5.868826389312744 5.87434196472168 5.353473663330078 4.601931571960449 3.914397716522217 3.3937718868255615 3.0268213748931885 2.7689027786254883 2.4567041397094727 2.121473550796509 1.774094581604004 1.5131479501724243 1.323183536529541 1.1625399589538574 1.0575518608093262 1.088686227798462 1.106060266494751
-9999 -9999 -9999 5.968695163726807 5.881401062011719 5.283628463745117 4.448350429534912 3.7219021320343018 3.201580762863159 2.862238883972168 2.606407403945923 2.34108304977417 2.0082767009735107 1.6669474840164185 1.3961838483810425 1.2443439960479736 1.0738447904586792 1.0792663097381592 1.103993535041809 1.1175771951675415
