ncols         20
nrows         20
xllcorner     0
yllcorner     -3.5992928
cellsize      0.17996463
NODATA_value  -9999
-9999.0 -9999 -9999 -9999 -9999 -9999 -9999 -9999 -9999 -9999 -9999 -9999 -9999 -9999 -9999 -9999 -9999 -9999 -9999 -9999
-9999 -9999 -9999 -9999 -9999 -9999 -9999 -9999 -9999 -9999 -9999 19.024648666381836 19.032241821289062 -9999 -9999 18.947498321533203 18.94779396057129 -9999 -9999 -9999
-9999 -9999 -9999 -9999 18.94259262084961 18.97004508972168 18.997295379638672 19.033464431762695 19.065099716186523 19.068801879882812 19.107223510742188 19.07730484008789 19.067014694213867 19.093191146850586 19.082508087158203 19.02316665649414 18.995338439941406 19.00206184387207 -9999 -9999
-9999 -9999 -9999 18.945938110351562 18.94769859313965 18.97910499572754 19.01047134399414 19.037830352783203 19.046236038208008 19.049407958984375 19.03325080871582 19.032835006713867 19.0430850982666 19.078699111938477 19.08768653869629 19.07878303527832 19.070859909057617 19.079593658447266 -9999 -9999
-9999 -9999 -9999 18.976903915405273 18.994752883911133 19.003084182739258 19.00625228881836 18.98664665222168 18.951438903808594 18.890033721923828 18.82318115234375 18.799335479736328 18.836292266845703 18.933738708496094 19.023162841796875 19.09813690185547 19.149147033691406 19.145130157470703 -9999 -9999
-9999 -9999 19.033267974853516 19.027498245239258 19.042972564697266 19.032455444335938 18.973934173583984 18.865585327148438 18.735137939453125 18.599966049194336 18.465709686279297 18.410280227661133 18.45927619934082 18.613969802856445 18.817659378051758 18.99959945678711 19.13222312927246 19.196325302124023 19.292829513549805 -9999
-9999 -9999 19.10540199279785 19.12044906616211 19.10702133178711 19.028789520263672 18.852951049804688 18.620141983032227 18.390106201171875 18.2183780670166 18.08864974975586 18.026235580444336 18.04456329345703 18.20049285888672 18.452518463134766 18.730314254760742 18.95624351501465 19.116863250732422 19.194547653198242 -9999
-9999 -9999 19.227123260498047 19.226850509643555 19.16470718383789 18.984453201293945 18.670339584350586 18.660707473754883 18.319252014160156 18.140485763549805 18.062597274780273 18.062143325805664 17.79322624206543 17.86275291442871 18.067529678344727 18.34926986694336 18.629657745361328 18.84645652770996 18.956321716308594 -9999
-9999 19.38418197631836 19.339582443237305 19.330413818359375 19.188695907592773 18.87908363342285 18.453857421875 18.331825256347656 18.004840850830078 17.858963012695312 17.811420440673828 17.821077346801758 17.611162185668945 17.623117446899414 17.7407169342041 17.949573516845703 18.205820083618164 18.43437385559082 18.562110900878906 -9999
-9999 19.45549774169922 19.440597534179688 19.357322692871094 19.109882354736328 18.704002380371094 18.249370574951172 18.118520736694336 17.8343563079834 17.713214874267578 17.676654815673828 17.681209564208984 17.487688064575195 17.454044342041016 17.495420455932617 17.61607551574707 17.798904418945312 17.982891082763672 18.09129524230957 -9999
-9999 19.508569717407227 19.452299118041992 19.274545669555664 18.910755157470703 18.447439193725586 18.039939880371094 17.96520233154297 17.73403549194336 17.63300323486328 17.60266876220703 17.599315643310547 17.3911190032959 17.323841094970703 17.313180923461914 17.36248016357422 17.4664306640625 17.589937210083008 17.666126251220703 -9999
-9999 19.43767738342285 19.31291961669922 19.007579803466797 18.578216552734375 18.13725471496582 17.82234001159668 17.8333797454834 17.655864715576172 17.574247360229492 17.548032760620117 17.540788650512695 17.3131046295166 17.233665466308594 17.196386337280273 17.192432403564453 17.230649948120117 17.299285888671875 17.349571228027344 -9999
-9999 19.14776039123535 18.943069458007812 18.553829193115234 18.151155471801758 17.809154510498047 17.57083511352539 17.45656967163086 17.3881778717041 17.358810424804688 17.34019660949707 17.312664031982422 17.25115966796875 17.207077026367188 17.166223526000977 17.13524627685547 17.11534881591797 17.130781173706055 17.169567108154297 -9999
-9999 18.65226936340332 18.417749404907227 18.059635162353516 17.741182327270508 17.50833511352539 17.362089157104492 17.29361343383789 17.273983001708984 17.271526336669922 17.26927375793457 17.260074615478516 17.246362686157227 17.23398208618164 17.22319984436035 17.194995880126953 17.148338317871094 17.083784103393555 17.1497802734375 -9999
-9999 18.181427001953125 17.97784996032715 17.679880142211914 17.444591522216797 17.300886154174805 17.23066520690918 17.212553024291992 17.221210479736328 17.235551834106445 17.244169235229492 17.252553939819336 17.260921478271484 17.269983291625977 17.286563873291016 17.284866333007812 17.26645851135254 17.152036666870117 -9999 -9999
-9999 17.874650955200195 17.697782516479492 17.455995559692383 17.283977508544922 17.202556610107422 17.178150177001953 17.187959671020508 17.204708099365234 17.22206687927246 17.233842849731445 17.250261306762695 17.272214889526367 17.29859733581543 17.324302673339844 17.34720230102539 17.35773468017578 17.433597564697266 -9999 -9999
-9999 17.705753326416016 17.53010368347168 17.336776733398438 17.210609436035156 17.17491340637207 17.177202224731445 17.200532913208008 17.21914291381836 17.235353469848633 17.24883270263672 17.268722534179688 17.294986724853516 17.319866180419922 17.348602294921875 17.37671661376953 17.39991569519043 17.425277709960938 17.396024703979492 17.4237003326416
-9999 -9999 17.382591247558594 17.263883590698242 17.178457260131836 17.17021369934082 17.197439193725586 17.227811813354492 17.247901916503906 17.26349449157715 17.275741577148438 17.294063568115234 17.314912796020508 17.347089767456055 17.373310089111328 17.391592025756836 17.41416358947754 17.429706573486328 17.443546295166016 17.423044204711914
-9999 -9999 17.30043601989746 17.221328735351562 17.167648315429688 17.18719482421875 17.23309898376465 17.27171516418457 17.29532241821289 17.30606460571289 17.30559730529785 17.322481155395508 17.343637466430664 17.372066497802734 17.389385223388672 17.40210723876953 17.41652488708496 17.4295654296875 17.411165237426758 17.40549087524414
-9999 -9999 -9999 17.190044403076172 17.161720275878906 17.191396713256836 17.248361587524414 17.289470672607422 17.30989646911621 17.31606101989746 17.31900405883789 17.32611846923828 17.34815788269043 17.375158309936523 17.39683723449707 17.400623321533203 17.423612594604492 17.409883499145508 17.40229606628418 17.3997745513916
