ncols         20
nrows         20
xllcorner     0
yllcorner     -3.5992928
cellsize      0.17996463
NODATA_value  -9999
-9999.0 -9999 -9999 -9999 -9999 -9999 -9999 -9999 -9999 -9999 -9999 -9999 -9999 -9999 -9999 -9999 -9999 -9999 -9999 -9999
-9999 -9999 -9999 -9999 -9999 -9999 -9999 -9999 -9999 -9999 -9999 27.2672061920166 27.264867782592773 -9999 -9999 27.252511978149414 27.313249588012695 -9999 -9999 -9999
-9999 -9999 -9999 -9999 27.31168556213379 27.23241424560547 27.110084533691406 27.022146224975586 26.983057022094727 26.985605239868164 27.065723419189453 27.130643844604492 27.095125198364258 27.002527236938477 27.023326873779297 27.13260841369629 27.209196090698242 27.223419189453125 -9999 -9999
-9999 -9999 -9999 27.33258819580078 27.30007553100586 27.246768951416016 27.17316246032715 27.12401580810547 27.108928680419922 27.120126724243164 27.13908576965332 27.1367130279541 27.076705932617188 26.99957847595215 26.967044830322266 26.995649337768555 27.01846694946289 27.0093936920166 -9999 -9999
-9999 -9999 -9999 27.316598892211914 27.31729507446289 27.319076538085938 27.34894561767578 27.40978240966797 27.485551834106445 27.557565689086914 27.605388641357422 27.604389190673828 27.52371597290039 27.38100242614746 27.206321716308594 27.03856086730957 26.869461059570312 26.726625442504883 -9999 -9999
-9999 -9999 27.31024169921875 27.3154354095459 27.369239807128906 27.50541877746582 27.749805450439453 27.987220764160156 28.2169132232666 28.43289566040039 28.589311599731445 28.641738891601562 28.549528121948242 28.311870574951172 27.95120620727539 27.51544952392578 27.03147315979004 26.673830032348633 26.503252029418945 -9999
-9999 -9999 27.228742599487305 27.308645248413086 27.470054626464844 27.779380798339844 28.190134048461914 28.625545501708984 29.058748245239258 29.446285247802734 29.712011337280273 29.811084747314453 29.725305557250977 29.435955047607422 28.927980422973633 28.305980682373047 27.605575561523438 27.0550594329834 26.761083602905273 -9999
-9999 -9999 27.01665496826172 27.222993850708008 27.567916870117188 28.056943893432617 28.655101776123047 29.302391052246094 29.9237003326416 30.430503845214844 30.754718780517578 30.87574577331543 30.805728912353516 30.53281021118164 30.0280818939209 29.337505340576172 28.559185028076172 27.85645294189453 27.44735336303711 -9999
-9999 26.37166404724121 26.673635482788086 27.12451934814453 27.67359161376953 28.387821197509766 29.213088989257812 30.044315338134766 30.76852798461914 31.305397033691406 31.63177490234375 31.754941940307617 31.69635581970215 31.459840774536133 31.020309448242188 30.386384963989258 29.68208122253418 28.999988555908203 28.546005249023438 -9999
-9999 26.115888595581055 26.43419075012207 27.078323364257812 27.91217041015625 28.891569137573242 29.912220001220703 30.831695556640625 31.54936981201172 32.04267120361328 32.333465576171875 32.44044494628906 32.387428283691406 32.19286346435547 31.84992790222168 31.35289764404297 30.796184539794922 30.226455688476562 29.8320255279541 -9999
-9999 25.879858016967773 26.326141357421875 27.25152015686035 28.376848220825195 29.569377899169922 30.683807373046875 31.587553024291992 32.237064361572266 32.663856506347656 32.9055061340332 32.981197357177734 32.91677474975586 32.76127243041992 32.5206413269043 32.17584228515625 31.773630142211914 31.34979248046875 31.063756942749023 -9999
-9999 25.956727981567383 26.573671340942383 27.74588394165039 29.070209503173828 30.350011825561523 31.444931030273438 32.274658203125 32.8565559387207 33.23887634277344 33.44871139526367 33.4931526184082 33.397186279296875 33.26857376098633 33.11467742919922 32.87117385864258 32.59389114379883 32.292640686035156 32.08700942993164 -9999
-9999 26.568675994873047 27.29376220703125 28.592243194580078 29.961483001708984 31.184614181518555 32.16910171508789 32.90643310546875 33.44464874267578 33.81208801269531 34.033199310302734 34.09025192260742 34.019527435302734 33.93042755126953 33.81892395019531 33.656578063964844 33.39613342285156 33.11131286621094 32.88894271850586 -9999
-9999 27.609872817993164 28.368860244750977 29.65530776977539 30.936264038085938 32.01206970214844 32.8544807434082 33.50521469116211 34.012351989746094 34.35932540893555 34.582000732421875 34.69435501098633 34.71759796142578 34.718082427978516 34.67656326293945 34.55992889404297 34.3161506652832 33.968910217285156 33.496883392333984 -9999
-9999 28.75900650024414 29.498554229736328 30.691116333007812 31.834726333618164 32.76838684082031 33.499595642089844 34.08137512207031 34.510459899902344 34.82096481323242 35.04623794555664 35.2295036315918 35.380836486816406 35.501564025878906 35.553184509277344 35.51802062988281 35.38264083862305 35.16122817993164 -9999 -9999
-9999 29.710872650146484 30.451112747192383 31.53767204284668 32.56379699707031 33.417781829833984 34.093780517578125 34.592750549316406 34.949462890625 35.20670700073242 35.411903381347656 35.640342712402344 35.89051818847656 36.13021469116211 36.287445068359375 36.36940002441406 36.38920211791992 36.41758728027344 -9999 -9999
-9999 30.322067260742188 31.22690773010254 32.19944381713867 33.1356086730957 33.96682357788086 34.59612274169922 35.05400848388672 35.36125183105469 35.57801818847656 35.78508758544922 36.03763961791992 36.33198547363281 36.626495361328125 36.85452651977539 37.00913619995117 37.11453628540039 37.241615295410156 37.53604507446289 37.66809844970703
-9999 -9999 32.131553649902344 32.78178405761719 33.58620071411133 34.37668991088867 35.00845718383789 35.46354675292969 35.749874114990234 35.96072006225586 36.16291809082031 36.413917541503906 36.71072006225586 37.02098846435547 37.27147674560547 37.44439697265625 37.568756103515625 37.66640090942383 37.76858901977539 37.799434661865234
-9999 -9999 32.63425064086914 33.214393615722656 33.91982650756836 34.68230438232422 35.33451843261719 35.81129837036133 36.10284423828125 36.304588317871094 36.48591613769531 36.72317123413086 37.01326370239258 37.3180046081543 37.56344223022461 37.73223114013672 37.84730911254883 37.90538787841797 37.912078857421875 37.90841293334961
-9999 -9999 -9999 33.594539642333984 34.145263671875 34.85234069824219 35.51112365722656 35.99881362915039 36.290470123291016 36.484527587890625 36.657840728759766 36.8769645690918 37.161468505859375 37.4637336730957 37.71293258666992 37.875919342041016 37.9920768737793 38.011451721191406 37.99638366699219 37.98426818847656
