ncols         20
nrows         20
xllcorner     0
yllcorner     -3.5992928
cellsize      0.17996463
NODATA_value  -9999
-9999.0 -9999 -9999 -9999 -9999 -9999 -9999 -9999 -9999 -9999 -9999 -9999 -9999 -9999 -9999 -9999 -9999 -9999 -9999 -9999
-9999 -9999 -9999 -9999 -9999 -9999 -9999 -9999 -9999 -9999 -9999 12.261767387390137 12.240216255187988 -9999 -9999 12.283368110656738 12.12900161743164 -9999 -9999 -9999
-9999 -9999 -9999 -9999 12.162598609924316 12.280506134033203 12.486878395080566 12.591877937316895 12.622081756591797 12.649280548095703 12.479647636413574 12.478724479675293 12.576836585998535 12.663945198059082 12.606602668762207 12.463825225830078 12.325084686279297 12.259903907775879 -9999 -9999
-9999 -9999 -9999 12.28726863861084 12.32986068725586 12.372930526733398 12.450148582458496 12.482762336730957 12.511176109313965 12.518330574035645 12.554611206054688 12.61735725402832 12.728246688842773 12.803311347961426 12.855899810791016 12.813329696655273 12.73959732055664 12.697511672973633 -9999 -9999
-9999 -9999 -9999 12.458969116210938 12.427367210388184 12.413324356079102 12.254010200500488 12.113035202026367 11.960274696350098 11.781829833984375 11.61547565460205 11.575873374938965 11.745465278625488 12.085572242736816 12.481114387512207 12.819565773010254 13.13801097869873 13.439701080322266 -9999 -9999
-9999 -9999 12.745359420776367 12.686239242553711 12.522239685058594 12.13711166381836 11.28905963897705 10.816537857055664 10.345419883728027 9.734830856323242 9.076184272766113 8.758264541625977 8.9362154006958 9.646580696105957 10.596793174743652 11.59508991241455 12.979328155517578 13.708418846130371 13.954890251159668 -9999
-9999 -9999 12.984792709350586 12.798175811767578 12.41202449798584 11.452271461486816 10.667930603027344 9.912519454956055 8.987632751464844 7.863449573516846 6.802858352661133 6.242199420928955 6.37416934967041 7.225986003875732 8.564239501953125 10.174145698547363 12.094634056091309 13.28079605102539 13.83255672454834 -9999
-9999 -9999 13.519634246826172 13.022375106811523 11.993721961975098 11.095797538757324 10.111736297607422 8.94034194946289 7.5906782150268555 6.198857307434082 5.104698181152344 4.502664566040039 4.54339075088501 5.248016834259033 6.537754535675049 8.233591079711914 10.069513320922852 11.928714752197266 12.85698127746582 -9999
-9999 14.85783576965332 14.336038589477539 12.935027122497559 11.881895065307617 10.672771453857422 9.206295013427734 7.555250644683838 5.954235076904297 4.630582332611084 3.7478766441345215 3.2847235202789307 3.2493503093719482 3.718705415725708 4.678399085998535 6.125497817993164 7.8666791915893555 9.539912223815918 10.854155540466309 -9999
-9999 15.560249328613281 14.967514038085938 13.168587684631348 11.597780227661133 9.752955436706543 7.718062400817871 5.744063377380371 4.1698102951049805 3.1290183067321777 2.5584161281585693 2.2730884552001953 2.251582622528076 2.508596181869507 3.1395435333251953 4.180233478546143 5.638432025909424 7.134723663330078 8.269771575927734 -9999
-9999 16.32518196105957 15.46119499206543 13.074853897094727 10.85490608215332 8.473165512084961 6.063365936279297 3.9997143745422363 2.6339502334594727 1.8826237916946411 1.5201367139816284 1.368367075920105 1.3586921691894531 1.5030734539031982 1.8657429218292236 2.545043706893921 3.5496490001678467 4.779501914978027 5.516886234283447 -9999
-9999 16.480331420898438 15.262864112854004 12.28804874420166 9.58916187286377 6.985877990722656 4.5663533210754395 2.702504873275757 1.6021159887313843 1.0440610647201538 0.798931360244751 0.6934558153152466 0.6806648373603821 0.7348912358283997 0.8970897197723389 1.251708745956421 1.85590660572052 2.6178529262542725 3.060255527496338 -9999
-9999 15.441882133483887 13.88401985168457 10.531269073486328 7.736682415008545 5.298720359802246 3.253490686416626 1.7775070667266846 0.9515813589096069 0.5727065801620483 0.37844106554985046 0.30079910159111023 0.2723185122013092 0.27980557084083557 0.337964802980423 0.4712217450141907 0.7666466236114502 1.168853521347046 1.4425461292266846 -9999
-9999 13.164965629577637 11.436790466308594 8.091533660888672 5.484726905822754 3.5212132930755615 2.0666520595550537 1.0951725244522095 0.547031819820404 0.3122524619102478 0.20090939104557037 0.1476171612739563 0.12115444242954254 0.11328274756669998 0.12107642740011215 0.15617142617702484 0.2392633855342865 0.4216432571411133 0.5951337814331055 -9999
-9999 10.61290454864502 8.927949905395508 5.816431999206543 3.5401244163513184 2.0967650413513184 1.1816669702529907 0.6091243028640747 0.324834942817688 0.18847985565662384 0.1218128427863121 0.08539006859064102 0.06559865921735764 0.056163936853408813 0.052387602627277374 0.05717627704143524 0.0719359964132309 0.11564464867115021 -9999 -9999
-9999 8.77368450164795 7.134918689727783 4.309165954589844 2.371323585510254 1.2560492753982544 0.6598926782608032 0.35239845514297485 0.20218941569328308 0.12359366565942764 0.08236534893512726 0.057925932109355927 0.0464339405298233 0.05087076872587204 0.05645778775215149 0.06252045929431915 0.06831499189138412 0.07278817892074585 -9999 -9999
-9999 7.5033183097839355 5.817333221435547 3.4115445613861084 1.736961841583252 0.7888719439506531 0.39848822355270386 0.21317055821418762 0.12620492279529572 0.08048419654369354 0.055757179856300354 0.04948379099369049 0.0531001053750515 0.058490559458732605 0.06498844176530838 0.0720435306429863 0.07935649156570435 0.08738154917955399 0.0992378368973732 0.10475899279117584
-9999 -9999 4.4115705490112305 2.758479595184326 1.3493250608444214 0.5724281668663025 0.26537492871284485 0.1376665234565735 0.08129294216632843 0.05410313233733177 0.05333024263381958 0.0552649199962616 0.05954929441213608 0.0656789019703865 0.07288884371519089 0.0805383175611496 0.08824697881937027 0.09577001631259918 0.10288576036691666 0.10653114318847656
-9999 -9999 3.136528491973877 2.1617815494537354 1.0714635848999023 0.4313511848449707 0.18709003925323486 0.09221559017896652 0.060799192637205124 0.05784468725323677 0.05759120360016823 0.059984274208545685 0.06475305557250977 0.07135865092277527 0.07895402610301971 0.08679147064685822 0.09431011229753494 0.10081379115581512 0.10564999282360077 0.1081634983420372
-9999 -9999 -9999 1.7643723487854004 0.91411292552948 0.37495771050453186 0.15738555788993835 0.07561183720827103 0.06260430067777634 0.059983670711517334 0.059989046305418015 0.0625888854265213 0.06759624928236008 0.07443463057279587 0.08221612870693207 0.0900527611374855 0.09737463295459747 0.10313308238983154 0.107108935713768 0.10913649946451187
