ncols         20
nrows         20
xllcorner     0
yllcorner     -3.5992928
cellsize      0.17996463
NODATA_value  -9999
-9999.0 -9999 -9999 -9999 -9999 -9999 -9999 -9999 -9999 -9999 -9999 -9999 -9999 -9999 -9999 -9999 -9999 -9999 -9999 -9999
-9999 -9999 -9999 -9999 -9999 -9999 -9999 -9999 -9999 -9999 -9999 1.1285167932510376 1.127321720123291 -9999 -9999 1.1548335552215576 1.1416510343551636 -9999 -9999 -9999
-9999 -9999 -9999 -9999 1.125580906867981 1.1346487998962402 1.1491295099258423 1.1535614728927612 1.1527208089828491 1.1546353101730347 1.1433457136154175 1.148866891860962 1.1597864627838135 1.1691702604293823 1.1695551872253418 1.165022373199463 1.1528934240341187 1.14151132106781 -9999 -9999
-9999 -9999 -9999 1.1366572380065918 1.1448752880096436 1.1541748046875 1.163962721824646 1.1665207147598267 1.1677050590515137 1.16684091091156 1.1707274913787842 1.178117275238037 1.188463807106018 1.196773886680603 1.2041376829147339 1.200232982635498 1.1850693225860596 1.1710925102233887 -9999 -9999
-9999 -9999 -9999 1.1518865823745728 1.1631399393081665 1.182206153869629 1.1901627779006958 1.1881619691848755 1.1792527437210083 1.1594035625457764 1.135546326637268 1.1261359453201294 1.1412580013275146 1.175865888595581 1.2102077007293701 1.22533118724823 1.2208446264266968 1.2232911586761475 -9999 -9999
-9999 -9999 1.1545358896255493 1.1704015731811523 1.1897848844528198 1.2053804397583008 1.2025190591812134 1.1854254007339478 1.1407721042633057 1.0614885091781616 0.9704176187515259 0.9236802458763123 0.9417699575424194 1.026350498199463 1.1307904720306396 1.19621741771698 1.2270585298538208 1.2368779182434082 1.223570704460144 -9999
-9999 -9999 1.1697059869766235 1.187960147857666 1.2164231538772583 1.2249664068222046 1.2080224752426147 1.1562420129776 1.0518425703048706 0.9025617241859436 0.7564071416854858 0.6779232025146484 0.691634476184845 0.8002495765686035 0 1.0978014469146729 1.1844068765640259 1.2203631401062012 1.2268389463424683 -9999
-9999 -9999 1.2031941413879395 1.2251183986663818 1.2446225881576538 1.2335355281829834 1.1817779541015625 1.072144865989685 0.9102646708488464 0.726017951965332 0.5771041512489319 0.4949227571487427 0.49721041321754456 0.5843164324760437 0.7410091161727905 0.9161313772201538 1.0565401315689087 1.1464436054229736 1.180116891860962 -9999
-9999 1.2169907093048096 1.2434345483779907 1.2594141960144043 1.2534947395324707 1.199390172958374 1.0801095962524414 0.903651773929596 0.7097477912902832 0.5401868224143982 0.42460259795188904 0.36334171891212463 0.357067346572876 0.4135357141494751 0.5299819111824036 0 0.8584868311882019 0.9826966524124146 1.0421124696731567 -9999
-9999 1.2529484033584595 1.2721933126449585 1.2720301151275635 1.2170886993408203 1.0851608514785767 0.8879743814468384 0.6679372191429138 0.48226040601730347 0.35681846737861633 0.2870252728462219 0.25148531794548035 0.24777348339557648 0.2774532735347748 0.3514957129955292 0 0.6168959140777588 0.7473496198654175 0.8146837949752808 -9999
-9999 1.2853947877883911 1.2846649885177612 1.2387336492538452 1.122290015220642 0.9236190319061279 0.676280677318573 0.4471171498298645 0.29315683245658875 0.20883400738239288 0.1681501716375351 0.15083307027816772 0.14926359057426453 0.16483750939369202 0.20450304448604584 0.2778448462486267 0.3778422474861145 0.4851701259613037 0.5426246523857117 -9999
-9999 1.2749953269958496 1.2459906339645386 1.1461437940597534 0.9726088643074036 0.7423410415649414 0.49335557222366333 0.29217880964279175 0.1735604703426361 0.11402580887079239 0.08772262930870056 0.07641513645648956 0 0 0.09680067002773285 0 0.1924334615468979 0.2600274085998535 0.2972424030303955 -9999
-9999 1.191064715385437 1.1289151906967163 0.9665426015853882 0.7652431130409241 0.5463635921478271 0.3414614498615265 0.18795740604400635 0.10164736956357956 0.0621914304792881 0.04029947146773338 0.03216977417469025 0 0 0 0.04810664430260658 0.07864443212747574 0.11499422788619995 0.13842017948627472 -9999
-9999 1.0258488655090332 0.930262565612793 0.7277312874794006 0.5249596238136292 0.3507237434387207 0.21119247376918793 0.11377117782831192 0.056485164910554886 0.03340611979365349 0.02243073843419552 0.017247851938009262 0 0 0 0.017562227323651314 0.025293860584497452 0.04120287671685219 0.05456843599677086 -9999
-9999 0.8377401232719421 0.7287045121192932 0.5136270523071289 0.32875901460647583 0.202914297580719 0.11823347210884094 0.06149047985672951 0.034282997250556946 0.02160460129380226 0.015439549461007118 0.0119938338175416 0.010034285485744476 0.00908814836293459 0 0 0.01053441409021616 0.015362250618636608 -9999 -9999
-9999 0.7030482888221741 0.5881457924842834 0.37858471274375916 0.21752916276454926 0.11984426528215408 0.06441441923379898 0.03644528239965439 0.02302565798163414 0.01601548120379448 0 0 0 0.010242984630167484 0 0 0.013012608513236046 0 -9999 -9999
-9999 0.6074971556663513 0.48688995838165283 0.3023642897605896 0.16019263863563538 0.07423091679811478 0.039830323308706284 0.023685507476329803 0.016169719398021698 0 0 0 0 0.013222703710198402 0.014690767973661423 0.015924470499157906 0.01695108227431774 0.01805710606276989 0 0
-9999 -9999 0.38169270753860474 0.24911348521709442 0.1267882138490677 0.05519811436533928 0.028027141466736794 0.01685909740626812 0 0 0 0 0 0 0 0 0 0 0 0
-9999 -9999 0.27471625804901123 0.19588136672973633 0.10199010372161865 0.04285554587841034 0.02096451073884964 0.01248047687113285 0 0 0 0 0 0 0 0 0 0 0 0
-9999 -9999 -9999 0.1633455604314804 0.08655040711164474 0.03785323724150658 0.018270745873451233 0.010883118025958538 0 0 0 0 0 0 0 0 0 0 0 0
