ncols         20
nrows         20
xllcorner     0
yllcorner     -3.5992928
cellsize      0.17996463
NODATA_value  -9999
-9999.0 -9999 -9999 -9999 -9999 -9999 -9999 -9999 -9999 -9999 -9999 -9999 -9999 -9999 -9999 -9999 -9999 -9999 -9999 -9999
-9999 -9999 -9999 -9999 -9999 -9999 -9999 -9999 -9999 -9999 -9999 1.1347336769104004 1.133543848991394 -9999 -9999 1.1619471311569214 1.1488040685653687 -9999 -9999 -9999
-9999 -9999 -9999 -9999 1.1316158771514893 1.1404683589935303 1.154649257659912 1.158781886100769 1.1577541828155518 1.159755825996399 1.1487475633621216 1.1546435356140137 1.1656157970428467 1.1749252080917358 1.175687313079834 1.1717199087142944 1.1598573923110962 1.1485446691513062 -9999 -9999
-9999 -9999 -9999 1.143035650253296 1.151017189025879 1.1599528789520264 1.1693236827850342 1.1715253591537476 1.172410011291504 1.171627163887024 1.175965428352356 1.1834230422973633 1.1934751272201538 1.2016428709030151 1.2096856832504272 1.2063751220703125 1.1916463375091553 1.1778801679611206 -9999 -9999
-9999 -9999 -9999 1.158360242843628 1.1692746877670288 1.1878176927566528 1.1951689720153809 1.1928222179412842 1.1832351684570312 1.1618611812591553 1.1368471384048462 1.1270184516906738 1.1425933837890625 1.1785521507263184 1.2147167921066284 1.2304083108901978 1.2266243696212769 1.2295513153076172 -9999 -9999
-9999 -9999 1.1615655422210693 1.1770739555358887 1.1958824396133423 1.2106541395187378 1.206799864768982 1.1887922286987305 1.1415340900421143 1.0594098567962646 0.9663383960723877 0.9189400672912598 0.9376595616340637 1.0241618156433105 1.1314853429794312 1.1995469331741333 1.231490135192871 1.2422105073928833 1.22883939743042 -9999
-9999 -9999 1.176761269569397 1.1946169137954712 1.2223474979400635 1.229841947555542 1.211676001548767 1.1568171977996826 1.0486394166946411 0.8961740732192993 0.748364269733429 0.6695903539657593 0.6838244199752808 0.7938385009765625 0 1.0974702835083008 1.1870704889297485 1.2249484062194824 1.23123300075531 -9999
-9999 -9999 1.2102853059768677 1.2316571474075317 1.2501908540725708 1.2381165027618408 1.1831778287887573 1.0694279670715332 0.9037479758262634 0.7171355485916138 0.5674795508384705 0.485566645860672 0.48831966519355774 0.5761072039604187 0.7343061566352844 0.9120404124259949 1.0556029081344604 1.1480389833450317 1.1828199625015259 -9999
-9999 1.2246086597442627 1.250590205192566 1.2655768394470215 1.2582541704177856 1.2018382549285889 1.0785646438598633 0.8982080221176147 0.7016758322715759 0.5310382843017578 0.4154227077960968 0.3546299338340759 0.3488396406173706 0.405588835477829 0.5225444436073303 0 0.8541872501373291 0.9804578423500061 1.0410497188568115 -9999
-9999 1.2605735063552856 1.2791178226470947 1.2775295972824097 1.2207177877426147 1.0850677490234375 0.8840598464012146 0.6615040898323059 0.47487112879753113 0.349376916885376 0.2797822058200836 0.2446112483739853 0.2412199229001999 0.2710757553577423 0.34510713815689087 0 0.6110711097717285 0.7423338294029236 0.810288667678833 -9999
-9999 1.2928504943847656 1.2913572788238525 1.2437729835510254 1.123907446861267 0.921380341053009 0.6713641285896301 0.4414115250110626 0.287767231464386 0.2039170116186142 0.16353994607925415 0.14644204080104828 0.14505144953727722 0.1606803834438324 0.20018649101257324 0.27312174439430237 0.3726990818977356 0.47969958186149597 0.5371295213699341 -9999
-9999 1.2817600965499878 1.2521892786026 1.14920175075531 0.9720156192779541 0.7387738823890686 0.48856523633003235 0.2878044843673706 0.1700608730316162 0.11119534075260162 0.0852416381239891 0.07415232807397842 0 0 0.09459753334522247 0 0.18917475640773773 0.25605589151382446 0.29293107986450195 -9999
-9999 1.196357250213623 1.1322942972183228 0.9669411778450012 0.762912392616272 0.5424491763114929 0.3374742567539215 0.18488669395446777 0.09951356798410416 0.06063031777739525 0.0391385518014431 0.03121395781636238 0 0 0 0.04707331210374832 0.07714414596557617 0.11290401965379715 0.1359260529279709 -9999
-9999 1.0271450281143188 0.9303455352783203 0.7260408997535706 0.5220015048980713 0.34744301438331604 0.20840097963809967 0.11180984973907471 0.05524924024939537 0.0325765497982502 0.0218462273478508 0.016814088448882103 0 0 0 0.017240220680832863 0.024822430685162544 0.04039422795176506 0.053394071757793427 -9999
-9999 0.8365347385406494 0.7268164753913879 0.511116623878479 0.32617413997650146 0.2006777822971344 0.1165446788072586 0.06037840619683266 0.033574581146240234 0.021145794540643692 0.01513582468032837 0.011796544305980206 0.009906204417347908 0.00900305900722742 0 0 0.01045679859817028 0.015226205810904503 -9999 -9999
-9999 0.700524091720581 0.5853620767593384 0.3760203719139099 0.21551629900932312 0.11841390281915665 0.06344886124134064 0.035826675593853 0.022629767656326294 0.01577126607298851 0 0 0 0.010225890204310417 0 0 0.01302255503833294 0 -9999 -9999
-9999 0.6045360565185547 0.48384785652160645 0.29997244477272034 0.15861915051937103 0.07331564277410507 0.039274610579013824 0.023354068398475647 0.015975747257471085 0 0 0 0 0.01325963158160448 0.01474529504776001 0.01599535159766674 0.017039373517036438 0.01817251369357109 0 0
-9999 -9999 0.378726601600647 0.24696284532546997 0.1255398690700531 0.05456431210041046 0.027695992961525917 0.01668831892311573 0 0 0 0 0 0 0 0 0 0 0 0
-9999 -9999 0.2724023759365082 0.19411972165107727 0.10099808871746063 0.04240691661834717 0.020761404186487198 0.012398992665112019 0 0 0 0 0 0 0 0 0 0 0 0
-9999 -9999 -9999 0.16181883215904236 0.08569309115409851 0.03747609630227089 0.018115084618330002 0.010832514613866806 0 0 0 0 0 0 0 0 0 0 0 0
