ncols         20
nrows         20
xllcorner     0
yllcorner     -3.5992928
cellsize      0.17996463
NODATA_value  -9999
-9999.0 -9999 -9999 -9999 -9999 -9999 -9999 -9999 -9999 -9999 -9999 -9999 -9999 -9999 -9999 -9999 -9999 -9999 -9999 -9999
-9999 -9999 -9999 -9999 -9999 -9999 -9999 -9999 -9999 -9999 -9999 27.427154541015625 27.426498413085938 -9999 -9999 27.42658233642578 27.488906860351562 -9999 -9999 -9999
-9999 -9999 -9999 -9999 27.448043823242188 27.3659610748291 27.241518020629883 27.153491973876953 27.117345809936523 27.1265811920166 27.209938049316406 27.279142379760742 27.247955322265625 27.160551071166992 27.185523986816406 27.29926300048828 27.3806209564209 27.400657653808594 -9999 -9999
-9999 -9999 -9999 27.4677734375 27.429845809936523 27.368539810180664 27.29107093811035 27.241107940673828 27.230030059814453 27.243301391601562 27.26410484313965 27.264142990112305 27.21021842956543 27.142101287841797 27.112274169921875 27.148204803466797 27.181318283081055 27.183940887451172 -9999 -9999
-9999 -9999 -9999 27.447097778320312 27.43645668029785 27.42491912841797 27.447731018066406 27.50541877746582 27.57593536376953 27.63895606994629 27.677783966064453 27.67317008972168 27.60065460205078 27.477100372314453 27.32291603088379 27.17522621154785 27.023746490478516 26.897294998168945 -9999 -9999
-9999 -9999 27.44255828857422 27.43951988220215 27.477535247802734 27.595897674560547 27.82648277282715 28.049800872802734 28.25879669189453 28.445894241333008 28.572595596313477 28.609149932861328 28.52593994140625 28.322345733642578 28.006439208984375 27.61669158935547 27.172988891601562 26.842185974121094 26.679908752441406 -9999
-9999 -9999 27.357439041137695 27.42306137084961 27.563703536987305 27.85245132446289 28.2375431060791 28.641725540161133 29.033363342285156 29.367998123168945 29.581926345825195 29.65110206604004 29.57312774658203 29.330324172973633 28.89234161376953 28.34188461303711 27.703760147094727 27.199106216430664 26.93070411682129 -9999
-9999 -9999 27.139848709106445 27.326923370361328 27.642860412597656 28.100017547607422 28.655244827270508 29.24925994873047 29.806386947631836 30.241943359375 30.503890991210938 30.588594436645508 30.523061752319336 30.298093795776367 29.873699188232422 29.27552604675293 28.581501007080078 27.945730209350586 27.574481964111328 -9999
-9999 26.500967025756836 26.7884464263916 27.211013793945312 27.721214294433594 28.38029670715332 29.136577606201172 29.887123107910156 30.526813507080078 30.986543655395508 31.25542640686035 31.347768783569336 31.292322158813477 31.097850799560547 30.734926223754883 30.201032638549805 29.593761444091797 28.99363136291504 28.58836555480957 -9999
-9999 26.236387252807617 26.531034469604492 27.136381149291992 27.907651901245117 28.80315399169922 29.72298812866211 30.535375595092773 31.157846450805664 31.58118438720703 31.83069610595703 31.920814514160156 31.875503540039062 31.71449089050293 31.433868408203125 31.025978088378906 30.564674377441406 30.082704544067383 29.741823196411133 -9999
-9999 25.98238182067871 26.394914627075195 27.261632919311523 28.297216415405273 29.376174926757812 30.362163543701172 31.143062591552734 31.700523376464844 32.07377624511719 32.29359436035156 32.36954879760742 32.321861267089844 32.19402313232422 31.995248794555664 31.714107513427734 31.388519287109375 31.043119430541992 30.806123733520508 -9999
-9999 26.02845001220703 26.5992488861084 27.683185577392578 28.891361236572266 30.0367488861084 30.992408752441406 31.704456329345703 32.213077545166016 32.56510925292969 32.774383544921875 32.83731460571289 32.77268600463867 32.6699104309082 32.53678894042969 32.326629638671875 32.091339111328125 31.840896606445312 31.668933868408203 -9999
-9999 26.572607040405273 27.236051559448242 28.420175552368164 29.65460777282715 30.739479064941406 31.598907470703125 32.246376037597656 32.743690490722656 33.110572814941406 33.35350799560547 33.44699478149414 33.42058181762695 33.362449645996094 33.26591491699219 33.10886001586914 32.858070373535156 32.58797073364258 32.372642517089844 -9999
-9999 27.51333999633789 28.19559097290039 29.346298217773438 30.48418426513672 31.43716049194336 32.1903190612793 32.794979095458984 33.29963302612305 33.67706298828125 33.94527816772461 34.11003494262695 34.18778991699219 34.2286376953125 34.21083068847656 34.09800338745117 33.847660064697266 33.48225402832031 32.959476470947266 -9999
-9999 28.553070068359375 29.205135345458984 30.250818252563477 31.25733184814453 32.09756851196289 32.78374481201172 33.36357879638672 33.82722854614258 34.193721771240234 34.48175048828125 34.727684020996094 34.93742370605469 35.10710144042969 35.19987106323242 35.18732452392578 35.05792236328125 34.8311882019043 -9999 -9999
-9999 29.415504455566406 30.061847686767578 31.00460433959961 31.912822723388672 32.705848693847656 33.37477111816406 33.908729553222656 34.326324462890625 34.657318115234375 34.93793487548828 35.234249114990234 35.543399810791016 35.83352279663086 36.0405387878418 36.16336441040039 36.215084075927734 36.272613525390625 -9999 -9999
-9999 29.967002868652344 30.766582489013672 31.61281394958496 32.45520782470703 33.255035400390625 33.91086196899414 34.430625915527344 34.81678771972656 35.11778259277344 35.40174865722656 35.720664978027344 36.0709342956543 36.412776947021484 36.689117431640625 36.89072799682617 37.04182434082031 37.218414306640625 37.58389663696289 37.74089431762695
-9999 -9999 31.586055755615234 32.15671920776367 32.900123596191406 33.68959045410156 34.37376403808594 34.909271240234375 35.28660202026367 35.582454681396484 35.85769271850586 36.16999435424805 36.51746368408203 36.871795654296875 37.164241790771484 37.378231048583984 37.543235778808594 37.679534912109375 37.81477737426758 37.85777282714844
-9999 -9999 32.03426742553711 32.56563949584961 33.24015808105469 34.02519989013672 34.747962951660156 35.316829681396484 35.70435333251953 35.98863983154297 36.23682403564453 36.52896499633789 36.864295959472656 37.207740783691406 37.48775100708008 37.689334869384766 37.83588790893555 37.91945266723633 37.94136047363281 37.94350051879883
-9999 -9999 -9999 32.92897033691406 33.46898651123047 34.21263122558594 34.95125198364258 35.536407470703125 35.9251823425293 36.19938659667969 36.43636703491211 36.706241607666016 37.03252029418945 37.37015914916992 37.65018844604492 37.839839935302734 37.97970962524414 38.01508712768555 38.008934020996094 38.000205993652344
