ncols         20
nrows         20
xllcorner     0
yllcorner     -3.5992928
cellsize      0.17996463
NODATA_value  -9999
-9999.0 -9999 -9999 -9999 -9999 -9999 -9999 -9999 -9999 -9999 -9999 -9999 -9999 -9999 -9999 -9999 -9999 -9999 -9999 -9999
-9999 -9999 -9999 -9999 -9999 -9999 -9999 -9999 -9999 -9999 -9999 26.522945404052734 26.52233123779297 -9999 -9999 26.61850929260254 26.69820213317871 -9999 -9999 -9999
-9999 -9999 -9999 -9999 26.58228302001953 26.471261978149414 26.31143569946289 26.196386337280273 26.139127731323242 26.131399154663086 26.213085174560547 26.30463981628418 26.27019500732422 26.16375732421875 26.22032356262207 26.412870407104492 26.544214248657227 26.58159637451172 -9999 -9999
-9999 -9999 -9999 26.590639114379883 26.531665802001953 26.431459426879883 26.3167667388916 26.247726440429688 26.21066665649414 26.195098876953125 26.190589904785156 26.170318603515625 26.090742111206055 26.01407241821289 26.024545669555664 26.13599967956543 26.251964569091797 26.30159568786621 -9999 -9999
-9999 -9999 -9999 26.512460708618164 26.45851707458496 26.396364212036133 26.395244598388672 26.472049713134766 26.561222076416016 26.621746063232422 26.630474090576172 26.548736572265625 26.35688018798828 26.13698387145996 25.98114776611328 25.935543060302734 25.9361629486084 25.90896987915039 -9999 -9999
-9999 -9999 26.458038330078125 26.4118595123291 26.372053146362305 26.44931983947754 26.74321174621582 27.20932388305664 27.625478744506836 27.94247817993164 28.100854873657227 27.967008590698242 27.527311325073242 26.954486846923828 26.448436737060547 26.084840774536133 25.869705200195312 25.736440658569336 25.666461944580078 -9999
-9999 -9999 26.28140640258789 26.251914978027344 26.297348022460938 26.650192260742188 27.500993728637695 28.81974220275879 29.860088348388672 30.479969024658203 30.67463493347168 30.349910736083984 29.49272346496582 28.494630813598633 27.541831970214844 26.748035430908203 26.231822967529297 25.92913055419922 25.789196014404297 -9999
-9999 -9999 25.9447021484375 25.96638298034668 26.20207977294922 26.995758056640625 28.694047927856445 31.40609359741211 32.944480895996094 33.631385803222656 33.69853973388672 33.083763122558594 31.623729705810547 30.220821380615234 28.977848052978516 27.910194396972656 27.076316833496094 26.528127670288086 26.27226448059082 -9999
-9999 25.474393844604492 25.550695419311523 25.6729679107666 26.163394927978516 27.403228759765625 29.769126892089844 32.992618560791016 34.780029296875 35.517581939697266 35.53156280517578 34.805179595947266 33.197689056396484 31.658824920654297 30.332284927368164 29.19866943359375 28.265018463134766 27.59222412109375 27.241554260253906 -9999
-9999 25.223222732543945 25.281309127807617 25.542015075683594 26.338804244995117 27.975936889648438 30.69419288635254 33.938682556152344 35.746559143066406 36.488739013671875 36.49507141113281 35.773563385009766 34.201942443847656 32.68449020385742 31.397281646728516 30.327062606811523 29.453609466552734 28.808536529541016 28.45816993713379 -9999
-9999 25.008991241455078 25.17455291748047 25.67744255065918 26.788427352905273 28.706310272216797 31.45083236694336 34.465450286865234 36.15721130371094 36.868099212646484 36.89461898803711 36.238365173339844 34.76260757446289 33.34260559082031 32.15000534057617 31.17920684814453 30.41050148010254 29.85616111755371 29.552701950073242 -9999
-9999 25.087831497192383 25.40019989013672 26.145763397216797 27.462297439575195 29.424440383911133 31.89495277404785 34.48617172241211 35.98435974121094 36.663917541503906 36.749515533447266 36.233219146728516 34.97468566894531 33.765480041503906 32.72802734375 31.853918075561523 31.14714241027832 30.639968872070312 30.357154846191406 -9999
-9999 25.60332679748535 26.039459228515625 26.949230194091797 28.311656951904297 30.021129608154297 31.94452667236328 33.80684280395508 35.07801818847656 35.76361846923828 35.96062469482422 35.6791877746582 34.9581413269043 34.14715576171875 33.356685638427734 32.60569763183594 31.908893585205078 31.358158111572266 30.99224853515625 -9999
-9999 26.511709213256836 27.022544860839844 27.961164474487305 29.155757904052734 30.51053237915039 31.943605422973633 33.30799865722656 34.37295150756836 35.03675079345703 35.3390007019043 35.31698226928711 35.033451080322266 34.62409973144531 34.14440155029297 33.58275604248047 32.957435607910156 32.31599426269531 31.569713592529297 -9999
-9999 27.588520050048828 28.077775955200195 28.8986873626709 29.865249633789062 30.925674438476562 32.04658889770508 33.13291931152344 34.01862716674805 34.653709411621094 35.04452896118164 35.2346076965332 35.26715087890625 35.18934631347656 35.01900100708008 34.72645950317383 34.336673736572266 33.935646057128906 -9999 -9999
-9999 28.445159912109375 28.911283493041992 29.60590362548828 30.417739868164062 31.32779884338379 32.30512237548828 33.2236442565918 33.99748611450195 34.59881591796875 35.03712463378906 35.35988235473633 35.5942268371582 35.747520446777344 35.811180114746094 35.77704620361328 35.682743072509766 35.660621643066406 -9999 -9999
-9999 28.948963165283203 29.51953887939453 30.12470245361328 30.865854263305664 31.761045455932617 32.66847229003906 33.52540969848633 34.24429702758789 34.81671905517578 35.26768493652344 35.65037536621094 35.98360824584961 36.256736755371094 36.45449447631836 36.5717658996582 36.64885330200195 36.795562744140625 37.21149826049805 37.384521484375
-9999 -9999 30.142061233520508 30.56108283996582 31.239105224609375 32.14057159423828 33.078269958496094 33.93723678588867 34.64017105102539 35.18721389770508 35.62146759033203 36.01140594482422 36.37499237060547 36.70621109008789 36.95912551879883 37.12637710571289 37.250057220458984 37.36262130737305 37.49998092651367 37.54634094238281
-9999 -9999 30.45294761657715 30.876428604125977 31.53012466430664 32.46024703979492 33.45761489868164 34.3500862121582 35.05104064941406 35.568511962890625 35.96440887451172 36.337364196777344 36.70484161376953 37.04917526245117 37.31278991699219 37.488365173339844 37.6075553894043 37.67111587524414 37.685081481933594 37.685752868652344
-9999 -9999 -9999 31.166227340698242 31.73147964477539 32.64437484741211 33.67242431640625 34.5847282409668 35.280067443847656 35.77613830566406 36.154483795166016 36.505516052246094 36.87116622924805 37.219783782958984 37.492835998535156 37.66602325439453 37.78725814819336 37.806880950927734 37.79238510131836 37.78113555908203
