ncols         20
nrows         20
xllcorner     0
yllcorner     -3.5992928
cellsize      0.17996463
NODATA_value  -9999
-9999.0 -9999 -9999 -9999 -9999 -9999 -9999 -9999 -9999 -9999 -9999 -9999 -9999 -9999 -9999 -9999 -9999 -9999 -9999 -9999
-9999 -9999 -9999 -9999 -9999 -9999 -9999 -9999 -9999 -9999 -9999 18.975372314453125 18.983789443969727 -9999 -9999 18.913206100463867 18.91739273071289 -9999 -9999 -9999
-9999 -9999 -9999 -9999 18.921323776245117 18.943527221679688 18.961366653442383 18.987150192260742 19.00876808166504 19.003503799438477 19.041593551635742 19.013803482055664 19.002281188964844 19.026405334472656 19.023088455200195 18.975929260253906 18.954938888549805 18.963829040527344 -9999 -9999
-9999 -9999 -9999 18.924537658691406 18.92253875732422 18.94758415222168 18.969039916992188 18.985092163085938 18.981142044067383 18.972848892211914 18.948579788208008 18.943824768066406 18.950733184814453 18.987611770629883 19.003660202026367 19.006418228149414 19.008338928222656 19.02251625061035 -9999 -9999
-9999 -9999 -9999 18.949617385864258 18.96291160583496 18.96218490600586 18.954538345336914 18.92316436767578 18.875072479248047 18.79891586303711 18.719459533691406 18.685556411743164 18.714923858642578 18.811132431030273 18.903491973876953 18.987518310546875 19.04789924621582 19.044357299804688 -9999 -9999
-9999 -9999 18.996957778930664 18.989416122436523 18.99906349182129 18.980070114135742 18.914167404174805 18.799240112304688 18.65907096862793 18.50527000427246 18.35638999938965 18.289886474609375 18.32491111755371 18.47504425048828 18.676382064819336 18.855304718017578 18.986173629760742 19.04192543029785 19.124540328979492 -9999
-9999 -9999 19.05602264404297 19.067264556884766 19.0463809967041 18.963972091674805 18.791080474853516 18.559463500976562 18.328834533691406 18.152915954589844 18.016738891601562 17.942710876464844 17.942052841186523 18.076879501342773 18.305883407592773 18.574235916137695 18.783105850219727 18.92989730834961 18.99702262878418 -9999
-9999 -9999 19.149181365966797 19.143789291381836 19.07881736755371 18.907777786254883 18.610740661621094 18.622690200805664 18.28656768798828 18.108592987060547 18.031469345092773 18.028043746948242 17.726259231567383 17.77178382873535 17.95073127746582 18.203603744506836 18.453731536865234 18.65583610534668 18.7508487701416 -9999
-9999 19.289655685424805 19.2359619140625 19.20892333984375 19.072437286376953 18.791906356811523 18.400949478149414 18.311233520507812 17.991239547729492 17.846858978271484 17.800582885742188 17.81009864807129 17.565906524658203 17.556297302246094 17.653610229492188 17.839975357055664 18.067644119262695 18.270429611206055 18.3804931640625 -9999
-9999 19.347440719604492 19.316932678222656 19.206501007080078 18.97437286376953 18.61734962463379 18.2081241607666 18.114341735839844 17.83457374572754 17.71335792541504 17.6776180267334 17.684425354003906 17.455148696899414 17.40055274963379 17.42838478088379 17.535030364990234 17.703981399536133 17.871362686157227 17.966022491455078 -9999
-9999 19.376113891601562 19.299842834472656 19.101070404052734 18.782514572143555 18.3752498626709 18.011552810668945 17.981830596923828 17.7495174407959 17.6455078125 17.6156005859375 17.616722106933594 17.36248016357422 17.273452758789062 17.252437591552734 17.29463005065918 17.393484115600586 17.514196395874023 17.586109161376953 -9999
-9999 19.2622013092041 19.1274471282959 18.845375061035156 18.481760025024414 18.087249755859375 17.801179885864258 17.875720977783203 17.689559936523438 17.600933074951172 17.574508666992188 17.573320388793945 17.281455993652344 17.17974090576172 17.133024215698242 17.123119354248047 17.1602725982666 17.23221206665039 17.284088134765625 -9999
-9999 18.94910430908203 18.76838493347168 18.446489334106445 18.091402053833008 17.770891189575195 17.53790855407715 17.430931091308594 17.36312484741211 17.334104537963867 17.31434440612793 17.282480239868164 17.205432891845703 17.15166473388672 17.105077743530273 17.068470001220703 17.043354034423828 17.060401916503906 17.105669021606445 -9999
-9999 18.512683868408203 18.31588363647461 17.999420166015625 17.699554443359375 17.465431213378906 17.3122501373291 17.240360260009766 17.22248077392578 17.222537994384766 17.22140121459961 17.211576461791992 17.196041107177734 17.182769775390625 17.172870635986328 17.14190673828125 17.08789825439453 17.013484954833984 17.094358444213867 -9999
-9999 18.100723266601562 17.918933868408203 17.634958267211914 17.39722442626953 17.243942260742188 17.166288375854492 17.146881103515625 17.156604766845703 17.174968719482422 17.186662673950195 17.198802947998047 17.211469650268555 17.224925994873047 17.24744987487793 17.248191833496094 17.22771453857422 17.091955184936523 -9999 -9999
-9999 17.819869995117188 17.65074920654297 17.40601348876953 17.2272891998291 17.137765884399414 17.108745574951172 17.118240356445312 17.135236740112305 17.15633773803711 17.171945571899414 17.194530487060547 17.224225997924805 17.259113311767578 17.2922420501709 17.32132339477539 17.33482551574707 17.424835205078125 -9999 -9999
-9999 17.656208038330078 17.481298446655273 17.277667999267578 17.144241333007812 17.10755729675293 17.10886573791504 17.133878707885742 17.153051376342773 17.173019409179688 17.190603256225586 17.217357635498047 17.252391815185547 17.284931182861328 17.321331024169922 17.356088638305664 17.384164810180664 17.413850784301758 17.3780517578125 17.408493041992188
-9999 -9999 17.32660675048828 17.19495391845703 17.102981567382812 17.100311279296875 17.13328742980957 17.168153762817383 17.190256118774414 17.209190368652344 17.225025177001953 17.249465942382812 17.277116775512695 17.318466186523438 17.35135841369629 17.373762130737305 17.40081024169922 17.418560028076172 17.432838439941406 17.408525466918945
-9999 -9999 17.232864379882812 17.144102096557617 17.08717918395996 17.11902618408203 17.1778507232666 17.2242374420166 17.251306533813477 17.2640323638916 17.263181686401367 17.285371780395508 17.313032150268555 17.34931182861328 17.371055603027344 17.386608123779297 17.403650283813477 17.418167114257812 17.39629364013672 17.389429092407227
-9999 -9999 -9999 17.10687255859375 17.077816009521484 17.121952056884766 17.196313858032227 17.245893478393555 17.269329071044922 17.276222229003906 17.279922485351562 17.28961181640625 17.318437576293945 17.35301971435547 17.380123138427734 17.384899139404297 17.411806106567383 17.395296096801758 17.386281967163086 17.383230209350586
