ncols         20
nrows         20
xllcorner     0
yllcorner     -3.5992928
cellsize      0.17996463
NODATA_value  -9999
-9999.0 -9999 -9999 -9999 -9999 -9999 -9999 -9999 -9999 -9999 -9999 -9999 -9999 -9999 -9999 -9999 -9999 -9999 -9999 -9999
-9999 -9999 -9999 -9999 -9999 -9999 -9999 -9999 -9999 -9999 -9999 19.032501220703125 19.043081283569336 -9999 -9999 19.01719856262207 19.022062301635742 -9999 -9999 -9999
-9999 -9999 -9999 -9999 19.003856658935547 19.012744903564453 19.012470245361328 19.020593643188477 19.028852462768555 19.017627716064453 19.057458877563477 19.04537582397461 19.043899536132812 19.075952529907227 19.08873748779297 19.064044952392578 19.05593490600586 19.071353912353516 -9999 -9999
-9999 -9999 -9999 19.023286819458008 19.00295066833496 19.000490188598633 18.992176055908203 18.984704971313477 18.962512969970703 18.942441940307617 18.91738510131836 18.921188354492188 18.94025421142578 18.99419403076172 19.034353256225586 19.066547393798828 19.097822189331055 19.12994956970215 -9999 -9999
-9999 -9999 -9999 19.044878005981445 19.02317237854004 18.972253799438477 18.920076370239258 18.856773376464844 18.78592300415039 18.693862915039062 18.609853744506836 18.581035614013672 18.619447708129883 18.73091697692871 18.853296279907227 18.987873077392578 19.106868743896484 19.152172088623047 -9999 -9999
-9999 -9999 19.132875442504883 19.078792572021484 19.017215728759766 18.927431106567383 18.8818416595459 18.751056671142578 18.590007781982422 18.416555404663086 18.25939178466797 18.196964263916016 18.234128952026367 18.38853645324707 18.609554290771484 18.84792709350586 18.99721908569336 19.1423397064209 19.27072525024414 -9999
-9999 -9999 19.18161392211914 19.119037628173828 19.001209259033203 18.91517448425293 18.74036407470703 18.543106079101562 18.322004318237305 18.098230361938477 17.907236099243164 17.81298065185547 17.842390060424805 17.996793746948242 18.22071647644043 18.52646255493164 18.75545310974121 18.992809295654297 19.124309539794922 -9999
-9999 -9999 19.26185417175293 19.13964080810547 19.023845672607422 18.808956146240234 18.56584358215332 18.31560707092285 18.07223129272461 17.84630012512207 17.677730560302734 17.585269927978516 17.597301483154297 17.715744018554688 17.919330596923828 18.19048500061035 18.48209571838379 18.691041946411133 18.84257698059082 -9999
-9999 19.57652473449707 19.373462677001953 19.224708557128906 18.942598342895508 18.640960693359375 18.345203399658203 18.06252670288086 17.82185935974121 17.63529396057129 17.514692306518555 17.45192527770996 17.450057983398438 17.52292251586914 17.662860870361328 17.857309341430664 18.129005432128906 18.3710994720459 18.4704647064209 -9999
-9999 19.624584197998047 19.460285186767578 19.193443298339844 18.80702018737793 18.43457794189453 18.092321395874023 17.803213119506836 17.58969497680664 17.453664779663086 17.382539749145508 17.348562240600586 17.34747886657715 17.384601593017578 17.470230102539062 17.594823837280273 17.807331085205078 17.998252868652344 18.083412170410156 -9999
-9999 19.637239456176758 19.46490478515625 19.09622573852539 18.6365966796875 18.219482421875 17.8625545501709 17.589082717895508 17.413297653198242 17.318822860717773 17.27468490600586 17.2550106048584 17.249338150024414 17.268112182617188 17.320423126220703 17.407949447631836 17.541522979736328 17.661439895629883 17.742664337158203 -9999
-9999 19.562284469604492 19.3222713470459 18.88577651977539 18.40152359008789 17.99524688720703 17.671241760253906 17.44111442565918 17.30944061279297 17.248228073120117 17.21702003479004 17.195280075073242 17.153297424316406 17.156259536743164 17.206363677978516 17.235675811767578 17.337318420410156 17.421241760253906 17.481277465820312 -9999
-9999 19.315088272094727 18.98624610900879 18.553775787353516 18.112762451171875 17.767826080322266 17.510478973388672 17.341846466064453 17.25930404663086 17.226625442504883 17.211435317993164 17.194318771362305 17.15317726135254 17.1478271484375 17.15594482421875 17.1975040435791 17.227380752563477 17.268129348754883 17.31833839416504 -9999
-9999 18.84917640686035 18.556102752685547 18.186752319335938 17.82443618774414 17.56045913696289 17.38134002685547 17.27721405029297 17.236249923706055 17.225744247436523 17.22325897216797 17.21894073486328 17.1990909576416 17.203388214111328 17.215906143188477 17.237815856933594 17.231569290161133 17.20347023010254 17.286144256591797 -9999
-9999 18.427410125732422 18.185958862304688 17.888601303100586 17.606382369995117 17.41615104675293 17.303173065185547 17.248275756835938 17.230819702148438 17.230201721191406 17.22975730895996 17.23895835876465 17.252614974975586 17.27020835876465 17.282751083374023 17.293842315673828 17.30527687072754 17.21893882751465 -9999 -9999
-9999 18.13558006286621 17.929567337036133 17.693418502807617 17.475069046020508 17.342586517333984 17.27191734313965 17.2445068359375 17.232166290283203 17.226760864257812 17.21065330505371 17.224870681762695 17.254566192626953 17.299549102783203 17.32085418701172 17.347749710083008 17.36835289001465 17.437320709228516 -9999 -9999
-9999 17.980392456054688 17.75925064086914 17.569591522216797 17.40192413330078 17.315092086791992 17.270660400390625 17.257177352905273 17.24461555480957 17.227005004882812 17.227659225463867 17.246417999267578 17.279088973999023 17.318897247314453 17.350446701049805 17.37970733642578 17.403091430664062 17.426992416381836 17.395132064819336 17.422592163085938
-9999 -9999 17.57522201538086 17.473018646240234 17.359363555908203 17.300811767578125 17.281307220458984 17.274917602539062 17.2553653717041 17.253826141357422 17.258291244506836 17.275781631469727 17.299766540527344 17.338380813598633 17.36825180053711 17.388334274291992 17.412124633789062 17.428258895874023 17.442604064941406 17.420812606811523
-9999 -9999 17.51508903503418 17.410266876220703 17.335975646972656 17.306262969970703 17.305349349975586 17.309402465820312 17.29931640625 17.298139572143555 17.291860580444336 17.308258056640625 17.33188819885254 17.364721298217773 17.384672164916992 17.399024963378906 17.41473960876465 17.42842674255371 17.408771514892578 17.402420043945312
-9999 -9999 -9999 17.35177993774414 17.31766128540039 17.302873611450195 17.3139591217041 17.32220458984375 17.311912536621094 17.30817985534668 17.30660057067871 17.312292098999023 17.336807250976562 17.367982864379883 17.392894744873047 17.39754867553711 17.422592163085938 17.40782356262207 17.399497985839844 17.396554946899414
