ncols         20
nrows         20
xllcorner     0
yllcorner     -3.5992928
cellsize      0.17996463
NODATA_value  -9999
-9999.0 -9999 -9999 -9999 -9999 -9999 -9999 -9999 -9999 -9999 -9999 -9999 -9999 -9999 -9999 -9999 -9999 -9999 -9999 -9999
-9999 -9999 -9999 -9999 -9999 -9999 -9999 -9999 -9999 -9999 -9999 0.0076227737590670586 0.007355055771768093 -9999 -9999 0.005836369935423136 0.00511018093675375 -9999 -9999 -9999
-9999 -9999 -9999 -9999 0.006835291627794504 0.008035796694457531 0.010494454763829708 0.01299315970391035 0.015006608329713345 0.01646305061876774 0.013827063143253326 0.011780768632888794 0.01175833959132433 0.01201980747282505 0.00986248254776001 0.007359620649367571 0.005965586751699448 0.005302686709910631 -9999 -9999
-9999 -9999 -9999 0.006462856195867062 0.0075224111787974834 0.009280593134462833 0.012270990759134293 0.015875255689024925 0.020364921540021896 0.024712208658456802 0.02784709446132183 0.027856292203068733 0.026959989219903946 0.022914793342351913 0.01753443293273449 0.012265333905816078 0.008923865854740143 0.007421963848173618 -9999 -9999
-9999 -9999 -9999 0.006914546247571707 0.008383329026401043 0.011873159557580948 0.01723366789519787 0.025026429444551468 0.03679756075143814 0.05542486906051636 0.07697851955890656 0.08881344646215439 0.0840577483177185 0.062975212931633 0.0426163524389267 0.026191990822553635 0.01700698398053646 0.014989782124757767 -9999 -9999
-9999 -9999 0.0056739989668130875 0.00725515466183424 0.010130109265446663 0.01572646014392376 0.02475486509501934 0.0398191399872303 0.069447822868824 0.1197996661067009 0.18838346004486084 0.22971253097057343 0.22425274550914764 0.1666267067193985 0.10314051061868668 0.05971505492925644 0.03658857196569443 0.02921542339026928 0.025776559486985207 -9999
-9999 -9999 0.006271664053201675 0.008133884519338608 0.01326522696763277 0.02298578806221485 0.03886165842413902 0.0683162659406662 0.12595462799072266 0.22468417882919312 0.3542918264865875 0.44577479362487793 0.4454782009124756 0.3532048463821411 0 0.13730131089687347 0.08223091810941696 0.055730536580085754 0.04695000499486923 -9999
-9999 -9999 0.008248971775174141 0.01174649503082037 0.021261243149638176 0.0391082838177681 0.07151805609464645 0.12901978194713593 0.2241094410419464 0.3678480386734009 0.5230215191841125 0.6430887579917908 0.6625128388404846 0.5749525427818298 0.4294460415840149 0.2823542058467865 0.17978553473949432 0.12077111005783081 0.10029590129852295 -9999
-9999 0.008834592998027802 0.012303376570343971 0.020251439884305 0.04094517230987549 0.08170745521783829 0.1500759869813919 0.2613355219364166 0.4108499586582184 0.5782415866851807 0.7218589186668396 0.8283153176307678 0.8731400966644287 0.8216646313667297 0.7008782029151917 0 0.3598390221595764 0.2519638240337372 0.211181640625 -9999
-9999 0.013498013839125633 0.019787004217505455 0.039780717343091965 0.0862286239862442 0.1743614673614502 0.31613659858703613 0.5122027397155762 0.7186174392700195 0.8828826546669006 0.9847576022148132 1.0635805130004883 1.1105449199676514 1.1068871021270752 1.0260944366455078 0 0.6524679064750671 0.489765465259552 0.42417776584625244 -9999
-9999 0.02652289904654026 0.03928813338279724 0.07905426621437073 0.16322457790374756 0.31543853878974915 0.5528889894485474 0.8431108593940735 1.0787887573242188 1.218019962310791 1.2948055267333984 1.359418272972107 1.426393747329712 1.4488334655761719 1.39951491355896 1.2755606174468994 1.0637141466140747 0.8649328947067261 0.7759712338447571 -9999
-9999 0.05969880521297455 0.08414868265390396 0.15828722715377808 0.29462742805480957 0.5108551979064941 0.8186472654342651 1.1387968063354492 1.3414170742034912 1.4324687719345093 1.4847201108932495 1.563793659210205 0 0 1.7180392742156982 0 1.492810606956482 1.313909649848938 1.2213101387023926 -9999
-9999 0.13886897265911102 0.1892377883195877 0.32522594928741455 0.5203051567077637 0.7819038033485413 1.0905671119689941 1.3520628213882446 1.4567224979400635 1.4595723152160645 1.4604119062423706 1.5081695318222046 0 0 0 1.65737783908844 1.642763614654541 1.5937069654464722 1.5243017673492432 -9999
-9999 0.29424893856048584 0.3839811384677887 0.6036032438278198 0.8637444376945496 1.1229848861694336 1.3467023372650146 1.4653407335281372 1.450756311416626 1.382879614830017 1.3273776769638062 1.3043289184570312 0 0 0 1.2560553550720215 1.342692494392395 1.5043721199035645 1.505324125289917 -9999
-9999 0.49678537249565125 0.6217983365058899 0.915958821773529 1.202654480934143 1.388858675956726 1.4716103076934814 1.4544116258621216 1.3709007501602173 1.2752858400344849 1.1964572668075562 1.104270339012146 1.0071141719818115 0.908622145652771 0 0 0.8156124949455261 1.0135031938552856 -9999 -9999
-9999 0.6586025953292847 0.808417797088623 1.1309734582901 1.3772523403167725 1.4608709812164307 1.4312416315078735 1.3442543745040894 1.2561668157577515 1.1780126094818115 0 0 0 0.6567463874816895 0 0 0.40891483426094055 0 -9999 -9999
-9999 0.788895308971405 0.950632631778717 1.2432591915130615 1.4273207187652588 1.4104366302490234 1.301345944404602 1.1802031993865967 1.1008305549621582 0 0 0 0 0.4846889078617096 0.36528223752975464 0.2778736352920532 0.21748965978622437 0.16890902817249298 0 0
-9999 -9999 1.093624234199524 1.3079185485839844 1.4240375757217407 1.3259397745132446 1.1487808227539062 1.0042953491210938 0 0 0 0 0 0 0 0 0 0 0 0
-9999 -9999 1.260207176208496 1.3641831874847412 1.3956243991851807 1.2231966257095337 0.991697371006012 0.820582926273346 0 0 0 0 0 0 0 0 0 0 0 0
-9999 -9999 -9999 1.3816829919815063 1.3734008073806763 1.1719741821289062 0.9142098426818848 0.7344963550567627 0 0 0 0 0 0 0 0 0 0 0 0
