ncols         20
nrows         20
xllcorner     0
yllcorner     -3.5992928
cellsize      0.17996463
NODATA_value  -9999
-9999.0 -9999 -9999 -9999 -9999 -9999 -9999 -9999 -9999 -9999 -9999 -9999 -9999 -9999 -9999 -9999 -9999 -9999 -9999 -9999
-9999 -9999 -9999 -9999 -9999 -9999 -9999 -9999 -9999 -9999 -9999 3.052229166030884 3.062899112701416 -9999 -9999 3.2745425701141357 3.280991315841675 -9999 -9999 -9999
-9999 -9999 -9999 -9999 3.322577953338623 3.2674100399017334 3.1845898628234863 3.0871880054473877 2.9969122409820557 2.933819055557251 2.9099924564361572 2.9496209621429443 2.9861202239990234 3.0251550674438477 3.094630002975464 3.182152032852173 3.2190966606140137 3.2239718437194824 -9999 -9999
-9999 -9999 -9999 3.3665592670440674 3.3054065704345703 3.2039732933044434 3.0812926292419434 2.9500017166137695 2.8363635540008545 2.7589309215545654 2.7279648780822754 2.7466983795166016 2.799586534500122 2.875842809677124 2.9668374061584473 3.0543906688690186 3.1192033290863037 3.1590676307678223 -9999 -9999
-9999 -9999 -9999 3.34745192527771 3.2440192699432373 3.0833778381347656 2.888345718383789 2.688246011734009 2.527834415435791 2.424680471420288 2.383474349975586 2.4055495262145996 2.4836843013763428 2.5992186069488525 2.7318646907806396 2.857679843902588 2.9611241817474365 3.0283663272857666 -9999 -9999
-9999 -9999 3.421649932861328 3.330371856689453 3.1561009883880615 2.9054834842681885 2.5967519283294678 2.284491777420044 2.0646886825561523 1.939008355140686 1.8959965705871582 1.9357850551605225 2.0561158657073975 2.2201030254364014 2.401707649230957 2.5746307373046875 2.717182159423828 2.8047285079956055 2.778952121734619 -9999
-9999 -9999 3.414273738861084 3.283057689666748 3.036071300506592 2.6712045669555664 2.203157901763916 1.7024519443511963 1.4364383220672607 1.3179854154586792 1.2991490364074707 1.3805365562438965 1.5871422290802002 1.8038508892059326 2.0218262672424316 2.2299256324768066 2.4070188999176025 2.5345940589904785 2.590503454208374 -9999
-9999 -9999 3.4153804779052734 3.235280990600586 2.9037656784057617 2.4146459102630615 1.7529053688049316 0.8311775326728821 0.619385302066803 0.5714815855026245 0.5957789421081543 0.7161409258842468 1.1518957614898682 1.4305706024169922 1.6611045598983765 1.873977541923523 2.0634684562683105 2.2138991355895996 2.2993109226226807 -9999
-9999 3.552654981613159 3.422797441482544 3.1686978340148926 2.764605760574341 2.2041501998901367 1.495528221130371 0.6286742091178894 0.4096505641937256 0.36257198452949524 0.3933435082435608 0.5198599696159363 0.8970468044281006 1.1578185558319092 1.3682565689086914 1.556403398513794 1.7303160429000854 1.8777904510498047 1.9683068990707397 -9999
-9999 3.4844272136688232 3.33451247215271 3.0396218299865723 2.5959668159484863 2.0185089111328125 1.3394564390182495 0.5756028890609741 0.3640870749950409 0.3132114112377167 0.3397458493709564 0.4530337154865265 0.755925714969635 0.9751542210578918 1.150834560394287 1.3066744804382324 1.449104905128479 1.5749459266662598 1.6571166515350342 -9999
-9999 3.3187878131866455 3.1510772705078125 2.832237720489502 2.382351875305176 1.8356211185455322 1.2305771112442017 0.5764451622962952 0.38536861538887024 0.3345320224761963 0.35342657566070557 0.44633007049560547 0.6863608360290527 0.86090487241745 0.9992383122444153 1.1230489015579224 1.2369657754898071 1.340691089630127 1.4110941886901855 -9999
-9999 3.040383815765381 2.8649487495422363 2.5451817512512207 2.1254656314849854 1.6514416933059692 1.1564115285873413 0.6282485723495483 0.46492812037467957 0.4140600860118866 0.4217616319656372 0.48916998505592346 0.6692246198654175 0.797728419303894 0.9009348750114441 0.9957358837127686 1.0862034559249878 1.1722288131713867 1.233358383178711 -9999
-9999 2.671299934387207 2.5001862049102783 2.203631639480591 1.8466367721557617 1.475015640258789 1.1220282316207886 0.8210451006889343 0.6597386598587036 0.5885282158851624 0.5767729878425598 0.6131469011306763 0.6934926509857178 0.7712537050247192 0.8422220945358276 0.9122533798217773 0.9848328828811646 1.0589635372161865 1.1165297031402588 -9999
-9999 2.2712440490722656 2.1161797046661377 1.8637456893920898 1.5864615440368652 1.3146753311157227 1.0689541101455688 0.873830258846283 0.75103360414505 0.6860833168029785 0.6651507616043091 0.6782070994377136 0.7158348560333252 0.7611410021781921 0.8085871338844299 0.860352098941803 0.9205855131149292 0.9879150390625 1.054854154586792 -9999
-9999 1.9195773601531982 1.787585973739624 1.5905057191848755 1.382697582244873 1.1848069429397583 1.0112119913101196 0.8760377764701843 0.7859282493591309 0.7337332367897034 0.7117020487785339 0.7129632234573364 0.7307260036468506 0.7573760151863098 0.7892542481422424 0.8268570899963379 0.8737660646438599 0.9170454740524292 -9999 -9999
-9999 1.6685680150985718 1.5516194105148315 1.3930823802947998 1.233346700668335 1.0857131481170654 0.9591832756996155 0.8614721894264221 0.7949137091636658 0.754461407661438 0.734736442565918 0.7311636805534363 0.7394492030143738 0.7556006908416748 0.7773399353027344 0.804716169834137 0.8403676748275757 0.8730171322822571 -9999 -9999
-9999 1.5308690071105957 1.3925373554229736 1.256788730621338 1.1277730464935303 1.0133240222930908 0.9170804619789124 0.8437190055847168 0.7935888171195984 0.7622256278991699 0.7455862164497375 0.7405166625976562 0.7442190647125244 0.7542708516120911 0.7691579461097717 0.7885725498199463 0.8136242032051086 0.8386052250862122 0.8421355485916138 0.8444050550460815
-9999 -9999 1.240723967552185 1.1548047065734863 1.0537445545196533 0.962304949760437 0.8857938051223755 0.8284246325492859 0.7894323468208313 0.7645102143287659 0.7505720853805542 0.7452751398086548 0.7466750144958496 0.753126323223114 0.7633470296859741 0.7765820026397705 0.792263388633728 0.808513343334198 0.8172895908355713 0.8205772042274475
-9999 -9999 1.169376254081726 1.0935250520706177 1.0088673830032349 0.9299798607826233 0.8652416467666626 0.8179040551185608 0.7858195304870605 0.7649661302566528 0.7528196573257446 0.7476260662078857 0.7478863596916199 0.7522745132446289 0.7596035599708557 0.7689461708068848 0.779332160949707 0.7890260815620422 0.7953001260757446 0.798156201839447
-9999 -9999 -9999 1.04374098777771 0.9837678670883179 0.9135789275169373 0.8550442457199097 0.8126850724220276 0.7838582992553711 0.7649170160293579 0.7536571621894836 0.7485483884811401 0.7483280301094055 0.7517785429954529 0.7577587366104126 0.7652724385261536 0.7733666300773621 0.7805599570274353 0.7855643630027771 0.7880336046218872
