ncols         20
nrows         20
xllcorner     0
yllcorner     -3.5992928
cellsize      0.17996463
NODATA_value  -9999
-9999.0 -9999 -9999 -9999 -9999 -9999 -9999 -9999 -9999 -9999 -9999 -9999 -9999 -9999 -9999 -9999 -9999 -9999 -9999 -9999
-9999 -9999 -9999 -9999 -9999 -9999 -9999 -9999 -9999 -9999 -9999 2.350792169570923 2.3454699516296387 -9999 -9999 2.4249086380004883 2.3995413780212402 -9999 -9999 -9999
-9999 -9999 -9999 -9999 2.47861647605896 2.4886980056762695 2.501506805419922 2.483278512954712 2.448488235473633 2.42010235786438 2.37021541595459 2.370415210723877 2.384183168411255 2.3934032917022705 2.4033844470977783 2.4172656536102295 2.4010703563690186 2.3748221397399902 -9999 -9999
-9999 -9999 -9999 2.5156941413879395 2.525574207305908 2.5313308238983154 2.5272443294525146 2.495378255844116 2.4544425010681152 2.4106616973876953 2.3813440799713135 2.3719699382781982 2.3807497024536133 2.396090507507324 2.426068067550659 2.4415202140808105 2.4260761737823486 2.4031457901000977 -9999 -9999
-9999 -9999 -9999 2.5506482124328613 2.566236734390259 2.5864460468292236 2.562077760696411 2.493870496749878 2.406156301498413 2.30875563621521 2.2158150672912598 2.163142204284668 2.174224376678467 2.243504762649536 2.337897539138794 2.4060142040252686 2.422624349594116 2.438507556915283 -9999 -9999
-9999 -9999 2.5600502490997314 2.591140031814575 2.6193349361419678 2.6143195629119873 2.5256595611572266 2.3591115474700928 2.1879429817199707 2.004291534423828 1.8164681196212769 1.7088854312896729 1.7236659526824951 1.858504056930542 2.053924560546875 2.2205758094787598 2.315345287322998 2.3464560508728027 2.2914466857910156 -9999
-9999 -9999 2.5878915786743164 2.6228065490722656 2.6607298851013184 2.599494457244873 2.3692803382873535 1.9670335054397583 1.6986364126205444 1.451229453086853 1.230850338935852 1.1255853176116943 1.1933950185775757 1.3784246444702148 1.6361854076385498 1.8876962661743164 2.078416347503662 2.1721770763397217 2.1926701068878174 -9999
-9999 -9999 2.6467232704162598 2.689054489135742 2.691152811050415 2.5185787677764893 2.0442588329315186 0.9082770943641663 0.6676895022392273 0.5603737831115723 0.49585720896720886 0.5011817216873169 0.7487716674804688 0.9462695121765137 1.1966791152954102 1.4824222326278687 1.7237458229064941 1.8792920112609863 1.9467759132385254 -9999
-9999 2.6277248859405518 2.6977877616882324 2.7294771671295166 2.6598615646362305 2.378945827484131 1.8051173686981201 0.6808981895446777 0.41983136534690857 0.33156394958496094 0.30181583762168884 0.327327162027359 0.49521127343177795 0.6275829076766968 0.7975216507911682 1.0327333211898804 1.291768193244934 1.4922780990600586 1.5847829580307007 -9999
-9999 2.6534628868103027 2.6906659603118896 2.6752283573150635 2.4884071350097656 2.091843605041504 1.4919224977493286 0.5524889230728149 0.316089004278183 0.23910833895206451 0.21983081102371216 0.23879985511302948 0.3338504135608673 0.3987104296684265 0.4907382130622864 0.6364384889602661 0.8389192223548889 1.0242584943771362 1.1181331872940063 -9999
-9999 2.6131091117858887 2.593491792678833 2.467698335647583 2.165207862854004 1.7285654544830322 1.151608943939209 0.43470990657806396 0.24271877110004425 0.17774121463298798 0.1584160178899765 0.1644739955663681 0.20368322730064392 0.22826150059700012 0.26689738035202026 0.34270989894866943 0.4568619728088379 0.5838678479194641 0.6524190306663513 -9999
-9999 2.4200775623321533 2.3341662883758545 2.0951521396636963 1.7323017120361328 1.3232804536819458 0.835712194442749 0.3379422128200531 0.18701285123825073 0.1282375007867813 0.10574368387460709 0.0990120992064476 0.1063409075140953 0.10889247804880142 0.11902879178524017 0.14978155493736267 0.20638889074325562 0.27279505133628845 0.3091820776462555 -9999
-9999 2.0356733798980713 1.8925178050994873 1.5869648456573486 1.253265380859375 0.9042606353759766 0.5625626444816589 0.2848784923553467 0.1504203975200653 0.09411785006523132 0.06479676812887192 0.05172080546617508 0.04444499313831329 0.04000017046928406 0.040658388286828995 0.048855751752853394 0.07559624314308167 0.10633333772420883 0.12538951635360718 -9999
-9999 1.549736738204956 1.390660285949707 1.0739424228668213 0.7710656523704529 0.5207598209381104 0.31916823983192444 0.17287036776542664 0.08898872882127762 0.05481954291462898 0.037843409925699234 0.028379488736391068 0.022129490971565247 0.018242938444018364 0.016366660594940186 0.017393698915839195 0.02249176613986492 0.03384208306670189 0.042147841304540634 -9999
-9999 1.141042709350586 0.9758458733558655 0.6714887619018555 0.42348146438598633 0.2633547782897949 0.15737035870552063 0.08454002439975739 0.04972494766116142 0.03299921378493309 0.024169210344552994 0.01835722103714943 0.014397853054106236 0.011969046667218208 0.01039382629096508 0.010148944333195686 0.011015488766133785 0.015085078775882721 -9999 -9999
-9999 0.8697825074195862 0.7074699997901917 0.4383249282836914 0.2450564056634903 0.1345372498035431 0.07306307554244995 0.04338259994983673 0.029426980763673782 0.021917065605521202 0.01754302717745304 0.01418426912277937 0.012287503108382225 0.013599874451756477 0.01466986071318388 0.015419045463204384 0.01588880456984043 0.016372552141547203 -9999 -9999
-9999 0.7012801170349121 0.5315669775009155 0.3140065670013428 0.1598030924797058 0.07114813476800919 0.03882436454296112 0.024706397205591202 0.018561579287052155 0.01529968623071909 0.013312840834259987 0.013761430978775024 0.015943823382258415 0.017961744219064713 0.019752783700823784 0.021285541355609894 0.02272389456629753 0.02468557469546795 0.028931912034749985 0.03067442961037159
-9999 -9999 0.3719237446784973 0.23419198393821716 0.11429718136787415 0.04712335765361786 0.024477465078234673 0.016151469200849533 0.01294766366481781 0.011653786525130272 0.014185254462063313 0.016802377998828888 0.019418828189373016 0.021948060020804405 0.02419755980372429 0.026081975549459457 0.02773551642894745 0.029309788718819618 0.03100506216287613 0.031686823815107346
-9999 -9999 0.24819020926952362 0.16966375708580017 0.08454526960849762 0.033760473132133484 0.017153538763523102 0.01155062299221754 0.010847731493413448 0.01361691765487194 0.01643071323633194 0.019297482445836067 0.022186612710356712 0.02498345449566841 0.027401631698012352 0.029310718178749084 0.030789928510785103 0.03177336975932121 0.03225485235452652 0.032414279878139496
-9999 -9999 -9999 0.1320360153913498 0.06627820432186127 0.02835952304303646 0.01452519278973341 0.010040266439318657 0.01179826445877552 0.014748742803931236 0.01770058088004589 0.020657148212194443 0.023654880002141 0.026551291346549988 0.029029808938503265 0.03086348995566368 0.032203905284404755 0.032715342938899994 0.0328022763133049 0.032774921506643295
