ncols         20
nrows         20
xllcorner     0
yllcorner     -3.5992928
cellsize      0.17996463
NODATA_value  -9999
-9999.0 -9999 -9999 -9999 -9999 -9999 -9999 -9999 -9999 -9999 -9999 -9999 -9999 -9999 -9999 -9999 -9999 -9999 -9999 -9999
-9999 -9999 -9999 -9999 -9999 -9999 -9999 -9999 -9999 -9999 -9999 0.135160893201828 0.1353098750114441 -9999 -9999 0.1377713531255722 0.137950599193573 -9999 -9999 -9999
-9999 -9999 -9999 -9999 0.13401257991790771 0.13399066030979156 0.13402265310287476 0.134133443236351 0.13434016704559326 0.1346370279788971 0.13499079644680023 0.12513843178749084 0.1255795955657959 0.13666456937789917 0.1373407244682312 0.12754473090171814 0.1280704140663147 0.13916167616844177 -9999 -9999
-9999 -9999 -9999 0.13432283699512482 0.12405908107757568 0.10555044561624527 0.10558770596981049 0.10571251809597015 0.10593188554048538 0.10623203217983246 0.10659704357385635 0.09889034926891327 0.09932848066091537 0.1080673485994339 0.1086440458893776 0.10100961476564407 0.10996530950069427 0.14026503264904022 -9999 -9999
-9999 -9999 -9999 0.13456881046295166 0.1058359369635582 0.07699520885944366 0.07102236151695251 0.07116509228944778 0.0713946670293808 0.07169520854949951 0.07204358279705048 0.06699733436107635 0.06737040728330612 0.07328242063522339 0.07378102093935013 0.07442083954811096 0.11168335378170013 0.14244776964187622 -9999 -9999
-9999 -9999 0.13523638248443604 0.12483120709657669 0.09815718233585358 0.06593241542577744 0.04080992564558983 0.040939487516880035 0.04114576429128647 0.04140583798289299 0.04169779270887375 0.03873998671770096 0.03904375806450844 0.042716894298791885 0.04316505044698715 0.07050730288028717 0.10564181208610535 0.13514509797096252 0.14797420799732208 -9999
-9999 -9999 0.1356598138809204 0.10671941936016083 0.07769248634576797 0.05227555334568024 0.029826531186699867 0.02015363983809948 0.020300433039665222 0.02048349939286709 0.020689429715275764 0.01930093951523304 0.01953817531466484 0.021489154547452927 0.03244442865252495 0.05752798542380333 0.08602194488048553 0.11861023306846619 0.15124136209487915 -9999
-9999 -9999 0.13641208410263062 0.10738639533519745 0.07215609401464462 0.04140360653400421 0.020300941541790962 0.009959641844034195 0.008589683100581169 0.008697465993463993 0.008821923285722733 0.008280757814645767 0.008454927243292332 0.011017553508281708 0.022983131930232048 0.04728703945875168 0.08265271782875061 0.12311958521604538 0.156452476978302 -9999
-9999 0.13804635405540466 0.12725624442100525 0.10014763474464417 0.06746423244476318 0.03867281600832939 0.019020626321434975 0.00800394918769598 0.0031342925503849983 0.0031950792763382196 0.003264085156843066 0.0030800453387200832 0.003464904148131609 0.01000566128641367 0.024218961596488953 0.04961451143026352 0.08644832670688629 0.12846273183822632 0.16301685571670532 -9999
-9999 0.13933539390563965 0.10970477014780045 0.08002453297376633 0.05403473228216171 0.031152090057730675 0.015316763892769814 0.00645593274384737 0.002372689312323928 0.001574101159349084 0.0016248789615929127 0.001673543592914939 0.0036954693496227264 0.01056948397308588 0.02546031028032303 0.05203656107187271 0.09053222090005875 0.1343795210123062 0.1704045832157135 -9999
-9999 0.14161060750484467 0.11169487237930298 0.07530126720666885 0.04341646656394005 0.021402252838015556 0.010548190213739872 0.004481212701648474 0.0016575929475948215 0.001656397944316268 0.0017171934014186263 0.0017726707737892866 0.003907050006091595 0.011116554029285908 0.02669857256114483 0.05449203774333 0.09472459554672241 0.1404906064271927 0.1780320256948471 -9999
-9999 0.14482025802135468 0.11435335874557495 0.07724617421627045 0.04464508220553398 0.02205994538962841 0.009321155957877636 0.0033910081256181 0.0016588956350460649 0.0017321152845397592 0.0018009255873039365 0.001968228491023183 0.0057226791977882385 0.013764158822596073 0.027934694662690163 0.05694923922419548 0.09889005124568939 0.14646300673484802 0.18532004952430725 -9999
-9999 0.14883854985237122 0.11761884391307831 0.07956114411354065 0.046048618853092194 0.022936031222343445 0.009720399975776672 0.00354846753180027 0.0017210748046636581 0.001798503566533327 0.0018743950640782714 0.0030648401007056236 0.00887417234480381 0.021302638575434685 0.04367254674434662 0.07576446235179901 0.11174765974283218 0.1521231234073639 0.19165197014808655 -9999
-9999 0.15337742865085602 0.121292844414711 0.08246453106403351 0.047834377735853195 0.023712584748864174 0.01005387119948864 0.0036670744884759188 0.0017748456448316574 0.001853379188105464 0.0019317734986543655 0.004009322728961706 0.011579466052353382 0.02796088717877865 0.05721388757228851 0.09944199025630951 0.14718134701251984 0.18518361449241638 0.19611284136772156 -9999
-9999 0.15799547731876373 0.12509720027446747 0.08516007661819458 0.04944140464067459 0.024526599794626236 0.012178066186606884 0.005203992128372192 0.0019177024951204658 0.0018962884787470102 0.0019749270286411047 0.00445228535681963 0.01279774121940136 0.030946869403123856 0.06348606944084167 0.11077804118394852 0.16416120529174805 0.2081574946641922 -9999 -9999
-9999 0.16215106844902039 0.12914246320724487 0.0949675440788269 0.06480790674686432 0.037700772285461426 0.018776167184114456 0.0079522505402565 0.0031600408256053925 0.0019262050045654178 0.002005993388593197 0.004518997389823198 0.012999876402318478 0.03147917613387108 0.06470020860433578 0.11317748576402664 0.16871631145477295 0.2141665518283844 -9999 -9999
-9999 0.16511757671833038 0.15546183288097382 0.12400461733341217 0.08439593017101288 0.04904219135642052 0.026342647150158882 0.013045143336057663 0.005561350379139185 0.002048586495220661 0.0020260245073586702 0.00419728783890605 0.012150518596172333 0.029463879764080048 0.06063389778137207 0.10619185119867325 0.1588461995124817 0.2034810483455658 0.22397728264331818 0.22557297348976135
-9999 -9999 0.1727772057056427 0.13748857378959656 0.10090068727731705 0.0686199963092804 0.03975703939795494 0.01974073052406311 0.008347931317985058 0.003081044415012002 0.0020357950124889612 0.0033237661700695753 0.00965996365994215 0.02352367527782917 0.04832516610622406 0.08486440032720566 0.12696243822574615 0.1623266637325287 0.17714940011501312 0.1779818832874298
-9999 -9999 0.17543211579322815 0.16362105309963226 0.1298823356628418 0.08803798258304596 0.050973884761333466 0.02518509328365326 0.01065200474113226 0.0039122384041547775 0.0020392315927892923 0.0022366968914866447 0.006526197772473097 0.01586563140153885 0.03282308951020241 0.057368017733097076 0.0861746296286583 0.10994771122932434 0.11945218592882156 0.11980915069580078
-9999 -9999 -9999 0.17918086051940918 0.14190642535686493 0.09604638814926147 0.055497024208307266 0.027384964749217033 0.011569101363420486 0.004257825203239918 0.002040937775745988 0.0021227444522082806 0.003750560339540243 0.009093607775866985 0.018866093829274178 0.03297562897205353 0.049588363617658615 0.06296394765377045 0.06852903962135315 0.06867233663797379
