ncols         20
nrows         20
xllcorner     0
yllcorner     -3.5992928
cellsize      0.17996463
NODATA_value  -9999
-9999.0 -9999 -9999 -9999 -9999 -9999 -9999 -9999 -9999 -9999 -9999 -9999 -9999 -9999 -9999 -9999 -9999 -9999 -9999 -9999
-9999 -9999 -9999 -9999 -9999 -9999 -9999 -9999 -9999 -9999 -9999 1.2630149126052856 1.2603414058685303 -9999 -9999 1.322608470916748 1.2925853729248047 -9999 -9999 -9999
-9999 -9999 -9999 -9999 1.256451964378357 1.276777982711792 1.3095752000808716 1.3196961879730225 1.317773461341858 1.32215416431427 1.2964255809783936 1.3089765310287476 1.3339776992797852 1.3556512594223022 1.356544017791748 1.346049427986145 1.3181681632995605 1.2922688722610474 -9999 -9999
-9999 -9999 -9999 1.2813019752502441 1.2998967170715332 1.3210999965667725 1.343601942062378 1.3495138883590698 1.3522555828094482 1.3502548933029175 1.359264850616455 1.3764787912368774 1.4007619619369507 1.420419692993164 1.4379533529281616 1.4286425113677979 1.392771601676941 1.3601126670837402 -9999 -9999
-9999 -9999 -9999 1.3158667087554932 1.341702938079834 1.3860498666763306 1.404770016670227 1.4000506401062012 1.3791333436965942 1.333096981048584 1.2787986993789673 1.257691502571106 1.291695475578308 1.3712230920791626 1.4524869918823242 1.4890162944793701 1.4781321287155151 1.4840623140335083 -9999 -9999
-9999 -9999 1.3219265937805176 1.3585081100463867 1.403877854347229 1.4409228563308716 1.4340898990631104 1.3936089277267456 1.2905958890914917 1.1174370050430298 0.9339202642440796 0.8461275100708008 0.8795937895774841 1.0446813106536865 1.2681095600128174 1.4190990924835205 1.49321711063385 1.517211675643921 1.4847404956817627 -9999
-9999 -9999 1.35689377784729 1.3995749950408936 1.467444896697998 1.488129734992981 1.4472461938858032 1.3258363008499146 1.0972206592559814 0.807878851890564 0.5674188137054443 0.4557780921459198 0.4744010865688324 0.6351017951965332 0 1.1951984167099 1.391215205192566 1.4769665002822876 1.4926830530166626 -9999
-9999 -9999 1.4357006549835205 1.4884992837905884 1.5362709760665894 1.509022831916809 1.3850462436676025 1.1399856805801392 0.8217275738716125 0.5227417349815369 0.3302941620349884 0.24292223155498505 0.2451731264591217 0.33860132098197937 0.544552206993103 0.8323538899421692 1.107042908668518 1.3034603595733643 1.381155252456665 -9999
-9999 1.468814492225647 1.5333391427993774 1.5730032920837402 1.5582513809204102 1.4266369342803955 1.1569859981536865 0.809831440448761 0.4995748698711395 0.289387971162796 0.17879599332809448 0.13092513382434845 0.12644240260124207 0.1695971041917801 0.27855730056762695 0 0.7309029698371887 0.9577042460441589 1.077014684677124 -9999
-9999 1.556893229484558 1.605087399482727 1.6046754121780396 1.4690511226654053 1.1678327322006226 0.7819758057594299 0.44244956970214844 0.23065119981765747 0.12626618146896362 0.08170200884342194 0.06272169202566147 0.06088384985923767 0.07634351402521133 0.12252720445394516 0 0.37741246819496155 0.5539111495018005 0.6582193374633789 -9999
-9999 1.638571858406067 1.6367119550704956 1.5217676162719727 1.2491158246994019 0.8460153937339783 0.45357218384742737 0.19825997948646545 0.08523000776767731 0.04325087368488312 0.028040587902069092 0.022562414407730103 0.022095317021012306 0.02694663591682911 0.041475534439086914 0.0765591561794281 0.14158377051353455 0.23344284296035767 0.2920058071613312 -9999
-9999 1.6121654510498047 1.5396499633789062 1.3027788400650024 0.9381425976753235 0.5465115904808044 0.24138624966144562 0.08466227352619171 0.029874049127101898 0.01289433054625988 0.007631602697074413 0.0057909684255719185 0 0 0.009292855858802795 0 0.03672431409358978 0.06705493479967117 0.08762216567993164 -9999
-9999 1.4068998098373413 1.2639069557189941 0.9264766573905945 0.5807527899742126 0.2960437834262848 0.11563140898942947 0.035035740584135056 0.010246716439723969 0.003835778683423996 0.0016106126131489873 0.0010263335425406694 0 0 0 0.002295105019584298 0.0061337826773524284 0.013114283792674541 0.01900164783000946 -9999
-9999 1.0436604022979736 0.8582296371459961 0.5252118706703186 0.27330291271209717 0.12198960781097412 0.0442332960665226 0.01283680647611618 0.0031641803216189146 0.0011067372979596257 0.0004989759181626141 0.00029502747929655015 0 0 0 0.000305880414089188 0.0006344869616441429 0.001683633541688323 0.00295308162458241 -9999
-9999 0.6960029602050781 0.5266175866127014 0.26163041591644287 0.1071883961558342 0.040833599865436554 0.013863514177501202 0.003749801544472575 0.0011656011920422316 0.0004628976166713983 0.00023640775179956108 0.00014266207290347666 9.985397628042847E-05 8.191119559342042E-05 0 0 0.00011005587293766439 0.0002340464707231149 -9999 -9999
-9999 0.4901880919933319 0.343053936958313 0.14214077591896057 0.04692749306559563 0.014243836514651775 0.004114893265068531 0.0013172710314393044 0.0005257951561361551 0.00025437382282689214 0 0 0 0.000104050814115908 0 0 0.00016792725364211947 0 -9999 -9999
-9999 0.36599987745285034 0.23510077595710754 0.09066787362098694 0.025449400767683983 0.005464646965265274 0.0015733310719951987 0.0005563625018112361 0.0002592969685792923 0 0 0 0 0.00017339356418233365 0.00021403336722869426 0.0002514910011086613 0.00028496223967522383 0.00032336186268366873 0 0
-9999 -9999 0.14448413252830505 0.06154416874051094 0.015942273661494255 0.0030216274317353964 0.0007790225790813565 0.000281877932138741 0 0 0 0 0 0 0 0 0 0 0 0
-9999 -9999 0.07484471797943115 0.03805210813879967 0.010315933264791965 0.0018214051378890872 0.00043587497202679515 0.0001544737897347659 0 0 0 0 0 0 0 0 0 0 0 0
-9999 -9999 -9999 0.026461051777005196 0.007429006043821573 0.0014210145454853773 0.000331058690790087 0.00011746247764676809 0 0 0 0 0 0 0 0 0 0 0 0
