ncols         20
nrows         20
xllcorner     0
yllcorner     -3.5992928
cellsize      0.17996463
NODATA_value  -9999
-9999.0 -9999 -9999 -9999 -9999 -9999 -9999 -9999 -9999 -9999 -9999 -9999 -9999 -9999 -9999 -9999 -9999 -9999 -9999 -9999
-9999 -9999 -9999 -9999 -9999 -9999 -9999 -9999 -9999 -9999 -9999 0.13472788035869598 0.13482874631881714 -9999 -9999 0.1373460292816162 0.1375483274459839 -9999 -9999 -9999
-9999 -9999 -9999 -9999 0.1346343606710434 0.13457033038139343 0.13451428711414337 0.1344987004995346 0.1345512568950653 0.1346789449453354 0.13483451306819916 0.12481238692998886 0.12513655424118042 0.13609127700328827 0.13677330315113068 0.1271200031042099 0.1277315318584442 0.13885840773582458 -9999 -9999
-9999 -9999 -9999 0.13498303294181824 0.12467304617166519 0.10605302453041077 0.10603923350572586 0.10608506202697754 0.10619903355836868 0.10637259483337402 0.1065819188952446 0.09872809052467346 0.0990443229675293 0.10767260938882828 0.10825209319591522 0.10073747485876083 0.10980680584907532 0.14016342163085938 -9999 -9999
-9999 -9999 -9999 0.13525840640068054 0.10641667246818542 0.07744841277599335 0.07144291698932648 0.07156922668218613 0.07175486534833908 0.0719810351729393 0.0722208246588707 0.06704642623662949 0.06731660664081573 0.0731530711054802 0.07365879416465759 0.07440164685249329 0.11186499893665314 0.14289598166942596 -9999 -9999
-9999 -9999 0.1359110176563263 0.1255178153514862 0.09878773987293243 0.06645084917545319 0.041196249425411224 0.04135029762983322 0.041557807475328445 0.04178699105978012 0.04201481491327286 0.03895856440067291 0.039194539189338684 0.04283686727285385 0.0433049201965332 0.07082401216030121 0.10637453198432922 0.13655295968055725 0.15026846528053284 -9999
-9999 -9999 0.1364663541316986 0.10744156688451767 0.07835204899311066 0.0528595894575119 0.030256615951657295 0.020489685237407684 0.020656738430261612 0.02083667926490307 0.021016566082835197 0.019568994641304016 0.019777141511440277 0.02173478528857231 0.03281409293413162 0.05820326507091522 0.08720427751541138 0.12059179693460464 0.1541384607553482 -9999
-9999 -9999 0.13755637407302856 0.10837981849908829 0.07300226390361786 0.042057253420352936 0.02072954550385475 0.010217045433819294 0.008827680721879005 0.008942020125687122 0.009061803109943867 0.008495421148836613 0.008672184310853481 0.011311480775475502 0.023555563762784004 0.04835253581404686 0.08446934074163437 0.12597136199474335 0.16023722290992737 -9999
-9999 0.14030978083610535 0.1289937049150467 0.10151463747024536 0.06855840235948563 0.0394904762506485 0.019551431760191917 0.008285576477646828 0.0032648115884512663 0.003335158806294203 0.0034090583212673664 0.003217575140297413 0.0036248299293220043 0.010440762154757977 0.025167252868413925 0.051343344151973724 0.0892038643360138 0.1324324756860733 0.16801825165748596 -9999
-9999 0.14227689802646637 0.11191395670175552 0.08164165169000626 0.05526658520102501 0.032028187066316605 0.015865445137023926 0.006744171492755413 0.0025032167322933674 0.0016736271791160107 0.0017320577753707767 0.0017835424514487386 0.003930008504539728 0.011189074255526066 0.026815034449100494 0.05453760549426079 0.09450574219226837 0.13988853991031647 0.1771233081817627 -9999
-9999 0.14558695256710052 0.11479026079177856 0.0774364098906517 0.04480690881609917 0.022230880334973335 0.011043584905564785 0.004734268877655268 0.0017739117611199617 0.0017864394467324018 0.0018572206608951092 0.0019160800147801638 0.004209271166473627 0.011913926340639591 0.028461668640375137 0.05780604109168053 0.1000690907239914 0.1479446440935135 0.1871294230222702 -9999
-9999 0.15005391836166382 0.11849810183048248 0.08016923815011978 0.046550966799259186 0.023167472332715988 0.009875569492578506 0.003629848128184676 0.0017969409236684442 0.0018890287028625607 0.0019685348961502314 0.002149432897567749 0.00622814055532217 0.014900881797075272 0.030081413686275482 0.06103772297501564 0.10557667165994644 0.15587978065013885 0.19685325026512146 -9999
-9999 0.15553997457027435 0.12301597744226456 0.08347219228744507 0.0485854297876358 0.024383414536714554 0.010424952954053879 0.003844122402369976 0.0018835844239220023 0.001978763844817877 0.0020646234042942524 0.003370302263647318 0.009716030210256577 0.02321639657020569 0.047386713325977325 0.0818648636341095 0.12029692530632019 0.1632433831691742 0.2051880657672882 -9999
-9999 0.16184107959270477 0.1282549500465393 0.08759986609220505 0.05113377422094345 0.025537744164466858 0.01091695111244917 0.004017053171992302 0.0019593408796936274 0.0020525618456304073 0.0021379573736339808 0.004421890247613192 0.01271109189838171 0.03056523948907852 0.062306083738803864 0.10793184489011765 0.1592792421579361 0.19984154403209686 0.2108791470527649 -9999
-9999 0.16861066222190857 0.1339280605316162 0.09166332334280014 0.053563445806503296 0.026762669906020164 0.013389185070991516 0.005762114189565182 0.0021332534961402416 0.002110712928697467 0.002192281186580658 0.004916418343782425 0.014062277041375637 0.033872537314891815 0.06925282627344131 0.12049754709005356 0.1781649887561798 0.22557173669338226 -9999 -9999
-9999 0.17490503191947937 0.13992518186569214 0.1035270094871521 0.07111728191375732 0.04164212569594383 0.02086116187274456 0.00888040941208601 0.0035392113495618105 0.0021528301294893026 0.00223143445327878 0.0049926177598536015 0.0142867686226964 0.03446860983967781 0.07062871009111404 0.12323697656393051 0.1833525151014328 0.2324369251728058 -9999 -9999
-9999 0.17942307889461517 0.17023250460624695 0.1366048902273178 0.09347949177026749 0.05460017919540405 0.0294688418507576 0.014651480130851269 0.00625819806009531 0.0022973669692873955 0.0022576474584639072 0.004639375489205122 0.013351745903491974 0.032260745763778687 0.06620440632104874 0.11568152159452438 0.17271995544433594 0.2209419459104538 0.24297356605529785 0.24453255534172058
-9999 -9999 0.1911180019378662 0.15263402462005615 0.11249256879091263 0.07681854814291 0.044672124087810516 0.022246578708291054 0.009419644251465797 0.003466180060058832 0.002272328594699502 0.0036770650185644627 0.010613343678414822 0.02574959769845009 0.052758507430553436 0.09245338290929794 0.13807445764541626 0.17628921568393707 0.19219306111335754 0.19296801090240479
-9999 -9999 0.19500663876533508 0.18256129324436188 0.14539767801761627 0.09885857254266739 0.05740448459982872 0.02842986024916172 0.012036319822072983 0.004408895503729582 0.002279131207615137 0.0024780675303190947 0.007170392200350761 0.017361434176564217 0.03582458570599556 0.06248946860432625 0.0937146246433258 0.11941248923540115 0.12961381673812866 0.1299215406179428
-9999 -9999 -9999 0.2005666196346283 0.15913903713226318 0.10797131061553955 0.06254241615533829 0.03092733770608902 0.013077066279947758 0.004800609312951565 0.0022820362355560064 0.002353169722482562 0.004122772719711065 0.009948039427399635 0.02058391086757183 0.03590923920273781 0.05391653627157211 0.06837756186723709 0.07435756921768188 0.07447301596403122
