ncols         20
nrows         20
xllcorner     0
yllcorner     -3.5992928
cellsize      0.17996463
NODATA_value  -9999
-9999.0 -9999 -9999 -9999 -9999 -9999 -9999 -9999 -9999 -9999 -9999 -9999 -9999 -9999 -9999 -9999 -9999 -9999 -9999 -9999
-9999 -9999 -9999 -9999 -9999 -9999 -9999 -9999 -9999 -9999 -9999 0.1700158566236496 0.17023496329784393 -9999 -9999 0.18794699013233185 0.17773126065731049 -9999 -9999 -9999
-9999 -9999 -9999 -9999 0.14218410849571228 0.15152813494205475 0.1696828454732895 0.18678057193756104 0.20211707055568695 0.21761833131313324 0.2093435376882553 0.2067345827817917 0.21927233040332794 0.2379423975944519 0.229933500289917 0.20979279279708862 0.1951199769973755 0.18831872940063477 -9999 -9999
-9999 -9999 -9999 0.14300142228603363 0.15050436556339264 0.16204720735549927 0.18052540719509125 0.2012486457824707 0.2284429669380188 0.2590307295322418 0.29026979207992554 0.3118462562561035 0.3314700126647949 0.3309269845485687 0.31135985255241394 0.2766890823841095 0.24620400369167328 0.2298440784215927 -9999 -9999
-9999 -9999 -9999 0.15062373876571655 0.1601899266242981 0.1809927523136139 0.20628800988197327 0.23809318244457245 0.2851375341415405 0.35963794589042664 0.45379772782325745 0.5352410078048706 0.577389121055603 0.554751455783844 0.5003948211669922 0.4222331941127777 0.35882049798965454 0.34722989797592163 -9999 -9999
-9999 -9999 0.1511097252368927 0.16190867125988007 0.17942538857460022 0.20531781017780304 0.23319460451602936 0.2686430811882019 0.3381974995136261 0.455605685710907 0.62690269947052 0.7952878475189209 0.9180573225021362 0.9147886633872986 0.8088001012802124 0.6747035384178162 0.5644651651382446 0.5278468132019043 0.5177028179168701 -9999
-9999 -9999 0.16753222048282623 0.18171033263206482 0.21269750595092773 0.24641868472099304 0.268252968788147 0.2858400344848633 0.3449174463748932 0.46680986881256104 0.6665999293327332 0.9299659729003906 1.2270554304122925 1.3506865501403809 1.280822515487671 1.089295506477356 0.9081785082817078 0.782598614692688 0.7367159128189087 -9999
-9999 -9999 0.2125944197177887 0.23955845832824707 0.2889772653579712 0.3290894627571106 0.3329400420188904 0.2652568519115448 0.26703089475631714 0.3243500292301178 0.4436018764972687 0.6946130394935608 1.392786979675293 1.7705010175704956 1.835337519645691 1.671757459640503 1.4444597959518433 1.2412408590316772 1.1559712886810303 -9999
-9999 0.274923175573349 0.30046477913856506 0.35679879784584045 0.448702335357666 0.5193058252334595 0.4979134798049927 0.3396381139755249 0.29479271173477173 0.32100576162338257 0.4279879331588745 0.7209417819976807 1.6304306983947754 2.241116523742676 2.5119857788085938 2.4511594772338867 2.1883184909820557 1.9228185415267944 1.7978339195251465 -9999
-9999 0.36982035636901855 0.43135932087898254 0.5729934573173523 0.7525981664657593 0.8797554969787598 0.8328282237052917 0.5124883055686951 0.41220226883888245 0.4146026074886322 0.5176117420196533 0.8535495400428772 1.9722141027450562 2.8027079105377197 3.2714602947235107 3.3728981018066406 3.1532201766967773 2.8622279167175293 2.7163190841674805 -9999
-9999 0.5813698172569275 0.6914029717445374 0.9321005940437317 1.2168676853179932 1.4236528873443604 1.3638511896133423 0.8026316165924072 0.6496151685714722 0.6321534514427185 0.7262496948242188 1.088876724243164 2.467538595199585 3.4619193077087402 4.092611312866211 4.3494086265563965 4.2823076248168945 4.028783798217773 3.8863134384155273 -9999
-9999 0.9755969643592834 1.141965627670288 1.51310396194458 1.9242777824401855 2.2216761112213135 2.1852469444274902 1.3648407459259033 1.1864053010940552 1.1453059911727905 1.205206036567688 1.536171317100525 3.058624505996704 4.060544490814209 4.751026153564453 5.168614387512207 5.288798809051514 5.1816511154174805 5.089701175689697 -9999
-9999 1.633577823638916 1.8947852849960327 2.438784122467041 2.95536732673645 3.347454309463501 3.4695446491241455 3.206928014755249 2.938215494155884 2.745751142501831 2.7412033081054688 3.016319513320923 3.6882169246673584 4.317567348480225 4.871803283691406 5.345129013061523 5.707136154174805 5.851684093475342 5.8346967697143555 -9999
-9999 2.5467076301574707 2.9051194190979004 3.621211051940918 4.243686199188232 4.634169101715088 4.728994846343994 4.504607200622559 4.137603282928467 3.8259997367858887 3.671934127807617 3.702045202255249 3.8899357318878174 4.123169898986816 4.374443531036377 4.72728157043457 5.192798137664795 5.7090840339660645 5.850802421569824 -9999
-9999 3.485116720199585 3.913064479827881 4.758013725280762 5.398566722869873 5.653900623321533 5.571239948272705 5.228986740112305 4.788210391998291 4.390898704528809 4.109903812408447 3.9137589931488037 3.785125970840454 3.7009668350219727 3.639334201812744 3.7208569049835205 3.964909076690674 4.55137300491333 -9999 -9999
-9999 4.170217037200928 4.6578192710876465 5.539510250091553 6.078640937805176 6.139211654663086 5.878335952758789 5.441447734832764 4.9849090576171875 4.563701629638672 4.216123580932617 3.883211612701416 3.5537052154541016 3.236360549926758 2.9726076126098633 2.7860236167907715 2.7062389850616455 2.425558567047119 -9999 -9999
-9999 4.6748247146606445 5.223271369934082 6.011474609375 6.407925605773926 6.253231525421143 5.812215328216553 5.282111167907715 4.805594444274902 4.379653453826904 4.003507614135742 3.605959415435791 3.1872637271881104 2.799041986465454 2.4427337646484375 2.14424204826355 1.9074442386627197 1.667239785194397 1.466362714767456 1.2707396745681763
-9999 -9999 5.7852959632873535 6.330770492553711 6.554741382598877 6.1949615478515625 5.558353424072266 4.923390865325928 4.408898830413818 3.985527276992798 3.615103244781494 3.221573829650879 2.8122737407684326 2.3729612827301025 2.0092434883117676 1.7354011535644531 1.4881293773651123 1.3060606718063354 1.1656529903411865 1.1914947032928467
-9999 -9999 6.317780017852783 6.575689792633057 6.5861496925354 6.0218682289123535 5.206953525543213 4.464852809906006 3.9039676189422607 3.5048940181732178 3.21610426902771 2.851144313812256 2.4508213996887207 2.033168077468872 1.7161734104156494 1.4839640855789185 1.2903223037719727 1.1644402742385864 1.192899227142334 1.209404706954956
-9999 -9999 -9999 6.674685001373291 6.582165718078613 5.927903652191162 5.016767978668213 4.2292351722717285 3.6668643951416016 3.298269748687744 3.012371778488159 2.7042388916015625 2.3104403018951416 1.9037742614746094 1.5790990591049194 1.3927935361862183 1.190086841583252 1.1873306035995483 1.2092067003250122 1.2217588424682617
