ncols         20
nrows         20
xllcorner     0
yllcorner     -3.5992928
cellsize      0.17996463
NODATA_value  -9999
-9999.0 -9999 -9999 -9999 -9999 -9999 -9999 -9999 -9999 -9999 -9999 -9999 -9999 -9999 -9999 -9999 -9999 -9999 -9999 -9999
-9999 -9999 -9999 -9999 -9999 -9999 -9999 -9999 -9999 -9999 -9999 0.1650831699371338 0.16532832384109497 -9999 -9999 0.18364474177360535 0.17375381290912628 -9999 -9999 -9999
-9999 -9999 -9999 -9999 0.13805566728115082 0.14716121554374695 0.16486960649490356 0.18158262968063354 0.1965767741203308 0.2116759717464447 0.20360055565834045 0.20100292563438416 0.21329763531684875 0.23177888989448547 0.22429341077804565 0.20496013760566711 0.19085395336151123 0.1843821257352829 -9999 -9999
-9999 -9999 -9999 0.1390152871608734 0.14627622067928314 0.1575409173965454 0.1756129413843155 0.19592039287090302 0.2225421965122223 0.2523833215236664 0.28278014063835144 0.303780198097229 0.32302719354629517 0.3227938115596771 0.30407917499542236 0.2705934941768646 0.24108663201332092 0.2252596616744995 -9999 -9999
-9999 -9999 -9999 0.14663030207157135 0.15596243739128113 0.17631980776786804 0.20115414261817932 0.2323063313961029 0.27831536531448364 0.3510890603065491 0.4430580139160156 0.5226702690124512 0.5639872550964355 0.542320191860199 0.4897453188896179 0.41377586126327515 0.3520841598510742 0.3410174548625946 -9999 -9999
-9999 -9999 0.14758408069610596 0.15801066160202026 0.17515212297439575 0.200606107711792 0.22796505689620972 0.26266151666641235 0.33067965507507324 0.44543394446372986 0.6129564642906189 0.7780923247337341 0.8989790081977844 0.8966836333274841 0.7936882972717285 0.6629227995872498 0.5553739070892334 0.5199931859970093 0.510737955570221 -9999
-9999 -9999 0.16394135355949402 0.17782361805438995 0.20831139385700226 0.24151042103767395 0.26293984055519104 0.28002744913101196 0.33775708079338074 0.4570377469062805 0.6529942750930786 0.9119940400123596 1.2048667669296265 1.3278130292892456 1.2605834007263184 1.073346495628357 0.8959822654724121 0.7728957533836365 0.7281216979026794 -9999
-9999 -9999 0.20863771438598633 0.23516631126403809 0.2839614450931549 0.3235645890235901 0.3273041248321533 0.260539174079895 0.2620910108089447 0.31834104657173157 0.43580329418182373 0.6834854483604431 1.3717750310897827 1.7455344200134277 1.8114597797393799 1.6519997119903564 1.4290958642959595 1.229276418685913 1.1455073356628418 -9999
-9999 0.27085885405540466 0.29578378796577454 0.3513018488883972 0.4421921372413635 0.512078046798706 0.49095821380615234 0.3347272574901581 0.2903998792171478 0.31625375151634216 0.42202502489089966 0.7117331027984619 1.610365390777588 2.2152462005615234 2.4855458736419678 2.4283607006073 2.170783519744873 1.9095052480697632 1.7864813804626465 -9999
-9999 0.3649575710296631 0.4256461560726166 0.5655624270439148 0.7433161735534668 0.8694854378700256 0.8232731223106384 0.5065514445304871 0.40743932127952576 0.4099034070968628 0.5119922757148743 0.8447721004486084 1.952315330505371 2.7761247158050537 3.24357533454895 3.34834885597229 3.1346514225006104 2.8489179611206055 2.705659866333008 -9999
-9999 0.5749649405479431 0.6837900280952454 0.9220358729362488 1.2042174339294434 1.4094955921173096 1.3507616519927979 0.7950678467750549 0.6436812877655029 0.6265110373497009 0.7198942303657532 1.0795559883117676 2.4465739727020264 3.4343159198760986 4.06380033493042 4.324240207672119 4.26357889175415 4.016292095184326 3.877232313156128 -9999
-9999 0.96686190366745 1.131726861000061 1.4996503591537476 1.9075709581375122 2.2030184268951416 2.1675057411193848 1.3541672229766846 1.177388310432434 1.1366690397262573 1.1961368322372437 1.524669885635376 3.0357825756073 4.032252788543701 4.722325801849365 5.143876075744629 5.270748138427734 5.170239448547363 5.082220554351807 -9999
-9999 1.6219003200531006 1.8811149597167969 2.4209108352661133 2.9341211318969727 3.323737144470215 3.4453160762786865 3.184884548187256 2.9180397987365723 2.7267091274261475 2.7220401763916016 2.9952774047851562 3.663065195083618 4.290393352508545 4.8455810546875 5.322833061218262 5.690699100494385 5.841240406036377 5.828420639038086 -9999
-9999 2.5316178798675537 2.88769268989563 3.5982565879821777 4.218094825744629 4.606395721435547 4.700371742248535 4.476869583129883 4.111597061157227 3.8014657497406006 3.64812970161438 3.6781651973724365 3.865694999694824 4.099643230438232 4.35319185256958 4.709444046020508 5.1790008544921875 5.699162006378174 5.84532356262207 -9999
-9999 3.4620604515075684 3.887591600418091 4.727973461151123 5.36688232421875 5.624262809753418 5.542208671569824 5.200895309448242 4.761654853820801 4.365869045257568 4.086156368255615 3.891288995742798 3.7641777992248535 3.682168483734131 3.6234421730041504 3.7077853679656982 3.954110622406006 4.541170597076416 -9999 -9999
-9999 4.141343116760254 4.62649393081665 5.50438117980957 6.043673515319824 6.109371662139893 5.851859092712402 5.416810035705566 4.961679935455322 4.541810035705566 4.195583343505859 3.8643758296966553 3.5370054244995117 3.222219944000244 2.96110200881958 2.776789665222168 2.698340892791748 2.418701648712158 -9999 -9999
-9999 4.641913890838623 5.187685966491699 5.9730658531188965 6.370809078216553 6.221808433532715 5.788349151611328 5.2620849609375 4.787601470947266 4.363072872161865 3.988192319869995 3.5921478271484375 3.17525577545166 2.7889151573181152 2.4344520568847656 2.1373469829559326 1.901028037071228 1.65995454788208 1.4578287601470947 1.262521743774414
-9999 -9999 5.746144771575928 6.290198802947998 6.516389846801758 6.163053512573242 5.534379959106445 4.906556129455566 4.395622730255127 3.9741649627685547 3.6049537658691406 3.2124507427215576 2.8041324615478516 2.3658623695373535 2.002944231033325 1.729334831237793 1.4817090034484863 1.2992339134216309 1.1584861278533936 1.1836178302764893
-9999 -9999 6.275224685668945 6.533585071563721 6.547327041625977 5.990395545959473 5.183834075927734 4.448681831359863 3.89359188079834 3.4971323013305664 3.2094554901123047 2.8450701236724854 2.4449973106384277 2.0273306369781494 1.7100987434387207 1.4777740240097046 1.283940076828003 1.15773344039917 1.1852314472198486 1.2012110948562622
-9999 -9999 -9999 6.632697105407715 6.543429374694824 5.896828651428223 4.994279861450195 4.213603973388672 3.6567351818084717 3.2914438247680664 3.0067927837371826 2.69872784614563 2.3045833110809326 1.8978787660598755 1.5731582641601562 1.3865864276885986 1.1838510036468506 1.1802278757095337 1.2012722492218018 1.2133700847625732
