ncols         20
nrows         20
xllcorner     0
yllcorner     -3.5992928
cellsize      0.17996463
NODATA_value  -9999
-9999.0 -9999 -9999 -9999 -9999 -9999 -9999 -9999 -9999 -9999 -9999 -9999 -9999 -9999 -9999 -9999 -9999 -9999 -9999 -9999
-9999 -9999 -9999 -9999 -9999 -9999 -9999 -9999 -9999 -9999 -9999 0.18987257778644562 0.18614637851715088 -9999 -9999 0.16479003429412842 0.1542435884475708 -9999 -9999 -9999
-9999 -9999 -9999 -9999 0.19232696294784546 0.2068842202425003 0.23324963450431824 0.25551798939704895 0.27034422755241394 0.2792872190475464 0.25327813625335693 0.23267482221126556 0.23105114698410034 0.2313561588525772 0.2090785652399063 0.1816665381193161 0.16359348595142365 0.15323661267757416 -9999 -9999
-9999 -9999 -9999 0.1843160092830658 0.19889935851097107 0.21900223195552826 0.2482869178056717 0.27776288986206055 0.3093112111091614 0.3354506492614746 0.35144296288490295 0.3482513725757599 0.3402979373931885 0.3121238350868225 0.27240994572639465 0.22801177203655243 0.19450131058692932 0.1770814210176468 -9999 -9999
-9999 -9999 -9999 0.1865556687116623 0.20458489656448364 0.2407572865486145 0.2855098843574524 0.3378418982028961 0.4019891619682312 0.4847938120365143 0.5631496906280518 0.5987020134925842 0.5786056518554688 0.49869170784950256 0.4092951714992523 0.32077687978744507 0.2583758234977722 0.24216097593307495 -9999 -9999
-9999 -9999 0.16088342666625977 0.18408077955245972 0.21660427749156952 0.2665206491947174 0.32877838611602783 0.40899425745010376 0.5296303629875183 0.6833552718162537 0.8447359204292297 0.9234977960586548 0.9065804481506348 0.7781842947006226 0.6108133792877197 0.4645494520664215 0.3632448613643646 0.3232758045196533 0.2995322346687317 -9999
-9999 -9999 0.16442276537418365 0.1872277706861496 0.23709259927272797 0.3076925277709961 0.3931974768638611 0.5116756558418274 0.6820501685142517 0.8961161971092224 1.1105718612670898 1.2338377237319946 1.2258241176605225 1.0868369340896606 0 0.675696849822998 0.5233161449432373 0.43075376749038696 0.39435845613479614 -9999
-9999 -9999 0.18057315051555634 0.2146385759115219 0.2857725918292999 0.3820405602455139 0.5082091093063354 0.6710875630378723 0.870509922504425 1.0997314453125 1.296571135520935 1.425201416015625 1.4379727840423584 1.3342498540878296 1.1502889394760132 0.9320242404937744 0.7450193166732788 0.6117693781852722 0.5579034686088562 -9999
-9999 0.17548787593841553 0.21002480387687683 0.2687530815601349 0.3782714307308197 0.5270426273345947 0.7036601305007935 0.9147539734840393 1.1313899755477905 1.3265676498413086 1.4680252075195312 1.5605249404907227 1.5930571556091309 1.5393823385238647 1.4181073904037476 0 1.0180153846740723 0.8547415733337402 0.7840622663497925 -9999
-9999 0.21190935373306274 0.25674542784690857 0.3618595600128174 0.5272918343544006 0.7403626441955566 0.9833390116691589 1.2349615097045898 1.4452670812606812 1.5856910943984985 1.6606067419052124 1.713613748550415 1.7413078546524048 1.7321416139602661 1.6645244359970093 0 1.331304907798767 1.1579805612564087 1.0802559852600098 -9999
-9999 0.2885855734348297 0.35032185912132263 0.49362048506736755 0.702583909034729 0.9655280113220215 1.2623710632324219 1.5399625301361084 1.7233266830444336 1.814422845840454 1.855933427810669 1.888042688369751 1.9217594861984253 1.9304019212722778 1.8966131210327148 1.8120994567871094 1.6611242294311523 1.5037082433700562 1.4278724193572998 -9999
-9999 0.4217258095741272 0.49904492497444153 0.6799015998840332 0.9195387363433838 1.1984919309616089 1.5005390644073486 1.7510963678359985 1.8827780485153198 1.9296201467514038 1.9496616125106812 1.9852491617202759 0 0 2.0594518184661865 0 1.9331706762313843 1.8214468955993652 1.760848879814148 -9999
-9999 0.6295113563537598 0.7321975827217102 0.9534473419189453 1.1961679458618164 1.4530960321426392 1.7000517845153809 1.8760613203048706 1.9317551851272583 1.9193856716156006 1.9061402082443237 1.9219224452972412 0 0 0 2.0034210681915283 2.0045835971832275 1.9825233221054077 1.9450355768203735 -9999
-9999 0.9011435508728027 1.0253665447235107 1.2766737937927246 1.5151519775390625 1.7137097120285034 1.8617643117904663 1.9274152517318726 1.904130458831787 1.8453524112701416 1.7949832677841187 1.7666829824447632 0 0 0 1.7262295484542847 1.7949947118759155 1.9095027446746826 1.9210193157196045 -9999
-9999 1.1560746431350708 1.2877622842788696 1.551790714263916 1.7646352052688599 1.8825620412826538 1.9243360757827759 1.899823546409607 1.8305233716964722 1.7516999244689941 1.684056282043457 1.6084046363830566 1.5293160676956177 1.4497727155685425 0 0 1.384579062461853 1.5497578382492065 -9999 -9999
-9999 1.3186603784561157 1.453401803970337 1.706552267074585 1.8697504997253418 1.912899374961853 1.8808788061141968 1.8090789318084717 1.7340525388717651 1.6639859676361084 0 0 0 1.2232649326324463 0 0 0.9706498980522156 0 -9999 -9999
-9999 1.4348011016845703 1.5629562139511108 1.774718999862671 1.88898766040802 1.866205096244812 1.7798216342926025 1.6806691884994507 1.6070787906646729 0 0 0 0 1.0436021089553833 0.9069777131080627 0.7924386858940125 0.7026305198669434 0.6195722818374634 0 0
-9999 -9999 1.661052942276001 1.8079638481140137 1.875808835029602 1.79911208152771 1.6619960069656372 1.539188027381897 0 0 0 0 0 0 0 0 0 0 0 0
-9999 -9999 1.7747089862823486 1.8379229307174683 1.8496334552764893 1.7212085723876953 1.537714958190918 1.3846971988677979 0 0 0 0 0 0 0 0 0 0 0 0
-9999 -9999 -9999 1.8431050777435303 1.8310946226119995 1.6815475225448608 1.4734240770339966 1.307114839553833 0 0 0 0 0 0 0 0 0 0 0 0
