ncols         20
nrows         20
xllcorner     0
yllcorner     -3.5992928
cellsize      0.17996463
NODATA_value  -9999
-9999.0 -9999 -9999 -9999 -9999 -9999 -9999 -9999 -9999 -9999 -9999 -9999 -9999 -9999 -9999 -9999 -9999 -9999 -9999 -9999
-9999 -9999 -9999 -9999 -9999 -9999 -9999 -9999 -9999 -9999 -9999 1.0554202795028687 1.031799554824829 -9999 -9999 0.9106162786483765 0.8529322743415833 -9999 -9999 -9999
-9999 -9999 -9999 -9999 1.177888035774231 1.25443696975708 1.3886131048202515 1.486203908920288 1.533701777458191 1.548398494720459 1.3798809051513672 1.2590534687042236 1.2384144067764282 1.2202228307724 1.1011263132095337 0.9705589413642883 0.8760145306587219 0.8116706013679504 -9999 -9999
-9999 -9999 -9999 1.1098252534866333 1.1973564624786377 1.302243709564209 1.445303201675415 1.5741002559661865 1.702102780342102 1.7942091226577759 1.8339440822601318 1.7861019372940063 1.7244559526443481 1.5690585374832153 1.3677574396133423 1.1509695053100586 0.9846793413162231 0.894614577293396 -9999 -9999
-9999 -9999 -9999 1.0917143821716309 1.1891100406646729 1.3736377954483032 1.5848000049591064 1.8128939867019653 2.0773708820343018 2.4126317501068115 2.713168144226074 2.8181469440460205 2.685894727706909 2.2993524074554443 1.8857951164245605 1.4829585552215576 1.19692862033844 1.1185638904571533 -9999 -9999
-9999 -9999 0.8741273880004883 1.0182278156280518 1.186992883682251 1.4246597290039062 1.6971380710601807 2.0228614807128906 2.4974911212921143 3.07625150680542 3.6556105613708496 3.8871119022369385 3.7538645267486572 3.197719097137451 2.5089783668518066 1.9139750003814697 1.4962034225463867 1.3161888122558594 1.16629958152771 -9999
-9999 -9999 0.8473258018493652 0.9627774357795715 1.1946911811828613 1.4979442358016968 1.8312052488327026 2.261756181716919 2.8511316776275635 3.5507378578186035 4.205870628356934 4.521185874938965 4.406980514526367 3.87290096282959 3.165498971939087 2.4171228408813477 1.8803657293319702 1.5470622777938843 1.401610016822815 -9999
-9999 -9999 0.8450890779495239 0.9928973913192749 1.282048225402832 1.639464259147644 2.0645904541015625 2.564523696899414 3.1270108222961426 3.7275314331054688 4.186088562011719 4.433852672576904 4.373272895812988 4.01530122756958 3.459904193878174 2.8185129165649414 2.27419114112854 1.8808362483978271 1.717747449874878 -9999
-9999 0.6834114789962769 0.8563284873962402 1.0841619968414307 1.4671671390533447 1.933901071548462 2.4189391136169434 2.9297142028808594 3.381375312805176 3.7261898517608643 3.9168317317962646 4.001993179321289 3.979591131210327 3.796584129333496 3.493267059326172 3.075704336166382 2.566380023956299 2.1852316856384277 2.0194008350372314 -9999
-9999 0.753649890422821 0.9147642850875854 1.2541821002960205 1.7388358116149902 2.285525321960449 2.8084635734558105 3.2473208904266357 3.5130298137664795 3.60090708732605 3.5694634914398193 3.5309698581695557 3.4870476722717285 3.419572353363037 3.2852704524993896 3.079598903656006 2.706183910369873 2.3989813327789307 2.26310133934021 -9999
-9999 0.8959001302719116 1.0726683139801025 1.4571576118469238 1.9589226245880127 2.495530605316162 2.980379343032837 3.3054418563842773 3.3882200717926025 3.312239646911621 3.1928086280822754 3.1042253971099854 3.0614609718322754 3.0307507514953613 2.9810268878936768 2.881211042404175 2.694093942642212 2.4912593364715576 2.397942304611206 -9999
-9999 1.1210212707519531 1.3001134395599365 1.6953984498977661 2.1497652530670166 2.5763442516326904 2.921893358230591 3.080761432647705 3.024763822555542 2.875565528869629 2.739987850189209 2.666639804840088 2.671156406402588 2.6672282218933105 2.6410605907440186 2.6388356685638428 2.5446953773498535 2.445270299911499 2.397531747817993 -9999
-9999 1.4272029399871826 1.6168358325958252 1.9968194961547852 2.3285133838653564 2.583707094192505 2.7324864864349365 2.731058359146118 2.5830748081207275 2.3973143100738525 2.259143829345703 2.1884207725524902 2.193643808364868 2.196816921234131 2.213423728942871 2.228562116622925 2.254140853881836 2.2614526748657227 2.251955986022949 -9999
-9999 1.7550921440124512 1.9304380416870117 2.2511491775512695 2.4545364379882812 2.524770975112915 2.4903202056884766 2.36082124710083 2.168435573577881 1.9750452041625977 1.8359507322311401 1.7547204494476318 1.7255127429962158 1.7010310888290405 1.6930034160614014 1.7173293828964233 1.8138127326965332 1.9664301872253418 2.0363311767578125 -9999
-9999 1.9607038497924805 2.0893137454986572 2.3241348266601562 2.4043099880218506 2.3328299522399902 2.1861772537231445 2.0037035942077637 1.8073618412017822 1.643385410308838 1.5289349555969238 1.4397046566009521 1.3692578077316284 1.311344861984253 1.2728201150894165 1.2707631587982178 1.3184318542480469 1.4971144199371338 -9999 -9999
-9999 1.9847661256790161 2.0553083419799805 2.1974568367004395 2.180495262145996 2.040560007095337 1.860939621925354 1.6739894151687622 1.5210601091384888 1.4070860147476196 1.3339033126831055 1.2517608404159546 1.1613010168075562 1.063417911529541 0.995735764503479 0.9428565502166748 0.9206698536872864 0.8427597880363464 -9999 -9999
-9999 1.984483242034912 1.9371743202209473 1.9847304821014404 1.918587565422058 1.7539291381835938 1.5627952814102173 1.398226022720337 1.2872194051742554 1.217068076133728 1.1568185091018677 1.0829955339431763 0.9927065372467041 0.8978371024131775 0.8145597577095032 0.7439384460449219 0.6913570761680603 0.6431519985198975 0.625357985496521 0.5675324201583862
-9999 -9999 1.7408099174499512 1.7639423608779907 1.6886961460113525 1.5169265270233154 1.327208399772644 1.183114767074585 1.1028214693069458 1.0458626747131348 0.9987923502922058 0.9391066431999207 0.8655802607536316 0.7714223861694336 0.6916579604148865 0.6326509118080139 0.5756298303604126 0.5382845401763916 0.5119423866271973 0.5404503345489502
-9999 -9999 1.6809028387069702 1.6131929159164429 1.5191271305084229 1.339680552482605 1.1495192050933838 1.0112818479537964 0.9376257658004761 0.8942198753356934 0.8724915981292725 0.8243868350982666 0.7570695877075195 0.6726415157318115 0.6083078384399414 0.5624682903289795 0.5221262574195862 0.5006213188171387 0.5371528267860413 0.5580313801765442
-9999 -9999 -9999 1.490875005722046 1.4280312061309814 1.2542146444320679 1.0651081800460815 0.9313603043556213 0.8645117878913879 0.8319467902183533 0.8125820159912109 0.7810724973678589 0.716764509677887 0.6363487839698792 0.569011390209198 0.5387613773345947 0.49314719438552856 0.5206415057182312 0.5522426962852478 0.5699672102928162
