ncols         20
nrows         20
xllcorner     0
yllcorner     -3.5992928
cellsize      0.17996463
NODATA_value  -9999
-9999.0 -9999 -9999 -9999 -9999 -9999 -9999 -9999 -9999 -9999 -9999 -9999 -9999 -9999 -9999 -9999 -9999 -9999 -9999 -9999
-9999 -9999 -9999 -9999 -9999 -9999 -9999 -9999 -9999 -9999 -9999 0.8284091949462891 0.8096832633018494 -9999 -9999 0.7183181047439575 0.6731796264648438 -9999 -9999 -9999
-9999 -9999 -9999 -9999 0.9469005465507507 1.005767822265625 1.1084535121917725 1.1805474758148193 1.212531566619873 1.2193371057510376 1.0836135149002075 0.9873261451721191 0.970560610294342 0.9564183950424194 0.8646406531333923 0.7643179297447205 0.6909278631210327 0.6404557228088379 -9999 -9999
-9999 -9999 -9999 0.8956266045570374 0.9639876484870911 1.0448286533355713 1.1542150974273682 1.250598430633545 1.3453047275543213 1.4115533828735352 1.4377249479293823 1.3975255489349365 1.3485429286956787 1.2281322479248047 1.073021411895752 0.9053657650947571 0.7759974598884583 0.7054716944694519 -9999 -9999
-9999 -9999 -9999 0.882231593132019 0.9587761759757996 1.103317141532898 1.2667940855026245 1.4413753747940063 1.6421713829040527 1.8958661556243896 2.123181104660034 2.2007055282592773 2.097010374069214 1.798535943031311 1.480315923690796 1.166978120803833 0.943336009979248 0.8818747401237488 -9999 -9999
-9999 -9999 0.7102857232093811 0.8251270055770874 0.9590201377868652 1.1465234756469727 1.35970938205719 1.612540364265442 1.9792479276657104 2.427008867263794 2.8757121562957764 3.0539848804473877 2.949502944946289 2.517301082611084 1.9825725555419922 1.5131123065948486 1.1828854084014893 1.0399256944656372 0.9216461777687073 -9999
-9999 -9999 0.6893291473388672 0.7819401025772095 0.9676018953323364 1.209197998046875 1.473043441772461 1.811959147453308 2.2774250507354736 2.8324832916259766 3.3545188903808594 3.607189655303955 3.517784357070923 3.0980124473571777 2.553424835205078 1.9346415996551514 1.4983456134796143 1.2288936376571655 1.111628532409668 -9999
-9999 -9999 0.688539981842041 0.8080906271934509 1.0414026975631714 1.329229474067688 1.6707803010940552 2.0742299556732178 2.532444953918457 3.027008056640625 3.4088265895843506 3.617305278778076 3.5698280334472656 3.277647018432617 2.825934886932373 2.295908212661743 1.8388174772262573 1.5111775398254395 1.3753182888031006 -9999
-9999 0.5581446290016174 0.6989001035690308 0.8844051957130432 1.1960495710372925 1.5775177478790283 1.9775177240371704 2.405883312225342 2.794452667236328 3.0994739532470703 3.2746927738189697 3.355890989303589 3.340069055557251 3.184704542160034 2.9303078651428223 2.593484878540039 2.124661684036255 1.7886348962783813 1.6434085369110107 -9999
-9999 0.6158642172813416 0.7479054927825928 1.0263361930847168 1.4261229038238525 1.8830339908599854 2.3308215141296387 2.7227158546447754 2.977940797805786 3.0812735557556152 3.0752358436584473 3.0548269748687744 3.0221896171569824 2.9614405632019043 2.8415164947509766 2.676129102706909 2.300135374069214 2.0108652114868164 1.8835679292678833 -9999
-9999 0.733360230922699 0.8796517252922058 1.1993870735168457 1.6221849918365479 2.0853841304779053 2.5225186347961426 2.8402092456817627 2.9526665210723877 2.918954849243164 2.8372299671173096 2.776365041732788 2.753236770629883 2.722846508026123 2.660266160964966 2.5551910400390625 2.3503973484039307 2.144876480102539 2.050128698348999 -9999
-9999 0.9218672513961792 1.0731192827224731 1.4095463752746582 1.8058336973190308 2.193655014038086 2.530893325805664 2.716559886932373 2.707918167114258 2.604241371154785 2.5045857429504395 2.4637978076934814 2.5186281204223633 2.515472888946533 2.44356107711792 2.4266300201416016 2.2806284427642822 2.1607449054718018 2.104836940765381 -9999
-9999 1.1854195594787598 1.3506072759628296 1.6865028142929077 1.9947509765625 2.251988649368286 2.428022623062134 2.4706690311431885 2.3695592880249023 2.221498489379883 2.1117501258850098 2.069880247116089 2.124460220336914 2.131638765335083 2.116774559020996 2.069796085357666 2.05023193359375 2.0328423976898193 2.014622449874878 -9999
-9999 1.481763243675232 1.6421875953674316 1.942298173904419 2.1553752422332764 2.260493040084839 2.271810293197632 2.18709135055542 2.0310328006744385 1.8653403520584106 1.746090054512024 1.6837037801742554 1.687632441520691 1.664646029472351 1.6368687152862549 1.6082197427749634 1.661565899848938 1.780998706817627 1.8375813961029053 -9999
-9999 1.690414309501648 1.8182414770126343 2.0569605827331543 2.1704773902893066 2.1466071605682373 2.0439248085021973 1.8952617645263672 1.7250665426254272 1.5794057846069336 1.4782427549362183 1.3953460454940796 1.3282506465911865 1.2653073072433472 1.2277581691741943 1.2025736570358276 1.2122657299041748 1.360623836517334 -9999 -9999
-9999 1.748134970664978 1.833004355430603 1.9979528188705444 2.0229527950286865 1.9253201484680176 1.7774124145507812 1.6142890453338623 1.4787670373916626 1.380674958229065 1.3274285793304443 1.2446136474609375 1.1431090831756592 1.0234129428863525 0.9544095396995544 0.8895854353904724 0.848382294178009 0.7751466035842896 -9999 -9999
-9999 1.7766834497451782 1.7723326683044434 1.8542221784591675 1.8261890411376953 1.6913760900497437 1.522096037864685 1.3728636503219604 1.2770731449127197 1.2276766300201416 1.1725654602050781 1.091285228729248 0.9849722981452942 0.8655125498771667 0.7727120518684387 0.6953408718109131 0.6375805735588074 0.5909258127212524 0.5789645314216614 0.5266056060791016
-9999 -9999 1.6499375104904175 1.6949350833892822 1.645660638809204 1.4919768571853638 1.3143473863601685 1.1809189319610596 1.121069073677063 1.0720107555389404 1.022993803024292 0.9535403847694397 0.865654468536377 0.7560170292854309 0.6660895347595215 0.6002329587936401 0.5397053360939026 0.5015199780464172 0.4765452742576599 0.5030491948127747
-9999 -9999 1.629623532295227 1.585378885269165 1.5080571174621582 1.3376268148422241 1.1521093845367432 1.0201444625854492 0.9634459614753723 0.923685610294342 0.89821457862854 0.8403605222702026 0.7605273723602295 0.6639257073402405 0.5903443098068237 0.5379321575164795 0.4935692548751831 0.46974897384643555 0.5022915601730347 0.5211568474769592
-9999 -9999 -9999 1.4901340007781982 1.432555079460144 1.262732744216919 1.07431161403656 0.9444219470024109 0.8922634124755859 0.8621406555175781 0.8383364677429199 0.7975969314575195 0.7214928865432739 0.6299262642860413 0.5539912581443787 0.5170741081237793 0.4677620828151703 0.49008241295814514 0.5176780819892883 0.5333762168884277
