ncols         20
nrows         20
xllcorner     0
yllcorner     -3.5992928
cellsize      0.17996463
NODATA_value  -9999
-9999.0 -9999 -9999 -9999 -9999 -9999 -9999 -9999 -9999 -9999 -9999 -9999 -9999 -9999 -9999 -9999 -9999 -9999 -9999 -9999
-9999 -9999 -9999 -9999 -9999 -9999 -9999 -9999 -9999 -9999 -9999 13.39739990234375 13.400930404663086 -9999 -9999 13.170415878295898 13.237399101257324 -9999 -9999 -9999
-9999 -9999 -9999 -9999 13.208452224731445 13.191561698913574 13.151302337646484 13.16780948638916 13.212900161743164 13.243678092956543 13.35757827758789 13.334853172302246 13.269519805908203 13.217218399047852 13.202903747558594 13.182121276855469 13.2196683883667 13.268879890441895 -9999 -9999
-9999 -9999 -9999 13.146965026855469 13.150334358215332 13.176284790039062 13.21017074584961 13.258201599121094 13.284260749816895 13.294946670532227 13.282480239868164 13.241052627563477 13.180110931396484 13.153668403625488 13.121360778808594 13.105550765991211 13.115503311157227 13.13449478149414 -9999 -9999
-9999 -9999 -9999 13.12344741821289 13.171296119689941 13.250284194946289 13.40670394897461 13.508687019348145 13.565629959106445 13.58557415008545 13.582021713256836 13.557355880737305 13.498249053955078 13.425732612609863 13.316272735595703 13.202432632446289 13.045327186584473 12.895052909851074 -9999 -9999
-9999 -9999 13.083999633789062 13.119516372680664 13.258522033691406 13.541375160217285 13.984688758850098 14.191911697387695 14.303655624389648 14.40945053100586 14.510318756103516 14.560189247131348 14.508468627929688 14.357806205749512 14.124637603759766 13.796575546264648 13.218880653381348 12.89367961883545 12.859430313110352 -9999
-9999 -9999 13.064287185668945 13.20023250579834 13.482346534729004 13.984827041625977 14.355670928955078 14.608695030212402 14.83734130859375 15.08288860321045 15.293819427490234 15.401105880737305 15.368250846862793 15.179615020751953 14.829727172851562 14.344106674194336 13.610246658325195 13.121301651000977 12.91399097442627 -9999
-9999 -9999 12.940093994140625 13.265044212341309 13.799481391906738 14.218271255493164 14.572068214416504 14.921606063842773 15.286747932434082 15.628701210021973 15.883465766906738 16.009424209594727 15.996526718139648 15.832783699035645 15.50065803527832 15.010038375854492 14.374792098999023 13.681131362915039 13.303265571594238 -9999
-9999 12.373151779174805 12.66706371307373 13.396247863769531 13.901464462280273 14.34078311920166 14.808808326721191 15.293627738952637 15.742406845092773 16.09757423400879 16.331378936767578 16.44506072998047 16.444974899291992 16.32608985900879 16.067537307739258 15.652886390686035 15.138343811035156 14.564952850341797 14.068381309509277 -9999
-9999 12.062201499938965 12.40813159942627 13.304018020629883 13.947661399841309 14.563125610351562 15.189532279968262 15.765024185180664 16.212081909179688 16.51116180419922 16.68686866760254 16.76957130432129 16.77178192138672 16.695167541503906 16.519296646118164 16.217750549316406 15.82514762878418 15.36175537109375 14.958624839782715 -9999
-9999 11.724185943603516 12.161055564880371 13.264839172363281 14.130937576293945 14.917094230651855 15.644039154052734 16.232887268066406 16.623998641967773 16.851177215576172 16.968826293945312 17.015605926513672 17.008159637451172 16.961748123168945 16.862455368041992 16.6758975982666 16.40782928466797 16.055498123168945 15.820087432861328 -9999
-9999 11.57776165008545 12.161641120910645 13.461859703063965 14.489384651184082 15.34804916381836 16.072378158569336 16.605304718017578 16.930898666381836 17.107675552368164 17.18572425842285 17.202505111694336 17.164487838745117 17.135509490966797 17.101825714111328 16.99310302734375 16.849613189697266 16.649215698242188 16.534286499023438 -9999
-9999 11.92042350769043 12.621987342834473 13.999454498291016 15.041773796081543 15.839471817016602 16.453453063964844 16.885013580322266 17.14842987060547 17.286386489868164 17.351308822631836 17.35981559753418 17.32482147216797 17.306562423706055 17.28532600402832 17.25128173828125 17.155935287475586 17.04010009765625 17.001718521118164 -9999
-9999 12.784737586975098 13.495756149291992 14.784518241882324 15.718673706054688 16.35541534423828 16.799192428588867 17.102214813232422 17.295860290527344 17.39667510986328 17.444257736206055 17.458948135375977 17.44963836669922 17.454301834106445 17.460357666015625 17.451221466064453 17.385549545288086 17.273717880249023 17.291683197021484 -9999
-9999 13.747488021850586 14.397115707397461 15.528243064880371 16.317081451416016 16.790170669555664 17.081748962402344 17.27353858947754 17.386842727661133 17.44904327392578 17.47740936279297 17.501535415649414 17.52524757385254 17.55246925354004 17.574562072753906 17.582019805908203 17.559978485107422 17.443340301513672 -9999 -9999
-9999 14.446595191955566 15.048116683959961 16.03412437438965 16.701393127441406 17.078134536743164 17.276121139526367 17.38571548461914 17.438617706298828 17.462066650390625 17.4642391204834 17.488422393798828 17.529165267944336 17.580198287963867 17.614395141601562 17.646682739257812 17.670879364013672 17.72769546508789 -9999 -9999
-9999 14.897134780883789 15.524813652038574 16.345291137695312 16.918964385986328 17.253494262695312 17.397380828857422 17.464479446411133 17.48210906982422 17.478675842285156 17.481266021728516 17.503036499023438 17.541276931762695 17.587732315063477 17.627511978149414 17.663028717041016 17.690719604492188 17.708709716796875 17.647796630859375 17.654813766479492
-9999 -9999 16.04450225830078 16.57769775390625 17.052549362182617 17.344165802001953 17.474666595458984 17.52394676208496 17.52219581604004 17.518434524536133 17.515565872192383 17.530078887939453 17.556936264038086 17.599809646606445 17.63310432434082 17.655588150024414 17.6793212890625 17.690143585205078 17.678998947143555 17.650522232055664
-9999 -9999 16.45010757446289 16.780990600585938 17.154338836669922 17.414794921875 17.54175567626953 17.58924102783203 17.58505630493164 17.572101593017578 17.554771423339844 17.563203811645508 17.58616828918457 17.620342254638672 17.640249252319336 17.650609970092773 17.663818359375 17.666093826293945 17.635908126831055 17.618331909179688
-9999 -9999 -9999 16.923004150390625 17.2094783782959 17.44131088256836 17.568653106689453 17.615297317504883 17.60484504699707 17.586639404296875 17.569936752319336 17.567249298095703 17.58890151977539 17.620250701904297 17.641084671020508 17.641193389892578 17.657718658447266 17.63468360900879 17.612262725830078 17.601497650146484
