ncols         20
nrows         20
xllcorner     0
yllcorner     -3.5992928
cellsize      0.17996463
NODATA_value  -9999
-9999.0 -9999 -9999 -9999 -9999 -9999 -9999 -9999 -9999 -9999 -9999 -9999 -9999 -9999 -9999 -9999 -9999 -9999 -9999 -9999
-9999 -9999 -9999 -9999 -9999 -9999 -9999 -9999 -9999 -9999 -9999 0.26147711277008057 0.25630536675453186 -9999 -9999 0.22817550599575043 0.21365852653980255 -9999 -9999 -9999
-9999 -9999 -9999 -9999 0.269891619682312 0.2897219657897949 0.3253708779811859 0.35464656352996826 0.37331387400627136 0.3840232491493225 0.3473154604434967 0.31893616914749146 0.31652989983558655 0.31665852665901184 0.2866874933242798 0.2501775622367859 0.22567236423492432 0.2112460434436798 -9999 -9999
-9999 -9999 -9999 0.25859060883522034 0.2787564694881439 0.306014746427536 0.34527042508125305 0.3840337097644806 0.4251297414302826 0.45868104696273804 0.47868385910987854 0.4733717143535614 0.4622518718242645 0.4242289662361145 0.371010959148407 0.31148776412010193 0.26627984642982483 0.24257850646972656 -9999 -9999
-9999 -9999 -9999 0.2609900236129761 0.2856127917766571 0.3346080482006073 0.3944123387336731 0.46349290013313293 0.5475842356681824 0.655990719795227 0.7583014965057373 0.804039478302002 0.7766110897064209 0.6702289581298828 0.5516223907470703 0.4335351586341858 0.3499005138874054 0.32809096574783325 -9999 -9999
-9999 -9999 0.2235611379146576 0.25594985485076904 0.300210565328598 0.36729371547698975 0.44991233944892883 0.5552740097045898 0.7130767107009888 0.9135550856590271 1.1235357522964478 1.2250927686691284 1.2021828889846802 1.0336582660675049 0.81400066614151 0.6206420063972473 0.4860692024230957 0.43236640095710754 0.3989901542663574 -9999
-9999 -9999 0.226949542760849 0.25801217555999756 0.32516732811927795 0.41911551356315613 0.5313497185707092 0.6854400038719177 0.9062511324882507 1.1827503442764282 1.458998441696167 1.6171878576278687 1.6066066026687622 1.427566409111023 0 0.8928999900817871 0.6922308802604675 0.5698577761650085 0.521190881729126 -9999
-9999 -9999 0.2462378889322281 0.29193949699401855 0.3864482343196869 0.5127524137496948 0.6762441992759705 0.8855519890785217 1.1404649019241333 1.4328484535217285 1.683351755142212 1.8474185466766357 1.8645126819610596 1.7335166931152344 1.4996984004974365 1.218802809715271 0.9749881625175476 0.8004919290542603 0.7296342253684998 -9999
-9999 0.2344101369380951 0.2817930281162262 0.3597593605518341 0.5031512975692749 0.6955919861793518 0.9212085008621216 1.1886515617370605 1.461492896080017 1.706811547279358 1.8847819566726685 2.0026395320892334 2.0463926792144775 1.9818376302719116 1.832185983657837 0 1.3198496103286743 1.1068142652511597 1.014401912689209 -9999
-9999 0.2801554203033447 0.33937492966651917 0.47653141617774963 0.6900961995124817 0.9618687033653259 1.2681163549423218 1.582476019859314 1.8435664176940918 2.0177383422851562 2.111894369125366 2.181727170944214 2.2220146656036377 2.215852975845337 2.135579824447632 0 1.710534930229187 1.4847524166107178 1.3833379745483398 -9999
-9999 0.3761419653892517 0.4560093879699707 0.6403074264526367 0.9064429998397827 1.237654209136963 1.6077580451965332 1.951169729232788 2.1767053604125977 2.2897770404815674 2.345090627670288 2.3936145305633545 2.447946310043335 2.4658925533294678 2.424187421798706 2.3174991607666016 2.1180667877197266 1.912287950515747 1.8128198385238647 -9999
-9999 0.5418844819068909 0.6404663920402527 0.87004154920578 1.1714696884155273 1.5188454389572144 1.892124891281128 2.200223922729492 2.362363815307617 2.423454999923706 2.4569242000579834 2.5178041458129883 0 0 2.639514446258545 0 2.4571478366851807 2.304903984069824 2.222723960876465 -9999
-9999 0.7988417148590088 0.9281328320503235 1.2057565450668335 1.5074634552001953 1.8242121934890747 2.1274499893188477 2.3440630435943604 2.4152066707611084 2.406904458999634 2.4031383991241455 2.443294048309326 0 0 0 2.5634255409240723 2.546293258666992 2.505171537399292 2.4490840435028076 -9999
-9999 1.1320730447769165 1.2869212627410889 1.5991804599761963 1.8928903341293335 2.135864019393921 2.3177294731140137 2.4012832641601562 2.379415273666382 2.3183231353759766 2.2715418338775635 2.256162643432617 0 0 0 2.220792531967163 2.2904856204986572 2.420881986618042 2.4194495677948 -9999
-9999 1.4413700103759766 1.6040629148483276 1.9296432733535767 2.1904401779174805 2.334981679916382 2.3892178535461426 2.3666188716888428 2.2939388751983643 2.213688373565674 2.149075746536255 2.0707192420959473 1.9838366508483887 1.8887536525726318 0 0 1.788094162940979 1.9904028177261353 -9999 -9999
-9999 1.6350210905075073 1.799924612045288 2.1106209754943848 2.310741662979126 2.366208791732788 2.334334373474121 2.2596099376678467 2.1869454383850098 2.125192642211914 0 0 0 1.6092325448989868 0 0 1.2753173112869263 0 -9999 -9999
-9999 1.7728171348571777 1.9264706373214722 2.1856653690338135 2.327549695968628 2.30570125579834 2.2120563983917236 2.1096765995025635 2.046107053756714 0 0 0 0 1.388771414756775 1.2094472646713257 1.0580801963806152 0.939130425453186 0.8322462439537048 0 0
-9999 -9999 2.037912130355835 2.219072103500366 2.3065998554229736 2.2222821712493896 2.070469856262207 1.9437159299850464 0 0 0 0 0 0 0 0 0 0 0 0
-9999 -9999 2.1719272136688232 2.250843048095703 2.271451473236084 2.1263315677642822 1.9195810556411743 1.756308913230896 0 0 0 0 0 0 0 0 0 0 0 0
-9999 -9999 -9999 2.255006790161133 2.2471201419830322 2.0773892402648926 1.8412129878997803 1.6614515781402588 0 0 0 0 0 0 0 0 0 0 0 0
