ncols         20
nrows         20
xllcorner     0
yllcorner     -3.5992928
cellsize      0.17996463
NODATA_value  -9999
-9999.0 -9999 -9999 -9999 -9999 -9999 -9999 -9999 -9999 -9999 -9999 -9999 -9999 -9999 -9999 -9999 -9999 -9999 -9999 -9999
-9999 -9999 -9999 -9999 -9999 -9999 -9999 -9999 -9999 -9999 -9999 0.125828355550766 0.12598465383052826 -9999 -9999 0.12861573696136475 0.128805011510849 -9999 -9999 -9999
-9999 -9999 -9999 -9999 0.12458226084709167 0.12456158548593521 0.12459608912467957 0.12471342086791992 0.1249280497431755 0.12523342669010162 0.12559446692466736 0.11647682636976242 0.11694485694169998 0.1273738294839859 0.12810516357421875 0.11905967444181442 0.11961918324232101 0.13004466891288757 -9999 -9999
-9999 -9999 -9999 0.12491492927074432 0.11535114049911499 0.09812673181295395 0.09815369546413422 0.09827041625976562 0.09848135709762573 0.09877506643533707 0.0991320088505745 0.09200111031532288 0.0924655944108963 0.10068947076797485 0.10131988674402237 0.09429152309894562 0.102742038667202 0.131120964884758 -9999 -9999
-9999 -9999 -9999 0.12519347667694092 0.09843964874744415 0.07158838212490082 0.06601246446371078 0.06612911075353622 0.06633191555738449 0.06660734117031097 0.06693373620510101 0.06226745620369911 0.06265785545110703 0.06822703778743744 0.06877195835113525 0.06945694983005524 0.10436596721410751 0.13320448994636536 -9999 -9999
-9999 -9999 0.1259806603193283 0.11622324585914612 0.09134094417095184 0.06131695210933685 0.0379253588616848 0.03802099451422691 0.03819149732589722 0.03841831907629967 0.03868236392736435 0.03594747185707092 0.0362553596496582 0.03971265256404877 0.04018533602356911 0.06576015055179596 0.09867473691701889 0.126368910074234 0.1384623497724533 -9999
-9999 -9999 0.1264461874961853 0.09943218529224396 0.07233662158250809 0.04862747713923454 0.027711454778909683 0.01869947463274002 0.018815569579601288 0.018970327451825142 0.019152022898197174 0.01786743849515915 0.018097611144185066 0.01992635615170002 0.030134068801999092 0.05353957414627075 0.0801909789443016 0.11071690171957016 0.14128316938877106 -9999
-9999 -9999 0.1272449493408203 0.10011836886405945 0.06721018254756927 0.038514405488967896 0.018850933760404587 0.00922851637005806 0.007945557124912739 0.008034886792302132 0.008142808452248573 0.007640752475708723 0.007802536245435476 0.010172579437494278 0.021259330213069916 0.0438418835401535 0.0767875611782074 0.11455298960208893 0.14567314088344574 -9999
-9999 0.12898041307926178 0.11879860609769821 0.09340528398752213 0.06283686310052872 0.035955850034952164 0.017645129933953285 0.007405443582683802 0.0028908131644129753 0.002940868027508259 0.0029999888502061367 0.0028282690327614546 0.003179984400048852 0.009193971753120422 0.02230035327374935 0.04578927531838417 0.0799500048160553 0.11898722499608994 0.15109261870384216 -9999
-9999 0.13013271987438202 0.1023884266614914 0.07459935545921326 0.050284698605537415 0.028926702216267586 0.014185380190610886 0.00596047705039382 0.0021814722567796707 0.0014418326318264008 0.0014851022278890014 0.0015280719380825758 0.0033746622502803802 0.009666330181062222 0.02333146333694458 0.047786083072423935 0.08329670876264572 0.12381293624639511 0.1570999175310135 -9999
-9999 0.13209035992622375 0.10411100089550018 0.07008884847164154 0.040324144065380096 0.019823990762233734 0.009741813875734806 0.0041242134757339954 0.0015174738364294171 0.0015107111539691687 0.0015624860534444451 0.0016112365992739797 0.0035518426448106766 0.010120563209056854 0.024350866675376892 0.04979242384433746 0.08670029789209366 0.128749817609787 0.16324672102928162 -9999
-9999 0.1347697526216507 0.10633312165737152 0.07171371579170227 0.04134821519255638 0.02037138305604458 0.008579659275710583 0.0031085077207535505 0.0015127884689718485 0.0015739348018541932 0.0016325884498655796 0.0017819516360759735 0.005180407781153917 0.012476210482418537 0.02536313608288765 0.051790736615657806 0.09006734937429428 0.13355541229248047 0.1690952330827713 -9999
-9999 0.13805514574050903 0.1090056300163269 0.07360903173685074 0.04249756038188934 0.02110467106103897 0.00891474075615406 0.0032410502899438143 0.0015642537036910653 0.001629197271540761 0.0016940231435000896 0.0027655763551592827 0.008007572963833809 0.019238529726862907 0.03948552906513214 0.06859500706195831 0.10131528228521347 0.13810299336910248 0.17416824400424957 -9999
-9999 0.14171777665615082 0.11197264492511749 0.07599256187677383 0.043970346450805664 0.021733855828642845 0.00918551255017519 0.0033377213403582573 0.0016084194649010897 0.0016746358014643192 0.0017417967319488525 0.0036098938435316086 0.010425451211631298 0.025187738239765167 0.05157724395394325 0.0897219181060791 0.13292068243026733 0.1674433797597885 0.17773789167404175 -9999
-9999 0.14540894329547882 0.1150139719247818 0.07814878970384598 0.04525783285498619 0.022387197241187096 0.011081801727414131 0.00472040381282568 0.0017334383446723223 0.0017098297830671072 0.001777456607669592 0.004002168774604797 0.011502405628561974 0.027822444215416908 0.057099878787994385 0.0996803566813469 0.14777958393096924 0.18743304908275604 -9999 -9999
-9999 0.14870233833789825 0.11825933307409286 0.08678072690963745 0.059070926159620285 0.034271519631147385 0.017024802044034004 0.007192312739789486 0.002850530669093132 0.001733912155032158 0.0018027860205620527 0.004056697245687246 0.011666807346045971 0.02825302630662918 0.05807814747095108 0.10160951316356659 0.1514819711446762 0.19226890802383423 -9999 -9999
-9999 0.15103262662887573 0.14181742072105408 0.11288612335920334 0.07666429877281189 0.04445077106356621 0.023824060335755348 0.011773320846259594 0.0050093382596969604 0.001841752789914608 0.0018186704255640507 0.003763591405004263 0.010890211910009384 0.02640429511666298 0.05433414876461029 0.09514962881803513 0.14229050278663635 0.1821424514055252 0.2001209557056427 0.201364204287529
-9999 -9999 0.15699294209480286 0.12477575987577438 0.09141500294208527 0.06205466762185097 0.03588898479938507 0.017790544778108597 0.007511352654546499 0.002767571248114109 0.0018257882911711931 0.0029774836730211973 0.008647894486784935 0.021052831783890724 0.04323959723114967 0.07591496407985687 0.11353162676095963 0.1450653225183487 0.1581660956144333 0.15880754590034485
-9999 -9999 0.15907539427280426 0.14815247058868408 0.11745002865791321 0.07949811220169067 0.045962098985910416 0.02267673797905445 0.009577807039022446 0.0035123005509376526 0.0018276625778526068 0.002002210123464465 0.005836786236613989 0.014183315448462963 0.029332756996154785 0.0512506477534771 0.07695520669221878 0.0981350690126419 0.10655750334262848 0.10682883113622665
-9999 -9999 -9999 0.16196191310882568 0.1281767189502716 0.08665379881858826 0.050004925578832626 0.024642720818519592 0.01039701048284769 0.0038207564502954483 0.0018282115925103426 0.0018990910612046719 0.003352018306031823 0.008122431114315987 0.016844259575009346 0.029430391266942024 0.04423908889293671 0.056147005409002304 0.06108483672142029 0.06119350343942642
