ncols         20
nrows         20
xllcorner     0
yllcorner     -3.5992928
cellsize      0.17996463
NODATA_value  -9999
-9999.0 -9999 -9999 -9999 -9999 -9999 -9999 -9999 -9999 -9999 -9999 -9999 -9999 -9999 -9999 -9999 -9999 -9999 -9999 -9999
-9999 -9999 -9999 -9999 -9999 -9999 -9999 -9999 -9999 -9999 -9999 0.5428101420402527 0.5318254232406616 -9999 -9999 0.48056021332740784 0.45069414377212524 -9999 -9999 -9999
-9999 -9999 -9999 -9999 0.5869492888450623 0.6262785792350769 0.6961477994918823 0.7498146295547485 0.7799847722053528 0.7942708134651184 0.7136268615722656 0.6546053886413574 0.6485727429389954 0.6470822691917419 0.5883548259735107 0.5191014409065247 0.4702330231666565 0.43919360637664795 -9999 -9999
-9999 -9999 -9999 0.5604177117347717 0.6028608679771423 0.6569488644599915 0.7328584790229797 0.8043820858001709 0.8782729506492615 0.9356086254119873 0.9668131470680237 0.9508400559425354 0.9264951348304749 0.8511617183685303 0.7481293678283691 0.6328485012054443 0.5438304543495178 0.49608662724494934 -9999 -9999
-9999 -9999 -9999 0.5601708889007568 0.6103079915046692 0.7079670429229736 0.8232399821281433 0.9522058367729187 1.1054658889770508 1.300947666168213 1.4838993549346924 1.5613563060760498 1.5049259662628174 1.3028861284255981 1.0804722309112549 0.8553800582885742 0.6942365765571594 0.6519967317581177 -9999 -9999
-9999 -9999 0.4695606827735901 0.539548933506012 0.6289637088775635 0.7600691914558411 0.916263997554779 1.1093441247940063 1.393589973449707 1.7509080171585083 2.122103452682495 2.295107364654541 2.247408866882324 1.9398155212402344 1.541351318359375 1.1835612058639526 0.9322858452796936 0.8295275568962097 0.7581174969673157 -9999
-9999 -9999 0.46884623169898987 0.5314074754714966 0.6627325415611267 0.8408994674682617 1.0457791090011597 1.3185964822769165 1.7049168348312378 2.182962417602539 2.6556825637817383 2.9204771518707275 2.896439790725708 2.5863687992095947 0 1.64396333694458 1.280002474784851 1.057186245918274 0.9661491513252258 -9999
-9999 -9999 0.49429067969322205 0.5818516612052917 0.7588743567466736 0.987788200378418 1.2729889154434204 1.6289565563201904 2.0551910400390625 2.5394327640533447 2.9490156173706055 3.2148756980895996 3.240111827850342 3.0241026878356934 2.6393046379089355 2.162508964538574 1.735567569732666 1.4282723665237427 1.303473949432373 -9999
-9999 0.4506659209728241 0.5454124808311462 0.6889732480049133 0.9447659254074097 1.2758018970489502 1.6497790813446045 2.082406759262085 2.5146970748901367 2.8979060649871826 3.17305850982666 3.3576149940490723 3.431290626525879 3.337202787399292 3.1131234169006348 0 2.2671358585357666 1.8984397649765015 1.739121675491333 -9999
-9999 0.5265318751335144 0.6343909502029419 0.8744797110557556 1.2363407611846924 1.6794021129608154 2.1616992950439453 2.643263578414917 3.032320499420166 3.285806179046631 3.423419713973999 3.536519765853882 3.614830732345581 3.623659133911133 3.5193917751312256 0 2.835563898086548 2.452075242996216 2.280721426010132 -9999
-9999 0.6831647753715515 0.8197987079620361 1.125335931777954 1.5512198209762573 2.0652236938476562 2.622947931289673 3.125894546508789 3.4444847106933594 3.6015377044677734 3.690068483352661 3.790494441986084 3.9186015129089355 3.973179340362549 3.9123146533966064 3.7503249645233154 3.404757261276245 3.0581939220428467 2.891146659851074 -9999
-9999 0.9443707466125488 1.1026123762130737 1.4608721733093262 1.917991280555725 2.4320144653320312 2.9727401733398438 3.4085164070129395 3.631981611251831 3.7237846851348877 3.802251100540161 3.9583113193511963 0 0 4.264189720153809 0 3.8911795616149902 3.6126978397369385 3.4650681018829346 -9999
-9999 1.3290849924087524 1.5225555896759033 1.932692050933838 2.3680713176727295 2.8162763118743896 3.240692138671875 3.5426974296569824 3.6469976902008057 3.6576790809631348 3.7037365436553955 3.851045608520508 0 0 0 4.12490177154541 4.022251129150391 3.906111001968384 3.780834436416626 -9999
-9999 1.7950553894042969 2.0153281688690186 2.461327075958252 2.8689301013946533 3.199845552444458 3.4500844478607178 3.575010061264038 3.569347620010376 3.5290684700012207 3.5315780639648438 3.6009387969970703 0 0 0 3.650252103805542 3.6887290477752686 3.833195924758911 3.741912841796875 -9999
-9999 2.195091724395752 2.420898675918579 2.875635862350464 3.2292561531066895 3.423187494277954 3.5073421001434326 3.5067570209503174 3.46006441116333 3.425443172454834 3.4278078079223633 3.3950462341308594 3.3314449787139893 3.2223856449127197 0 0 3.029555559158325 3.3323957920074463 -9999 -9999
-9999 2.4227585792541504 2.6446547508239746 3.07020902633667 3.340031385421753 3.42248272895813 3.4090447425842285 3.366128921508789 3.3592073917388916 3.397723913192749 0 0 0 2.8607301712036133 0 0 2.3370471000671387 0 -9999 -9999
-9999 2.5858960151672363 2.773602247238159 3.122061014175415 3.3185999393463135 3.311028480529785 3.2358648777008057 3.186474561691284 3.235044002532959 0 0 0 0 2.593506097793579 2.3039097785949707 2.059608221054077 1.8757784366607666 1.7417656183242798 0 0
-9999 -9999 2.8761680126190186 3.1249165534973145 3.25799560546875 3.181004047393799 3.045912981033325 2.989044189453125 0 0 0 0 0 0 0 0 0 0 0 0
-9999 -9999 3.0340311527252197 3.141604423522949 3.190061569213867 3.040604829788208 2.839822292327881 2.738093852996826 0 0 0 0 0 0 0 0 0 0 0 0
-9999 -9999 -9999 3.1344926357269287 3.1488332748413086 2.97086238861084 2.7333173751831055 2.6093969345092773 0 0 0 0 0 0 0 0 0 0 0 0
