ncols         20
nrows         20
xllcorner     0
yllcorner     -3.5992928
cellsize      0.17996463
NODATA_value  -9999
-9999.0 -9999 -9999 -9999 -9999 -9999 -9999 -9999 -9999 -9999 -9999 -9999 -9999 -9999 -9999 -9999 -9999 -9999 -9999 -9999
-9999 -9999 -9999 -9999 -9999 -9999 -9999 -9999 -9999 -9999 -9999 2.350416898727417 2.34507417678833 -9999 -9999 2.424267053604126 2.398898124694824 -9999 -9999 -9999
-9999 -9999 -9999 -9999 2.478201389312744 2.4883158206939697 2.5011847019195557 2.4830315113067627 2.448305606842041 2.419945001602173 2.3700244426727295 2.3701298236846924 2.3838284015655518 2.3929824829101562 2.402880907058716 2.416677713394165 2.400453567504883 2.3742072582244873 -9999 -9999
-9999 -9999 -9999 2.5153121948242188 2.5252010822296143 2.5310044288635254 2.526996374130249 2.495229959487915 2.454388380050659 2.4106435775756836 2.381293773651123 2.371835470199585 2.3805124759674072 2.3957486152648926 2.4256277084350586 2.440992593765259 2.4255030155181885 2.402561664581299 -9999 -9999
-9999 -9999 -9999 2.5503265857696533 2.565950393676758 2.586233615875244 2.561983823776245 2.4938950538635254 2.4062798023223877 2.308908224105835 2.21597957611084 2.16325306892395 2.1741790771484375 2.243309736251831 2.3375964164733887 2.405595302581787 2.42214035987854 2.437997817993164 -9999 -9999
-9999 -9999 2.5598204135894775 2.590916395187378 2.61917781829834 2.614278793334961 2.5257349014282227 2.3592967987060547 2.1882197856903076 2.00443696975708 1.8166556358337402 1.709075689315796 1.7237340211868286 1.8583725690841675 2.053800344467163 2.220296859741211 2.3150041103363037 2.3460988998413086 2.291130304336548 -9999
-9999 -9999 2.5877256393432617 2.6226961612701416 2.660745143890381 2.599639415740967 2.3695032596588135 1.9673304557800293 1.6991207599639893 1.4517663717269897 1.2314105033874512 1.1261385679244995 1.19390869140625 1.378767967224121 1.6362521648406982 1.8874385356903076 2.078227996826172 2.171999216079712 2.192490339279175 -9999
-9999 -9999 2.6466495990753174 2.689082622528076 2.69136905670166 2.518932342529297 2.044581413269043 0.9089213609695435 0.6682837605476379 0.5609201788902283 0.49638012051582336 0.5017344951629639 0.7495182752609253 0.9469932317733765 1.1972049474716187 1.482625126838684 1.723710536956787 1.8793258666992188 1.9467847347259521 -9999
-9999 2.627675771713257 2.6978094577789307 2.7296669483184814 2.660308361053467 2.3795711994171143 1.8057602643966675 0.6815329790115356 0.4203648567199707 0.3320515751838684 0.30230090022087097 0.32787901163101196 0.49603915214538574 0.6284676790237427 0.7983275651931763 1.0333621501922607 1.2921723127365112 1.4925082921981812 1.5848971605300903 -9999
-9999 2.653493881225586 2.690807342529297 2.675581455230713 2.489004135131836 2.092620849609375 1.4927655458450317 0.5530977249145508 0.31658193469047546 0.23956945538520813 0.22030775249004364 0.23935097455978394 0.3346562385559082 0.399565726518631 0.4915696978569031 0.6372174024581909 0.8396292328834534 1.024880290031433 1.1186809539794922 -9999
-9999 2.6132736206054688 2.5937752723693848 2.4681570529937744 2.1657874584198 1.7291266918182373 1.152474284172058 0.4352811574935913 0.24318644404411316 0.17818540334701538 0.15887247025966644 0.16498178243637085 0.2043493241071701 0.2289436012506485 0.26756036281585693 0.34337809681892395 0.45755815505981445 0.5845969319343567 0.653147280216217 -9999
-9999 2.4203884601593018 2.334562063217163 2.0955820083618164 1.7325416803359985 1.3239504098892212 0.836611270904541 0.33852654695510864 0.1874954104423523 0.12867771089076996 0.10616880655288696 0.09943737089633942 0.10681287944316864 0.1093379482626915 0.1194443628191948 0.15020768344402313 0.2068711519241333 0.27334821224212646 0.3097642958164215 -9999
-9999 2.0360469818115234 1.8929449319839478 1.587185263633728 1.253760814666748 0.9050822854042053 0.5634672045707703 0.2856043875217438 0.15098609030246735 0.09458905458450317 0.06519219279289246 0.052060410380363464 0.04473422095179558 0.04024139419198036 0.040872134268283844 0.04906821250915527 0.07585500180721283 0.10665258765220642 0.1257416009902954 -9999
-9999 1.5499045848846436 1.3910152912139893 1.0744770765304565 0.771765947341919 0.5215365886688232 0.3198951780796051 0.17346060276031494 0.08944538980722427 0.05518794059753418 0.03814332187175751 0.028620123863220215 0.022315846756100655 0.018386822193861008 0.016482049599289894 0.017499223351478577 0.022606998682022095 0.033996328711509705 0.04232270270586014 -9999
-9999 1.14168381690979 0.9765673279762268 0.6722061634063721 0.42413008213043213 0.2639387547969818 0.15786799788475037 0.08494339883327484 0.05005326867103577 0.033271197229623795 0.024393253028392792 0.018531350418925285 0.014528503641486168 0.012067371979355812 0.010468446649610996 0.010212644934654236 0.011077290400862694 0.015166368335485458 -9999 -9999
-9999 0.8707229495048523 0.7083793878555298 0.43904632329940796 0.24558524787425995 0.13494707643985748 0.0733911469578743 0.0436524860560894 0.029662076383829117 0.022121157497167587 0.01771499216556549 0.014317546971142292 0.012391295284032822 0.013700835406780243 0.01476392149925232 0.015504603274166584 0.01596631482243538 0.016445310786366463 -9999 -9999
-9999 0.7022992372512817 0.53251051902771 0.3146859407424927 0.1602398157119751 0.07142885029315948 0.03904423490166664 0.02489049918949604 0.018726952373981476 0.015446898527443409 0.013438185676932335 0.013879948295652866 0.016065075993537903 0.018079539760947227 0.01986224390566349 0.02138601802289486 0.022816278040409088 0.024772848933935165 0.02901925891637802 0.030759349465370178
-9999 -9999 0.3728024363517761 0.23481599986553192 0.11466850340366364 0.04733980819582939 0.024632852524518967 0.01628279685974121 0.01306585781276226 0.01176117267459631 0.01430826261639595 0.016932984814047813 0.019549686461687088 0.022073475643992424 0.02431364171206951 0.026187749579548836 0.027831727638840675 0.029399188235402107 0.031090330332517624 0.031769879162311554
-9999 -9999 0.24887043237686157 0.17019157111644745 0.08486092835664749 0.0339324027299881 0.017270348966121674 0.011646490544080734 0.010943957604467869 0.013735970482230186 0.01656312495470047 0.01943446323275566 0.022320760414004326 0.025109311565756798 0.027515627443790436 0.029412932693958282 0.03088228963315487 0.031859248876571655 0.032337676733732224 0.032496001571416855
-9999 -9999 -9999 0.13251085579395294 0.06656242907047272 0.028514722362160683 0.014627750031650066 0.010123987682163715 0.011900863610208035 0.014873390085995197 0.017836958169937134 0.020795654505491257 0.023788243532180786 0.02667473442852497 0.0291405338793993 0.03096180036664009 0.03229248896241188 0.032798685133457184 0.03288384526968002 0.03285617753863335
