ncols         20
nrows         20
xllcorner     0
yllcorner     -3.5992928
cellsize      0.17996463
NODATA_value  -9999
-9999.0 -9999 -9999 -9999 -9999 -9999 -9999 -9999 -9999 -9999 -9999 -9999 -9999 -9999 -9999 -9999 -9999 -9999 -9999 -9999
-9999 -9999 -9999 -9999 -9999 -9999 -9999 -9999 -9999 -9999 -9999 0.1363246738910675 0.13646724820137024 -9999 -9999 0.13885775208473206 0.1390313357114792 -9999 -9999 -9999
-9999 -9999 -9999 -9999 0.1352567821741104 0.13523247838020325 0.13525819778442383 0.135359987616539 0.1355566829442978 0.13584347069263458 0.13618196547031403 0.126222625374794 0.12664851546287537 0.13779842853546143 0.13845394551753998 0.1285552829504013 0.1290678083896637 0.14022696018218994 -9999 -9999
-9999 -9999 -9999 0.13556663691997528 0.12521113455295563 0.10652995854616165 0.10656334459781647 0.10668265074491501 0.10689638555049896 0.10719050467014313 0.10754568129777908 0.09975530207157135 0.10017961263656616 0.108970046043396 0.1095290407538414 0.10181181877851486 0.1108187735080719 0.14133428037166595 -9999 -9999
-9999 -9999 -9999 0.1358128935098648 0.10681834071874619 0.07771141082048416 0.07168176770210266 0.07182352989912033 0.07205221801996231 0.07235188782215118 0.07269623130559921 0.06759457290172577 0.06795825064182281 0.0739048421382904 0.07439028471708298 0.07501770555973053 0.11255178600549698 0.14353439211845398 -9999 -9999
-9999 -9999 0.13646799325942993 0.12597888708114624 0.09906675666570663 0.06654736399650574 0.041192177683115005 0.04132344201207161 0.04153222590684891 0.04179476201534271 0.0420868918299675 0.03909675404429436 0.03939615935087204 0.0430922694504261 0.043533701449632645 0.07108628749847412 0.1064804196357727 0.13619065284729004 0.14910614490509033 -9999
-9999 -9999 0.13689205050468445 0.107697993516922 0.07841316610574722 0.05276644974946976 0.03011038899421692 0.020347710698843002 0.020497659221291542 0.02068387158215046 0.020891685038805008 0.019488196820020676 0.0197250135242939 0.02169056236743927 0.03273976594209671 0.058030880987644196 0.08674754202365875 0.11957993358373642 0.15245197713375092 -9999
-9999 -9999 0.13765043020248413 0.10837218910455704 0.07282969355583191 0.04179885983467102 0.02050004154443741 0.010060019791126251 0.008677615784108639 0.008787794038653374 0.008914193138480186 0.00836750864982605 0.008543381467461586 0.01113263238221407 0.02321585826575756 0.04774443432688713 0.083418108522892 0.12422090768814087 0.15782199800014496 -9999
-9999 0.13929010927677155 0.12841665744781494 0.10107626765966415 0.06810584664344788 0.039052512496709824 0.019214507192373276 0.008088993839919567 0.003169134957715869 0.003231537062674761 0.0033019883558154106 0.0031162817031145096 0.0035062087699770927 0.01012260653078556 0.02449173480272293 0.05014944076538086 0.08734201639890671 0.12974707782268524 0.1646156907081604 -9999
-9999 0.1406201422214508 0.11073305457830429 0.08079248666763306 0.054570041596889496 0.03147278353571892 0.0154816759750247 0.006529081612825394 0.002401436911895871 0.0015943699982017279 0.001646379940211773 0.0016958846244961023 0.0037444354966282845 0.010705766268074512 0.025777164846658707 0.052659887820482254 0.09157811105251312 0.13588793575763702 0.17228537797927856 -9999
-9999 0.14297938346862793 0.11279554665088654 0.07606630772352219 0.04387643188238144 0.02164040505886078 0.010671354830265045 0.004536480642855167 0.0016798205906525254 0.001679841778241098 0.0017421185038983822 0.0017985517624765635 0.00396339688450098 0.011272541247308254 0.027061501517891884 0.05520923063158989 0.09593426436185837 0.14224177598953247 0.1802178919315338 -9999
-9999 0.1463204026222229 0.1155630499124527 0.07809127122163773 0.04515639692544937 0.022325994446873665 0.009439755231142044 0.0034369323402643204 0.001683067879639566 0.0017585080349817872 0.0018289386061951518 0.0019989905413240194 0.005811201874166727 0.013971786946058273 0.028344128280878067 0.05776114761829376 0.10026383399963379 0.1484534591436386 0.1878010481595993 -9999
-9999 0.15051409602165222 0.11897102743387222 0.08050762116909027 0.04662184417247772 0.02323625050485134 0.009854443371295929 0.003600365947932005 0.0017478542868047953 0.0018275037873536348 0.0019050699193030596 0.0031151575967669487 0.00901794619858265 0.021641476079821587 0.044353194534778595 0.07691828161478043 0.1134098619222641 0.15433530509471893 0.19438643753528595 -9999
-9999 0.15525837242603302 0.12281162291765213 0.08353241533041 0.04848102107644081 0.02404848486185074 0.010203287936747074 0.0037244141567498446 0.0018039727583527565 0.0018845789600163698 0.001964523922652006 0.004077008459717035 0.01177225075662136 0.028419606387615204 0.05813852325081825 0.10102386772632599 0.14948347210884094 0.18802055716514587 0.1990179866552353 -9999
-9999 0.16009099781513214 0.1267935037612915 0.08635430037975311 0.050163622945547104 0.024900881573557854 0.012372259050607681 0.0052904365584254265 0.0019506069365888834 0.0019292909419164062 0.002009261166676879 0.004528808873146772 0.013014579191803932 0.03146486356854439 0.06453686952590942 0.11259178072214127 0.1668214350938797 0.21150125563144684 -9999 -9999
-9999 0.16444401443004608 0.13102097809314728 0.09639948606491089 0.06582462042570114 0.03831576183438301 0.019093170762062073 0.008090587332844734 0.0032162596471607685 0.00196059700101614 0.002041514730080962 0.004597656894475222 0.013222869485616684 0.032013632357120514 0.06578947603702545 0.11506862193346024 0.17151814699172974 0.21770843863487244 -9999 -9999
-9999 0.16755197942256927 0.15786343812942505 0.1259876787662506 0.08578983694314957 0.0498775877058506 0.026804165914654732 0.013279123231768608 0.0056626638397574425 0.0020858612842857838 0.0020623987074941397 0.004271077923476696 0.012360856868326664 0.029969455674290657 0.061667729169130325 0.10799334943294525 0.1615321934223175 0.20692293345928192 0.22779971361160278 0.22943003475666046
-9999 -9999 0.17560596764087677 0.13978606462478638 0.10262928158044815 0.06982491910457611 0.04047054797410965 0.020101273432374 0.00850213784724474 0.0031379214487969875 0.0020727375522255898 0.0033827340230345726 0.009828407317399979 0.023930571973323822 0.04915698990225792 0.08632012456655502 0.12913571298122406 0.16510528326034546 0.1801896095275879 0.18103840947151184
-9999 -9999 0.1783829629421234 0.16643504798412323 0.1321600377559662 0.08961079269647598 0.05190027132630348 0.02564932033419609 0.010850165039300919 0.0039849779568612576 0.002076501026749611 0.002276735147461295 0.006640653125941753 0.01614162139594555 0.0333918072283268 0.05835960432887077 0.08766204863786697 0.11184524744749069 0.12151610106229782 0.1218787357211113
-9999 -9999 -9999 0.18232251703739166 0.14442159235477448 0.09777364879846573 0.05650987848639488 0.027891065925359726 0.011784669943153858 0.004337100777775049 0.0020783068612217903 0.0021608532406389713 0.00381658342666924 0.009252166375517845 0.019193843007087708 0.03354746475815773 0.05044753849506378 0.06405512988567352 0.06971767544746399 0.06986282020807266
