ncols         20
nrows         20
xllcorner     0
yllcorner     -3.5992928
cellsize      0.17996463
NODATA_value  -9999
-9999.0 -9999 -9999 -9999 -9999 -9999 -9999 -9999 -9999 -9999 -9999 -9999 -9999 -9999 -9999 -9999 -9999 -9999 -9999 -9999
-9999 -9999 -9999 -9999 -9999 -9999 -9999 -9999 -9999 -9999 -9999 0.17118746042251587 0.17138415575027466 -9999 -9999 0.1887340098619461 0.17844568192958832 -9999 -9999 -9999
-9999 -9999 -9999 -9999 0.14329659938812256 0.1527126133441925 0.17099638283252716 0.18819782137870789 0.2036048173904419 0.21917232871055603 0.21079035103321075 0.2081095576286316 0.2206437587738037 0.23927688598632812 0.23108135163784027 0.21070939302444458 0.19589394330978394 0.1890159547328949 -9999 -9999
-9999 -9999 -9999 0.14404979348182678 0.15163102746009827 0.16326256096363068 0.1818632334470749 0.20270563662052155 0.230025514960289 0.2607654631137848 0.29216060042381287 0.31378358602523804 0.3333929479122162 0.33267709612846375 0.3128372132778168 0.2778546214103699 0.2471371591091156 0.2306581288576126 -9999 -9999
-9999 -9999 -9999 0.15165723860263824 0.1612997055053711 0.18224000930786133 0.2076740562915802 0.23965990543365479 0.28695762157440186 0.3618534803390503 0.4564756155014038 0.5382517576217651 0.5804073810577393 0.5573899745941162 0.5025283098220825 0.42383527755737305 0.36003750562667847 0.3483213782310486 -9999 -9999
-9999 -9999 0.15196457505226135 0.16288290917873383 0.180521622300148 0.20655196905136108 0.23458808660507202 0.2702483534812927 0.34019094705581665 0.4582193195819855 0.6303231716156006 0.7992854714393616 0.9222448468208313 0.9185366034507751 0.8117522597312927 0.6768816709518433 0.5660675764083862 0.5291826725006104 0.518852949142456 -9999
-9999 -9999 0.16837792098522186 0.18264657258987427 0.21379423141479492 0.24766911566257477 0.2696385979652405 0.2873803377151489 0.34680119156837463 0.46929827332496643 0.6698753833770752 0.9340177178382874 1.2317448854446411 1.3552415370941162 1.2846341133117676 1.0921424627304077 0.9102598428726196 0.7842004895210266 0.738109290599823 -9999
-9999 -9999 0.21347889304161072 0.24056056141853333 0.29015806317329407 0.3304305970668793 0.33435264229774475 0.266478955745697 0.2683129906654358 0.32585611939430237 0.44543206691741943 0.697015106678009 1.3969883918762207 1.7752217054367065 1.8396259546279907 1.675140380859375 1.4469892978668213 1.243157982826233 1.1576323509216309 -9999
-9999 0.27573972940444946 0.3014417886734009 0.35797885060310364 0.45014330744743347 0.5209587216377258 0.4995635151863098 0.3408387303352356 0.2958724796772003 0.3221316337585449 0.4292965531349182 0.7227861285209656 1.6341845989227295 2.2457265853881836 2.516484260559082 2.4548747539520264 2.1910834312438965 1.9248942136764526 1.7996171712875366 -9999
-9999 0.370774507522583 0.43249982595443726 0.5745111107826233 0.7545510530471802 0.8819707632064819 0.8349484801292419 0.5138279795646667 0.41327211260795593 0.4156171679496765 0.5187395215034485 0.8551756143569946 1.975701093673706 2.807182550430298 3.275953769683838 3.3766987323760986 3.156013250350952 2.8642356395721436 2.717979907989502 -9999
-9999 0.5826005935668945 0.6928790211677551 0.9340825080871582 1.2194100618362427 1.4265555143356323 1.3665820360183716 0.8042044043540955 0.6508227586746216 0.6332564353942871 0.7274231910705566 1.0904968976974487 2.4710195064544678 3.4663450717926025 4.097043991088867 4.35313081741333 4.285008430480957 4.03062629699707 3.88775634765625 -9999
-9999 0.977265477180481 1.1439297199249268 1.5156913995742798 1.9275097846984863 2.2253241539001465 2.188750743865967 1.3669112920761108 1.1881108283996582 1.1468881368637085 1.2068006992340088 1.5381022691726685 3.0623016357421875 4.064948081970215 4.755332946777344 5.17216682434082 5.2913408279418945 5.183346271514893 5.090981483459473 -9999
-9999 1.6358308792114258 1.8974424600601196 2.442174196243286 2.9593307971954346 3.351891279220581 3.4741291999816895 3.2110838890075684 2.9419710636138916 2.7492101192474365 2.7445521354675293 3.0198326110839844 3.6922383308410645 4.321753978729248 4.875701904296875 5.348307132720947 5.709458351135254 5.85329532623291 5.8358917236328125 -9999
-9999 2.5496435165405273 2.9087061882019043 3.6255199909210205 4.248264789581299 4.639145851135254 4.734182357788086 4.509699821472168 4.14236307144165 3.8304107189178467 3.6760799884796143 3.7060413360595703 3.893826961517334 4.126809597015381 4.377631664276123 4.729900360107422 5.194820880889893 5.710705757141113 5.851938247680664 -9999
-9999 3.4894511699676514 3.917788505554199 4.763349533081055 5.404057502746582 5.659052848815918 5.57631778717041 5.2340216636657715 4.793004512786865 4.3953752517700195 4.114052772521973 3.917555570602417 3.7885360717773438 3.703925609588623 3.6417698860168457 3.7228384017944336 3.9665770530700684 4.553027153015137 -9999 -9999
-9999 4.175510883331299 4.663405895233154 5.54554557800293 6.084561347961426 6.144482612609863 5.882803916931152 5.4457621574401855 4.989072322845459 4.5676445960998535 4.2197771072387695 3.8864784240722656 3.556511640548706 3.2386653423309326 2.9744374752044678 2.787473440170288 2.707479953765869 2.4266514778137207 -9999 -9999
-9999 4.680784702301025 5.229515075683594 6.01792573928833 6.413951396942139 6.2582621574401855 5.815952777862549 5.285501956939697 4.808828353881836 4.382728576660156 4.0063629150390625 3.6084930896759033 3.1894073486328125 2.800795316696167 2.444126605987549 2.145372152328491 1.9084457159042358 1.6683562994003296 1.467659831047058 1.271984577178955
-9999 -9999 5.792032718658447 6.337478160858154 6.560791969299316 6.199830532073975 5.561985969543457 4.9261698722839355 4.411339282989502 3.987788438796997 3.6171913146972656 3.223433017730713 2.813873767852783 2.3742964267730713 2.0103628635406494 1.7364709377288818 1.489135503768921 1.3070873022079468 1.1667184829711914 1.1926628351211548
-9999 -9999 6.325043678283691 6.582624435424805 6.592214107513428 6.026566028594971 5.210400104522705 4.4675397872924805 3.905975818634033 3.506653070449829 3.217726230621338 2.8525938987731934 2.4521007537841797 2.0343666076660156 1.7172577381134033 1.4849878549575806 1.2913049459457397 1.1654345989227295 1.1940208673477173 1.2105989456176758
-9999 -9999 -9999 6.681527614593506 6.588189125061035 5.932497024536133 5.02009916305542 4.2318644523620605 3.6689491271972656 3.300074815750122 3.014010429382324 2.705728530883789 2.3117587566375732 1.904946208000183 1.580148458480835 1.3938026428222656 1.1910382509231567 1.1883785724639893 1.2103610038757324 1.2229740619659424
