ncols         20
nrows         20
xllcorner     0
yllcorner     -3.5992928
cellsize      0.17996463
NODATA_value  -9999
-9999.0 -9999 -9999 -9999 -9999 -9999 -9999 -9999 -9999 -9999 -9999 -9999 -9999 -9999 -9999 -9999 -9999 -9999 -9999 -9999
-9999 -9999 -9999 -9999 -9999 -9999 -9999 -9999 -9999 -9999 -9999 19.048633575439453 19.058692932128906 -9999 -9999 19.024677276611328 19.028575897216797 -9999 -9999 -9999
-9999 -9999 -9999 -9999 19.01325798034668 19.024354934692383 19.027877807617188 19.040096282958984 19.05198860168457 19.04293441772461 19.081470489501953 19.06679916381836 19.064363479614258 19.09579086303711 19.104970932006836 19.075645446777344 19.065263748168945 19.08014678955078 -9999 -9999
-9999 -9999 -9999 19.03228759765625 19.01361083984375 19.014284133911133 19.010250091552734 19.007814407348633 18.992389678955078 18.975292205810547 18.951047897338867 18.9537410736084 18.971637725830078 19.022987365722656 19.05706024169922 19.08460807800293 19.11272430419922 19.143291473388672 -9999 -9999
-9999 -9999 -9999 19.05573081970215 19.0364933013916 18.98995018005371 18.943340301513672 18.887868881225586 18.82219123840332 18.734249114990234 18.652973175048828 18.6246280670166 18.66151237487793 18.769086837768555 18.887216567993164 19.016286849975586 19.130704879760742 19.17511558532715 -9999 -9999
-9999 -9999 19.14527130126953 19.092580795288086 19.03453826904297 18.950077056884766 18.91280746459961 18.787412643432617 18.631452560424805 18.462783813476562 18.310571670532227 18.249435424804688 18.285507202148438 18.43497085571289 18.65079689025879 18.88609504699707 19.033161163330078 19.1774959564209 19.309118270874023 -9999
-9999 -9999 19.19720458984375 19.136863708496094 19.0234375 18.94550323486328 18.775644302368164 18.58222198486328 18.365140914916992 18.146072387695312 17.960617065429688 17.869043350219727 17.897436141967773 18.047029495239258 18.265344619750977 18.569488525390625 18.79839515686035 19.038110733032227 19.172334671020508 -9999
-9999 -9999 19.282962799072266 19.162988662719727 19.052019119262695 18.843849182128906 18.604167938232422 18.356374740600586 18.11495590209961 17.89251708984375 17.726913452148438 17.637008666992188 17.648908615112305 17.764909744262695 17.96529197692871 18.234621047973633 18.52833366394043 18.739376068115234 18.894792556762695 -9999
-9999 19.590173721313477 19.400407791137695 19.25476837158203 18.97863006591797 18.680261611938477 18.385778427124023 18.10418128967285 17.86463737487793 17.679271697998047 17.55885124206543 17.49661636352539 17.49579429626465 17.568235397338867 17.7076473236084 17.89988899230957 18.173309326171875 18.418529510498047 18.520355224609375 -9999
-9999 19.623188018798828 19.492231369018555 19.230087280273438 18.84819793701172 18.477069854736328 18.13530731201172 17.84708595275879 17.634103775024414 17.497108459472656 17.423490524291992 17.38861083984375 17.38772201538086 17.426162719726562 17.512420654296875 17.636207580566406 17.849443435668945 18.04155921936035 18.12833023071289 -9999
-9999 19.633771896362305 19.50437355041504 19.14044761657715 18.679716110229492 18.262008666992188 17.905990600585938 17.634737014770508 17.458829879760742 17.36204719543457 17.315296173095703 17.294023513793945 17.28807830810547 17.30780792236328 17.361753463745117 17.449844360351562 17.583894729614258 17.702180862426758 17.784320831298828 -9999
-9999 19.563186645507812 19.369468688964844 18.932146072387695 18.44395637512207 18.036026000976562 17.713581085205078 17.48555564880371 17.35266876220703 17.288774490356445 17.25518226623535 17.232341766357422 17.188819885253906 17.192628860473633 17.246265411376953 17.277069091796875 17.380783081054688 17.46349334716797 17.523517608642578 -9999
-9999 19.361112594604492 19.038162231445312 18.600374221801758 18.154245376586914 17.807828903198242 17.551563262939453 17.383808135986328 17.298524856567383 17.261890411376953 17.244131088256836 17.225746154785156 17.18279457092285 17.177698135375977 17.188459396362305 17.235252380371094 17.269466400146484 17.311115264892578 17.35988426208496 -9999
-9999 18.90494155883789 18.606338500976562 18.233417510986328 17.867937088012695 17.602380752563477 17.422468185424805 17.3161678314209 17.270793914794922 17.25603675842285 17.250654220581055 17.244421005249023 17.22193145751953 17.225343704223633 17.238372802734375 17.264741897583008 17.264392852783203 17.242820739746094 17.322532653808594 -9999
-9999 18.479339599609375 18.23291778564453 17.935504913330078 17.65171241760254 17.458585739135742 17.342243194580078 17.28313446044922 17.26109504699707 17.256622314453125 17.253459930419922 17.260149002075195 17.271516799926758 17.287525177001953 17.29744529724121 17.30942726135254 17.324602127075195 17.24832534790039 -9999 -9999
-9999 18.18213653564453 17.972518920898438 17.738521575927734 17.518253326416016 17.38167953491211 17.306453704833984 17.274682998657227 17.258838653564453 17.250240325927734 17.23070526123047 17.24207878112793 17.26927947998047 17.312761306762695 17.331226348876953 17.356882095336914 17.378047943115234 17.441560745239258 -9999 -9999
-9999 18.026134490966797 17.798831939697266 17.611570358276367 17.442256927490234 17.350263595581055 17.300628662109375 17.282793045043945 17.26708984375 17.245807647705078 17.243791580200195 17.259876251220703 17.29015350341797 17.329233169555664 17.358888626098633 17.386552810668945 17.40877342224121 17.43113136291504 17.40056037902832 17.427623748779297
-9999 -9999 17.60918426513672 17.511621475219727 17.397537231445312 17.33312225341797 17.30746078491211 17.296478271484375 17.273059844970703 17.268598556518555 17.270687103271484 17.285953521728516 17.308212280273438 17.34488868713379 17.37343406677246 17.392826080322266 17.41579246520996 17.43157958984375 17.446117401123047 17.425708770751953
-9999 -9999 17.553306579589844 17.447303771972656 17.372074127197266 17.335712432861328 17.327545166015625 17.32638931274414 17.312145233154297 17.308605194091797 17.30136489868164 17.31593894958496 17.337913513183594 17.369110107421875 17.38833999633789 17.402372360229492 17.417797088623047 17.4315185546875 17.413265228271484 17.407487869262695
-9999 -9999 -9999 17.385906219482422 17.352203369140625 17.33115577697754 17.33456039428711 17.337434768676758 17.32323455810547 17.317718505859375 17.314971923828125 17.319555282592773 17.342374801635742 17.371992111206055 17.395992279052734 17.400714874267578 17.425275802612305 17.411638259887695 17.40416717529297 17.401479721069336
