ncols         20
nrows         20
xllcorner     0
yllcorner     -3.5992928
cellsize      0.17996463
NODATA_value  -9999
-9999.0 -9999 -9999 -9999 -9999 -9999 -9999 -9999 -9999 -9999 -9999 -9999 -9999 -9999 -9999 -9999 -9999 -9999 -9999 -9999
-9999 -9999 -9999 -9999 -9999 -9999 -9999 -9999 -9999 -9999 -9999 2.350424289703369 2.345052719116211 -9999 -9999 2.4239678382873535 2.398589849472046 -9999 -9999 -9999
-9999 -9999 -9999 -9999 2.478527069091797 2.4886486530303955 2.5015366077423096 2.483405113220215 2.4486966133117676 2.420297384262085 2.370272159576416 2.3702385425567627 2.3838412761688232 2.3929009437561035 2.4026992321014404 2.4164059162139893 2.4001383781433105 2.3738715648651123 -9999 -9999
-9999 -9999 -9999 2.5156712532043457 2.525559186935425 2.531386613845825 2.5274276733398438 2.495720386505127 2.4549717903137207 2.411203622817993 2.381709337234497 2.3721096515655518 2.3806509971618652 2.3957512378692627 2.425506114959717 2.440756320953369 2.4251980781555176 2.402231216430664 -9999 -9999
-9999 -9999 -9999 2.5507097244262695 2.566364288330078 2.586723566055298 2.562614917755127 2.4946351051330566 2.407099723815918 2.3096964359283447 2.21671199798584 2.163823127746582 2.174539089202881 2.2434651851654053 2.337620496749878 2.405452013015747 2.4219000339508057 2.4377241134643555 -9999 -9999
-9999 -9999 2.5602030754089355 2.591334819793701 2.6196794509887695 2.6149449348449707 2.526535749435425 2.3602020740509033 2.1891934871673584 2.005143642425537 1.8173530101776123 1.7097573280334473 1.7242170572280884 1.8585197925567627 2.054009437561035 2.220263957977295 2.31489896774292 2.3459770679473877 2.291034698486328 -9999
-9999 -9999 2.588120937347412 2.623166084289551 2.6613709926605225 2.6004607677459717 2.3703975677490234 1.9682765007019043 1.7002826929092407 1.4529333114624023 1.2325892448425293 1.127310872077942 1.1950453519821167 1.379639983177185 1.6366591453552246 1.8872638940811157 2.078268527984619 2.172104835510254 2.192598819732666 -9999
-9999 -9999 2.647062301635742 2.689634084701538 2.6921868324279785 2.5199239253997803 2.0454561710357666 0.9100971817970276 0.6693406701087952 0.5618818402290344 0.4973033666610718 0.5027242302894592 0.7509148716926575 0.948408305644989 1.1983239650726318 1.4832035303115845 1.7238913774490356 1.8797214031219482 1.9471631050109863 -9999
-9999 2.627934694290161 2.698219060897827 2.730316638946533 2.661322593688965 2.38082218170166 1.8069696426391602 0.6826156973838806 0.421255886554718 0.332857221364975 0.30310529470443726 0.32881027460098267 0.49748215079307556 0.6300676465034485 0.7998589277267456 1.0346472263336182 1.2931079864501953 1.493163824081421 1.5853464603424072 -9999
-9999 2.653803825378418 2.6912784576416016 2.676335096359253 2.4900741577148438 2.093966245651245 1.4941996335983276 0.5541070103645325 0.3173839747905731 0.2403101772069931 0.22107605636119843 0.24025443196296692 0.33601412177085876 0.40105873346328735 0.4930894672870636 0.6387215852737427 0.8410865664482117 1.0262336730957031 1.1199203729629517 -9999
-9999 2.613698720932007 2.5943565368652344 2.468956470489502 2.1667110919952393 1.7300163507461548 1.1539061069488525 0.4362226128578186 0.24394702911376953 0.17890028655529022 0.15960802137851715 0.16581057012081146 0.2054618000984192 0.23011963069438934 0.2687537968158722 0.3446430563926697 0.458940714597702 0.586098849773407 0.6546761989593506 -9999
-9999 2.420952796936035 2.335235595703125 2.0962347984313965 1.7328031063079834 1.3250279426574707 0.8381272554397583 0.339510440826416 0.18830212950706482 0.12940873205661774 0.10687486827373505 0.10014836490154266 0.10761405527591705 0.11011313647031784 0.12019427120685577 0.15101109445095062 0.20781727135181427 0.274463027715683 0.31095147132873535 -9999
-9999 2.036623001098633 1.893617868423462 1.5874238014221191 1.2545524835586548 0.9065101742744446 0.5650634169578552 0.28688257932662964 0.15197567641735077 0.09540960937738419 0.06588409841060638 0.05265799164772034 0.0452486053109169 0.04067855328321457 0.04127023369073868 0.04947700351476669 0.0763658955693245 0.10729362070560455 0.12645158171653748 -9999
-9999 1.5500060319900513 1.3915622234344482 1.0754424333572388 0.773076593875885 0.522994339466095 0.3212485909461975 0.17454932630062103 0.09028541296720505 0.05586373433470726 0.03869558125734329 0.029066747054457664 0.022666478529572487 0.01866297423839569 0.016708752140402794 0.01771146059036255 0.022842608392238617 0.0343131422996521 0.04267643392086029 -9999
-9999 1.1428848505020142 0.9779861569404602 0.6736586093902588 0.42544400691986084 0.265104204416275 0.1588452309370041 0.08572793751955032 0.05068753659725189 0.033796098083257675 0.0248281080275774 0.018873004242777824 0.014789757318794727 0.012269288301467896 0.010626140050590038 0.010350385680794716 0.01121306512504816 0.015345602296292782 -9999 -9999
-9999 0.8727089166641235 0.7103369235992432 0.4406115412712097 0.2467212826013565 0.1357949823141098 0.07406922429800034 0.044203612953424454 0.03013896383345127 0.02253527007997036 0.018066391348838806 0.014593780040740967 0.012610969133675098 0.013919038698077202 0.014971911907196045 0.015697065740823746 0.016143491491675377 0.016613569110631943 -9999 -9999
-9999 0.704552173614502 0.5346580743789673 0.31624171137809753 0.161230206489563 0.0720517486333847 0.03952248767018318 0.025285135954618454 0.019079068675637245 0.01576036959886551 0.013707081787288189 0.014136873185634613 0.01633143238723278 0.01834278367459774 0.020113222301006317 0.02161804400384426 0.02303284965455532 0.024981021881103516 0.02923302724957466 0.0309690460562706
-9999 -9999 0.3749077618122101 0.23631154000759125 0.1155502051115036 0.04784395918250084 0.024987079203128815 0.01657712459564209 0.013328918255865574 0.011999515816569328 0.014581348747015 0.017224226146936417 0.01984396204352379 0.022358931601047516 0.0245821513235569 0.02643526904284954 0.02806112729012966 0.02961575798690319 0.031299885362386703 0.03197551518678665
-9999 -9999 0.2505420744419098 0.1714964210987091 0.08563614636659622 0.034347109496593475 0.017546119168400764 0.01186884194612503 0.011165697127580643 0.014006649143993855 0.01686294563114643 0.019745122641324997 0.022626806050539017 0.0253984984010458 0.02778172492980957 0.029654856771230698 0.031104201450943947 0.0320686399936676 0.0325421541929245 0.032699104398489
-9999 -9999 -9999 0.1337069272994995 0.0672721266746521 0.028895460069179535 0.014873739331960678 0.010320425033569336 0.012138471007347107 0.015158536843955517 0.018147550523281097 0.021111784502863884 0.024094967171549797 0.026960864663124084 0.029400086030364037 0.031195305287837982 0.03250594437122345 0.03300252929329872 0.03308582305908203 0.03305865824222565
