ncols         20
nrows         20
xllcorner     0
yllcorner     -3.5992928
cellsize      0.17996463
NODATA_value  -9999
-9999.0 -9999 -9999 -9999 -9999 -9999 -9999 -9999 -9999 -9999 -9999 -9999 -9999 -9999 -9999 -9999 -9999 -9999 -9999 -9999
-9999 -9999 -9999 -9999 -9999 -9999 -9999 -9999 -9999 -9999 -9999 2.4207165241241455 2.416450023651123 -9999 -9999 2.5050301551818848 2.477914571762085 -9999 -9999 -9999
-9999 -9999 -9999 -9999 2.5186076164245605 2.5319290161132812 2.549870491027832 2.537130117416382 2.5079169273376465 2.4851479530334473 2.4393625259399414 2.4437625408172607 2.462040901184082 2.4766135215759277 2.4878108501434326 2.4998481273651123 2.4809916019439697 2.452634811401367 -9999 -9999
-9999 -9999 -9999 2.549177646636963 2.5627808570861816 2.572751522064209 2.57384991645813 2.5476343631744385 2.5129098892211914 2.47537899017334 2.452986478805542 2.4504430294036865 2.4653561115264893 2.485166311264038 2.516822099685669 2.5303194522857666 2.5110881328582764 2.485337018966675 -9999 -9999
-9999 -9999 -9999 2.580659866333008 2.5992214679718018 2.623776912689209 2.6043877601623535 2.5416126251220703 2.4596166610717773 2.3670108318328857 2.281705379486084 2.2372145652770996 2.256026029586792 2.332761287689209 2.432852029800415 2.501225709915161 2.514340877532959 2.528359889984131 -9999 -9999
-9999 -9999 2.579293727874756 2.6145987510681152 2.6460654735565186 2.6444053649902344 2.5588879585266113 2.395256996154785 2.227324962615967 2.0381100177764893 1.8562467098236084 1.7563092708587646 1.7775377035140991 1.9256668090820312 2.1402790546417236 2.314826011657715 2.4097402095794678 2.4397244453430176 2.382993459701538 -9999
-9999 -9999 2.6043965816497803 2.640841245651245 2.680163860321045 2.6195931434631348 2.3880865573883057 1.9830925464630127 1.720083236694336 1.475339651107788 1.2578452825546265 1.1572420597076416 1.234070897102356 1.4296982288360596 1.6974612474441528 1.9674718379974365 2.16496205329895 2.2624900341033936 2.2834768295288086 -9999
-9999 -9999 2.6602745056152344 2.702418327331543 2.703160285949707 2.5272254943847656 2.0451788902282715 0.9030876755714417 0.664871335029602 0.559471070766449 0.4967595636844635 0.5056829452514648 0.7698646783828735 0.9803652763366699 1.2424339056015015 1.5380042791366577 1.7841836214065552 1.9553016424179077 2.0267457962036133 -9999
-9999 2.6398634910583496 2.7096683979034424 2.7394402027130127 2.665449380874634 2.378319501876831 1.797271490097046 0.6718629598617554 0.41252902150154114 0.3255544900894165 0.2970779538154602 0.32523876428604126 0.5020801424980164 0.644107460975647 0.8243674635887146 1.0702898502349854 1.3382524251937866 1.5458375215530396 1.6400350332260132 -9999
-9999 2.6675803661346436 2.703449010848999 2.684096097946167 2.489722490310669 2.0837721824645996 1.47649085521698 0.5408104658126831 0.30623918771743774 0.23030313849449158 0.21196192502975464 0.23254142701625824 0.3309091031551361 0.40147969126701355 0.5004277229309082 0.6542566418647766 0.8661011457443237 1.0594614744186401 1.1568466424942017 -9999
-9999 2.6311068534851074 2.6093780994415283 2.478306531906128 2.1665782928466797 1.7179797887802124 1.1283173561096191 0.41995325684547424 0.23030591011047363 0.16656377911567688 0.1482180804014206 0.15537667274475098 0.19543370604515076 0.2232489287853241 0.26570358872413635 0.34577813744544983 0.46500569581985474 0.597327470779419 0.6687779426574707 -9999
-9999 2.4415955543518066 2.3526713848114014 2.10760235786438 1.7365320920944214 1.3061563968658447 0.8062044978141785 0.3190732002258301 0.17149437963962555 0.11503148078918457 0.09417294710874557 0.08903471380472183 0.09734143316745758 0.10209563374519348 0.11423010379076004 0.14649829268455505 0.20456349849700928 0.27245500683784485 0.3097776770591736 -9999
-9999 2.0556437969207764 1.9073959589004517 1.5975167751312256 1.2459429502487183 0.8786056637763977 0.5296812057495117 0.2578708529472351 0.13031861186027527 0.07871565222740173 0.05262955278158188 0.042250193655490875 0.03727918863296509 0.034653257578611374 0.03638530895113945 0.04505898058414459 0.0719582810997963 0.10238108783960342 0.12128567695617676 -9999
-9999 1.564311146736145 1.3957500457763672 1.0649218559265137 0.7491419315338135 0.4918806254863739 0.2906757891178131 0.14993445575237274 0.0719326063990593 0.04228625446557999 0.02850687876343727 0.02151111699640751 0.017240680754184723 0.014736280776560307 0.013715813867747784 0.015065985731780529 0.020045161247253418 0.030587589368224144 0.038454826921224594 -9999
-9999 1.127980351448059 0.9561339616775513 0.6455468535423279 0.39644938707351685 0.23863723874092102 0.13651658594608307 0.0681397020816803 0.0374944731593132 0.02388095296919346 0.017322951927781105 0.013432364910840988 0.010971639305353165 0.009561962448060513 0.008675848133862019 0.008754556998610497 0.009709871374070644 0.013359660282731056 -9999 -9999
-9999 0.8350919485092163 0.6707125306129456 0.40561312437057495 0.21962080895900726 0.11551070958375931 0.05840495973825455 0.032371439039707184 0.02085838094353676 0.01526055857539177 0.012437475845217705 0.010520050302147865 0.009647990576922894 0.011207753792405128 0.012590250931680202 0.013661867938935757 0.014413842931389809 0.015078426338732243 -9999 -9999
-9999 0.657059371471405 0.48671233654022217 0.27932971715927124 0.13679735362529755 0.05653025209903717 0.02871599979698658 0.01729285903275013 0.01270891260355711 0.010653739795088768 0.009711517952382565 0.010613792575895786 0.01295466348528862 0.015271838754415512 0.017438270151615143 0.019357062876224518 0.021145706996321678 0.023391196504235268 0.02785589173436165 0.029720917344093323
-9999 -9999 0.32475388050079346 0.1996985673904419 0.09358923137187958 0.035397280007600784 0.017146164551377296 0.01096013281494379 0.008890988305211067 0.008369957096874714 0.010714485310018063 0.013369358144700527 0.016220703721046448 0.01912817545235157 0.02182626724243164 0.02415534481406212 0.026203056797385216 0.028086278587579727 0.029992813244462013 0.030770782381296158
-9999 -9999 0.2091139554977417 0.13883604109287262 0.06619285047054291 0.024278372526168823 0.011673190630972385 0.007822386920452118 0.0076115489937365055 0.010018359869718552 0.012709860689938068 0.015693916007876396 0.018900560215115547 0.022153956815600395 0.025087039917707443 0.027480851858854294 0.029362473636865616 0.030635783448815346 0.03129052370786667 0.03152935951948166
-9999 -9999 -9999 0.10341927409172058 0.049078866839408875 0.01970188319683075 0.009742706082761288 0.006832618732005358 0.008368123322725296 0.010980984196066856 0.013853516429662704 0.016978032886981964 0.020345373079180717 0.023750435560941696 0.026779869571328163 0.029108772054314613 0.030846010893583298 0.03161977231502533 0.03186182305216789 0.03190650790929794
