ncols         20
nrows         20
xllcorner     0
yllcorner     -3.5992928
cellsize      0.17996463
NODATA_value  -9999
-9999.0 -9999 -9999 -9999 -9999 -9999 -9999 -9999 -9999 -9999 -9999 -9999 -9999 -9999 -9999 -9999 -9999 -9999 -9999 -9999
-9999 -9999 -9999 -9999 -9999 -9999 -9999 -9999 -9999 -9999 -9999 0.0177911426872015 0.017788024619221687 -9999 -9999 0.01783616840839386 0.017841897904872894 -9999 -9999 -9999
-9999 -9999 -9999 -9999 0.017966793850064278 0.017929766327142715 0.017874054610729218 0.017804501578211784 0.017732586711645126 0.017671752721071243 0.017635276541113853 0.03737599775195122 0.03735652193427086 0.017593560740351677 0.017607413232326508 0.03744203969836235 0.03747924789786339 0.017682114616036415 -9999 -9999
-9999 -9999 -9999 0.017864396795630455 0.0378156341612339 0.07864492386579514 0.07838179171085358 0.07802991569042206 0.0776587575674057 0.07733351737260818 0.0771079808473587 0.09274841099977493 0.0926639661192894 0.07686786353588104 0.07692868262529373 0.09285964071750641 0.07725226134061813 0.01751883141696453 -9999 -9999
-9999 -9999 -9999 0.017725801095366478 0.07814834266901016 0.11287608742713928 0.11241783201694489 0.11180772632360458 0.11116953194141388 0.11060745269060135 0.11020210385322571 0.11001173406839371 0.10988748073577881 0.1098092570900917 0.10991495847702026 0.11014287918806076 0.07621288299560547 0.017241621389985085 -9999 -9999
-9999 -9999 0.017454994842410088 0.037037208676338196 0.09301969408988953 0.11152713000774384 0.11091817170381546 0.1101432591676712 0.10935207456350327 0.1086641177535057 0.1081530898809433 0.10785053670406342 0.10771534591913223 0.10772582143545151 0.1078755259513855 0.10805683583021164 0.08986976742744446 0.035621173679828644 0.016712132841348648 -9999
-9999 -9999 0.01727805845439434 0.07613951712846756 0.11009740084409714 0.10964367538690567 0.10881109535694122 0.10780541598796844 0.1068139597773552 0.10597243905067444 0.1053563803434372 0.10498552769422531 0.10483323037624359 0.10488076508045197 0.1050986796617508 0.1053602397441864 0.10539861023426056 0.07263108342885971 0.016463976353406906 -9999
-9999 -9999 0.017003191635012627 0.0749838799238205 0.10813368111848831 0.10738566517829895 0.1062847375869751 0.10504100471735 0.10388153791427612 0.10296221822500229 0.10228968411684036 0.10186197608709335 0.10166019946336746 0.1016707643866539 0.10188731551170349 0.10226397216320038 0.10258439183235168 0.07099507749080658 0.016103236004710197 -9999
-9999 0.016579560935497284 0.03521385416388512 0.08844245970249176 0.10584224760532379 0.10485316812992096 0.10350779443979263 0.10211098194122314 0.10090898722410202 0.0999469980597496 0.0992305651307106 0.09875407069921494 0.0985025018453598 0.09846104681491852 0.09861525148153305 0.09893150627613068 0.09934468567371368 0.06889380514621735 0.015649380162358284 -9999
-9999 0.016387885436415672 0.07208596915006638 0.10410332679748535 0.10342024266719818 0.10216449201107025 0.10062168538570404 0.09919840097427368 0.09798035770654678 0.09699659794569016 0.09624720364809036 0.09572871774435043 0.09542960673570633 0.09533510357141495 0.0954265296459198 0.09567078202962875 0.09599974751472473 0.06660889089107513 0.015145580284297466 -9999
-9999 0.016123706474900246 0.07086016982793808 0.10192332416772842 0.10089914500713348 0.09939976781606674 0.09779657423496246 0.09636654704809189 0.0951492041349411 0.09415484964847565 0.09338106215000153 0.09282760322093964 0.09248632192611694 0.09234315156936646 0.09238190203905106 0.09257578104734421 0.09286311268806458 0.06440339982509613 0.01464395597577095 -9999
-9999 0.015800900757312775 0.06933525204658508 0.09948953986167908 0.09825380146503448 0.09661948680877686 0.09505049139261246 0.09364909678697586 0.09244642406702042 0.09144964814186096 0.09065790474414825 0.09007516503334045 0.08969622850418091 0.08950812369585037 0.089504674077034 0.08968189358711243 0.0900045782327652 0.06248260289430618 0.014201176352798939 -9999
-9999 0.015443945303559303 0.067658931016922 0.09690405428409576 0.0955444797873497 0.09394119679927826 0.09243298321962357 0.09107900410890579 0.08990141749382019 0.08890984207391739 0.08810334652662277 0.08749182522296906 0.08707014471292496 0.08683030307292938 0.0867801308631897 0.08695190399885178 0.0874422937631607 0.0609591118991375 0.013851760886609554 -9999
-9999 0.015079470351338387 0.06595396995544434 0.09429482370615005 0.092887282371521 0.09140165150165558 0.08998338878154755 0.08869096636772156 0.08754797279834747 0.08657290041446686 0.08576234430074692 0.08512065559625626 0.08464568853378296 0.0843336209654808 0.08419422060251236 0.08425530791282654 0.07012488692998886 0.028379976749420166 0.0135997598990798 -9999
-9999 0.014738242141902447 0.06436701118946075 0.09183710068464279 0.09046778082847595 0.0890749916434288 0.08774672448635101 0.08652343600988388 0.0854334756731987 0.08448375761508942 0.08367221057415009 0.08299989253282547 0.08246373385190964 0.08206160366535187 0.08179691433906555 0.08167386054992676 0.056430183351039886 0.012798905372619629 -9999 -9999
-9999 0.014455457217991352 0.0627283826470375 0.08968373388051987 0.0882941335439682 0.08699028193950653 0.08575811237096786 0.08462107181549072 0.08359090983867645 0.08267418295145035 0.08186742663383484 0.08116846531629562 0.08057276904582977 0.0800757110118866 0.07967504858970642 0.07936638593673706 0.054314158856868744 0.012292379513382912 -9999 -9999
-9999 0.014255819842219353 0.029609952121973038 0.07252730429172516 0.08629190921783447 0.08516077697277069 0.08405912667512894 0.08301692456007004 0.08205190300941467 0.08117210865020752 0.08037304878234863 0.07965363562107086 0.07900726050138474 0.07842425256967545 0.0778898224234581 0.07737206667661667 0.06354262679815292 0.02497081644833088 0.011498352512717247 0.0113791199401021
-9999 -9999 0.01358553022146225 0.058928340673446655 0.084662064909935 0.08366462588310242 0.08269476145505905 0.08174943923950195 0.08084894716739655 0.08000470697879791 0.07921653240919113 0.0784846842288971 0.07780171930789948 0.07715446501970291 0.07651974260807037 0.07584455609321594 0.07500278949737549 0.06142904609441757 0.05034850910305977 0.05003245174884796
-9999 -9999 0.013207768090069294 0.02796594426035881 0.06902646273374557 0.08251350373029709 0.08170998096466064 0.08085934072732925 0.08001472055912018 0.07920117676258087 0.07842466980218887 0.07768730074167252 0.07698269188404083 0.07629923522472382 0.07561849057674408 0.07490848749876022 0.07412847131490707 0.07328134775161743 0.0726114884018898 0.07226471602916718
-9999 -9999 -9999 0.01285895798355341 0.05667534098029137 0.08187557011842728 0.08118536323308945 0.0803949385881424 0.07958391308784485 0.07878798246383667 0.07801906019449234 0.07728052139282227 0.07656659185886383 0.07586812973022461 0.07517220824956894 0.07446298748254776 0.07373405247926712 0.07303065061569214 0.0724792554974556 0.07218189537525177
