ncols         20
nrows         20
xllcorner     0
yllcorner     -3.5992928
cellsize      0.17996463
NODATA_value  -9999
-9999.0 -9999 -9999 -9999 -9999 -9999 -9999 -9999 -9999 -9999 -9999 -9999 -9999 -9999 -9999 -9999 -9999 -9999 -9999 -9999
-9999 -9999 -9999 -9999 -9999 -9999 -9999 -9999 -9999 -9999 -9999 12.214778900146484 12.1948823928833 -9999 -9999 12.263606071472168 12.111470222473145 -9999 -9999 -9999
-9999 -9999 -9999 -9999 12.133971214294434 12.245396614074707 12.441374778747559 12.53514289855957 12.555655479431152 12.576797485351562 12.40848445892334 12.415876388549805 12.518519401550293 12.609241485595703 12.562020301818848 12.432896614074707 12.300829887390137 12.237419128417969 -9999 -9999
-9999 -9999 -9999 12.262300491333008 12.299360275268555 12.33288288116455 12.397409439086914 12.41648006439209 12.4324312210083 12.430572509765625 12.463234901428223 12.528751373291016 12.645505905151367 12.72977352142334 12.794882774353027 12.765985488891602 12.702128410339355 12.66486930847168 -9999 -9999
-9999 -9999 -9999 12.4310302734375 12.391205787658691 12.363471031188965 12.187909126281738 12.029956817626953 11.861620903015137 11.671335220336914 11.499395370483398 11.460580825805664 11.635772705078125 11.985864639282227 12.395110130310059 12.74868392944336 13.079161643981934 13.386763572692871 -9999 -9999
-9999 -9999 12.720987319946289 12.654614448547363 12.47732162475586 12.074716567993164 11.20938491821289 10.719474792480469 10.233620643615723 9.61431884765625 8.953927993774414 8.638319969177246 8.820231437683105 9.535736083984375 10.494218826293945 11.502848625183105 12.894956588745117 13.629303932189941 13.871825218200684 -9999
-9999 -9999 12.955713272094727 12.759109497070312 12.355557441711426 11.376537322998047 10.573360443115234 9.8016939163208 8.866312026977539 7.739987850189209 6.684503555297852 6.130069732666016 6.264830589294434 7.11617374420166 8.454822540283203 10.067117691040039 11.988908767700195 13.17857837677002 13.731486320495605 -9999
-9999 -9999 13.483208656311035 12.972526550292969 11.924256324768066 11.006227493286133 10.00499153137207 8.82239055633545 7.4693708419799805 6.082914352416992 4.998378753662109 4.405177116394043 4.4487457275390625 5.1502275466918945 6.434317111968994 8.125033378601074 9.957356452941895 11.811084747314453 12.737482070922852 -9999
-9999 14.826744079589844 14.293513298034668 12.873751640319824 11.800057411193848 10.573385238647461 9.095748901367188 7.442152500152588 5.846499443054199 4.53309965133667 3.660621166229248 3.205354928970337 3.173300266265869 3.6396284103393555 4.592108249664307 6.029298305511475 7.759775638580322 9.423357009887695 10.728002548217773 -9999
-9999 15.522196769714355 14.915971755981445 13.096869468688965 11.508352279663086 9.65268325805664 7.616445541381836 5.650107383728027 4.088046550750732 3.058514356613159 2.495405673980713 2.2152814865112305 2.1958587169647217 2.451260805130005 3.075732707977295 4.105708122253418 5.548945903778076 7.030472755432129 8.153510093688965 -9999
-9999 16.276138305664062 15.399063110351562 12.995940208435059 10.764443397521973 8.380407333374023 5.979120254516602 3.9313724040985107 2.580676555633545 1.8393882513046265 1.482295274734497 1.3333191871643066 1.3246991634368896 1.467848539352417 1.825880527496338 2.4958243370056152 3.4865548610687256 4.699193477630615 5.4268293380737305 -9999
-9999 16.41944122314453 15.191612243652344 12.206897735595703 9.504446983337402 6.906630039215088 4.501781463623047 2.6563892364501953 1.5702286958694458 1.0206472873687744 0.7795261740684509 0.6761226654052734 0.6640079021453857 0.7178419232368469 0.8776658177375793 1.2264806032180786 1.82051682472229 2.569615364074707 3.004784107208252 -9999
-9999 15.371962547302246 13.808429718017578 10.45538330078125 7.664946556091309 5.237429141998291 3.2078802585601807 1.7481426000595093 0.9334619641304016 0.5604718923568726 0.36955010890960693 0.2935018539428711 0.26584455370903015 0.2734338343143463 0.3306118845939636 0.46137553453445435 0.7513785362243652 1.146014928817749 1.414507269859314 -9999
-9999 13.091705322265625 11.364871978759766 8.028444290161133 5.432016849517822 3.480393886566162 2.0384714603424072 1.077894687652588 0.5370364189147949 0.30593445897102356 0.19655349850654602 0.14433422684669495 0.11850476264953613 0.11089013516902924 0.11858269572257996 0.15296098589897156 0.23436060547828674 0.4129505157470703 0.5827047824859619 -9999
-9999 10.54493236541748 8.865537643432617 5.768546104431152 3.5056982040405273 2.0730066299438477 1.166256308555603 0.5999376773834229 0.31936514377593994 0.18505141139030457 0.11949692666530609 0.08375181257724762 0.0643577054142952 0.05513062700629234 0.05144192650914192 0.05613729730248451 0.07060124725103378 0.11345013976097107 -9999 -9999
-9999 8.712347984313965 7.081750869750977 4.272967338562012 2.3487398624420166 1.2424676418304443 0.6517101526260376 0.3475341796875 0.19917017221450806 0.12165801972150803 0.08105797320604324 0.0570097342133522 0.04570693522691727 0.050071537494659424 0.05556713789701462 0.06152372062206268 0.06721465289592743 0.07161736488342285 -9999 -9999
-9999 7.448535919189453 5.772577285766602 3.3830273151397705 1.7211087942123413 0.7807915806770325 0.3939974308013916 0.21058233082294464 0.12459937483072281 0.07944594323635101 0.05503840744495392 0.04883931949734688 0.05239125341176987 0.05768520012497902 0.06407357007265091 0.07101570069789886 0.07822442054748535 0.08616643399000168 0.09795628488063812 0.10344631224870682
-9999 -9999 4.376806735992432 2.735827922821045 1.3376498222351074 0.5670630931854248 0.2627246081829071 0.13623091578483582 0.08043770492076874 0.05353173241019249 0.052754610776901245 0.05464429408311844 0.058846745640039444 0.0648665577173233 0.07195575535297394 0.07948732376098633 0.0870918482542038 0.09453455358743668 0.10159705579280853 0.10522019118070602
-9999 -9999 3.1118977069854736 2.144575595855713 1.0626461505889893 0.42763596773147583 0.18542206287384033 0.0913858637213707 0.06025064364075661 0.05731236934661865 0.05703862011432648 0.05937356501817703 0.06405024230480194 0.07053808867931366 0.07800739258527756 0.08572535216808319 0.09314204752445221 0.09957162290811539 0.10436493158340454 0.10686017572879791
-9999 -9999 -9999 1.750583529472351 0.9067462086677551 0.3718741536140442 0.15607011318206787 0.074983149766922 0.06208200752735138 0.05946915224194527 0.05944680795073509 0.0619833841919899 0.06689342856407166 0.073610320687294 0.08126318454742432 0.08898051828145981 0.09620188921689987 0.10189194977283478 0.10582840442657471 0.10783873498439789
