ncols         20
nrows         20
xllcorner     0
yllcorner     -3.5992928
cellsize      0.17996463
NODATA_value  -9999
-9999.0 -9999 -9999 -9999 -9999 -9999 -9999 -9999 -9999 -9999 -9999 -9999 -9999 -9999 -9999 -9999 -9999 -9999 -9999 -9999
-9999 -9999 -9999 -9999 -9999 -9999 -9999 -9999 -9999 -9999 -9999 1.1407395601272583 1.1395686864852905 -9999 -9999 1.1688358783721924 1.1557371616363525 -9999 -9999 -9999
-9999 -9999 -9999 -9999 1.1375696659088135 1.1462364196777344 1.160162091255188 1.1640297174453735 1.162814736366272 1.1649473905563354 1.1540392637252808 1.1602424383163452 1.1713240146636963 1.180507779121399 1.1816169023513794 1.178214192390442 1.1666321754455566 1.155400037765503 -9999 -9999
-9999 -9999 -9999 1.1493048667907715 1.1570833921432495 1.1657198667526245 1.1747757196426392 1.1767274141311646 1.1772658824920654 1.176961898803711 1.1810939311981201 1.1885449886322021 1.1987226009368896 1.206397533416748 1.2150448560714722 1.2123644351959229 1.1981277465820312 1.184568166732788 -9999 -9999
-9999 -9999 -9999 1.164718747138977 1.1753512620925903 1.1935008764266968 1.2005071640014648 1.1982883214950562 1.1873092651367188 1.1643353700637817 1.1380287408828735 1.127754807472229 1.1438250541687012 1.181023120880127 1.2189828157424927 1.2354388236999512 1.23258376121521 1.2359182834625244 -9999 -9999
-9999 -9999 1.1684054136276245 1.1836053133010864 1.2019259929656982 1.2160536050796509 1.2116538286209106 1.1923677921295166 1.1423050165176392 1.0573545694351196 0.9623200297355652 0.9142779111862183 0.9335963129997253 1.0219193696975708 1.1320722103118896 1.2029709815979004 1.2368742227554321 1.2480113506317139 1.2348177433013916 -9999
-9999 -9999 1.1836140155792236 1.2011176347732544 1.228193759918213 1.2346841096878052 1.2153246402740479 1.1573817729949951 1.0454895496368408 0.8899677395820618 0.7406020164489746 0.6615661382675171 0.6762813329696655 0.78758704662323 0 1.0971720218658447 1.1899759769439697 1.2299491167068481 1.2371755838394165 -9999
-9999 -9999 1.2171610593795776 1.2380671501159668 1.2557824850082397 1.2425358295440674 1.184445858001709 1.0667011737823486 0.8973910808563232 0.70857173204422 0.558261513710022 0.47662702202796936 0.47980403900146484 0.5681860446929932 0.7277633547782898 0.9079945683479309 1.0546780824661255 1.1497094631195068 1.1858829259872437 -9999
-9999 1.2318884134292603 1.2574971914291382 1.2717093229293823 1.2636851072311401 1.204263687133789 1.0769538879394531 0.8928435444831848 0.6938506960868835 0.5222549438476562 0.40665870904922485 0.3463279604911804 0.3409806489944458 0.3979479670524597 0.5153167247772217 0 0.8498691320419312 0.9781479835510254 1.039950966835022 -9999
-9999 1.2677345275878906 1.2856824398040771 1.282830834388733 1.224274754524231 1.0848604440689087 0.8801301121711731 0.6552056670188904 0.4677290916442871 0.3422422707080841 0.27286863327026367 0.23805703222751617 0.23495620489120483 0.264943927526474 0.33890631794929504 0 0.6052629351615906 0.7372567057609558 0.8058017492294312 -9999
-9999 1.299813151359558 1.2975775003433228 1.2484662532806396 1.1252762079238892 0.9190059900283813 0.6664578318595886 0.43582984805107117 0.2825540602207184 0.1991940587759018 0.1591278612613678 0.14224226772785187 0.14101293683052063 0.15667308866977692 0.19599154591560364 0.26848500967025757 0.36759430170059204 0.47421732544898987 0.5315929651260376 -9999
-9999 1.2879658937454224 1.2577624320983887 1.1518609523773193 0.9711542725563049 0.7350834608078003 0.4837833046913147 0.28351014852523804 0.1666601002216339 0.10846243798732758 0.08285468071699142 0.07197624444961548 0 0 0.09244821220636368 0 0.18594476580619812 0.25209590792655945 0.2886192202568054 -9999
-9999 1.2010407447814941 1.1349620819091797 0.9669468402862549 0.7603471279144287 0.5384329557418823 0.3334813714027405 0.18185321986675262 0.09742487221956253 0.059111300855875015 0.03801353648304939 0.03028748370707035 0 0 0 0.04605249688029289 0.07565412670373917 0.110821932554245 0.13343960046768188 -9999
-9999 1.0280991792678833 0.9300615191459656 0.7240710854530334 0.518873929977417 0.34408432245254517 0.20559054613113403 0.10985682159662247 0.054029010236263275 0.031760748475790024 0.02127218060195446 0.01638614572584629 0 0 0 0.016916532069444656 0.024349667131900787 0.03958563879132271 0.05222524702548981 -9999
-9999 0.8350266218185425 0.7246313095092773 0.5083924531936646 0.32346606254577637 0.19837965071201324 0.11483049392700195 0.05925975739955902 0.032864660024642944 0.02068612538278103 0.01483236812055111 0.011594569310545921 0.009772069752216339 0.00891148205846548 0 0 0.010372864082455635 0.015081915073096752 -9999 -9999
-9999 0.6976817846298218 0.582294225692749 0.37326839566230774 0.2133995145559311 0.11693044006824493 0.06245706230401993 0.03519338741898537 0.022223087027668953 0.01551730465143919 0 0 0 0.010198956355452538 0 0 0.013022899627685547 0 -9999 -9999
-9999 0.6012587547302246 0.4805278480052948 0.2973993122577667 0.15694749355316162 0.07235308736562729 0.03869228437542915 0.023005163297057152 0.015767492353916168 0 0 0 0 0.01328357309103012 0.014786927960813046 0.016053732484579086 0.017115676775574684 0.01827627792954445 0 0
-9999 -9999 0.37549924850463867 0.24463452398777008 0.12419604510068893 0.05388449504971504 0.027339307591319084 0.016500655561685562 0 0 0 0 0 0 0 0 0 0 0 0
-9999 -9999 0.2698776125907898 0.19219793379306793 0.09991646558046341 0.041915833950042725 0.02053535357117653 0.012301797978579998 0 0 0 0 0 0 0 0 0 0 0 0
-9999 -9999 -9999 0.16014383733272552 0.08474981039762497 0.037058014422655106 0.017938222736120224 0.01076724287122488 0 0 0 0 0 0 0 0 0 0 0 0
