ncols         20
nrows         20
xllcorner     0
yllcorner     -3.5992928
cellsize      0.17996463
NODATA_value  -9999
-9999.0 -9999 -9999 -9999 -9999 -9999 -9999 -9999 -9999 -9999 -9999 -9999 -9999 -9999 -9999 -9999 -9999 -9999 -9999 -9999
-9999 -9999 -9999 -9999 -9999 -9999 -9999 -9999 -9999 -9999 -9999 2.351252317428589 2.3459670543670654 -9999 -9999 2.4258005619049072 2.400441884994507 -9999 -9999 -9999
-9999 -9999 -9999 -9999 2.4790267944335938 2.4890503883361816 2.501758337020874 2.4834094047546387 2.448523998260498 2.4201090335845947 2.3702919483184814 2.370678186416626 2.3845760822296143 2.3939099311828613 2.4040350914001465 2.418064832687378 2.4019253253936768 2.375680446624756 -9999 -9999
-9999 -9999 -9999 2.5160367488861084 2.5258984565734863 2.5315678119659424 2.527338981628418 2.495295524597168 2.454214334487915 2.4103658199310303 2.381089925765991 2.3718883991241455 2.3808677196502686 2.396411657333374 2.4265854358673096 2.442206382751465 2.426856279373169 2.4039580821990967 -9999 -9999
-9999 -9999 -9999 2.5508785247802734 2.566394805908203 2.5864522457122803 2.5618579387664795 2.4934182167053223 2.4055020809173584 2.30800199508667 2.215053081512451 2.16251277923584 2.1738874912261963 2.2434699535369873 2.3381266593933105 2.406494379043579 2.4232590198516846 2.4392120838165283 -9999 -9999
-9999 -9999 2.5601301193237305 2.5911967754364014 2.6192493438720703 2.613990306854248 2.525064468383789 2.3582603931427 2.186863899230957 2.0032660961151123 1.8154208660125732 1.7079168558120728 1.7229481935501099 1.8581582307815552 2.0537755489349365 2.220773935317993 2.3157496452331543 2.3469581604003906 2.291930675506592 -9999
-9999 -9999 2.5878665447235107 2.6226682662963867 2.6603338718414307 2.598794460296631 2.3683385848999023 1.9659062623977661 1.6972126960754395 1.4497064352035522 1.2293559312820435 1.1241761445999146 1.1920820474624634 1.377415657043457 1.63566255569458 1.8877215385437012 2.078559160232544 2.1724324226379395 2.192978858947754 -9999
-9999 -9999 2.6465554237365723 2.6886909008026123 2.6904144287109375 2.5174951553344727 2.043083429336548 0.906903088092804 0.666454553604126 0.5592317581176758 0.49477261304855347 0.5000582933425903 0.7472646236419678 0.944816529750824 1.1955817937850952 1.4818674325942993 1.7236367464065552 1.8792544603347778 1.9468305110931396 -9999
-9999 2.6275734901428223 2.6974997520446777 2.728879928588867 2.6587727069854736 2.377446174621582 1.8035061359405518 0.6796159148216248 0.4187852442264557 0.3306141495704651 0.3008824586868286 0.3262893259525299 0.493696004152298 0.6260111927986145 0.7961411476135254 1.0316981077194214 1.2911393642425537 1.4919673204421997 1.5846612453460693 -9999
-9999 2.6532342433929443 2.6902496814727783 2.6744327545166016 2.4871203899383545 2.0901424884796143 1.4900950193405151 0.5512968301773071 0.315152108669281 0.23824700713157654 0.21895672380924225 0.23781578242778778 0.33245983719825745 0.3972860872745514 0.4894222319126129 0.6352875232696533 0.8379552364349365 1.0234873294830322 1.1174949407577515 -9999
-9999 2.6127591133117676 2.5929431915283203 2.4668049812316895 2.1639657020568848 1.7271506786346436 1.1498509645462036 0.43363049626350403 0.24186688661575317 0.17695178091526031 0.15762165188789368 0.16361132264137268 0.20258758962154388 0.22717763483524323 0.26589563488960266 0.34176579117774963 0.455949604511261 0.5829724669456482 0.6515555381774902 -9999
-9999 2.419598340988159 2.3335299491882324 2.09433650970459 1.7315032482147217 1.3218735456466675 0.8340699672698975 0.33691415190696716 0.1861916482448578 0.12750571966171265 0.10504864156246185 0.0983290746808052 0.10560128837823868 0.10821478068828583 0.11842364817857742 0.14919596910476685 0.2057657092809677 0.2721133530139923 0.30848076939582825 -9999
-9999 2.035140037536621 1.8918814659118652 1.5864441394805908 1.2523279190063477 0.902873694896698 0.5610913038253784 0.28372061252593994 0.14953143894672394 0.09338748455047607 0.06419046968221664 0.05120695382356644 0.044014591723680496 0.03964981436729431 0.040358420461416245 0.04857057332992554 0.07526537775993347 0.1059383675456047 0.1249602735042572 -9999
-9999 1.5493987798690796 1.3901209831237793 1.073177456855774 0.7700587511062622 0.5196247100830078 0.31809201836586 0.17199435830116272 0.08831451088190079 0.05428038164973259 0.037409357726573944 0.02803593873977661 0.021867940202355385 0.01804548315703869 0.01621219888329506 0.017256340011954308 0.02234577387571335 0.033650267869234085 0.041931863874197006 -9999
-9999 1.1402459144592285 0.9749670624732971 0.6706060767173767 0.42265287041664124 0.26257821917533875 0.15669023990631104 0.08398185670375824 0.04926957190036774 0.03262399137020111 0.023862820118665695 0.018121857196092606 0.014224094338715076 0.011840918101370335 0.010298560373485088 0.010069034993648529 0.01093901414424181 0.014984997920691967 -9999 -9999
-9999 0.8687242269515991 0.7064493894577026 0.43750038743019104 0.2444296032190323 0.13402993977069855 0.07264404743909836 0.04303159564733505 0.029119161888957024 0.021650029346346855 0.01731901988387108 0.014012214727699757 0.01215512864291668 0.013472569175064564 0.014552624896168709 0.015313569456338882 0.015794122591614723 0.016284175217151642 -9999 -9999
-9999 0.7001752853393555 0.5305570363998413 0.3132700026035309 0.159315288066864 0.07082126289606094 0.03855876252055168 0.024479106068611145 0.018355073407292366 0.015115020796656609 0.013155627995729446 0.013613174669444561 0.01579274609684944 0.017815817147493362 0.019618170335888863 0.021162863820791245 0.022611897438764572 0.024580424651503563 0.02882750891149044 0.030573232099413872
-9999 -9999 0.37101805210113525 0.23354211449623108 0.11390083283185959 0.04688301309943199 0.02429829351603985 0.015995480120182037 0.012804982252418995 0.01152291800826788 0.014034420251846313 0.01664179377257824 0.019257953390479088 0.021794289350509644 0.02405592054128647 0.025953618809580803 0.027619512751698494 0.029202565550804138 0.030903257429599762 0.03158789873123169
-9999 -9999 0.24750228226184845 0.16912764310836792 0.08421823382377625 0.03357556834816933 0.01702273078262806 0.011439395137131214 0.010733830742537975 0.01347400899976492 0.016270266845822334 0.019130608066916466 0.022022949531674385 0.024830108508467674 0.027263350784778595 0.029187235981225967 0.030678870156407356 0.03167059272527695 0.032156117260456085 0.03231709823012352
-9999 -9999 -9999 0.13155874609947205 0.06598681211471558 0.028194880113005638 0.014411747455596924 0.009944046847522259 0.011677811853587627 0.014600065536797047 0.017536109313368797 0.020488765090703964 0.02349267713725567 0.02640150859951973 0.028895806521177292 0.030744919553399086 0.032097507268190384 0.03261572867631912 0.032705157995224 0.03267841786146164
