ncols         20
nrows         20
xllcorner     0
yllcorner     -3.5992928
cellsize      0.17996463
NODATA_value  -9999
-9999.0 -9999 -9999 -9999 -9999 -9999 -9999 -9999 -9999 -9999 -9999 -9999 -9999 -9999 -9999 -9999 -9999 -9999 -9999 -9999
-9999 -9999 -9999 -9999 -9999 -9999 -9999 -9999 -9999 -9999 -9999 0 0 -9999 -9999 0 0 -9999 -9999 -9999
-9999 -9999 -9999 -9999 0 0 0 0 0 0 0 0 0 0 0 0 0 0 -9999 -9999
-9999 -9999 -9999 0 0 0 0 0 0 0 0 0 0 0 0 0 0 0 -9999 -9999
-9999 -9999 -9999 0 0 0 0 0 0 0 0 0 0 0 0 0 0 0 -9999 -9999
-9999 -9999 0 0 0 0 3.4902873039245605 3.3202388286590576 3.1536808013916016 2.9497833251953125 2.7385928630828857 2.6400928497314453 2.7007012367248535 2.9314846992492676 3.241942882537842 3.570005416870117 0 0 0 -9999
-9999 -9999 0 0 0 3.546767234802246 3.2759838104248047 3.0175364017486572 2.712038516998291 2.352959156036377 2.022264242172241 1.8513240814208984 1.8959779739379883 2.165008544921875 0.28768959641456604 3.1018052101135254 0 0 0 -9999
-9999 -9999 0 0 3.725451946258545 3.4172492027282715 3.085249423980713 2.7008023262023926 2.268876075744629 1.833641529083252 1.4976073503494263 1.316592812538147 1.332382321357727 1.5516278743743896 1.95335054397583 2.4843692779541016 3.0615358352661133 0 0 -9999
-9999 0 0 4.033021450042725 3.6748557090759277 3.2711219787597656 2.793276786804199 2.266706943511963 1.7652356624603271 1.3573219776153564 1.089085578918457 0.9510658383369446 0.9433161020278931 1.0881620645523071 1.3834662437438965 0.4066738784313202 2.368837356567383 2.887345314025879 0 -9999
-9999 0 0 4.094181537628174 3.5752501487731934 2.9776272773742676 2.3308284282684326 1.713824987411499 1.2288084030151367 0.9117854237556458 0.7394169569015503 0.6547603011131287 0.6500720381736755 0.7293318510055542 0.9213876724243164 0.2751695513725281 1.6823952198028564 2.138819694519043 0 -9999
-9999 0 0 4.055095672607422 3.337543487548828 2.579681873321533 1.8254446983337402 1.189647912979126 0.7741040587425232 0.5474808216094971 0.43872392177581787 0.3937203884124756 0.3917042016983032 0.4358259439468384 0.5451152920722961 0.7491580247879028 1.0508918762207031 0 0 -9999
-9999 0 0 3.8017756938934326 2.941788911819458 2.122781276702881 1.3728629350662231 0.8035094141960144 0.4711969792842865 0.3040842115879059 0.23098185658454895 0.19988533854484558 0.08734730631113052 0.11841884255409241 0.26165804266929626 0.0815739780664444 0.5464102625846863 0 0 -9999
-9999 0 0 3.2496144771575928 2.3685543537139893 1.6079903841018677 0.9781069159507751 0.5292791128158569 0.28060221672058105 0.16735172271728516 0.10964427888393402 0.08686050027608871 0.05250389501452446 0.07218076288700104 0.06562238931655884 0.13767065107822418 0.2248135507106781 0 0 -9999
-9999 0 0 2.4899914264678955 1.6760811805725098 1.0678727626800537 0.6218302845954895 0.3267948031425476 0.16163085401058197 0.09153607487678528 0.05854259803891182 0.04289797320961952 0.01566375605762005 0.025691023096442223 0.02357524260878563 0.04562613368034363 0.06991983950138092 0 0 -9999
-9999 0 0 1.7857908010482788 1.0806523561477661 0.6360792517662048 0.3560807704925537 0.18206395208835602 0.09639806300401688 0.055615104734897614 0.035813119262456894 0.02505943365395069 0.019255731254816055 0.0165091622620821 0.010276954621076584 0.009343425743281841 0.02113259769976139 0 -9999 -9999
-9999 0 0 1.3212467432022095 0.7238808274269104 0.38147565722465515 0.1991366297006607 0.1057291328907013 0.060366950929164886 0.036772098392248154 0.01630569063127041 0.013366368599236012 0.0015303735854104161 0.015081891790032387 0.0074374135583639145 0.008232209831476212 0.020230455324053764 0.0030799671076238155 -9999 -9999
-9999 0 0 1.0454596281051636 0.5306268930435181 0.23987723886966705 0.12064749002456665 0.06429355591535568 0.03795474022626877 0.016105826944112778 0.014858672395348549 0.014814631082117558 0.012344520539045334 0.017454467713832855 0.01937423273921013 0.021467585116624832 0.0236524511128664 0.026083583012223244 0.0212379340082407 0.031432632356882095
-9999 -9999 0 0.8452140092849731 0.41265153884887695 0.1744968444108963 0.08066757768392563 0.04175587370991707 0.013677164912223816 0.014542420394718647 0.016096707433462143 0.016644509509205818 0.01590649038553238 0.015319697558879852 0.014552699401974678 0.01606983318924904 0.017610065639019012 0.02231655642390251 0.027440272271633148 0.03199078515172005
-9999 -9999 0 0 0.32799336314201355 0.13178621232509613 0.05706412345170975 0.02809237316250801 0.012331473641097546 0.01756695844233036 0.017451100051403046 0.018131105229258537 0.01952291652560234 0.021466761827468872 0.02371530421078205 0.026049286127090454 0.028303153812885284 0.03026800975203514 0.031741391867399216 0.03251078352332115
-9999 -9999 -9999 0 0.2798634171485901 0.11468354612588882 0.04809804633259773 0.023083321750164032 0.01272455882281065 0.018253043293952942 0.01821112260222435 0.018951108679175377 0.020412825047969818 0.022426309064030647 0.024731110781431198 0.02706550806760788 0.029259471222758293 0.03099651262164116 0.03220340609550476 0.032821424305438995
