ncols         20
nrows         20
xllcorner     0
yllcorner     -3.5992928
cellsize      0.17996463
NODATA_value  -9999
-9999.0 -9999 -9999 -9999 -9999 -9999 -9999 -9999 -9999 -9999 -9999 -9999 -9999 -9999 -9999 -9999 -9999 -9999 -9999 -9999
-9999 -9999 -9999 -9999 -9999 -9999 -9999 -9999 -9999 -9999 -9999 3.0852479934692383 3.1000308990478516 -9999 -9999 3.419443130493164 3.440976619720459 -9999 -9999 -9999
-9999 -9999 -9999 -9999 3.223148822784424 3.1469790935516357 3.041922092437744 2.9393997192382812 2.8610165119171143 2.820584297180176 2.828756093978882 2.912515640258789 2.959211587905884 2.9896438121795654 3.088690757751465 3.247727632522583 3.3293540477752686 3.3495821952819824 -9999 -9999
-9999 -9999 -9999 3.1900997161865234 3.127887010574341 2.9969403743743896 2.847755193710327 2.7204346656799316 2.630108118057251 2.5809359550476074 2.5752458572387695 2.61094331741333 2.662902355194092 2.7348692417144775 2.8474035263061523 2.9940125942230225 3.132079839706421 3.2166459560394287 -9999 -9999
-9999 -9999 -9999 3.0533998012542725 2.9161932468414307 2.7016470432281494 2.4673285484313965 2.301684856414795 2.1966261863708496 2.1388649940490723 2.1213786602020264 2.139500856399536 2.187749147415161 2.2701544761657715 2.399144411087036 2.5842626094818115 2.8188815116882324 2.970078468322754 -9999 -9999
-9999 -9999 2.911811590194702 2.83420991897583 2.599630117416382 2.2684173583984375 1.87473464012146 1.687399983406067 1.5880515575408936 1.5369797945022583 1.5187901258468628 1.5276323556900024 1.5631884336471558 1.632073163986206 1.7519371509552002 1.9652831554412842 2.3908345699310303 2.6275479793548584 2.6442995071411133 -9999
-9999 -9999 2.7342746257781982 2.541163206100464 2.1951801776885986 1.7502753734588623 1.4729506969451904 1.3157861232757568 1.2290217876434326 1.1841102838516235 1.166968822479248 1.1722112894058228 1.200880765914917 1.2605807781219482 1.3698095083236694 1.571494221687317 1.970129132270813 2.262637138366699 2.3986005783081055 -9999
-9999 -9999 2.48957896232605 2.186155080795288 1.7226035594940186 1.4085767269134521 1.204565405845642 1.0803405046463013 1.0092060565948486 0.9718949794769287 0.9572357535362244 0.9609052538871765 0.9839370846748352 1.032347559928894 1.119070291519165 1.2682831287384033 1.511680006980896 1.8513789176940918 2.0431714057922363 -9999
-9999 2.481228828430176 2.2848753929138184 1.7857060432434082 1.4294730424880981 1.187645673751831 1.0291677713394165 0.9307286739349365 0.8729318380355835 0.8416832089424133 0.8290258646011353 0.8316188454627991 0.8499366044998169 0.8879536986351013 0.9535710215568542 1.058988094329834 1.217879295349121 1.4316322803497314 1.6741387844085693 -9999
-9999 2.383319616317749 2.122116804122925 1.5856658220291138 1.2583884000778198 1.0504205226898193 0.9182068109512329 0.8366387486457825 0.7877235412597656 0.7605459094047546 0.7490538358688354 0.7504628300666809 0.7647631168365479 0.7944488525390625 0.8445587158203125 0.9227075576782227 1.0383585691452026 1.2003859281539917 1.3939132690429688 -9999
-9999 2.2564220428466797 1.985478162765503 1.462388277053833 1.1542259454727173 0.9652653932571411 0.8488399982452393 0.7772590517997742 0.7339134812355042 0.7094112634658813 0.6985456943511963 0.698744535446167 0.7097013592720032 0.7331030964851379 0.7726258039474487 0.8346083760261536 0.9302747249603271 1.0833954811096191 1.2000350952148438 -9999
-9999 2.118516683578491 1.8588218688964844 1.371519684791565 1.0844160318374634 0.9100430607795715 0.8040320873260498 0.7388890981674194 0.6993682980537415 0.676786482334137 0.6663305759429932 0.6654425859451294 0.6736569404602051 0.6922545433044434 0.7240309119224548 0.7739689350128174 0.8511754274368286 0.9721269607543945 1.0561161041259766 -9999
-9999 1.9718483686447144 1.7315200567245483 1.2931785583496094 1.030265212059021 0.8705613613128662 0.7730410695075989 0.7130874395370483 0.6767099499702454 0.655659556388855 0.6456829309463501 0.6438925862312317 0.6499531269073486 0.6648282408714294 0.6906800270080566 0.7314600944519043 0.7936888933181763 0.8893293738365173 0.9590167999267578 -9999
-9999 1.816461205482483 1.598586082458496 1.2160966396331787 0.9813251495361328 0.8379189968109131 0.7494310140609741 0.694779098033905 0.6615630984306335 0.6416195631027222 0.6314748525619507 0.6289283037185669 0.6333044767379761 0.6451663970947266 0.666171669960022 0.6997539401054382 0.7527483701705933 0.8332152962684631 0.9075238108634949 -9999
-9999 1.661370873451233 1.4655125141143799 1.1381772756576538 0.9346227645874023 0.808687150478363 0.730138897895813 0.6811661124229431 0.6501594185829163 0.6313582062721252 0.6213801503181458 0.6182860732078552 0.6212879419326782 0.6305408477783203 0.647092878818512 0.6733202934265137 0.7136043310165405 0.7627785205841064 -9999 -9999
-9999 1.5285654067993164 1.345698595046997 1.0660628080368042 0.8919166326522827 0.7830488085746765 0.7143746614456177 0.669885516166687 0.6413686871528625 0.6237566471099854 0.6140511631965637 0.6105291247367859 0.6123297810554504 0.6192755699157715 0.631777286529541 0.6510859727859497 0.6792610883712769 0.7071310877799988 -9999 -9999
-9999 1.4410113096237183 1.2406445741653442 1.0046876668930054 0.8555667400360107 0.7620644569396973 0.7009411454200745 0.6608188152313232 0.6346790790557861 0.6182194948196411 0.608866274356842 0.6050193905830383 0.6057685613632202 0.6106852293014526 0.6196942925453186 0.6331032514572144 0.6513455510139465 0.6685335636138916 0.6647614240646362 0.6639851331710815
-9999 -9999 1.0963621139526367 0.9468568563461304 0.8259446620941162 0.744987964630127 0.6904549598693848 0.6540061831474304 0.6298690438270569 0.6144272089004517 0.6053996086120605 0.6012958884239197 0.6011812090873718 0.6044679284095764 0.6107364892959595 0.6196503639221191 0.6305277347564697 0.641232430934906 0.6452760696411133 0.6464412212371826
-9999 -9999 1.036320447921753 0.9279059767723083 0.8108861446380615 0.7341857552528381 0.6835132241249084 0.6495422720909119 0.6268361806869507 0.6121253371238708 0.6033161282539368 0.5990261435508728 0.5983118414878845 0.6004823446273804 0.6049373149871826 0.6110897064208984 0.618093729019165 0.6244427561759949 0.6280836462974548 0.6296161413192749
-9999 -9999 -9999 0.8838664889335632 0.7979005575180054 0.7277003526687622 0.6798349618911743 0.6473024487495422 0.6253735423088074 0.6110456585884094 0.6023498177528381 0.5979546904563904 0.5969346761703491 0.5985487103462219 0.6021283864974976 0.6070045232772827 0.6123901009559631 0.6171471476554871 0.6203033924102783 0.6218069195747375
