ncols         20
nrows         20
xllcorner     0
yllcorner     -3.5992928
cellsize      0.17996463
NODATA_value  -9999
-9999.0 -9999 -9999 -9999 -9999 -9999 -9999 -9999 -9999 -9999 -9999 -9999 -9999 -9999 -9999 -9999 -9999 -9999 -9999 -9999
-9999 -9999 -9999 -9999 -9999 -9999 -9999 -9999 -9999 -9999 -9999 2.994296073913574 3.0058047771453857 -9999 -9999 3.200237989425659 3.2051703929901123 -9999 -9999 -9999
-9999 -9999 -9999 -9999 3.1634581089019775 3.119326114654541 3.0533742904663086 2.9757699966430664 2.905089855194092 2.858806610107422 2.8475372791290283 2.893918514251709 2.932912588119507 2.971766233444214 3.036177635192871 3.11507511138916 3.1471171379089355 3.1500561237335205 -9999 -9999
-9999 -9999 -9999 3.1764588356018066 3.1318256855010986 3.049107789993286 2.9482922554016113 2.840308904647827 2.748438835144043 2.689117670059204 2.671557664871216 2.6983470916748047 2.754415512084961 2.8296592235565186 2.915694236755371 2.996021270751953 3.0546112060546875 3.090925455093384 -9999 -9999
-9999 -9999 -9999 3.13907527923584 3.0538439750671387 2.9188716411590576 2.7532777786254883 2.5825023651123047 2.4472789764404297 2.3637659549713135 2.336545944213867 2.3671011924743652 2.4487555027008057 2.5634076595306396 2.691455125808716 2.810544013977051 2.9074976444244385 2.9708917140960693 -9999 -9999
-9999 -9999 3.150402069091797 3.088413715362549 2.944931745529175 2.731001615524292 2.4622795581817627 2.1873815059661865 1.9957432746887207 1.8898136615753174 1.8599088191986084 1.9074039459228516 2.0310630798339844 2.1944658756256104 2.3721799850463867 2.539262533187866 2.676023006439209 2.760484218597412 2.7373061180114746 -9999
-9999 -9999 3.1216695308685303 3.014862537384033 2.806272268295288 2.4899771213531494 2.0748016834259033 1.6224561929702759 1.384887933731079 1.2831685543060303 1.2742524147033691 1.3612197637557983 1.5707297325134277 1.7872110605239868 2.001819610595703 2.2049105167388916 2.376893997192383 2.5010733604431152 2.5560879707336426 -9999
-9999 -9999 3.091099739074707 2.9411754608154297 2.658353805541992 2.230604410171509 1.6363322734832764 0.7849633097648621 0.5929968357086182 0.5532697439193726 0.5815263986587524 0.7038187384605408 1.14266037940979 1.4223084449768066 1.650329351425171 1.8582919836044312 2.042750597000122 2.1897497177124023 2.27347469329834 -9999
-9999 3.1503689289093018 3.060685157775879 2.852969169616699 2.5089235305786133 2.0196681022644043 1.3859144449234009 0.5910270810127258 0.3918108642101288 0.3518936336040497 0.3855961561203003 0.5134657621383667 0.8930099010467529 1.1554388999938965 1.366070032119751 1.5512783527374268 1.7190581560134888 1.8628398180007935 1.9514310359954834 -9999
-9999 3.082073450088501 2.9628777503967285 2.717944622039795 2.340085983276367 1.8386644124984741 1.2364388704299927 0.5419220924377441 0.35010600090026855 0.30640172958374023 0.3358161747455597 0.45054349303245544 0.7558925151824951 0.9767628908157349 1.15450918674469 1.3093684911727905 1.4488481283187866 1.57162606716156 1.6516175270080566 -9999
-9999 2.930215835571289 2.790395975112915 2.5215752124786377 2.138505458831787 1.6675772666931152 1.1363838911056519 0.5460953712463379 0.3737102448940277 0.32990574836730957 0.35172131657600403 0.44626617431640625 0.6892461180686951 0.8658156991004944 1.0067696571350098 1.1307107210159302 1.2433702945709229 1.3459895849227905 1.4159913063049316 -9999
-9999 2.682297468185425 2.5332162380218506 2.262040615081787 1.9069103002548218 1.5034009218215942 1.0736875534057617 0.6004548072814941 0.4542812705039978 0.4104715585708618 0.42136457562446594 0.49070167541503906 0.6741660833358765 0.8049094676971436 0.9106632471084595 1.0061659812927246 1.096272587776184 1.1823158264160156 1.244036316871643 -9999
-9999 2.3592917919158936 2.2136728763580322 1.9642523527145386 1.666788101196289 1.3551050424575806 1.0528582334518433 0.7887310981750488 0.6465651392936707 0.5849996209144592 0.5780834555625916 0.6173287034034729 0.7000842094421387 0.7797914147377014 0.8530450463294983 0.9241618514060974 0.9967482089996338 1.071484923362732 1.130129098892212 -9999
-9999 2.019014358520508 1.8890196084976196 1.682528018951416 1.4547820091247559 1.2269372940063477 1.017317295074463 0.8477823138237 0.7402666807174683 0.6841002702713013 0.6679493188858032 0.6838018894195557 0.7233484387397766 0.7702142000198364 0.8194546699523926 0.8726454973220825 0.9334970712661743 1.001596450805664 1.0695704221725464 -9999
-9999 1.735358715057373 1.6266064643859863 1.4627199172973633 1.2892340421676636 1.1225411891937256 0.9748719930648804 0.8585594296455383 0.7794572114944458 0.7340331673622131 0.7158616185188293 0.7193918228149414 0.7386022210121155 0.7663622498512268 0.7993917465209961 0.838445782661438 0.886350154876709 0.9302423000335693 -9999 -9999
-9999 1.5413786172866821 1.4408776760101318 1.3042036294937134 1.1676331758499146 1.042015790939331 0.9348869323730469 0.8512970805168152 0.7925751209259033 0.7569750547409058 0.740044355392456 0.7381033301353455 0.7473747730255127 0.7642260789871216 0.7866368889808655 0.8148134350776672 0.8514848351478577 0.8846098184585571 -9999 -9999
-9999 1.4341481924057007 1.3158910274505615 1.195447325706482 1.0814778804779053 0.9824864864349365 0.901576817035675 0.8390383720397949 0.7944850325584412 0.7664978504180908 0.7517507672309875 0.747743546962738 0.7520393133163452 0.7624727487564087 0.7776951789855957 0.7974809408187866 0.822941780090332 0.8481613397598267 0.8508018851280212 0.85267573595047
-9999 -9999 1.1929110288619995 1.1137744188308716 1.0213185548782349 0.9408960342407227 0.8767126202583313 0.8275824189186096 0.7925559282302856 0.7699844837188721 0.7572822570800781 0.7526306509971619 0.7543432116508484 0.7609543800354004 0.771298348903656 0.7846658229827881 0.800466775894165 0.8167300224304199 0.8252314925193787 0.8283328413963318
-9999 -9999 1.135353922843933 1.065719723701477 0.9860467314720154 0.9151856899261475 0.8605376482009888 0.8193503022193909 0.7902580499649048 0.7711197137832642 0.7598174810409546 0.7550161480903625 0.7554162740707397 0.7598326802253723 0.7671690583229065 0.7765300273895264 0.7869309186935425 0.7966012358665466 0.8027802109718323 0.8055567145347595
-9999 -9999 -9999 1.0239685773849487 0.9659512042999268 0.9020327925682068 0.8523386716842651 0.8149887919425964 0.7887656688690186 0.7712777256965637 0.7607195377349854 0.75590580701828 0.755754292011261 0.7591778039932251 0.7651172280311584 0.7726075053215027 0.7806854248046875 0.7878592014312744 0.7928242087364197 0.7952572107315063
