ncols         20
nrows         20
xllcorner     0
yllcorner     -3.5992928
cellsize      0.17996463
NODATA_value  -9999
-9999.0 -9999 -9999 -9999 -9999 -9999 -9999 -9999 -9999 -9999 -9999 -9999 -9999 -9999 -9999 -9999 -9999 -9999 -9999 -9999
-9999 -9999 -9999 -9999 -9999 -9999 -9999 -9999 -9999 -9999 -9999 0.20807382464408875 0.2048233598470688 -9999 -9999 0.1850200742483139 0.17322133481502533 -9999 -9999 -9999
-9999 -9999 -9999 -9999 0.18557971715927124 0.20245125889778137 0.23380449414253235 0.2634793519973755 0.2869611978530884 0.30427753925323486 0.2816507816314697 0.26145294308662415 0.26289868354797363 0.2684461772441864 0.24420014023780823 0.21053487062454224 0.18984872102737427 0.18011070787906647 -9999 -9999
-9999 -9999 -9999 0.18267390131950378 0.1969374269247055 0.22018218040466309 0.2560208737850189 0.2952169179916382 0.3393093943595886 0.37892237305641174 0.40713343024253845 0.4109565019607544 0.4072361886501312 0.37779760360717773 0.331804484128952 0.27794790267944336 0.2374715656042099 0.21707721054553986 -9999 -9999
-9999 -9999 -9999 0.1922399401664734 0.2122572660446167 0.2547793388366699 0.3109481930732727 0.3805575668811798 0.4689272940158844 0.5840825438499451 0.6974629759788513 0.7567651271820068 0.7416855096817017 0.6458184719085693 0.5338199138641357 0.4194802939891815 0.33859020471572876 0.318553626537323 -9999 -9999
-9999 -9999 0.18139241635799408 0.2029794454574585 0.24052780866622925 0.30272045731544495 0.3853263854980469 0.4967837631702423 0.6669329404830933 0.8897416591644287 1.1308202743530273 1.2614796161651611 1.2557563781738281 1.0892040729522705 0.8613161444664001 0.6570141315460205 0.5155729651451111 0.46267175674438477 0.4402201175689697 -9999
-9999 -9999 0.19512595236301422 0.22212795913219452 0.28555580973625183 0.380470335483551 0.5020705461502075 0.6762044429779053 0.9331239461898804 1.2651875019073486 1.609397292137146 1.823690414428711 1.836806297302246 1.6464146375656128 1.3626388311386108 1.0346267223358154 0.8010016679763794 0.6599171161651611 0.6073774695396423 -9999
-9999 -9999 0.2319389134645462 0.27766287326812744 0.37685221433639526 0.5175666809082031 0.7097079753875732 0.9675824046134949 1.294049859046936 1.6804735660552979 2.027540683746338 2.270296573638916 2.321688175201416 2.176224946975708 1.890660285949707 1.5380949974060059 1.226474404335022 1.0037814378738403 0.9142969846725464 -9999
-9999 0.2535039186477661 0.29536816477775574 0.3798001706600189 0.5447894334793091 0.778948187828064 1.0697989463806152 1.4313640594482422 1.8186296224594116 2.1835973262786865 2.466063976287842 2.6662397384643555 2.75837779045105 2.6921823024749756 2.499396562576294 2.2050209045410156 1.7931464910507202 1.4952340126037598 1.3661960363388062 -9999
-9999 0.3197345733642578 0.3868340253829956 0.5514081716537476 0.8193597793579102 1.178526520729065 1.6070730686187744 2.072303533554077 2.484973192214966 2.7852554321289062 2.9719393253326416 3.117626667022705 3.211357831954956 3.2247111797332764 3.1172220706939697 2.9156317710876465 2.4825243949890137 2.141298294067383 1.987640380859375 -9999
-9999 0.4598310887813568 0.5609440803527832 0.8006783723831177 1.160604476928711 1.6307388544082642 2.185141086578369 2.731914758682251 3.1263387203216553 3.3579869270324707 3.4989054203033447 3.622572898864746 3.7473409175872803 3.7973365783691406 3.7363240718841553 3.566722869873047 3.2414419651031494 2.9092202186584473 2.7476422786712646 -9999
-9999 0.7065047025680542 0.8413817882537842 1.1612616777420044 1.5975074768066406 2.124469041824341 2.719545602798462 3.244331121444702 3.559703826904297 3.717602252960205 3.8266077041625977 3.9755420684814453 4.223691463470459 4.317774772644043 4.240045547485352 4.198103427886963 3.913419246673584 3.649625539779663 3.5064029693603516 -9999
-9999 1.0991944074630737 1.2872923612594604 1.6986042261123657 2.165864944458008 2.6798558235168457 3.197373390197754 3.597559690475464 3.772810459136963 3.8161399364471436 3.8606927394866943 3.9740097522735596 4.207530975341797 4.3002848625183105 4.307013511657715 4.212103366851807 4.160989761352539 4.073529243469238 3.965430498123169 -9999
-9999 1.6245619058609009 1.8626141548156738 2.3516476154327393 2.8362631797790527 3.262969493865967 3.6074140071868896 3.800401449203491 3.8206703662872314 3.773005962371826 3.7411458492279053 3.7543158531188965 3.843262195587158 3.833172082901001 3.7856624126434326 3.7216808795928955 3.814009666442871 4.006482124328613 3.971078395843506 -9999
-9999 2.1357550621032715 2.3995048999786377 2.9340660572052 3.3901050090789795 3.6750495433807373 3.818437337875366 3.83530592918396 3.7686078548431396 3.682797431945801 3.6146984100341797 3.5103273391723633 3.3806710243225098 3.2255311012268066 3.110680341720581 3.028210163116455 3.026700019836426 3.353586435317993 -9999 -9999
-9999 2.4810168743133545 2.763005018234253 3.293686866760254 3.665034770965576 3.8077313899993896 3.8063457012176514 3.7342097759246826 3.662226676940918 3.60408878326416 3.5758633613586426 3.4015743732452393 3.1266684532165527 2.7804996967315674 2.547743558883667 2.333782911300659 2.186976432800293 1.9527485370635986 -9999 -9999
-9999 2.7310574054718018 3.0213732719421387 3.4822771549224854 3.7618377208709717 3.7728471755981445 3.665745496749878 3.5421063899993896 3.4821929931640625 3.46805477142334 3.3686752319335938 3.1391663551330566 2.8034098148345947 2.4222488403320312 2.1049065589904785 1.8361262083053589 1.6239644289016724 1.4364060163497925 1.3224934339523315 1.165976881980896
-9999 -9999 3.2716941833496094 3.597611427307129 3.782378673553467 3.684081554412842 3.473477363586426 3.3036603927612305 3.262026309967041 3.1856348514556885 3.0526907444000244 2.816087007522583 2.5008866786956787 2.117438316345215 1.7954363822937012 1.550963282585144 1.3314045667648315 1.1776024103164673 1.068332314491272 1.1017965078353882
-9999 -9999 3.530093193054199 3.6936237812042236 3.76223087310791 3.5566585063934326 3.2468972206115723 3.0087485313415527 2.9175477027893066 2.824544668197632 2.7321395874023438 2.5082058906555176 2.2013702392578125 1.8454020023345947 1.5657339096069336 1.357447862625122 1.1830683946609497 1.0728405714035034 1.1067973375320435 1.1271424293518066
-9999 -9999 -9999 3.734099864959717 3.742708206176758 3.4913856983184814 3.1276931762695312 2.8576390743255615 2.752119779586792 2.669105291366577 2.5687143802642822 2.3879201412200928 2.085521936416626 1.7403080463409424 1.4533263444900513 1.286402702331543 1.102104902267456 1.1035783290863037 1.128779411315918 1.1437054872512817
