ncols         20
nrows         20
xllcorner     0
yllcorner     -3.5992928
cellsize      0.17996463
NODATA_value  -9999
-9999.0 -9999 -9999 -9999 -9999 -9999 -9999 -9999 -9999 -9999 -9999 -9999 -9999 -9999 -9999 -9999 -9999 -9999 -9999 -9999
-9999 -9999 -9999 -9999 -9999 -9999 -9999 -9999 -9999 -9999 -9999 0.018078697845339775 0.018077295273542404 -9999 -9999 0.018160318955779076 0.01816706173121929 -9999 -9999 -9999
-9999 -9999 -9999 -9999 0.018230589106678963 0.01819099672138691 0.018132444471120834 0.01806102879345417 0.017989758402109146 0.017933011054992676 0.017903892323374748 0.03796854615211487 0.03796059638261795 0.01788790337741375 0.017911655828356743 0.03810964897274971 0.03815401345491409 0.01800265908241272 -9999 -9999
-9999 -9999 -9999 0.01812785677611828 0.03836581110954285 0.07977135479450226 0.07949165999889374 0.07912743091583252 0.07875727862119675 0.07845035940408707 0.07825779169797897 0.09418652951717377 0.09414620697498322 0.07813888788223267 0.07823972404003143 0.09448347985744476 0.0786237120628357 0.017834322527050972 -9999 -9999
-9999 -9999 -9999 0.01798638515174389 0.0792713314294815 0.11446703970432281 0.11397192627191544 0.11333494633436203 0.11269622296094894 0.11216463148593903 0.11181387305259705 0.11169075965881348 0.11162815243005753 0.11160622537136078 0.11176757514476776 0.11204534769058228 0.0775548443198204 0.01755048707127571 -9999 -9999
-9999 -9999 0.017719604074954987 0.0375831201672554 0.09434647113084793 0.11306982487440109 0.11240196973085403 0.11158804595470428 0.11079772561788559 0.11015554517507553 0.10971768945455551 0.10949236154556274 0.10942059755325317 0.10948105156421661 0.10967901349067688 0.10990916192531586 0.09144680202007294 0.03625939413905144 0.017015637829899788 -9999
-9999 -9999 0.017543114721775055 0.07726697623729706 0.11166513711214066 0.11113495379686356 0.11022315919399261 0.1091783195734024 0.10821575671434402 0.10745612531900406 0.10694599896669388 0.10666818916797638 0.10657335817813873 0.10664791613817215 0.10688744485378265 0.10718263685703278 0.1072634756565094 0.07394130527973175 0.016765046864748 -9999
-9999 -9999 0.01727242022752762 0.0761166512966156 0.1096903383731842 0.1088508665561676 0.10767508298158646 0.10645898431539536 0.10543091595172882 0.10462696850299835 0.10405773669481277 0.10371039062738419 0.10355497896671295 0.1035761758685112 0.10376819968223572 0.10411176830530167 0.10444608330726624 0.07230065017938614 0.01640303060412407 -9999
-9999 0.016873639076948166 0.035807520151138306 0.08984355628490448 0.10743004828691483 0.1063498929142952 0.10497588664293289 0.10370968282222748 0.10264004021883011 0.10179699957370758 0.10117735713720322 0.10077155381441116 0.10055920481681824 0.1005237028002739 0.10065267235040665 0.10092104971408844 0.10126645863056183 0.07021729648113251 0.015951508656144142 -9999
-9999 0.016687966883182526 0.07336447387933731 0.10586249828338623 0.10508526116609573 0.10376032441854477 0.10229583084583282 0.10099399089813232 0.09990071505308151 0.09902758151292801 0.09836505353450775 0.09790872782468796 0.09764444828033447 0.09755624085664749 0.09762667119503021 0.0978274717926979 0.09809770435094833 0.06800264120101929 0.015457936562597752 -9999
-9999 0.01643265224993229 0.07218167930841446 0.10376353561878204 0.10266412794589996 0.10113032907247543 0.09965375810861588 0.0983484759926796 0.09724708646535873 0.09635239094495773 0.09565578401088715 0.09515783190727234 0.09484903514385223 0.09471445530653 0.09473873674869537 0.09489881992340088 0.095140740275383 0.06593747437000275 0.014978518709540367 -9999
-9999 0.016120631247758865 0.07071126997470856 0.10142471641302109 0.1001424491405487 0.09855693578720093 0.09709148108959198 0.0958019495010376 0.09470269829034805 0.09379451721906662 0.09307172149419785 0.09253956377506256 0.09219210594892502 0.09201526641845703 0.09200331568717957 0.09215524792671204 0.09244143217802048 0.06413443386554718 0.014566752128303051 -9999
-9999 0.015774870291352272 0.06909212470054626 0.0989365428686142 0.0975567027926445 0.0960436537861824 0.0946354791522026 0.09338157624006271 0.09229546785354614 0.0913827046751976 0.0906384065747261 0.09007340669631958 0.0896822065114975 0.08945558220148087 0.08940155804157257 0.08955342322587967 0.09000755846500397 0.06269542872905731 0.014239238575100899 -9999
-9999 0.0154203986749053 0.06744220107793808 0.09642919898033142 0.09506306052207947 0.09365610033273697 0.09232687950134277 0.0911225825548172 0.09006073325872421 0.08915610611438751 0.08840148150920868 0.0878024622797966 0.08735639601945877 0.08705853670835495 0.08691935986280441 0.08696828782558441 0.07235023379325867 0.029251202940940857 0.014001014642417431 -9999
-9999 0.015087733045220375 0.06590434908866882 0.09406761080026627 0.09277110546827316 0.0914565771818161 0.09020887315273285 0.08906405419111252 0.08804651349782944 0.08716077357530594 0.08640043437480927 0.08576725423336029 0.08525796979665756 0.08487025648355484 0.08460915833711624 0.08448132872581482 0.05836167931556702 0.01323265302926302 -9999 -9999
-9999 0.014811897650361061 0.06430017948150635 0.09202904999256134 0.09070979058742523 0.08947812020778656 0.0883183628320694 0.0872514620423317 0.0862872377038002 0.08542988449335098 0.08467119932174683 0.08400915563106537 0.08343836665153503 0.08295489847660065 0.0825594961643219 0.08225060999393463 0.05629361793398857 0.012742702849209309 -9999 -9999
-9999 0.014617251232266426 0.03038988821208477 0.0745542123913765 0.08880507946014404 0.08773636072874069 0.08669819682836533 0.08571898937225342 0.08481480926275253 0.08399105817079544 0.08323799818754196 0.08255386352539062 0.08193089067935944 0.08136068284511566 0.08083232492208481 0.08031808584928513 0.06598972529172897 0.025957368314266205 0.011971130967140198 0.011854813434183598
-9999 -9999 0.01396824512630701 0.060664497315883636 0.0872517004609108 0.08630877733230591 0.08539403975009918 0.08450528979301453 0.08366141468286514 0.08287078887224197 0.08212713897228241 0.08142951875925064 0.08076924830675125 0.08013448864221573 0.07950632274150848 0.07883661985397339 0.07800563424825668 0.06394460797309875 0.05245184153318405 0.05214271694421768
-9999 -9999 0.013596765697002411 0.028823746368288994 0.07122308760881424 0.0852089375257492 0.08445070683956146 0.08365055918693542 0.08285931497812271 0.08209747076034546 0.08136460185050964 0.08066103607416153 0.07997889816761017 0.07930795103311539 0.0786338746547699 0.07792916893959045 0.07715709507465363 0.07632310688495636 0.07566596567630768 0.07532551139593124
-9999 -9999 -9999 0.013266798108816147 0.05852121114730835 0.08459758013486862 0.08394595980644226 0.08320233970880508 0.08244260400533676 0.08169712126255035 0.08097175508737564 0.08026714622974396 0.0795758068561554 0.07888999581336975 0.07820077985525131 0.07749661058187485 0.0767739936709404 0.07608015090227127 0.07553790509700775 0.07524527609348297
