ncols         20
nrows         20
xllcorner     0
yllcorner     -3.5992928
cellsize      0.17996463
NODATA_value  -9999
-9999.0 -9999 -9999 -9999 -9999 -9999 -9999 -9999 -9999 -9999 -9999 -9999 -9999 -9999 -9999 -9999 -9999 -9999 -9999 -9999
-9999 -9999 -9999 -9999 -9999 -9999 -9999 -9999 -9999 -9999 -9999 0 0 -9999 -9999 0 0 -9999 -9999 -9999
-9999 -9999 -9999 -9999 0 0 0 0 0 0 0 0 0 0 0 0 0 0 -9999 -9999
-9999 -9999 -9999 0 0 0 0 0 0 0 0 0 0 0 0 0 0 0 -9999 -9999
-9999 -9999 -9999 0 0 0 0 0 0 0 0 0 0 0 0 0 0 0 -9999 -9999
-9999 -9999 0 0 0 0 3.9566855430603027 3.674670696258545 3.4687836170196533 3.2787954807281494 3.113481044769287 3.0519843101501465 3.1255812644958496 3.346870183944702 3.666095733642578 4.072149276733398 0 0 0 -9999
-9999 -9999 0 0 0 3.899029493331909 3.474806308746338 3.1591594219207764 2.869783401489258 2.5792794227600098 2.3332712650299072 2.218644857406616 2.2739510536193848 2.5110106468200684 0.32184261083602905 3.417569160461426 0 0 0 -9999
-9999 -9999 0 0 4.003183841705322 3.52420973777771 3.120260238647461 2.746875047683716 2.384808301925659 2.0496585369110107 1.8037807941436768 1.6815968751907349 1.7116724252700806 1.9031051397323608 2.2519724369049072 2.740001678466797 3.3352761268615723 0 0 -9999
-9999 0 0 4.27075719833374 3.7229666709899902 3.2387008666992188 2.7727842330932617 2.3235487937927246 1.9263805150985718 1.6175956726074219 1.421964406967163 1.3292772769927979 1.3390936851501465 1.4696544408798218 1.726096272468567 0.470864474773407 2.617594003677368 3.1467061042785645 0 -9999
-9999 0 0 4.146090030670166 3.510786771774292 2.920281171798706 2.3603763580322266 1.8642916679382324 1.4885181188583374 1.2481118440628052 1.1207839250564575 1.0643377304077148 1.0729889869689941 1.1512818336486816 1.3232049942016602 0.3563165068626404 2.001298427581787 2.4444191455841064 0 -9999
-9999 0 0 4.015585899353027 3.258178949356079 2.5735363960266113 1.953693151473999 1.4552165269851685 1.134267807006836 0.9598011374473572 0.8774601221084595 0.8475411534309387 0.855389416217804 0.9044394493103027 1.0107547044754028 1.1999497413635254 1.4832209348678589 0 0 -9999
-9999 0 0 3.762077569961548 2.9244303703308105 2.211786985397339 1.6054507493972778 1.1601219177246094 0.9009133577346802 0.7695465087890625 0.7122817635536194 0.6911607980728149 0.30932870507240295 0.4013741910457611 0.7810763120651245 0.19848373532295227 1.078009843826294 0 0 -9999
-9999 0 0 3.310365676879883 2.4811289310455322 1.8237888813018799 1.3096438646316528 0.9529690146446228 0.7543152570724487 0.6612816452980042 0.6149089336395264 0.5987916588783264 0.3991561830043793 0.5446405410766602 0.43032538890838623 0.7053641080856323 0.8158206939697266 0 0 -9999
-9999 0 0 2.7169301509857178 1.961511254310608 1.425214409828186 1.0470390319824219 0.801297128200531 0.6625785231590271 0.5999797582626343 0.5703899264335632 0.5585067272186279 0.24775373935699463 0.44022053480148315 0.3900054395198822 0.6197479963302612 0.6802431344985962 0 0 -9999
-9999 0 0 2.1649913787841797 1.5129683017730713 1.1055271625518799 0.8506794571876526 0.6929205060005188 0.6106175184249878 0.5687842965126038 0.5481728315353394 0.5390895009040833 0.5381768941879272 0.5443524718284607 0.3717449903488159 0.32257047295570374 0.6174973249435425 0 -9999 -9999
-9999 0 0 1.7877707481384277 1.2347651720046997 0.9118267893791199 0.7321419715881348 0.6334190368652344 0.5804936289787292 0.5510929822921753 0.3570708930492401 0.41100233793258667 0.05868145450949669 0.5352256298065186 0.2431696057319641 0.25103768706321716 0.5900293588638306 0.08782601356506348 -9999 -9999
-9999 0 0 1.5513004064559937 1.075266718864441 0.7997773885726929 0.6694552898406982 0.5993708372116089 0.5610669851303101 0.3593520224094391 0.46841102838516235 0.5230806469917297 0.408268541097641 0.530498206615448 0.5396986603736877 0.5527268052101135 0.569983184337616 0.5866920948028564 0.4191855788230896 0.5876935720443726
-9999 -9999 0 1.37063729763031 0.9731307029724121 0.7433480024337769 0.635273277759552 0.5797376036643982 0.30502843856811523 0.4723574221134186 0.5243740081787109 0.5218489766120911 0.4649166464805603 0.4101763367652893 0.35626521706581116 0.36249685287475586 0.3698740005493164 0.4400539696216583 0.5076347589492798 0.5730288028717041
-9999 -9999 0 0 0.9051958322525024 0.7070046067237854 0.6147012710571289 0.5676700472831726 0.36206960678100586 0.5309323668479919 0.5240515470504761 0.5213747024536133 0.522098183631897 0.5255625247955322 0.5311139822006226 0.5381321907043457 0.5458149313926697 0.5527479648590088 0.5570254921913147 0.5589466094970703
-9999 -9999 -9999 0 0.8628720045089722 0.690964937210083 0.6062372326850891 0.5628954768180847 0.361799418926239 0.5308070778846741 0.5240024924278259 0.5212311744689941 0.5217164754867554 0.5247406363487244 0.5295748114585876 0.5354906916618347 0.5417252779006958 0.5470908880233765 0.5507050156593323 0.5524622797966003
