ncols         20
nrows         20
xllcorner     0
yllcorner     -3.5992928
cellsize      0.17996463
NODATA_value  -9999
-9999.0 -9999 -9999 -9999 -9999 -9999 -9999 -9999 -9999 -9999 -9999 -9999 -9999 -9999 -9999 -9999 -9999 -9999 -9999 -9999
-9999 -9999 -9999 -9999 -9999 -9999 -9999 -9999 -9999 -9999 -9999 0.04945426061749458 0.04735708609223366 -9999 -9999 0.03795230761170387 0.03335517644882202 -9999 -9999 -9999
-9999 -9999 -9999 -9999 0.06113132834434509 0.06928510963916779 0.08488091826438904 0.09737111628055573 0.10403042286634445 0.10652589052915573 0.08504953235387802 0.07107819616794586 0.06922253966331482 0.06804847717285156 0.05592783913016319 0.04361541196703911 0.035711172968149185 0.030911961570382118 -9999 -9999
-9999 -9999 -9999 0.055196672677993774 0.06391385197639465 0.0754915177822113 0.09303291887044907 0.11063806712627411 0.12994612753391266 0.1452443152666092 0.15286321938037872 0.1461227685213089 0.13737715780735016 0.11492004245519638 0.08823387324810028 0.06296426057815552 0.04636695235967636 0.03844629228115082 -9999 -9999
-9999 -9999 -9999 0.05433666706085205 0.06433907151222229 0.08588778972625732 0.1146683320403099 0.15090280771255493 0.19958674907684326 0.2711898684501648 0.34640687704086304 0.37776532769203186 0.34690502285957336 0.25751763582229614 0.1757006049156189 0.10962645709514618 0.07189750671386719 0.06310625374317169 -9999 -9999
-9999 -9999 0.03664275258779526 0.048926372081041336 0.06629670411348343 0.09578225016593933 0.1369270235300064 0.19658569991588593 0.30312711000442505 0.4669830799102783 0.6705482006072998 0.770064115524292 0.7281326651573181 0.5362133383750916 0.3353902995586395 0.1964918076992035 0.12089885026216507 0.09450375288724899 0.07646218687295914 -9999
-9999 -9999 0.03548869118094444 0.04563698172569275 0.07043956965208054 0.1116979643702507 0.1692102551460266 0.262434720993042 0.4264296591281891 0.678907573223114 0.9778963327407837 1.1561390161514282 1.1179547309875488 0.8787862062454224 0 0.34855955839157104 0.21010024845600128 0.1422141045331955 0.11749184131622314 -9999
-9999 -9999 0.03732796013355255 0.0515851154923439 0.08673148602247238 0.1441221386194229 0.23348921537399292 0.37087973952293396 0.5711360573768616 0.8431797027587891 1.102258324623108 1.2747266292572021 1.2675628662109375 1.0859075784683228 0.8167359232902527 0.5435315370559692 0.3493647277355194 0.2361827939748764 0.19606301188468933 -9999
-9999 0.027486469596624374 0.04171175882220268 0.06673048436641693 0.12383987754583359 0.22073547542095184 0.35788509249687195 0.5494758486747742 0.7703520059585571 0.9841049909591675 1.137900471687317 1.23344886302948 1.2541660070419312 1.1626629829406738 0.9974722266197205 0 0.5266307592391968 0.37136417627334595 0.3125954568386078 -9999
-9999 0.03540503978729248 0.051842398941516876 0.09816469997167587 0.19302822649478912 0.3465624451637268 0.5522454977035522 0.7885053157806396 0.9887459874153137 1.1078358888626099 1.1512486934661865 1.1807070970535278 1.1933479309082031 1.1717510223388672 1.0914864540100098 0 0.7120147347450256 0.5385929942131042 0.4693678021430969 -9999
-9999 0.05464938282966614 0.07870947569608688 0.14749383926391602 0.2753317058086395 0.47159045934677124 0.7244524359703064 0.9715529084205627 1.112118124961853 1.1485939025878906 1.1428828239440918 1.1477323770523071 1.1754978895187378 1.178144931793213 1.1334222555160522 1.0435317754745483 0.8721047639846802 0.7152529954910278 0.6465113759040833 -9999
-9999 0.09488697350025177 0.1290455311536789 0.22487784922122955 0.3787616789340973 0.5836297273635864 0.8227871060371399 1.0118578672409058 1.0737758874893188 1.0576611757278442 1.0373947620391846 1.060823917388916 0 0 1.1311395168304443 0 0.964850127696991 0.8493753671646118 0.7939025163650513 -9999
-9999 0.17162488400936127 0.2241809070110321 0.35589197278022766 0.5161231160163879 0.6929537653923035 0.8592091202735901 0.9549000263214111 0.9417516589164734 0.884391188621521 0.8500652313232422 0.864840567111969 0 0 0 0.925190806388855 0.8947398066520691 0.8621938824653625 0.8275286555290222 -9999
-9999 0.28971001505851746 0.3607334494590759 0.5216175317764282 0.6748441457748413 0.7890855669975281 0.8543556928634644 0.8513469696044922 0.7883306741714478 0.7147701382637024 0.6684696078300476 0.6561154723167419 0 0 0 0.634549081325531 0.6634191870689392 0.7396742105484009 0.7460166215896606 -9999
-9999 0.4041900336742401 0.47971054911613464 0.6447581052780151 0.7638065814971924 0.8002139925956726 0.779868483543396 0.7220887541770935 0.6474438309669495 0.585771381855011 0.5476183891296387 0.5112354159355164 0.4770231246948242 0.43931838870048523 0 0 0.39622440934181213 0.4895016849040985 -9999 -9999
-9999 0.4612315595149994 0.527877688407898 0.6677762269973755 0.7350942492485046 0.7162191867828369 0.6577910780906677 0.5889326333999634 0.5372959971427917 0.506227433681488 0 0 0 0.3147050142288208 0 0 0.21300512552261353 0 -9999 -9999
-9999 0.5000395774841309 0.5346755981445312 0.6292385458946228 0.6581688523292542 0.6075331568717957 0.5335103273391724 0.4729143977165222 0.44550085067749023 0 0 0 0 0.2406739741563797 0.19080229103565216 0.15337415039539337 0.12791696190834045 0.10976110398769379 0 0
-9999 -9999 0.5152395367622375 0.5747118592262268 0.5812414884567261 0.5139018893241882 0.43275874853134155 0.38068345189094543 0 0 0 0 0 0 0 0 0 0 0 0
-9999 -9999 0.5361419320106506 0.5396261811256409 0.5207592844963074 0.43973657488822937 0.35311806201934814 0.3007393777370453 0 0 0 0 0 0 0 0 0 0 0 0
-9999 -9999 -9999 0.5054633021354675 0.4878650903701782 0.4052529036998749 0.3166581392288208 0.2651039958000183 0 0 0 0 0 0 0 0 0 0 0 0
