ncols         20
nrows         20
xllcorner     0
yllcorner     -3.5992928
cellsize      0.17996463
NODATA_value  -9999
-9999.0 -9999 -9999 -9999 -9999 -9999 -9999 -9999 -9999 -9999 -9999 -9999 -9999 -9999 -9999 -9999 -9999 -9999 -9999 -9999
-9999 -9999 -9999 -9999 -9999 -9999 -9999 -9999 -9999 -9999 -9999 18.989240646362305 18.997333526611328 -9999 -9999 18.924068450927734 18.927719116210938 -9999 -9999 -9999
-9999 -9999 -9999 -9999 18.939964294433594 18.962596893310547 18.980924606323242 19.00687026977539 19.028175354003906 19.022180557250977 19.058717727661133 19.029220581054688 19.01686668395996 19.040340423583984 19.03575897216797 18.987207412719727 18.96512794494629 18.973190307617188 -9999 -9999
-9999 -9999 -9999 18.943050384521484 18.94136619567871 18.96690559387207 18.988798141479492 19.00487518310547 19.000627517700195 18.991756439208984 18.96651268005371 18.960651397705078 18.966495513916016 19.0021915435791 19.01679039001465 19.01793098449707 19.018409729003906 19.031587600708008 -9999 -9999
-9999 -9999 -9999 18.967941284179688 18.981678009033203 18.98137092590332 18.973833084106445 18.9421329498291 18.893474578857422 18.816858291625977 18.73674201965332 18.702091217041016 18.730607986450195 18.825347900390625 18.91617774963379 18.998382568359375 19.05697250366211 19.05239486694336 -9999 -9999
-9999 -9999 19.013656616210938 19.006723403930664 19.016828536987305 18.997787475585938 18.9312744140625 18.815187454223633 18.673877716064453 18.52027130126953 18.37076759338379 18.303245544433594 18.33797836303711 18.48743438720703 18.686546325683594 18.8637638092041 18.99266815185547 19.04668617248535 19.12674331665039 -9999
-9999 -9999 19.071369171142578 19.08269500732422 19.061491012573242 18.978300094604492 18.80402374267578 18.570762634277344 18.338058471679688 18.160690307617188 18.023727416992188 17.949501037597656 17.94962501525879 18.084699630737305 18.312973022460938 18.579683303833008 18.786222457885742 18.93109893798828 18.99687385559082 -9999
-9999 -9999 19.1608943939209 19.1547794342041 19.08860969543457 18.91665267944336 18.618406295776367 18.629316329956055 18.290151596069336 18.11011505126953 18.031105041503906 18.025775909423828 17.728443145751953 17.775545120239258 17.954164505004883 18.205501556396484 18.453676223754883 18.653676986694336 18.747577667236328 -9999
-9999 19.293222427368164 19.239822387695312 19.211380004882812 19.073741912841797 18.793590545654297 18.40274429321289 18.311365127563477 17.989883422851562 17.844446182250977 17.797019958496094 17.804841995239258 17.565427780151367 17.55769920349121 17.655261993408203 17.840072631835938 18.065309524536133 18.265811920166016 18.374753952026367 -9999
-9999 19.341882705688477 19.309465408325195 19.196834564208984 18.965757369995117 18.612071990966797 18.20471954345703 18.10955047607422 17.830224990844727 17.70891571044922 17.672588348388672 17.6778564453125 17.453868865966797 17.40140724182129 17.429744720458984 17.53525161743164 17.701656341552734 17.866472244262695 17.959918975830078 -9999
-9999 19.355045318603516 19.27739906311035 19.07904624938965 18.764877319335938 18.36332130432129 18.004531860351562 17.972530364990234 17.742595672607422 17.639427185058594 17.609317779541016 17.608964920043945 17.361675262451172 17.2752628326416 17.255014419555664 17.296340942382812 17.39306640625 17.51126480102539 17.58186149597168 -9999
-9999 19.225765228271484 19.092557907104492 18.81592559814453 18.45929718017578 18.073083877563477 17.792564392089844 17.861576080322266 17.679563522338867 17.5927677154541 17.56655502319336 17.563940048217773 17.282007217407227 17.18316650390625 17.13727569580078 17.126943588256836 17.1624813079834 17.232271194458008 17.282867431640625 -9999
-9999 18.905548095703125 18.729726791381836 18.416183471679688 18.07058334350586 17.758525848388672 17.53175163269043 17.42749786376953 17.361730575561523 17.333702087402344 17.314748764038086 17.283674240112305 17.20888900756836 17.156217575073242 17.110008239746094 17.073184967041016 17.04741096496582 17.06303596496582 17.10685157775879 -9999
-9999 18.469974517822266 18.279809951782227 17.974271774291992 17.684635162353516 17.45801544189453 17.310115814208984 17.240772247314453 17.22464370727539 17.225566864013672 17.225120544433594 17.215734481811523 17.20046043395996 17.18708610534668 17.17670249938965 17.145584106445312 17.091604232788086 17.017532348632812 17.09591293334961 -9999
-9999 18.065946578979492 17.89122200012207 17.617341995239258 17.386728286743164 17.239469528198242 17.166114807128906 17.14897346496582 17.16012191772461 17.179176330566406 17.191368103027344 17.20339584350586 17.21567153930664 17.22846794128418 17.2500057220459 17.25014877319336 17.229446411132812 17.09583282470703 -9999 -9999
-9999 17.794618606567383 17.632709503173828 17.395475387573242 17.219520568847656 17.1342830657959 17.10884666442871 17.120332717895508 17.1386661529541 17.160507202148438 17.176467895507812 17.198823928833008 17.227828979492188 17.261795043945312 17.29400634765625 17.322284698486328 17.335330963134766 17.423982620239258 -9999 -9999
-9999 17.637685775756836 17.47086524963379 17.27253532409668 17.139583587646484 17.104454040527344 17.108327865600586 17.134904861450195 17.155336380004883 17.175918579101562 17.19394302368164 17.220569610595703 17.2550048828125 17.28683853149414 17.32244110107422 17.356529235839844 17.384170532226562 17.413658142089844 17.37932777404785 17.410194396972656
-9999 -9999 17.32465934753418 17.194814682006836 17.102027893066406 17.0978946685791 17.131933212280273 17.167978286743164 17.191001892089844 17.210628509521484 17.227113723754883 17.25155258178711 17.278900146484375 17.319528579711914 17.35186767578125 17.37397575378418 17.400814056396484 17.41880226135254 17.434181213378906 17.41027069091797
-9999 -9999 17.23501205444336 17.147924423217773 17.089319229125977 17.117916107177734 17.175825119018555 17.222537994384766 17.250688552856445 17.2642822265625 17.264245986938477 17.28656578063965 17.313995361328125 17.34975814819336 17.371200561523438 17.38664436340332 17.40379524230957 17.419055938720703 17.398090362548828 17.391260147094727
-9999 -9999 -9999 17.1136474609375 17.08265495300293 17.12255096435547 17.194528579711914 17.24412727355957 17.26868438720703 17.276418685913086 17.2807559967041 17.29082489013672 17.31932258605957 17.35343360900879 17.380189895629883 17.38503646850586 17.412260055541992 17.39663314819336 17.388065338134766 17.385013580322266
