ncols         20
nrows         20
xllcorner     0
yllcorner     -3.5992928
cellsize      0.17996463
NODATA_value  -9999
-9999.0 -9999 -9999 -9999 -9999 -9999 -9999 -9999 -9999 -9999 -9999 -9999 -9999 -9999 -9999 -9999 -9999 -9999 -9999 -9999
-9999 -9999 -9999 -9999 -9999 -9999 -9999 -9999 -9999 -9999 -9999 1.132138729095459 1.1146997213363647 -9999 -9999 1.0712271928787231 1.0070213079452515 -9999 -9999 -9999
-9999 -9999 -9999 -9999 1.1526652574539185 1.2271785736083984 1.3591187000274658 1.45949125289917 1.518730878829956 1.55581533908844 1.4167025089263916 1.3311879634857178 1.3398915529251099 1.3545351028442383 1.2539188861846924 1.1317156553268433 1.0336756706237793 0.9636399745941162 -9999 -9999
-9999 -9999 -9999 1.0761523246765137 1.1623743772506714 1.2614678144454956 1.3965963125228882 1.5215357542037964 1.656139612197876 1.771977186203003 1.853289246559143 1.8576409816741943 1.8478562831878662 1.732980728149414 1.5536601543426514 1.3387125730514526 1.1631650924682617 1.0649546384811401 -9999 -9999
-9999 -9999 -9999 1.0485378503799438 1.137427806854248 1.3022902011871338 1.4858818054199219 1.6848102807998657 1.9320069551467896 2.2762482166290283 2.6336166858673096 2.8390719890594482 2.8171160221099854 2.5111868381500244 2.13366961479187 1.7259831428527832 1.420453667640686 1.3411438465118408 -9999 -9999
-9999 -9999 0.82612144947052 0.9623468518257141 1.1088013648986816 1.3020917177200317 1.5056309700012207 1.7392667531967163 2.1169657707214355 2.642406702041626 3.263481616973877 3.670045852661133 3.781132936477661 3.422762393951416 2.8183882236480713 2.2320308685302734 1.7896568775177002 1.599766731262207 1.4355103969573975 -9999
-9999 -9999 0.7945815920829773 0.8939921855926514 1.0808513164520264 1.294442892074585 1.4746142625808716 1.6612602472305298 1.9978971481323242 2.4989826679229736 3.1131885051727295 3.6715095043182373 4.092625617980957 3.99385404586792 3.4945764541625977 2.8189003467559814 2.2676546573638916 1.9028760194778442 1.7417309284210205 -9999
-9999 -9999 0.7870210409164429 0.906399130821228 1.118717074394226 1.317874789237976 1.4312915802001953 1.327327013015747 1.419811487197876 1.6339495182037354 1.9109623432159424 2.3484203815460205 3.5299346446990967 3.933927059173584 3.776104211807251 3.286172866821289 2.7665719985961914 2.343198776245117 2.162848949432373 -9999
-9999 0.651782751083374 0.801952600479126 0.982769787311554 1.2472935914993286 1.466537356376648 1.4925483465194702 1.2015430927276611 1.1406320333480835 1.195523977279663 1.3406591415405273 1.7180951833724976 2.917738676071167 3.5672762393951416 3.7542805671691895 3.5523362159729004 3.1389896869659424 2.7537248134613037 2.5753746032714844 -9999
-9999 0.7305063009262085 0.8709307909011841 1.1486942768096924 1.4797340631484985 1.705009937286377 1.6430293321609497 1.1551092863082886 0.9783028364181519 0.9409163594245911 1.017627477645874 1.3376153707504272 2.407735824584961 3.1227521896362305 3.4899349212646484 3.543656349182129 3.3237054347991943 3.047990560531616 2.913790702819824 -9999
-9999 0.8974763751029968 1.0563671588897705 1.3803092241287231 1.7239102125167847 1.9200472831726074 1.7751635313034058 1.1159051656723022 0.868553638458252 0.7862392067909241 0.8307400941848755 1.0986686944961548 2.0546483993530273 2.722525119781494 3.1448068618774414 3.333599328994751 3.3182461261749268 3.1766793727874756 3.1017274856567383 -9999
-9999 1.1768443584442139 1.344970941543579 1.695319652557373 2.013205051422119 2.136507987976074 1.9174357652664185 1.1523914337158203 0.8833675384521484 0.7804784774780273 0.7968451380729675 1.0039252042770386 1.815860629081726 2.3702244758605957 2.762002468109131 3.0170512199401855 3.125744104385376 3.117215394973755 3.103844165802002 -9999
-9999 1.57956063747406 1.770369529724121 2.1310951709747314 2.359912872314453 2.3855438232421875 2.1600215435028076 1.7170711755752563 1.3876991271972656 1.2027056217193604 1.175870418548584 1.321122407913208 1.6720777750015259 2.005373001098633 2.302943706512451 2.563589572906494 2.7664272785186768 2.8771495819091797 2.9125702381134033 -9999
-9999 2.0387990474700928 2.227015495300293 2.5527729988098145 2.6812238693237305 2.5789074897766113 2.297804832458496 1.9217486381530762 1.596610188484192 1.384551763534546 1.3059465885162354 1.3462682962417603 1.475333333015442 1.627028465270996 1.7818827629089355 1.973236083984375 2.2112321853637695 2.4826767444610596 2.6261510848999023 -9999
-9999 2.3633406162261963 2.5089635848999023 2.7623159885406494 2.7837798595428467 2.57507061958313 2.2523303031921387 1.9070408344268799 1.60831618309021 1.4072462320327759 1.3076519966125488 1.2779653072357178 1.2928080558776855 1.3267526626586914 1.3625065088272095 1.4419862031936646 1.5777747631072998 1.841192364692688 -9999 -9999
-9999 2.453253984451294 2.538743257522583 2.701137065887451 2.6339807510375977 2.3831980228424072 2.070509195327759 1.7609529495239258 1.520058035850525 1.3547015190124512 1.2592757940292358 1.1995073556900024 1.155133605003357 1.1140174865722656 1.0813130140304565 1.0638504028320312 1.0759193897247314 0.9950944185256958 -9999 -9999
-9999 2.4884278774261475 2.440248966217041 2.499415159225464 2.3913369178771973 2.13456130027771 1.833111047744751 1.5673949718475342 1.3764194250106812 1.2459245920181274 1.162353277206421 1.0931217670440674 1.0247513055801392 0.9615129232406616 0.8972007632255554 0.8394778370857239 0.7938759326934814 0.7407803535461426 0.7100624442100525 0.6411213278770447
-9999 -9999 2.2309813499450684 2.262639045715332 2.1536760330200195 1.9000639915466309 1.6118741035461426 1.3775959014892578 1.218178629875183 1.113721489906311 1.044356346130371 0.9803609848022461 0.9139251708984375 0.8307768702507019 0.7594238519668579 0.7061137557029724 0.6497600078582764 0.6098413467407227 0.5782597064971924 0.6092550754547119
-9999 -9999 2.177387237548828 2.095228910446167 1.9668834209442139 1.7092922925949097 1.4263356924057007 1.2049423456192017 1.0600001811981201 0.9762341976165771 0.9347096681594849 0.878441572189331 0.81069016456604 0.7286744117736816 0.6677906513214111 0.6248000264167786 0.5849608182907104 0.563127875328064 0.6045163869857788 0.6278162002563477
-9999 -9999 -9999 1.9509984254837036 1.8621033430099487 1.6146364212036133 1.3351505994796753 1.1219052076339722 0.9885705709457397 0.919049859046936 0.8803920745849609 0.8401985168457031 0.772608757019043 0.6915389895439148 0.6249125599861145 0.5974642038345337 0.551017701625824 0.5840948820114136 0.6204410791397095 0.6405496597290039
