ncols         20
nrows         20
xllcorner     0
yllcorner     -3.5992928
cellsize      0.17996463
NODATA_value  -9999
-9999.0 -9999 -9999 -9999 -9999 -9999 -9999 -9999 -9999 -9999 -9999 -9999 -9999 -9999 -9999 -9999 -9999 -9999 -9999 -9999
-9999 -9999 -9999 -9999 -9999 -9999 -9999 -9999 -9999 -9999 -9999 1.7808071374893188 1.778936743736267 -9999 -9999 1.8234199285507202 1.8027790784835815 -9999 -9999 -9999
-9999 -9999 -9999 -9999 1.7759284973144531 1.7898526191711426 1.8121509552001953 1.818670392036438 1.817076325416565 1.8201961517333984 1.8028970956802368 1.8121142387390137 1.829328179359436 1.843963384628296 1.845116376876831 1.8388158082962036 1.820155382156372 1.802383542060852 -9999 -9999
-9999 -9999 -9999 1.793816328048706 1.806376576423645 1.8204480409622192 1.8352031707763672 1.8386833667755127 1.8401079177856445 1.838801622390747 1.8456354141235352 1.8573439121246338 1.8731118440628052 1.8860118389129639 1.898566722869873 1.8932936191558838 1.8701103925704956 1.8484678268432617 -9999 -9999
-9999 -9999 -9999 1.8178653717041016 1.8350422382354736 1.8642160892486572 1.8758113384246826 1.8720811605453491 1.8571951389312744 1.823835015296936 1.784724235534668 1.769348382949829 1.7937380075454712 1.8500398397445679 1.9065966606140137 1.9311574697494507 1.9251213073730469 1.9296494722366333 -9999 -9999
-9999 -9999 1.822830319404602 1.8472228050231934 1.876823902130127 1.9001175165176392 1.894182801246643 1.8660094738006592 1.7921520471572876 1.6635693311691284 1.5176900625228882 1.4433518648147583 1.4726641178131104 1.6082457304000854 1.776395320892334 1.882921576499939 1.9329231977462769 1.9496222734451294 1.9286082983016968 -9999
-9999 -9999 1.8466845750808716 1.8747668266296387 1.9183939695358276 1.930295705795288 1.9019309282302856 1.8161838054656982 1.64681077003479 1.4078222513198853 1.1759490966796875 1.052299976348877 1.0745840072631836 1.2471469640731812 1.5293478965759277 1.7231171131134033 1.8634060621261597 1.9226096868515015 1.9324653148651123 -9999
-9999 -9999 1.8993134498596191 1.9329285621643066 1.9621309041976929 1.9433177709579468 1.8574718236923218 1.6793951988220215 1.4197386503219604 1.1270328760147095 0.8921477198600769 0.7635012865066528 0.7677658796310425 0.9055184721946716 1.1537240743637085 1.4324580430984497 1.6574584245681763 1.8022541999816895 1.8567029237747192 -9999
-9999 1.9217463731765747 1.962587594985962 1.9862143993377686 1.9747954607009888 1.8866064548492432 1.6935856342315674 1.4109058380126953 1.1026631593704224 0.8348819017410278 0.6533586978912354 0.5578504204750061 0.5486992597579956 0.6377672553062439 0.8213404417037964 1.0963950157165527 1.3416582345962524 1.5396454334259033 1.6346230506896973 -9999
-9999 1.978226661682129 2.0074188709259033 2.005084753036499 1.9161001443862915 1.7036062479019165 1.3884963989257812 1.0393840074539185 0.7464772462844849 0.5494516491889954 0.44016027450561523 0.38489487767219543 0.3795313835144043 0.4263865351676941 0.5426266193389893 0.7360717058181763 0.9601449370384216 1.1661330461502075 1.2727471590042114 -9999
-9999 2.028921365737915 2.026669502258301 1.952153205871582 1.7643818855285645 1.4468854665756226 1.0546766519546509 0.6937336325645447 0.45246630907058716 0.3207619786262512 0.257332444190979 0.2304629683494568 0.22825950384140015 0.25279170274734497 0.31483885645866394 0.4294041693210602 0.5857977867126465 0.7538362741470337 0.844008207321167 -9999
-9999 2.0116007328033447 1.965247631072998 1.8039300441741943 1.5261892080307007 1.1603525876998901 0.7676578760147095 0.4524000287055969 0.2674311697483063 0.17492981255054474 0.13413995504379272 0.11670467257499695 0.11462123692035675 0.12313015758991241 0.1487998366355896 0.20563501119613647 0.2974188029766083 0.40251320600509644 0.4604510962963104 -9999
-9999 1.8777068853378296 1.7773929834365845 1.5181126594543457 1.1981045007705688 0.8521559834480286 0.530339777469635 0.29065635800361633 0.15650254487991333 0.0953848585486412 0.061591651290655136 0.049125999212265015 0.04455660283565521 0.045398563146591187 0.05390588194131851 0.07403557747602463 0.12130589038133621 0.17752252519130707 0.21371746063232422 -9999
-9999 1.6125270128250122 1.4606989622116089 1.140138864517212 0.8199359774589539 0.5459064245223999 0.3275420665740967 0.1757870465517044 0.0868937075138092 0.0512479692697525 0.03437143564224243 0.026453109458088875 0.02243787609040737 0.021138202399015427 0.02206779271364212 0.02710813470184803 0.03902974724769592 0.06351800262928009 0.08397198468446732 -9999
-9999 1.3135671615600586 1.1413869857788086 0.8027945160865784 0.5124286413192749 0.31534871459007263 0.18318797647953033 0.0949317216873169 0.05279993265867233 0.0332564152777195 0.023801691830158234 0.01854611001908779 0.015569804236292839 0.01414644718170166 0.013368829153478146 0.014084595255553722 0.01642703451216221 0.023921789601445198 -9999 -9999
-9999 1.1001899242401123 0.9194080829620361 0.5906934142112732 0.3386206030845642 0.18609163165092468 0.0997348502278328 0.0563250295817852 0.03557886183261871 0.02479260228574276 0.019134966656565666 0.01555239874869585 0.01393682137131691 0.016057690605521202 0.017958249896764755 0.019450603052973747 0.020444704219698906 0.021127326413989067 -9999 -9999
-9999 0.9495386481285095 0.7600587010383606 0.4712749421596527 0.24923643469810486 0.11522053182125092 0.06173083558678627 0.036708179861307144 0.02510756254196167 0.018961181864142418 0.015596514567732811 0.01575670763850212 0.018265362828969955 0.02081402949988842 0.02314423769712448 0.02510470151901245 0.02674151584506035 0.02851717919111252 0.03196600079536438 0.03331073373556137
-9999 -9999 0.5950034260749817 0.38801902532577515 0.1972615122795105 0.08574648201465607 0.043525103479623795 0.026223311200737953 0.01864917017519474 0.015051850117743015 0.017069514840841293 0.01943793147802353 0.022082796320319176 0.02483414113521576 0.02732684649527073 0.02936452440917492 0.031013881787657738 0.03237103670835495 0.0336654894053936 0.03411419689655304
-9999 -9999 0.4279836416244507 0.3050037622451782 0.15869802236557007 0.06663655489683151 0.03262200579047203 0.01947784051299095 0.015841025859117508 0.017798056825995445 0.01989924907684326 0.022301092743873596 0.024993211030960083 0.027767157182097435 0.030200237408280373 0.032081928104162216 0.03346315398812294 0.03428258001804352 0.03458067402243614 0.034636326134204865
-9999 -9999 -9999 0.25425952672958374 0.13464930653572083 0.058886054903268814 0.028461316600441933 0.017014529556035995 0.017272597178816795 0.0193130262196064 0.021440543234348297 0.023812437430024147 0.026490699499845505 0.029237130656838417 0.03161865472793579 0.033344872295856476 0.034564096480607986 0.03496098890900612 0.03496056795120239 0.03488842397928238
