ncols         20
nrows         20
xllcorner     0
yllcorner     -3.5992928
cellsize      0.17996463
NODATA_value  -9999
-9999.0 -9999 -9999 -9999 -9999 -9999 -9999 -9999 -9999 -9999 -9999 -9999 -9999 -9999 -9999 -9999 -9999 -9999 -9999 -9999
-9999 -9999 -9999 -9999 -9999 -9999 -9999 -9999 -9999 -9999 -9999 0.018339795991778374 0.01833909936249256 -9999 -9999 0.018435943871736526 0.018443090841174126 -9999 -9999 -9999
-9999 -9999 -9999 -9999 0.018476136028766632 0.018435699865221977 0.018376424908638 0.01830497570335865 0.01823495142161846 0.01818094402551651 0.01815575361251831 0.03851337730884552 0.03851020336151123 0.01815059222280979 0.018178103491663933 0.038683682680130005 0.038730911910533905 0.01827559806406498 -9999 -9999
-9999 -9999 -9999 0.01837163046002388 0.03887974098324776 0.08083564043045044 0.08055117726325989 0.08018583059310913 0.07982176542282104 0.07952852547168732 0.07935410737991333 0.09553151577711105 0.09550869464874268 0.07928421348333359 0.07939908653497696 0.09589662402868271 0.07980635017156601 0.01810409687459469 -9999 -9999
-9999 -9999 -9999 0.018227593973279 0.08032568544149399 0.11598106473684311 0.11547404527664185 0.1148332953453064 0.11420560628175735 0.11369921267032623 0.11337973922491074 0.11328719556331635 0.11324749886989594 0.11324254423379898 0.11342068016529083 0.11371515691280365 0.07871880382299423 0.017815731465816498 -9999 -9999
-9999 -9999 0.01795976608991623 0.03808669373393059 0.09559475630521774 0.11455037444829941 0.11386141926050186 0.11304119974374771 0.11226841807365417 0.11166791617870331 0.1112729087471962 0.11108145117759705 0.11103006452322006 0.11109928786754608 0.11130481958389282 0.1115470677614212 0.09282137453556061 0.03680920973420143 0.017275094985961914 -9999
-9999 -9999 0.01778227649629116 0.07830370962619781 0.1131393164396286 0.11257803440093994 0.11163944751024246 0.11059687286615372 0.10967644304037094 0.10899525880813599 0.10853824019432068 0.10829342901706696 0.10821269452571869 0.10828076303005219 0.10850834101438522 0.10880042612552643 0.10889165103435516 0.07507189363241196 0.017022445797920227 -9999
-9999 -9999 0.017511937767267227 0.07714851945638657 0.11114680767059326 0.1102721318602562 0.10908472537994385 0.10793250054121017 0.10696836560964584 0.1062326580286026 0.10571643710136414 0.10540289431810379 0.10526054352521896 0.10527416318655014 0.1054418757557869 0.10574299842119217 0.10606792569160461 0.07342514395713806 0.01665888912975788 -9999
-9999 0.01712324656546116 0.03632223233580589 0.09109419584274292 0.10889126360416412 0.10778437554836273 0.10645519196987152 0.10525692254304886 0.10425637662410736 0.10347706079483032 0.1029064878821373 0.102532297372818 0.1023327186703682 0.10229097306728363 0.10239619016647339 0.10262500494718552 0.10292045772075653 0.0713496282696724 0.01620812900364399 -9999
-9999 0.016939863562583923 0.07445279508829117 0.1073942482471466 0.10657739639282227 0.10523936152458191 0.10384967923164368 0.10262174159288406 0.10159677267074585 0.10078168660402298 0.100162573158741 0.09973455965518951 0.09948284924030304 0.09939131140708923 0.09944339096546173 0.09961307048797607 0.09984467178583145 0.0691755935549736 0.015720689669251442 -9999
-9999 0.016688227653503418 0.0732882171869278 0.10533104836940765 0.10420633107423782 0.1027025580406189 0.10129241645336151 0.10005699843168259 0.09901803731918335 0.09817429631948471 0.09751520305871964 0.09704212844371796 0.096745565533638 0.09661050140857697 0.0966222733259201 0.0967600867152214 0.09697481244802475 0.0671825036406517 0.015254384838044643 -9999
-9999 0.016380824148654938 0.07184166461229324 0.10303395986557007 0.10173805803060532 0.10020820051431656 0.09880910068750381 0.09758353978395462 0.0965389534831047 0.09567424654960632 0.09498318284749985 0.09447240829467773 0.0941362977027893 0.09396060556173325 0.09394032508134842 0.09407680481672287 0.09434396028518677 0.06543378531932831 0.014857134781777859 -9999
-9999 0.016039909794926643 0.07024872303009033 0.10059253871440887 0.0992145836353302 0.09776926040649414 0.09642435610294342 0.09522641450166702 0.09418635070323944 0.0933094471693039 0.0925910472869873 0.09204322099685669 0.09166105091571808 0.09143518656492233 0.09137459844350815 0.09151458740234375 0.09195379167795181 0.06402771174907684 0.014538794755935669 -9999
-9999 0.015689576044678688 0.06862573325634003 0.09814099967479706 0.09681042283773422 0.09545640647411346 0.09417950361967087 0.09302093088626862 0.09199631214141846 0.09112003445625305 0.09038501977920532 0.08979802578687668 0.08935681730508804 0.08905696123838425 0.08891038596630096 0.08894914388656616 0.07398220896720886 0.029899057000875473 0.014305107295513153 -9999
-9999 0.015360661782324314 0.06711386144161224 0.09583799540996552 0.09458782523870468 0.0933196172118187 0.09211435168981552 0.0910058245062828 0.09001729637384415 0.08915328979492188 0.0884067639708519 0.08778016269207001 0.0872703343629837 0.08687585592269897 0.08660411089658737 0.08646473288536072 0.059723861515522 0.013538660481572151 -9999 -9999
-9999 0.01508808322250843 0.06552586704492569 0.09386000782251358 0.09258412569761276 0.09139136224985123 0.09026534855365753 0.08922654390335083 0.08828481286764145 0.08744391798973083 0.08669447898864746 0.08603385090827942 0.08545666188001633 0.08496034145355225 0.08454892039299011 0.08422398567199707 0.057637929916381836 0.013045196421444416 -9999 -9999
-9999 0.014896134845912457 0.030993787571787834 0.07611609995365143 0.09072772413492203 0.08968887478113174 0.08867622911930084 0.0877184197306633 0.08683159202337265 0.08602036535739899 0.08527258783578873 0.08458530157804489 0.08395056426525116 0.0833616703748703 0.08281104266643524 0.08227379620075226 0.06758959591388702 0.02658453769981861 0.01225990429520607 0.012139947153627872
-9999 -9999 0.014263911172747612 0.06198912113904953 0.08921060711145401 0.08829016983509064 0.08739402145147324 0.08652117103338242 0.08569084107875824 0.08490948379039764 0.08416793495416641 0.08346368372440338 0.0827876478433609 0.0821295976638794 0.08147366344928741 0.08077386766672134 0.07991039007902145 0.06549662351608276 0.05371673405170441 0.05339427292346954
-9999 -9999 0.013894082978367805 0.029472626745700836 0.07286878675222397 0.08721064031124115 0.08646470308303833 0.08567618578672409 0.08489549905061722 0.0841406062245369 0.08340786397457123 0.08269546926021576 0.08199504762887955 0.08129788190126419 0.08059265464544296 0.07985415309667587 0.07904665917158127 0.07817642390727997 0.07748846709728241 0.07713046669960022
-9999 -9999 -9999 0.013572950847446918 0.05989619344472885 0.0866093561053276 0.08596625924110413 0.08523198217153549 0.08448123186826706 0.08374157547950745 0.08301545679569244 0.08230114728212357 0.08159039169549942 0.08087702840566635 0.08015505969524384 0.07941559702157974 0.07865654677152634 0.07792757451534271 0.07735586166381836 0.07704658806324005
