ncols         20
nrows         20
xllcorner     0
yllcorner     -3.5992928
cellsize      0.17996463
NODATA_value  -9999
-9999.0 -9999 -9999 -9999 -9999 -9999 -9999 -9999 -9999 -9999 -9999 -9999 -9999 -9999 -9999 -9999 -9999 -9999 -9999 -9999
-9999 -9999 -9999 -9999 -9999 -9999 -9999 -9999 -9999 -9999 -9999 1.1799033880233765 1.178940773010254 -9999 -9999 1.2135909795761108 1.2006196975708008 -9999 -9999 -9999
-9999 -9999 -9999 -9999 1.1786938905715942 1.1863290071487427 1.1988505125045776 1.2012345790863037 1.1990277767181396 1.2003496885299683 1.1886979341506958 1.1964640617370605 1.2086377143859863 1.2182961702346802 1.2210469245910645 1.2206743955612183 1.210448980331421 1.1994889974594116 -9999 -9999
-9999 -9999 -9999 1.1918665170669556 1.198604702949524 1.205504059791565 1.2126312255859375 1.2130180597305298 1.213343620300293 1.2108780145645142 1.2123640775680542 1.2195773124694824 1.231518268585205 1.2408682107925415 1.251001000404358 1.2519625425338745 1.2400460243225098 1.2274889945983887 -9999 -9999
-9999 -9999 -9999 1.2074252367019653 1.2164887189865112 1.232356071472168 1.2367686033248901 1.2326633930206299 1.213476538658142 1.1803460121154785 1.1463348865509033 1.133480191230774 1.1525871753692627 1.1975773572921753 1.2458348274230957 1.2700845003128052 1.2709802389144897 1.2764471769332886 -9999 -9999
-9999 -9999 1.2128032445907593 1.2266027927398682 1.242383360862732 1.2532353401184082 1.2456989288330078 1.2147701978683472 1.148173451423645 1.047445297241211 0.9417380094528198 0.8901448845863342 0.9125092625617981 1.0104782581329346 1.1359286308288574 1.2234338521957397 1.2698884010314941 1.2838165760040283 1.2710824012756348 -9999
-9999 -9999 1.2275044918060303 1.2430745363235474 1.2667433023452759 1.2692348957061768 1.2385125160217285 1.161383032798767 1.0287845134735107 0.856997549533844 0.6996928453445435 0.6193122863769531 0.6361824870109558 0.7535628080368042 0 1.0943949222564697 1.20537531375885 1.2576889991760254 1.2710025310516357 -9999
-9999 -9999 1.2601557970046997 1.278113842010498 1.2903016805648804 1.268716812133789 1.19145667552948 1.0511388778686523 0.8624430894851685 0.6625209450721741 0.5094022750854492 0.42940041422843933 0.4343930780887604 0.5249322652816772 0.6905618906021118 0.883277416229248 1.0467523336410522 1.1564451456069946 1.2008624076843262 -9999
-9999 1.2754698991775513 1.2991924285888672 1.308380365371704 1.293912410736084 1.216391921043396 1.0661574602127075 0.8618000745773315 0.6504083275794983 0.47468483448028564 0.3598969280719757 0.3021846115589142 0.2988215684890747 0.35605934262275696 0.47429049015045166 0 0.822130560874939 0.9610680937767029 1.0296534299850464 -9999
-9999 1.3093470335006714 1.3234875202178955 1.3130861520767212 1.2418798208236694 1.0804100036621094 0.8552913069725037 0.6184805631637573 0.42770591378211975 0.30321961641311646 0.23557990789413452 0.20280975103378296 0.20099292695522308 0.23105007410049438 0.303598552942276 0 0.5693067312240601 0.7043007612228394 0.7757478356361389 -9999
-9999 1.3364827632904053 1.3290627002716064 1.2711524963378906 1.1281838417053223 0.9008893370628357 0.6354440450668335 0.40279555320739746 0.25285792350769043 0.17292311787605286 0.13491934537887573 0.11926830559968948 0.11875978857278824 0.1342209130525589 0.17189531028270721 0.24102692306041718 0.3363772928714752 0.43977004289627075 0.4963096082210541 -9999
-9999 1.3165016174316406 1.2814115285873413 1.1601636409759521 0.9596320986747742 0.7085835337638855 0.45310431718826294 0.2574819326400757 0.14678025245666504 0.0928586795926094 0.06942631304264069 0.05978160724043846 0 0 0.07990157604217529 0 0.16621606051921844 0.22751645743846893 0.2616727650165558 -9999
-9999 1.2170649766921997 1.1417845487594604 0.9588989019393921 0.7384553551673889 0.5099844336509705 0.3073228895664215 0.16290095448493958 0.08479706197977066 0.050125136971473694 0.03145812079310417 0.024902356788516045 0 0 0 0.03982922434806824 0.06646247953176498 0.0978940799832344 0.11799681186676025 -9999
-9999 1.0244383811950684 0.9192923903465271 0.7045584321022034 0.4943733513355255 0.3202159106731415 0.18670210242271423 0.09721925854682922 0.04635085165500641 0.026690274477005005 0.017706450074911118 0.013705000281333923 0 0 0 0.01481487974524498 0.02132168598473072 0.03447295352816582 0.044964514672756195 -9999
-9999 0.816295325756073 0.7024490237236023 0.48514288663864136 0.3026198446750641 0.1817443072795868 0.10291115194559097 0.05169834941625595 0.028118319809436798 0.01758882962167263 0.012720171362161636 0.010134164243936539 0.00875183567404747 0.0081675099208951 0 0 0.00970099214464426 0.013988870196044445 -9999 -9999
-9999 0.6705825924873352 0.5548264980316162 0.3504493832588196 0.19686736166477203 0.10581564903259277 0.05522659793496132 0.030619194731116295 0.019251344725489616 0.013586238957941532 0 0 0 0.009797565639019012 0 0 0.01282174326479435 0 -9999 -9999
-9999 0.571719765663147 0.4517268240451813 0.27593836188316345 0.14346902072429657 0.06477389484643936 0.03413780406117439 0.020227374508976936 0.01401708647608757 0 0 0 0 0.01313908863812685 0.014766284264624119 0.01615864410996437 0.017357757315039635 0.018714871257543564 0 0
-9999 -9999 0.34780353307724 0.22487877309322357 0.11293138563632965 0.04819305241107941 0.024291908368468285 0.014788606204092503 0 0 0 0 0 0 0 0 0 0 0 0
-9999 -9999 0.24808841943740845 0.17556041479110718 0.09051057696342468 0.03755544126033783 0.01841796562075615 0.011230623349547386 0 0 0 0 0 0 0 0 0 0 0 0
-9999 -9999 -9999 0.1454094499349594 0.0763280913233757 0.03321617841720581 0.0161935742944479 0.009938912466168404 0 0 0 0 0 0 0 0 0 0 0 0
