ncols         20
nrows         20
xllcorner     0
yllcorner     -3.5992928
cellsize      0.17996463
NODATA_value  -9999
-9999.0 -9999 -9999 -9999 -9999 -9999 -9999 -9999 -9999 -9999 -9999 -9999 -9999 -9999 -9999 -9999 -9999 -9999 -9999 -9999
-9999 -9999 -9999 -9999 -9999 -9999 -9999 -9999 -9999 -9999 -9999 1.262222409248352 1.2597712278366089 -9999 -9999 1.3283699750900269 1.29928719997406 -9999 -9999 -9999
-9999 -9999 -9999 -9999 1.255807876586914 1.274036169052124 1.303799033164978 1.3112454414367676 1.3076170682907104 1.3123936653137207 1.288286805152893 1.3033154010772705 1.328629732131958 1.3489718437194824 1.3530018329620361 1.3477365970611572 1.322846531867981 1.2981387376785278 -9999 -9999
-9999 -9999 -9999 1.282846450805664 1.2992231845855713 1.3172321319580078 1.3362139463424683 1.3393301963806152 1.3390556573867798 1.3391402959823608 1.347259283065796 1.3640730381011963 1.3880155086517334 1.4042317867279053 1.427038311958313 1.423688292503357 1.3929784297943115 1.362908124923706 -9999 -9999
-9999 -9999 -9999 1.3173826932907104 1.3400975465774536 1.3797667026519775 1.3944193124771118 1.3886504173278809 1.3571797609329224 1.2983746528625488 1.2352616786956787 1.2112888097763062 1.2480281591415405 1.335641622543335 1.4304252862930298 1.4730796813964844 1.4708361625671387 1.4806147813796997 -9999 -9999
-9999 -9999 1.327436089515686 1.3605281114578247 1.400477647781372 1.43076753616333 1.4196689128875732 1.3669064044952393 1.243062138557434 1.054504156112671 0.8662943840026855 0.779278576374054 0.8147595524787903 0.9839620590209961 1.2196789979934692 1.389528751373291 1.4785220623016357 1.5064799785614014 1.4758113622665405 -9999
-9999 -9999 1.3616890907287598 1.4002301692962646 1.4604551792144775 1.4711964130401611 1.42008638381958 1.2752189636230469 1.0268937349319458 0.7331703305244446 0.5012313723564148 0.3975282907485962 0.41686180233955383 0.5720298290252686 0 1.142031192779541 1.3573639392852783 1.4590457677841187 1.4808207750320435 -9999
-9999 -9999 1.4388247728347778 1.4859373569488525 1.5243240594863892 1.4866759777069092 1.3382009267807007 1.0706578493118286 0.7450770139694214 0.4559522569179535 0.2784672975540161 0.20129826664924622 0.20472018420696259 0.29109296202659607 0.486305832862854 0.769801914691925 1.0526126623153687 1.2619229555130005 1.3485455513000488 -9999
-9999 1.4746896028518677 1.5342659950256348 1.5650665760040283 1.541656494140625 1.3878909349441528 1.095414161682129 0.7403271198272705 0.43843239545822144 0.2433171421289444 0.14497573673725128 0.1042022705078125 0.10133511573076248 0.13997261226177216 0.2392091304063797 0 0.6725492477416992 0.9000556468963623 1.0225577354431152 -9999
-9999 1.5595214366912842 1.6005655527114868 1.5877054929733276 1.4389402866363525 1.1166884899139404 0.7232948541641235 0.39323022961616516 0.1962239146232605 0.10289047658443451 0.06432762742042542 0.048556651920080185 0.0474429614841938 0.061105042695999146 0.10177905112504959 0 0.3352435529232025 0.502474844455719 0.6033279299736023 -9999
-9999 1.6358145475387573 1.6261889934539795 1.5004395246505737 1.2073745727539062 0.7938382625579834 0.41005972027778625 0.1718333512544632 0.07071997225284576 0.034459423273801804 0.021665504202246666 0.017193494364619255 0.016950009390711784 0.021159645169973373 0.03362514078617096 0.06406913697719574 0.12161283195018768 0.20415747165679932 0.2576976716518402 -9999
-9999 1.6020559072494507 1.524460792541504 1.2695130109786987 0.8917320966720581 0.5029715299606323 0.21389684081077576 0.07202146202325821 0.024401847273111343 0.010149520821869373 0.0058437432162463665 0.004386209417134523 0 0 0.007424225565046072 0 0.03069404885172844 0.05676782503724098 0.07463706284761429 -9999
-9999 1.3874889612197876 1.2324634790420532 0.8866544365882874 0.5412249565124512 0.2672103941440582 0.10075920075178146 0.02943340875208378 0.008296688087284565 0.0030048894695937634 0.001224546111188829 0.000774409098085016 0 0 0 0.00184753502253443 0.005033132154494524 0.010836736299097538 0.015723668038845062 -9999
-9999 1.0060274600982666 0.8191937208175659 0.4918273687362671 0.24935732781887054 0.10809158533811569 0.03801519051194191 0.010684577748179436 0.002536721993237734 0.0008659395971335471 0.0003864814934786409 0.00023008904827293009 0 0 0 0.00025197237846441567 0.0005214840639382601 0.0013730712234973907 0.0023728187661617994 -9999
-9999 0.6564202904701233 0.49185770750045776 0.23986637592315674 0.09596504271030426 0.0356471873819828 0.011789354495704174 0.0030913304071873426 0.0009404863812960684 0.00037152497679926455 0.00019221902766730636 0.00011882670514751226 8.563187293475494E-05 7.217571692308411E-05 0 0 9.874615352600813E-05 0.00020763497741427273 -9999 -9999
-9999 0.45398780703544617 0.31465256214141846 0.1282048523426056 0.041481588035821915 0.012318451888859272 0.003469733987003565 0.0010922440560534596 0.0004348710644990206 0.00021357461810112 0 0 0 9.734399645822123E-05 0 0 0.00016064252122305334 0 -9999 -9999
-9999 0.33526405692100525 0.21280169486999512 0.0809200331568718 0.02235284633934498 0.004698589444160461 0.0013339145807549357 0.0004712038498837501 0.0002230538084404543 0 0 0 0 0.00016805881750769913 0.00020922264957334846 0.0002475488290656358 0.00028243419365026057 0.0003237180062569678 0 0
-9999 -9999 0.1289970725774765 0.0545281358063221 0.013975760899484158 0.002610134892165661 0.0006704274564981461 0.00024583819322288036 0 0 0 0 0 0 0 0 0 0 0 0
-9999 -9999 0.06640844792127609 0.03357577696442604 0.009038652293384075 0.0015836901729926467 0.0003810019697993994 0.00013832077092956752 0 0 0 0 0 0 0 0 0 0 0 0
-9999 -9999 -9999 0.02325938455760479 0.006491831038147211 0.0012398002436384559 0.0002922210260294378 0.0001067309858626686 0 0 0 0 0 0 0 0 0 0 0 0
