ncols         20
nrows         20
xllcorner     0
yllcorner     -3.5992928
cellsize      0.17996463
NODATA_value  -9999
-9999.0 -9999 -9999 -9999 -9999 -9999 -9999 -9999 -9999 -9999 -9999 -9999 -9999 -9999 -9999 -9999 -9999 -9999 -9999 -9999
-9999 -9999 -9999 -9999 -9999 -9999 -9999 -9999 -9999 -9999 -9999 0 0 -9999 -9999 0 0 -9999 -9999 -9999
-9999 -9999 -9999 -9999 0 0 0 0 0 0 0 0 0 0 0 0 0 0 -9999 -9999
-9999 -9999 -9999 0 0 0 0 0 0 0 0 0 0 0 0 0 0 0 -9999 -9999
-9999 -9999 -9999 0 0 0 0 0 0 0 0 0 0 0 0 0 0 0 -9999 -9999
-9999 -9999 0 0 0 0 3.3781280517578125 3.253455638885498 3.1266562938690186 2.9536948204040527 2.7607500553131104 2.6647746562957764 2.7133800983428955 2.917649745941162 3.189983367919922 3.474644660949707 0 0 0 -9999
-9999 -9999 0 0 0 3.422919988632202 3.208188056945801 2.999415159225464 2.735731363296509 2.406522512435913 2.090017318725586 1.9196561574935913 1.9556455612182617 2.205786943435669 0.28869396448135376 3.0687379837036133 0 0 0 -9999
-9999 -9999 0 0 3.576207160949707 3.3293871879577637 3.0544867515563965 2.7193286418914795 2.324954032897949 1.9112043380737305 1.5814356803894043 1.3970091342926025 1.4061845541000366 1.6150689125061035 1.9978264570236206 2.4994330406188965 3.040820837020874 0 0 -9999
-9999 0 0 3.844755172729492 3.5528006553649902 3.212331771850586 2.790621042251587 2.3073959350585938 1.8324843645095825 1.4352160692214966 1.1674262285232544 1.0247650146484375 1.0113306045532227 1.1509983539581299 1.4378937482833862 0.4155570864677429 2.3889453411102295 2.887056827545166 0 -9999
-9999 0 0 3.9207208156585693 3.474382162094116 2.9414615631103516 2.344707727432251 1.7587310075759888 1.2867424488067627 0.9722410440444946 0.7986461520195007 0.7105745673179626 0.7023255228996277 0.7786120176315308 0.9683045744895935 0.2847694754600525 1.7202208042144775 2.1700425148010254 0 -9999
-9999 0 0 3.897322416305542 3.2553322315216064 2.557762861251831 1.8432996273040771 1.2250781059265137 0.8126758337020874 0.5845737457275391 0.4740438759326935 0.4272828698158264 0.423477441072464 0.46651026606559753 0.5760329961776733 0.7818634510040283 1.0863680839538574 0 0 -9999
-9999 0 0 3.6660542488098145 2.8769888877868652 2.1084229946136475 1.3869527578353882 0.8261808156967163 0.4928978681564331 0.32305872440338135 0.248227059841156 0.21576985716819763 0.09399256855249405 0.12642379105091095 0.27665460109710693 0.08545849472284317 0.5686928033828735 0 0 -9999
-9999 0 0 3.1439199447631836 2.3209168910980225 1.5976439714431763 0.9860809445381165 0.5415170788764954 0.29141664505004883 0.17626002430915833 0.11691637337207794 0.09307069331407547 0.056111596524715424 0.07668189704418182 0.06927666068077087 0.14457255601882935 0.2348436713218689 0 0 -9999
-9999 0 0 2.41591739654541 1.6439265012741089 1.0596561431884766 0.6243872046470642 0.33217406272888184 0.16659262776374817 0.09545191377401352 0.0615878626704216 0.045311298221349716 0.016521193087100983 0.026998011395335197 0.02470162697136402 0.047761790454387665 0.07315263152122498 0 0 -9999
-9999 0 0 1.7355095148086548 1.0591562986373901 0.6290881633758545 0.35552480816841125 0.1837654411792755 0.09825999289751053 0.05716010928153992 0.03700818121433258 0.025959119200706482 0.01994488574564457 0.0170688908547163 0.010611210018396378 0.00965441856533289 0.021878600120544434 0 -9999 -9999
-9999 0 0 1.2839072942733765 0.7075802683830261 0.375386506319046 0.1975179761648178 0.10565584152936935 0.06072704866528511 0.0371803417801857 0.016532044857740402 0.013574860990047455 0.0015560239553451538 0.015362879261374474 0.007586677558720112 0.008410351350903511 0.02069370076060295 0.0031506300438195467 -9999 -9999
-9999 0 0 1.0145424604415894 0.5167270302772522 0.2346922755241394 0.11861205846071243 0.06351249665021896 0.03764285519719124 0.016017628833651543 0.014810655266046524 0.014814370311796665 0.01239385548979044 0.01759602315723896 0.019590256735682487 0.021749109029769897 0.023977264761924744 0.026403196156024933 0.021396277472376823 0.031607624143362045
-9999 -9999 0 0.8185335397720337 0.4002128839492798 0.16958729922771454 0.0785994753241539 0.040791451930999756 0.01338870171457529 0.014275218360126019 0.015862395986914635 0.016483673825860023 0.015837712213397026 0.015330573543906212 0.01461828500032425 0.016180070117115974 0.017746606841683388 0.02247660607099533 0.02758990414440632 0.032130494713783264
-9999 -9999 0 0 0.31691136956214905 0.12735745310783386 0.055202919989824295 0.027209268882870674 0.011971445754170418 0.017117531970143318 0.017087265849113464 0.01785566471517086 0.019342506304383278 0.021384477615356445 0.023721573874354362 0.026123711839318275 0.028418388217687607 0.03039299137890339 0.031852420419454575 0.03260704129934311
-9999 -9999 -9999 0 0.26969897747039795 0.11046522855758667 0.046339381486177444 0.022264719009399414 0.012305064126849174 0.01772398315370083 0.017777344211935997 0.018612448126077652 0.020174438133835793 0.022289082407951355 0.02468433603644371 0.027087455615401268 0.029324136674404144 0.031075267121195793 0.032278385013341904 0.03288913890719414
