ncols         20
nrows         20
xllcorner     0
yllcorner     -3.5992928
cellsize      0.17996463
NODATA_value  -9999
-9999.0 -9999 -9999 -9999 -9999 -9999 -9999 -9999 -9999 -9999 -9999 -9999 -9999 -9999 -9999 -9999 -9999 -9999 -9999 -9999
-9999 -9999 -9999 -9999 -9999 -9999 -9999 -9999 -9999 -9999 -9999 0.018291141837835312 0.018295956775546074 -9999 -9999 0.018456052988767624 0.01846432499587536 -9999 -9999 -9999
-9999 -9999 -9999 -9999 0.0184122696518898 0.01837112195789814 0.01831098645925522 0.01823926903307438 0.018171163275837898 0.018123388290405273 0.01811111904680729 0.038453321903944016 0.03848256543278694 0.018171170726418495 0.018219321966171265 0.038785386830568314 0.038837265223264694 0.018330737948417664 -9999 -9999
-9999 -9999 -9999 0.018339229747653008 0.03879911080002785 0.08066301047801971 0.08036904782056808 0.07999105751514435 0.0796230360865593 0.07935190945863724 0.07924328744411469 0.09551940858364105 0.09563960134983063 0.07954176515340805 0.0797562226653099 0.09637299180030823 0.08020739257335663 0.018190572038292885 -9999 -9999
-9999 -9999 -9999 0.018225209787487984 0.08031236380338669 0.11592935025691986 0.11539389193058014 0.11470428854227066 0.11403679847717285 0.11354241520166397 0.11332609504461288 0.11342072486877441 0.11362836509943008 0.1138802170753479 0.11423059552907944 0.11458959430456161 0.0793260931968689 0.017954792827367783 -9999 -9999
-9999 -9999 0.018024597316980362 0.03819732367992401 0.09581238031387329 0.11476863920688629 0.11402779817581177 0.11308952420949936 0.11220310628414154 0.1115611344575882 0.11127408593893051 0.11134422570466995 0.1116555705666542 0.11207905411720276 0.1125192865729332 0.11285077035427094 0.09392168372869492 0.03727145493030548 0.017508408054709435 -9999
-9999 -9999 0.017883149906992912 0.07877102494239807 0.11376560479402542 0.11314506828784943 0.11204686760902405 0.11067815124988556 0.10945591330528259 0.10860949754714966 0.10826293379068375 0.10840152949094772 0.10889409482479095 0.10953086614608765 0.11013796180486679 0.11057539284229279 0.11067942529916763 0.07632216811180115 0.01729540526866913 -9999
-9999 -9999 0.01766645722091198 0.07785088568925858 0.1121610477566719 0.1111840009689331 0.10962598025798798 0.10769123584032059 0.10621385276317596 0.10524919629096985 0.1048298180103302 0.10495075583457947 0.10557107627391815 0.10645174235105515 0.10726998001337051 0.10790827870368958 0.10828406363725662 0.07492402195930481 0.016985243186354637 -9999
-9999 0.01735425367951393 0.0368022695183754 0.09230127930641174 0.11032313108444214 0.10904114693403244 0.10710334777832031 0.10488064587116241 0.10320103168487549 0.10210183262825012 0.1015872210264206 0.10164610296487808 0.102240651845932 0.1031462550163269 0.10410422086715698 0.10491299629211426 0.10547159612178802 0.07311879843473434 0.016594478860497475 -9999
-9999 0.01720622554421425 0.07570591568946838 0.10924968123435974 0.10842034965753555 0.10684862732887268 0.1046186089515686 0.10226809978485107 0.10045892000198364 0.09924149513244629 0.09861835837364197 0.09857328236103058 0.09906276315450668 0.09987564384937286 0.1008453294634819 0.10174664855003357 0.10242845863103867 0.07110854238271713 0.01615743711590767 -9999
-9999 0.017004679888486862 0.0747707262635231 0.1075848639011383 0.10648252069950104 0.10468216240406036 0.1022624745965004 0.09988480806350708 0.09800523519515991 0.09669151157140732 0.09595375508069992 0.09577649086713791 0.09611885994672775 0.09679524600505829 0.09766475111246109 0.09858390688896179 0.09934679418802261 0.06906160712242126 0.01571153849363327 -9999
-9999 0.01676168106496334 0.07363007962703705 0.10577380657196045 0.10452225059270859 0.10260427743196487 0.10014642030000687 0.09778427332639694 0.09586935490369797 0.09447360038757324 0.0936155840754509 0.09328259527683258 0.09343944489955902 0.09393339604139328 0.09465531259775162 0.09552855044603348 0.09638004004955292 0.06714215874671936 0.015295096673071384 -9999
-9999 0.016497068107128143 0.07240547239780426 0.10391294211149216 0.10259470343589783 0.10065976530313492 0.09828276187181473 0.09599185734987259 0.09406305849552155 0.09259160608053207 0.09160749614238739 0.09109900146722794 0.09102334082126617 0.09128417074680328 0.09180618822574615 0.09256086498498917 0.09358494728803635 0.06552746891975403 0.014940404333174229 -9999
-9999 0.01623188704252243 0.07119152694940567 0.10209666937589645 0.10075471550226212 0.09886059910058975 0.09660966694355011 0.09439361840486526 0.09247194230556488 0.09094375371932983 0.08984249830245972 0.08915422111749649 0.08884026110172272 0.08883565664291382 0.08908182382583618 0.08954291045665741 0.07485441863536835 0.030457964166998863 0.01466839574277401 -9999
-9999 0.015987927094101906 0.07007701694965363 0.10039058327674866 0.09903402626514435 0.09721086919307709 0.09508353471755981 0.09294407069683075 0.0910528227686882 0.08948683738708496 0.08828264474868774 0.08742663264274597 0.08688570559024811 0.08660946041345596 0.08654391765594482 0.08663598448038101 0.060010310262441635 0.013651775196194649 -9999 -9999
-9999 0.015787217766046524 0.0687807947397232 0.09885960817337036 0.09742851555347443 0.09569144248962402 0.0936892181634903 0.09164009243249893 0.0897919088602066 0.08820775896310806 0.08692265301942825 0.0859236866235733 0.0851823017001152 0.08465580642223358 0.08429498970508575 0.08405228704214096 0.05757896602153778 0.013042310252785683 -9999 -9999
-9999 0.015645481646060944 0.03270455822348595 0.08054883033037186 0.09585004299879074 0.09427554905414581 0.09242967516183853 0.09048860520124435 0.0886974185705185 0.08711443096399307 0.08577358722686768 0.08466331660747528 0.08375904709100723 0.08302196860313416 0.08239996433258057 0.08182553946971893 0.06717168539762497 0.026357216760516167 0.012100143358111382 0.011958982795476913
-9999 -9999 0.015150359831750393 0.06581927835941315 0.09448228031396866 0.093027763068676 0.09133732318878174 0.08952177315950394 0.08779919147491455 0.0862337201833725 0.08486179262399673 0.08367466181516647 0.08265186846256256 0.08175783604383469 0.08094121515750885 0.0801166445016861 0.07911641150712967 0.06467245519161224 0.05291284620761871 0.052538659423589706
-9999 -9999 0.014802630059421062 0.03135911747813225 0.07725970447063446 0.09197177737951279 0.0904763713479042 0.08879928290843964 0.08714744448661804 0.08560772985219955 0.0842244029045105 0.08299209177494049 0.08189521729946136 0.08090540766716003 0.07998330146074295 0.07907217741012573 0.07810738682746887 0.07707943767309189 0.07627114653587341 0.07585848122835159
-9999 -9999 -9999 0.014452800154685974 0.06352595239877701 0.09135878831148148 0.09000080078840256 0.088412806391716 0.08680902421474457 0.08528906106948853 0.0839020162820816 0.08264950662851334 0.08151748031377792 0.08048257231712341 0.07951631397008896 0.0785842090845108 0.07766223698854446 0.07679422944784164 0.07612145692110062 0.07576353847980499
