ncols         20
nrows         20
xllcorner     0
yllcorner     -3.5992928
cellsize      0.17996463
NODATA_value  -9999
-9999.0 -9999 -9999 -9999 -9999 -9999 -9999 -9999 -9999 -9999 -9999 -9999 -9999 -9999 -9999 -9999 -9999 -9999 -9999 -9999
-9999 -9999 -9999 -9999 -9999 -9999 -9999 -9999 -9999 -9999 -9999 2.938417434692383 2.954155683517456 -9999 -9999 3.304544687271118 3.3280675411224365 -9999 -9999 -9999
-9999 -9999 -9999 -9999 3.0987935066223145 3.0188307762145996 2.908137559890747 2.8000316619873047 2.7172272205352783 2.6742215156555176 2.682095527648926 2.7668778896331787 2.8157479763031006 2.8508598804473877 2.956427812576294 3.124311923980713 3.209373712539673 3.2284765243530273 -9999 -9999
-9999 -9999 -9999 3.069871425628662 3.005664110183716 2.8719916343688965 2.7194628715515137 2.588499069213867 2.4949707984924316 2.443756341934204 2.4374678134918213 2.47373366355896 2.5272440910339355 2.601902961730957 2.7177062034606934 2.867231607437134 3.005511522293091 3.088895320892334 -9999 -9999
-9999 -9999 -9999 2.9346630573272705 2.798041582107544 2.5847525596618652 2.352501630783081 2.187129020690918 2.0814459323883057 2.023102045059204 2.005579710006714 2.024057626724243 2.07266902923584 2.15507173538208 2.282935380935669 2.464334726333618 2.6914913654327393 2.837078332901001 -9999 -9999
-9999 -9999 2.7946832180023193 2.7191762924194336 2.489506959915161 2.1663923263549805 1.7847468852996826 1.6024106740951538 1.5054175853729248 1.4557735919952393 1.4386167526245117 1.4479122161865234 1.4828529357910156 1.5494753122329712 1.664494276046753 1.8679664134979248 2.2725703716278076 2.4957926273345947 2.5047450065612793 -9999
-9999 -9999 2.620534896850586 2.4330646991729736 2.0975677967071533 1.6679503917694092 1.4008359909057617 1.2498856782913208 1.1670851707458496 1.1248611211776733 1.1094919443130493 1.1153768301010132 1.1430208683013916 1.1994085311889648 1.3021217584609985 1.4918501377105713 1.8677557706832886 2.142860174179077 2.2693099975585938 -9999
-9999 -9999 2.381424903869629 2.088346004486084 1.6416162252426147 1.3402339220046997 1.1454558372497559 1.028044581413269 0.9618499875068665 0.9276629090309143 0.9148792028427124 0.9191668033599854 0.9412132501602173 0.9865100383758545 1.0671477317810059 1.205749273300171 1.4334462881088257 1.7525064945220947 1.9327069520950317 -9999
-9999 2.37190318107605 2.1821463108062744 1.7012513875961304 1.3597657680511475 1.129358172416687 0.9797594547271729 0.8883463144302368 0.8353424072265625 0.8072555661201477 0.7964574694633484 0.7996701002120972 0.8172006607055664 0.8526803255081177 0.9134808778762817 1.0110578536987305 1.158422589302063 1.3585636615753174 1.5867491960525513 -9999
-9999 2.277085781097412 2.0245847702026367 1.5087624788284302 1.1963059902191162 0.999521791934967 0.876341700553894 0.8013080954551697 0.756974458694458 0.7328424453735352 0.723125159740448 0.7251714468002319 0.7389359474182129 0.7667351961135864 0.8132895231246948 0.8857958912849426 0.9933475255966187 1.1448049545288086 1.3271478414535522 -9999
-9999 2.1548807621002197 1.8933253288269043 1.391209363937378 1.0978899002075195 0.9201052784919739 0.8125045895576477 0.7471728324890137 0.7081612348556519 0.6864990592002869 0.677283525466919 0.6781360507011414 0.6888033151626587 0.710906982421875 0.7479422092437744 0.8059528470039368 0.8957376480102539 1.040220022201538 1.1503725051879883 -9999
-9999 2.02300763130188 1.772732138633728 1.3056977987289429 1.033185601234436 0.8700944185256958 0.7722625732421875 0.7129307389259338 0.6773805022239685 0.6573654413223267 0.6484051942825317 0.6481744647026062 0.6563055515289307 0.6740883588790894 0.7042347192764282 0.7515549063682556 0.8248918056488037 0.9402856826782227 1.020382285118103 -9999
-9999 1.8836170434951782 1.6525055170059204 1.2331244945526123 0.9842562079429626 0.8352704048156738 0.7452507019042969 0.6905047297477722 0.6576203107833862 0.6388130784034729 0.6301451921463013 0.6289995908737183 0.635133683681488 0.6495532989501953 0.6743968725204468 0.7135426998138428 0.7734076976776123 0.8656987547874451 0.9327309727668762 -9999
-9999 1.736384391784668 1.527819275856018 1.1627535820007324 0.9413425326347351 0.8072941899299622 0.7252712249755859 0.6750233173370361 0.6447213888168335 0.6266910433769226 0.6177104115486145 0.6157785654067993 0.620331346988678 0.6319888234138489 0.6524167060852051 0.6850099563598633 0.736487627029419 0.8147052526473999 0.8859426975250244 -9999
-9999 1.590997338294983 1.4041110277175903 1.0922788381576538 0.9004833698272705 0.7824282050132751 0.7091732025146484 0.6637440323829651 0.6351341009140015 0.6179113388061523 0.6089227795600891 0.6063908338546753 0.6096258759498596 0.6188378930091858 0.6350994110107422 0.6607819199562073 0.7002412676811218 0.7485233545303345 -9999 -9999
-9999 1.4675637483596802 1.293658971786499 1.0276144742965698 0.8630295991897583 0.7605142593383789 0.6960288882255554 0.6543782949447632 0.6277750730514526 0.6114363670349121 0.6025514602661133 0.5995268225669861 0.6015799045562744 0.6085798740386963 0.6209668517112732 0.6400078535079956 0.667770504951477 0.6952638626098633 -9999 -9999
-9999 1.3866932392120361 1.1973706483840942 0.9724937677383423 0.8309922814369202 0.7424816489219666 0.6846871376037598 0.6468082666397095 0.6221851706504822 0.6067466735839844 0.5980691909790039 0.5946518778800964 0.5956462025642395 0.6006633043289185 0.6096575260162354 0.6229623556137085 0.6410477757453918 0.6581867337226868 0.654950737953186 0.6543684005737305
-9999 -9999 1.0638957023620605 0.9204347133636475 0.8048884272575378 0.7277090549468994 0.6757770776748657 0.6411059498786926 0.6181830167770386 0.603570282459259 0.5951020121574402 0.5913668870925903 0.5914796590805054 0.5948852300643921 0.6011874675750732 0.6100763082504272 0.6209077835083008 0.6316075325012207 0.6357902884483337 0.6370383501052856
-9999 -9999 1.0092065334320068 0.9053250551223755 0.7922704219818115 0.7185041904449463 0.669908344745636 0.6373892426490784 0.6156898736953735 0.6016743779182434 0.5933420062065125 0.5893749594688416 0.5888700485229492 0.5911620855331421 0.5956695079803467 0.6018282175064087 0.6088212728500366 0.6151725053787231 0.6188513040542603 0.6204124093055725
-9999 -9999 -9999 0.8644686937332153 0.7807639837265015 0.7128849625587463 0.666785478591919 0.6355280876159668 0.6144961714744568 0.6007951498031616 0.5925338864326477 0.5884365439414978 0.5876147747039795 0.5893491506576538 0.592987596988678 0.597879946231842 0.6032640933990479 0.6080187559127808 0.6111846566200256 0.6126977801322937
