ncols         20
nrows         20
xllcorner     0
yllcorner     -3.5992928
cellsize      0.17996463
NODATA_value  -9999
-9999.0 -9999 -9999 -9999 -9999 -9999 -9999 -9999 -9999 -9999 -9999 -9999 -9999 -9999 -9999 -9999 -9999 -9999 -9999 -9999
-9999 -9999 -9999 -9999 -9999 -9999 -9999 -9999 -9999 -9999 -9999 0.13464757800102234 0.1347527652978897 -9999 -9999 0.13706189393997192 0.1372395157814026 -9999 -9999 -9999
-9999 -9999 -9999 -9999 0.134116530418396 0.13408926129341125 0.1340932697057724 0.1341494917869568 0.1342744380235672 0.13446545600891113 0.13467806577682495 0.12470576912164688 0.12503328919410706 0.1359419822692871 0.13656172156333923 0.12683960795402527 0.1273687481880188 0.1383778303861618 -9999 -9999
-9999 -9999 -9999 0.13439376652240753 0.12415648251771927 0.10565035790205002 0.10568589717149734 0.10578642785549164 0.10595417767763138 0.1061747819185257 0.10642503201961517 0.0986054539680481 0.098921038210392 0.10750799626111984 0.10802419483661652 0.1004275232553482 0.10934176295995712 0.13947716355323792 -9999 -9999
-9999 -9999 -9999 0.1346205323934555 0.10592770576477051 0.07711470872163773 0.07116914540529251 0.07132928818464279 0.0715467557311058 0.07180092483758926 0.07206525653600693 0.06691356003284454 0.06717676669359207 0.0729667991399765 0.07340308278799057 0.0740235224366188 0.11108915507793427 0.14174669981002808 -9999 -9999
-9999 -9999 0.13513028621673584 0.12483325600624084 0.0982619971036911 0.06610580533742905 0.04099566861987114 0.04116889089345932 0.04139126092195511 0.04163186252117157 0.04187024012207985 0.038826826959848404 0.03905064985156059 0.04264511913061142 0.04304630681872368 0.07025405764579773 0.10524409264326096 0.13482657074928284 0.14799341559410095 -9999
-9999 -9999 0.13554292917251587 0.10672592371702194 0.07783273607492447 0.05250788480043411 0.03005724772810936 0.02036207914352417 0.020535103976726532 0.020717119798064232 0.020896771922707558 0.019452979788184166 0.019647616893053055 0.02156485617160797 0.03249851614236832 0.05753396078944206 0.08598096668720245 0.11869769543409348 0.15155628323554993 -9999
-9999 -9999 0.13632996380329132 0.10744974762201309 0.07237515598535538 0.041681498289108276 0.02053491771221161 0.010120618157088757 0.00874804612249136 0.00886094942688942 0.008976748213171959 0.008409176021814346 0.008572407998144627 0.011156362481415272 0.023205865174531937 0.04760532081127167 0.08305968344211578 0.12371114641427994 0.15728209912776947 -9999
-9999 0.1380624622106552 0.12730324268341064 0.10034248232841492 0.06778372824192047 0.03902501240372658 0.01930512860417366 0.008174372836947441 0.0032184896990656853 0.003286447376012802 0.003356398781761527 0.0031630604062229395 0.0035550426691770554 0.010229037143290043 0.024662278592586517 0.05034536123275757 0.08750191330909729 0.12984400987625122 0.16470439732074738 -9999
-9999 0.1396951824426651 0.11001213639974594 0.0803857296705246 0.054436661303043365 0.03153039142489433 0.01560215838253498 0.0066234152764081955 0.0024536221753805876 0.0016365994233638048 0.0016912417486310005 0.0017392225563526154 0.0038279222790151834 0.010898475535213947 0.026142792776226997 0.05324624106287956 0.09240682423114777 0.13693849742412567 0.1735006719827652 -9999
-9999 0.14260008931159973 0.11248403042554855 0.07595066726207733 0.04393475875258446 0.021772857755422592 0.010801666416227818 0.004623094107955694 0.0017271802062168717 0.0017357125179842114 0.0018020056886598468 0.001857183175161481 0.004077569115906954 0.011547348462045193 0.02762187272310257 0.05620207265019417 0.09748976677656174 0.14438973367214203 0.18283645808696747 -9999
-9999 0.14668521285057068 0.11584210395812988 0.07838308811187744 0.04546568542718887 0.022587735205888748 0.009608747437596321 0.00352335162460804 0.00173958798404783 0.0018256674520671368 0.001900548581033945 0.0020736579317599535 0.006007401272654533 0.014387047849595547 0.02909073978662491 0.05914454534649849 0.1025213897228241 0.15165674686431885 0.19174377620220184 -9999
-9999 0.15188626945018768 0.1201038658618927 0.08144766092300415 0.04732629284262657 0.023691782727837563 0.010101668536663055 0.003714427351951599 0.0018154075369238853 0.0019046723609790206 0.0019863026682287455 0.003241821425035596 0.009351695887744427 0.022371523082256317 0.04573387652635574 0.07916415482759476 0.11656644195318222 0.15846000611782074 0.19937506318092346 -9999
-9999 0.15806040167808533 0.125240758061409 0.08544568717479706 0.04974832385778427 0.02476072497665882 0.010548330843448639 0.003869042033329606 0.0018825549632310867 0.0019704122096300125 0.002052795374765992 0.00424951920285821 0.0122321592643857 0.029456499963998795 0.06014358624815941 0.1043703556060791 0.1542900800704956 0.19384655356407166 0.20467405021190643 -9999
-9999 0.16466665267944336 0.1306784301996231 0.08929447084665298 0.05204571783542633 0.025908881798386574 0.012912564910948277 0.005538739264011383 0.002046094974502921 0.0020236968994140625 0.0021038497798144817 0.0047270767390728 0.01354756485670805 0.03269125521183014 0.06695457547903061 0.11669773608446121 0.17281083762645721 0.2190219759941101 -9999 -9999
-9999 0.17058543860912323 0.13627572357654572 0.1006350889801979 0.06896031647920609 0.040256157517433167 0.02009793184697628 0.008529845625162125 0.00339313643053174 0.002064172178506851 0.002142885699868202 0.004807176534086466 0.013790491037070751 0.03333970159292221 0.06844354420900345 0.1196325421333313 0.17826665937900543 0.22624166309833527 -9999 -9999
-9999 0.17475232481956482 0.1653907597064972 0.13246674835681915 0.09046033024787903 0.05271041393280029 0.028373319655656815 0.014072760939598083 0.006002513691782951 0.0022046281956136227 0.0021711138542741537 0.004475608468055725 0.012918254360556602 0.03128325566649437 0.06432473659515381 0.1126040518283844 0.16843008995056152 0.21588750183582306 0.23815225064754486 0.23999151587486267
-9999 -9999 0.18511687219142914 0.14767363667488098 0.10866227746009827 0.07406392693519592 0.04298814758658409 0.02137114107608795 0.009040281176567078 0.0033292523585259914 0.002188534941524267 0.0035539567470550537 0.01029310654848814 0.02503153122961521 0.05138889327645302 0.09021628648042679 0.13496334850788116 0.1726130247116089 0.18851502239704132 0.1894560009241104
-9999 -9999 0.18860787153244019 0.17634014785289764 0.1402643918991089 0.09522957354784012 0.055215682834386826 0.02731280028820038 0.011556477285921574 0.004237314220517874 0.002197655849158764 0.0023985037114471197 0.006967733148485422 0.01691262423992157 0.03496560826897621 0.06109278276562691 0.09175880998373032 0.11708344519138336 0.127238467335701 0.12762753665447235
-9999 -9999 -9999 0.19350236654281616 0.1534222513437271 0.10396930575370789 0.06014787033200264 0.029713224619627 0.012558828108012676 0.004615489859133959 0.0022019303869456053 0.002279464853927493 0.00401016790419817 0.009703470394015312 0.02011597715318203 0.0351482555270195 0.052846308797597885 0.06710146367549896 0.07303889095783234 0.07319106161594391
