ncols         20
nrows         20
xllcorner     0
yllcorner     -3.5992928
cellsize      0.17996463
NODATA_value  -9999
-9999.0 -9999 -9999 -9999 -9999 -9999 -9999 -9999 -9999 -9999 -9999 -9999 -9999 -9999 -9999 -9999 -9999 -9999 -9999 -9999
-9999 -9999 -9999 -9999 -9999 -9999 -9999 -9999 -9999 -9999 -9999 0.21204519271850586 0.2087268829345703 -9999 -9999 0.1879803091287613 0.17593905329704285 -9999 -9999 -9999
-9999 -9999 -9999 -9999 0.18803775310516357 0.20533084869384766 0.23750430345535278 0.26810601353645325 0.29245737195014954 0.3104892075061798 0.28757718205451965 0.26691070199012756 0.2683843672275543 0.274076908826828 0.24912144243717194 0.21440371870994568 0.19319258630275726 0.18331626057624817 -9999 -9999
-9999 -9999 -9999 0.18523187935352325 0.19976381957530975 0.22360379993915558 0.260439395904541 0.3008568286895752 0.3463757336139679 0.38738706707954407 0.41662877798080444 0.42070555686950684 0.41689223051071167 0.3866051435470581 0.3392672836780548 0.2838786840438843 0.2423446923494339 0.22146709263324738 -9999 -9999
-9999 -9999 -9999 0.1952841579914093 0.21577531099319458 0.2593896687030792 0.3171631693840027 0.38891997933387756 0.4802032709121704 0.599269449710846 0.7164368629455566 0.7777495980262756 0.7621809244155884 0.663227915763855 0.5476040244102478 0.429878294467926 0.3467485308647156 0.32616233825683594 -9999 -9999
-9999 -9999 0.1849185824394226 0.20682409405708313 0.24530208110809326 0.3092344403266907 0.3943643569946289 0.5095357894897461 0.685621976852417 0.9163359999656677 1.1658835411071777 1.3011229038238525 1.294975757598877 1.1223427057266235 0.8864277005195618 0.6755324602127075 0.5297707319259644 0.4754311442375183 0.4527246356010437 -9999
-9999 -9999 0.19943489134311676 0.22712606191635132 0.2923515737056732 0.3901974856853485 0.5159606337547302 0.696487545967102 0.963027834892273 1.3077088594436646 1.6648379564285278 1.8869518041610718 1.899908185005188 1.7013812065124512 1.4057047367095947 1.0667744874954224 0.8255045413970947 0.6799753308296204 0.6258661150932312 -9999
-9999 -9999 0.2380203902721405 0.2851239740848541 0.3875187337398529 0.5331490635871887 0.732601523399353 1.0007048845291138 1.340386986732483 1.74250066280365 2.103280782699585 2.355069398880005 2.4073169231414795 2.2545173168182373 1.956239938735962 1.5896795988082886 1.2671186923980713 1.0369369983673096 0.9444536566734314 -9999
-9999 0.26158595085144043 0.3044806122779846 0.39171895384788513 0.5626853704452515 0.8059204816818237 1.108773946762085 1.4857239723205566 1.8896982669830322 2.2702670097351074 2.5639708042144775 2.771117925643921 2.865028142929077 2.793731451034546 2.590519428253174 2.2814247608184814 1.8560861349105835 1.5480519533157349 1.4145554304122925 -9999
-9999 0.33073946833610535 0.4002026319503784 0.5709577798843384 0.8494873046875 1.223684310913086 1.6710431575775146 2.157161235809326 2.5883774757385254 2.9015955924987793 3.094733476638794 3.2439022064208984 3.3381359577178955 3.3488473892211914 3.234078884124756 3.0204763412475586 2.5739846229553223 2.2211990356445312 2.0621819496154785 -9999
-9999 0.47711917757987976 0.582263708114624 0.8317252397537231 1.2069029808044434 1.697858214378357 2.277564525604248 2.849517822265625 3.261669635772705 3.502357006072998 3.645972967147827 3.769690990447998 3.8931946754455566 3.941256523132324 3.876791477203369 3.699923038482666 3.36494517326355 3.0219738483428955 2.85498309135437 -9999
-9999 0.7351932525634766 0.8758468627929688 1.2095566987991333 1.6653028726577759 2.216564655303955 2.8393783569335938 3.388247489929199 3.716799259185791 3.878739595413208 3.986626386642456 4.132950782775879 4.377100467681885 4.469470977783203 4.3928656578063965 4.349745750427246 4.0627360343933105 3.793102264404297 3.6462111473083496 -9999
-9999 1.1465394496917725 1.3432353734970093 1.773214340209961 2.262221097946167 2.800447463989258 3.3419582843780518 3.7594101428985596 3.9396719932556152 3.979902505874634 4.018527030944824 4.125778675079346 4.352487087249756 4.442160606384277 4.450903415679932 4.362510681152344 4.31742525100708 4.232256889343262 4.123639106750488 -9999
-9999 1.6978604793548584 1.9472260475158691 2.45919132232666 2.9668219089508057 3.413447141647339 3.772637128829956 3.9713118076324463 3.9872002601623535 3.9300832748413086 3.8874592781066895 3.890458345413208 3.9689714908599854 3.952594757080078 3.903550148010254 3.8462982177734375 3.949746608734131 4.155943393707275 4.127237796783447 -9999
-9999 2.2352988719940186 2.5119335651397705 3.0720200538635254 3.549575090408325 3.846640110015869 3.993353843688965 4.005203723907471 3.9272522926330566 3.8276193141937256 3.7454357147216797 3.627660036087036 3.4859774112701416 3.32159161567688 3.1989126205444336 3.1165058612823486 3.1218910217285156 3.4635353088378906 -9999 -9999
-9999 2.599118232727051 2.895191192626953 3.4513678550720215 3.8394739627838135 3.985931873321533 3.978778123855591 3.8945751190185547 3.807788848876953 3.7333390712738037 3.6881725788116455 3.498591899871826 3.210381507873535 2.8540408611297607 2.6112587451934814 2.3916711807250977 2.2432944774627686 2.001845359802246 -9999 -9999
-9999 2.8624284267425537 3.1678900718688965 3.650912284851074 3.941835403442383 3.9486494064331055 3.8284666538238525 3.6876327991485596 3.609987258911133 3.5773627758026123 3.461179256439209 3.2164158821105957 2.867616653442383 2.4771225452423096 2.150524377822876 1.8743709325790405 1.6563934087753296 1.4619951248168945 1.3394196033477783 1.1789952516555786
-9999 -9999 3.4321117401123047 3.7730815410614014 3.963634729385376 3.8543667793273926 3.6240267753601074 3.4327633380889893 3.37048077583313 3.2758941650390625 3.1270973682403564 2.8764686584472656 2.5494768619537354 2.1558775901794434 1.8259197473526 1.5756022930145264 1.3509981632232666 1.1931140422821045 1.0804493427276611 1.1132948398590088
-9999 -9999 3.7037928104400635 3.8740556240081787 3.9423084259033203 3.7196950912475586 3.3848328590393066 3.1219329833984375 3.0086872577667236 2.8985631465911865 2.7928483486175537 2.556326150894165 2.2386584281921387 1.8735722303390503 1.5875097513198853 1.3747650384902954 1.1969865560531616 1.0845580101013184 1.1180427074432373 1.1380398273468018
-9999 -9999 -9999 3.915630578994751 3.9210305213928223 3.650144100189209 3.2586982250213623 2.962657928466797 2.8351528644561768 2.735994815826416 2.6227850914001465 2.4308583736419678 2.1181387901306152 1.7643787860870361 1.4713468551635742 1.3009496927261353 1.113722324371338 1.114647388458252 1.1395328044891357 1.1542283296585083
