ncols         20
nrows         20
xllcorner     0
yllcorner     -3.5992928
cellsize      0.17996463
NODATA_value  -9999
-9999.0 -9999 -9999 -9999 -9999 -9999 -9999 -9999 -9999 -9999 -9999 -9999 -9999 -9999 -9999 -9999 -9999 -9999 -9999 -9999
-9999 -9999 -9999 -9999 -9999 -9999 -9999 -9999 -9999 -9999 -9999 27.108919143676758 27.108905792236328 -9999 -9999 27.144939422607422 27.207334518432617 -9999 -9999 -9999
-9999 -9999 -9999 -9999 27.19851303100586 27.112051010131836 26.977357864379883 26.873376846313477 26.817493438720703 26.80881118774414 26.885995864868164 26.959857940673828 26.931978225708008 26.848438262939453 26.8837890625 27.010366439819336 27.092552185058594 27.104087829589844 -9999 -9999
-9999 -9999 -9999 27.222763061523438 27.186729431152344 27.125215530395508 27.036624908447266 26.966087341308594 26.923486709594727 26.917171478271484 26.93613052368164 26.942211151123047 26.89225959777832 26.832538604736328 26.820354461669922 26.860830307006836 26.887962341308594 26.877756118774414 -9999 -9999
-9999 -9999 -9999 27.202415466308594 27.199520111083984 27.19179916381836 27.201725006103516 27.226661682128906 27.28973960876465 27.367185592651367 27.433822631835938 27.450817108154297 27.376266479492188 27.228248596191406 27.04841423034668 26.88738441467285 26.72036361694336 26.576448440551758 -9999 -9999
-9999 -9999 27.189132690429688 27.194597244262695 27.243616104125977 27.366985321044922 27.579763412475586 27.805490493774414 28.048967361450195 28.30537223815918 28.516279220581055 28.606952667236328 28.517833709716797 28.247406005859375 27.841583251953125 27.368515014648438 26.85871124267578 26.501632690429688 26.314769744873047 -9999
-9999 -9999 27.102079391479492 27.181386947631836 27.33772850036621 27.628461837768555 28.025012969970703 28.47568702697754 28.958141326904297 29.42795181274414 29.786048889160156 29.946800231933594 29.864585876464844 29.520389556884766 28.927343368530273 28.224960327148438 27.461397171020508 26.871788024902344 26.556238174438477 -9999
-9999 -9999 26.88475799560547 27.092592239379883 27.436466217041016 27.913225173950195 28.531902313232422 29.23261260986328 29.94203758239746 30.56258773803711 30.995967864990234 31.188701629638672 31.127126693725586 30.79681968688965 30.19016456604004 29.385723114013672 28.509029388427734 27.733369827270508 27.286815643310547 -9999
-9999 26.234264373779297 26.54239845275879 27.001556396484375 27.55014419555664 28.29779624938965 29.1903076171875 30.122718811035156 30.969350814819336 31.629085540771484 32.05516052246094 32.24030303955078 32.19308853149414 31.910375595092773 31.376047134399414 30.616683959960938 29.79109764099121 29.010684967041016 28.50141143798828 -9999
-9999 25.982019424438477 26.313962936401367 26.983795166015625 27.84878921508789 28.910987854003906 30.05437660217285 31.12078094482422 31.979190826416016 32.58319854736328 32.9470329284668 33.09466552734375 33.04817581176758 32.82233428955078 32.40644454956055 31.799358367919922 31.11972427368164 30.439794540405273 29.98110580444336 -9999
-9999 25.75784683227539 26.228666305541992 27.197261810302734 28.411460876464844 29.73828125 31.023014068603516 32.101356506347656 32.88832473754883 33.40174102783203 33.688880920410156 33.783226013183594 33.7169075012207 33.54053497314453 33.254459381103516 32.83256912231445 32.331825256347656 31.808143615722656 31.463218688964844 -9999
-9999 25.866836547851562 26.519418716430664 27.78778839111328 29.24614906311035 30.694381713867188 31.977834701538086 32.97620391845703 33.66986846923828 34.10792922973633 34.3370246887207 34.38052749633789 34.27055358886719 34.12641906738281 33.95326232910156 33.67198944091797 33.34001159667969 32.9751091003418 32.730628967285156 -9999
-9999 26.554807662963867 27.356121063232422 28.791278839111328 30.323238372802734 31.721393585205078 32.87451934814453 33.741641998291016 34.348148345947266 34.733192443847656 34.946903228759766 34.98202896118164 34.88283157348633 34.77350616455078 34.6527214050293 34.48702621459961 34.21575927734375 33.91555404663086 33.688232421875 -9999
-9999 27.75027847290039 28.600547790527344 30.052104949951172 31.507198333740234 32.73677444458008 33.6981201171875 34.419029235839844 34.94463348388672 35.27006912231445 35.45439147949219 35.52220153808594 35.49917221069336 35.465030670166016 35.404762268066406 35.291351318359375 35.06455993652344 34.74768829345703 34.34055709838867 -9999
-9999 29.059268951416016 29.90241050720215 31.274147033691406 32.5838623046875 33.6318473815918 34.42330551147461 35.018062591552734 35.41856384277344 35.676212310791016 35.839351654052734 35.959922790527344 36.05130386352539 36.12074661254883 36.13116455078125 36.07843017578125 35.9474983215332 35.744384765625 -9999 -9999
-9999 30.13703727722168 30.9891414642334 32.25122833251953 33.419105529785156 34.345458984375 35.0332145690918 35.49882507324219 35.79574966430664 35.97909164428711 36.106536865234375 36.2597541809082 36.43982696533203 36.61757278442383 36.71760559082031 36.75725555419922 36.748531341552734 36.749446868896484 -9999 -9999
-9999 30.83108901977539 31.86486053466797 32.99077606201172 34.03726577758789 34.903526306152344 35.502559661865234 35.894657135009766 36.12081527709961 36.251338958740234 36.37471008300781 36.547454833984375 36.76823806762695 36.99830627441406 37.16535568237305 37.26629638671875 37.323184967041016 37.39475631713867 37.59535598754883 37.689300537109375
-9999 -9999 32.88187026977539 33.62727355957031 34.50194549560547 35.2903938293457 35.859580993652344 36.225135803222656 36.41646957397461 36.53664779663086 36.655147552490234 36.8278923034668 37.05276107788086 37.29841613769531 37.49150085449219 37.614322662353516 37.69310760498047 37.74772644042969 37.80717086791992 37.81803894042969
-9999 -9999 33.457496643066406 34.096187591552734 34.83497619628906 35.5650749206543 36.130699157714844 36.50210189819336 36.690277099609375 36.801082611083984 36.903472900390625 37.066864013671875 37.289249420166016 37.533607482910156 37.728267669677734 37.85471725463867 37.933013916015625 37.960472106933594 37.94490051269531 37.930641174316406
-9999 -9999 -9999 34.500667572021484 35.06024169921875 35.7164421081543 36.275299072265625 36.650726318359375 36.83612823486328 36.9405632019043 37.037376403808594 37.18656539916992 37.406349182128906 37.651390075683594 37.85365295410156 37.97969055175781 38.06428909301758 38.0609245300293 38.031028747558594 38.012046813964844
