ncols         20
nrows         20
xllcorner     0
yllcorner     -3.5992928
cellsize      0.17996463
NODATA_value  -9999
-9999.0 -9999 -9999 -9999 -9999 -9999 -9999 -9999 -9999 -9999 -9999 -9999 -9999 -9999 -9999 -9999 -9999 -9999 -9999 -9999
-9999 -9999 -9999 -9999 -9999 -9999 -9999 -9999 -9999 -9999 -9999 0.018201908096671104 0.018200883641839027 -9999 -9999 0.01829124428331852 0.018298199400305748 -9999 -9999 -9999
-9999 -9999 -9999 -9999 0.01834612525999546 0.018306054174900055 0.018247060477733612 0.01817554235458374 0.018104834482073784 0.018049458041787148 0.018022358417510986 0.03822536766529083 0.03821995481848717 0.018012098968029022 0.018037857487797737 0.03838202357292175 0.03842790052294731 0.01813228242099285 -9999 -9999
-9999 -9999 -9999 0.018242686986923218 0.038607630878686905 0.08027146756649017 0.07998897135257721 0.07962366938591003 0.07925615459680557 0.07895603775978088 0.07877280563116074 0.09481967985630035 0.09478873014450073 0.07867997884750366 0.0787883996963501 0.09515327215194702 0.07918471097946167 0.017962388694286346 -9999 -9999
-9999 -9999 -9999 0.018100054934620857 0.07976743578910828 0.11517833918333054 0.11467643082141876 0.11403647810220718 0.113402359187603 0.11288323253393173 0.11254850029945374 0.1124415472149849 0.11239130795001984 0.1123787984251976 0.11254937946796417 0.11283613741397858 0.07810667157173157 0.017676346004009247 -9999 -9999
-9999 -9999 0.017833136022090912 0.0378207266330719 0.09493415802717209 0.11376537382602692 0.11308583617210388 0.11226724088191986 0.11148400604724884 0.11086250096559525 0.11044658720493317 0.11023944616317749 0.11017896980047226 0.11024478822946548 0.1104474738240242 0.11068442463874817 0.09209820628166199 0.036520205438137054 0.017138781026005745 -9999
-9999 -9999 0.017656292766332626 0.07775674015283585 0.11235998570919037 0.11181329190731049 0.11088681221008301 0.10984094440937042 0.10889546573162079 0.10817573219537735 0.10769297927618027 0.10743425786495209 0.1073477491736412 0.10741974413394928 0.10765407979488373 0.10794846713542938 0.10803509503602982 0.07447758316993713 0.01688721962273121 -9999
-9999 -9999 0.017385995015501976 0.07660497725009918 0.11037807166576385 0.10952019691467285 0.10833728313446045 0.10715127736330032 0.10615391284227371 0.10538453608751297 0.10484279692173004 0.10451370477676392 0.10436566919088364 0.10438339412212372 0.10456323623657227 0.10488523542881012 0.10521519929170609 0.07283427566289902 0.01652451604604721 -9999
-9999 0.016992580145597458 0.03605236858129501 0.09043702483177185 0.10812188684940338 0.10702746361494064 0.1056736409664154 0.10444124788045883 0.10340611636638641 0.10259561240673065 0.10200140625238419 0.10161232203245163 0.10140692442655563 0.10136839002370834 0.10148516297340393 0.10173305869102478 0.10205259174108505 0.07075529545545578 0.016073469072580338 -9999
-9999 0.016808150336146355 0.07388321310281754 0.10659127682447433 0.10579381883144379 0.10446132719516754 0.1030331701040268 0.10176829993724823 0.10070967674255371 0.09986639767885208 0.0992264449596405 0.09878503531217575 0.09852748364210129 0.09843764454126358 0.09849853813648224 0.09868303686380386 0.09893298149108887 0.06856169551610947 0.015583076514303684 -9999
-9999 0.016554754227399826 0.07270985841751099 0.10451086610555649 0.10339832305908203 0.10187794268131256 0.10043497383594513 0.09916523844003677 0.09809595346450806 0.09722774475812912 0.0965508297085762 0.09606608003377914 0.0957639068365097 0.09562918543815613 0.0956469476222992 0.09579529613256454 0.09602276980876923 0.06653503328561783 0.015110478736460209 -9999
-9999 0.016245119273662567 0.07125162333250046 0.10219322144985199 0.10090363770723343 0.0993453711271286 0.09791360795497894 0.09665702283382416 0.09558630734682083 0.0947011187672615 0.09399531036615372 0.09347475320100784 0.09313357621431351 0.09295758605003357 0.09294141829013824 0.09308516979217529 0.09336107969284058 0.06476153433322906 0.014706620015203953 -9999
-9999 0.015901844948530197 0.06964566558599472 0.0997283086180687 0.09834854304790497 0.09686993807554245 0.09549444168806076 0.09426987916231155 0.09320832788944244 0.09231502562761307 0.09158507734537125 0.0910298228263855 0.0906439796090126 0.09041829407215118 0.09036120027303696 0.09050687402486801 0.09095263481140137 0.06334111094474792 0.014384211041033268 -9999
-9999 0.015549473464488983 0.0680091381072998 0.0972483679652214 0.09590011835098267 0.09452056884765625 0.09321893751621246 0.09203920513391495 0.09099783003330231 0.09010924398899078 0.08936610817909241 0.08877461403608322 0.08833219110965729 0.0880342498421669 0.08789198100566864 0.08793597668409348 0.07314689457416534 0.029566733166575432 0.014148648828268051 -9999
-9999 0.015218693763017654 0.06648415327072144 0.09491539746522903 0.09364329278469086 0.09235338121652603 0.09112869948148727 0.09000404179096222 0.08900316059589386 0.08813043683767319 0.08737900108098984 0.08675099164247513 0.08624313026666641 0.0858534425497055 0.08558812737464905 0.08545520901679993 0.059030674397945404 0.013382917270064354 -9999 -9999
-9999 0.014944498427212238 0.06488831341266632 0.09290841221809387 0.09161190688610077 0.0904013141989708 0.08926041424274445 0.08820981532335281 0.0872592180967331 0.08641251176595688 0.08566074073314667 0.08500166237354279 0.08442982286214828 0.08394186943769455 0.08354011178016663 0.08322449773550034 0.05695780739188194 0.01289240550249815 -9999 -9999
-9999 0.014751194044947624 0.030680019408464432 0.0753062292933464 0.08973274379968643 0.08868062496185303 0.08765735477209091 0.08669121563434601 0.0857982411980629 0.08498336374759674 0.0842355266213417 0.08355242758989334 0.08292613923549652 0.08234899491071701 0.08181173354387283 0.08128804713487625 0.06678511947393417 0.02627062238752842 0.012116389349102974 0.011998780071735382
-9999 -9999 0.014110678806900978 0.06130366399884224 0.08819888532161713 0.08726892620325089 0.08636562526226044 0.0854872465133667 0.08465276658535004 0.0838695764541626 0.08312977105379105 0.08243174105882645 0.08176648616790771 0.08112286031246185 0.08048351109027863 0.0798015221953392 0.07895752787590027 0.0647239163517952 0.05308997631072998 0.052775852382183075
-9999 -9999 0.013740204274654388 0.029137395322322845 0.07202032208442688 0.08618052303791046 0.08543047308921814 0.0846385657787323 0.0838552787899971 0.08309979736804962 0.08236996829509735 0.08166507631540298 0.08097689598798752 0.08029589056968689 0.0796092227101326 0.07889068126678467 0.07810425013303757 0.07725595682859421 0.07658680528402328 0.07623915374279022
-9999 -9999 -9999 0.013415010645985603 0.05918806046247482 0.08557494729757309 0.08492948859930038 0.08419295400381088 0.0834403857588768 0.08270072937011719 0.08197804540395737 0.08127178251743317 0.08057395368814468 0.07987756282091141 0.07917509227991104 0.07845646142959595 0.07771901041269302 0.07701116800308228 0.07645700871944427 0.0761571079492569
