ncols         20
nrows         20
xllcorner     0
yllcorner     -3.5992928
cellsize      0.17996463
NODATA_value  -9999
-9999.0 -9999 -9999 -9999 -9999 -9999 -9999 -9999 -9999 -9999 -9999 -9999 -9999 -9999 -9999 -9999 -9999 -9999 -9999 -9999
-9999 -9999 -9999 -9999 -9999 -9999 -9999 -9999 -9999 -9999 -9999 13.308591842651367 13.312097549438477 -9999 -9999 13.104557037353516 13.174369812011719 -9999 -9999 -9999
-9999 -9999 -9999 -9999 13.15527629852295 13.132773399353027 13.083883285522461 13.090948104858398 13.126959800720215 13.149490356445312 13.255892753601074 13.232662200927734 13.166686058044434 13.113390922546387 13.105998039245605 13.099764823913574 13.144431114196777 13.194169044494629 -9999 -9999
-9999 -9999 -9999 13.092883110046387 13.092562675476074 13.111091613769531 13.135024070739746 13.172977447509766 13.190107345581055 13.190469741821289 13.168364524841309 13.121368408203125 13.059011459350586 13.034294128417969 13.006218910217285 13.000784873962402 13.018917083740234 13.041763305664062 -9999 -9999
-9999 -9999 -9999 13.062801361083984 13.104586601257324 13.173358917236328 13.318939208984375 13.411110877990723 13.457509994506836 13.468689918518066 13.459628105163574 13.431039810180664 13.368307113647461 13.292198181152344 13.183823585510254 13.075127601623535 12.91977310180664 12.772059440612793 -9999 -9999
-9999 -9999 13.016518592834473 13.048803329467773 13.178446769714355 13.450151443481445 13.885114669799805 14.083293914794922 14.189517974853516 14.297605514526367 14.407907485961914 14.462352752685547 14.406270027160645 14.240324020385742 13.99260425567627 13.656281471252441 13.068070411682129 12.73779010772705 12.688898086547852 -9999
-9999 -9999 12.986090660095215 13.115419387817383 13.386035919189453 13.879776000976562 14.241750717163086 14.488492965698242 14.71983814239502 14.98094654083252 15.215312004089355 15.337494850158691 15.30069637298584 15.088603019714355 14.708429336547852 14.199666976928711 13.443164825439453 12.942330360412598 12.728275299072266 -9999
-9999 -9999 12.8430814743042 13.15977668762207 13.684396743774414 14.09670639038086 14.445270538330078 14.796395301818848 15.173691749572754 15.539870262145996 15.820045471191406 15.964107513427734 15.950862884521484 15.767070770263672 15.403285026550293 14.879671096801758 14.216163635253906 13.494384765625 13.103111267089844 -9999
-9999 12.257451057434082 12.54660415649414 13.269070625305176 13.770098686218262 14.208252906799316 14.681174278259277 15.181215286254883 15.652811050415039 16.03276824951172 16.285144805908203 16.411447525024414 16.41471290588379 16.284120559692383 16.001441955566406 15.550554275512695 15.003421783447266 14.397469520568848 13.874739646911621 -9999
-9999 11.972049713134766 12.26529312133789 13.156556129455566 13.804485321044922 14.432308197021484 15.081456184387207 15.688594818115234 16.16549301147461 16.484106063842773 16.667598724365234 16.755233764648438 16.759157180786133 16.679155349731445 16.488752365112305 16.157873153686523 15.731682777404785 15.23095703125 14.7998046875 -9999
-9999 11.630733489990234 11.991783142089844 13.100439071655273 13.982255935668945 14.796087265014648 15.564436912536621 16.19908332824707 16.621572494506836 16.862442016601562 16.982769012451172 17.029539108276367 17.021514892578125 16.975242614746094 16.872350692749023 16.669225692749023 16.374656677246094 15.984355926513672 15.726858139038086 -9999
-9999 11.464241981506348 11.971436500549316 13.29028034210205 14.34708309173584 15.245063781738281 16.020973205566406 16.602188110351562 16.954395294189453 17.140169143676758 17.218929290771484 17.234756469726562 17.19169044494629 17.165870666503906 17.141727447509766 17.030811309814453 16.879104614257812 16.654802322387695 16.524072647094727 -9999
-9999 11.71056842803955 12.420123100280762 13.843475341796875 14.926850318908691 15.768438339233398 16.430639266967773 16.901391983032227 17.18151092529297 17.32149314880371 17.3853759765625 17.39255142211914 17.352304458618164 17.337671279907227 17.328636169433594 17.3126277923584 17.226829528808594 17.104856491088867 17.05345916748047 -9999
-9999 12.575997352600098 13.315084457397461 14.669453620910645 15.65357494354248 16.33002281188965 16.807069778442383 17.130815505981445 17.329376220703125 17.42741584777832 17.471824645996094 17.484098434448242 17.4694881439209 17.476154327392578 17.49091148376465 17.502710342407227 17.45857810974121 17.36067771911621 17.366968154907227 -9999
-9999 13.563735961914062 14.250227928161621 15.458837509155273 16.30070686340332 16.802776336669922 17.10948944091797 17.306385040283203 17.41729736328125 17.47478675842285 17.49896812438965 17.52039337158203 17.54218101501465 17.570377349853516 17.592967987060547 17.61191177368164 17.609790802001953 17.51768684387207 -9999 -9999
-9999 14.283005714416504 14.925662994384766 15.992836952209473 16.71014404296875 17.106563568115234 17.30838966369629 17.415740966796875 17.46465301513672 17.482803344726562 17.478618621826172 17.499937057495117 17.539920806884766 17.593338012695312 17.6268253326416 17.663881301879883 17.696666717529297 17.75067901611328 -9999 -9999
-9999 14.756032943725586 15.422690391540527 16.31809425354004 16.93820571899414 17.285961151123047 17.427082061767578 17.488243103027344 17.500356674194336 17.490238189697266 17.48938751220703 17.509267807006836 17.54732894897461 17.597503662109375 17.638877868652344 17.677581787109375 17.709901809692383 17.73168182373047 17.682268142700195 17.692874908447266
-9999 -9999 15.968937873840332 16.56124496459961 17.078123092651367 17.3773136138916 17.499996185302734 17.540218353271484 17.5302791595459 17.522546768188477 17.51819610595703 17.53215980529785 17.55944061279297 17.603418350219727 17.63924217224121 17.666236877441406 17.69495964050293 17.71169662475586 17.7077579498291 17.684064865112305
-9999 -9999 16.416732788085938 16.780088424682617 17.184436798095703 17.44667625427246 17.561017990112305 17.596961975097656 17.58382225036621 17.568710327148438 17.553123474121094 17.562124252319336 17.585512161254883 17.62057113647461 17.643733978271484 17.659255981445312 17.678024291992188 17.685970306396484 17.661762237548828 17.646947860717773
-9999 -9999 -9999 16.93033218383789 17.241029739379883 17.472557067871094 17.58517837524414 17.619657516479492 17.600627899169922 17.581695556640625 17.5671443939209 17.566078186035156 17.58804702758789 17.62024688720703 17.644207000732422 17.649717330932617 17.67083740234375 17.653772354125977 17.635400772094727 17.62635040283203
