ncols         20
nrows         20
xllcorner     0
yllcorner     -3.5992928
cellsize      0.17996463
NODATA_value  -9999
-9999.0 -9999 -9999 -9999 -9999 -9999 -9999 -9999 -9999 -9999 -9999 -9999 -9999 -9999 -9999 -9999 -9999 -9999 -9999 -9999
-9999 -9999 -9999 -9999 -9999 -9999 -9999 -9999 -9999 -9999 -9999 26.509946823120117 26.511077880859375 -9999 -9999 26.626150131225586 26.706262588500977 -9999 -9999 -9999
-9999 -9999 -9999 -9999 26.57141876220703 26.459148406982422 26.297229766845703 26.179906845092773 26.121482849121094 26.114473342895508 26.198699951171875 26.29501724243164 26.267080307006836 26.170551300048828 26.233295440673828 26.427921295166016 26.56156349182129 26.60294532775879 -9999 -9999
-9999 -9999 -9999 26.592281341552734 26.52924346923828 26.426013946533203 26.3079776763916 26.236074447631836 26.197818756103516 26.183218002319336 26.182514190673828 26.170127868652344 26.101455688476562 26.036029815673828 26.05413055419922 26.169477462768555 26.287961959838867 26.33961296081543 -9999 -9999
-9999 -9999 -9999 26.527557373046875 26.470355987548828 26.403934478759766 26.399036407470703 26.472946166992188 26.56085205078125 26.62284278869629 26.639108657836914 26.57079315185547 26.396595001220703 26.19180679321289 26.045936584472656 26.00408172607422 26.00655746459961 25.98206901550293 -9999 -9999
-9999 -9999 26.51041603088379 26.453197479248047 26.406999588012695 26.479455947875977 26.768909454345703 27.229684829711914 27.642295837402344 27.95520782470703 28.128093719482422 28.02323341369629 27.612499237060547 27.05999755859375 26.56968116760254 26.208864212036133 25.994020462036133 25.865867614746094 25.815223693847656 -9999
-9999 -9999 26.35978889465332 26.325910568237305 26.365951538085938 26.714691162109375 27.558277130126953 28.863731384277344 29.895753860473633 30.51879119873047 30.729585647583008 30.438718795776367 29.630615234375 28.671323776245117 27.737770080566406 26.94761848449707 26.428119659423828 26.122539520263672 25.98505210876465 -9999
-9999 -9999 26.070865631103516 26.088621139526367 26.320158004760742 27.10897445678711 28.796424865722656 31.485950469970703 32.999717712402344 33.67497253417969 33.748451232910156 33.1702766418457 31.793668746948242 30.461654663085938 29.259523391723633 28.203662872314453 27.364370346069336 26.80548667907715 26.544986724853516 -9999
-9999 25.69822120666504 25.74988555908203 25.86428451538086 26.35059356689453 27.58223533630371 29.92868995666504 33.097347259521484 34.840370178222656 35.556800842285156 35.57469940185547 34.89197540283203 33.39285659790039 31.9537296295166 30.693679809570312 29.589460372924805 28.657062530517578 27.97361946105957 27.614978790283203 -9999
-9999 25.505966186523438 25.563478469848633 25.826316833496094 26.62190055847168 28.2459716796875 30.93012809753418 34.07345962524414 35.81507110595703 36.52890396118164 36.539222717285156 35.86788558959961 34.42290496826172 33.02545928955078 31.824005126953125 30.79982566833496 29.938566207885742 29.287805557250977 28.930233001708984 -9999
-9999 25.391468048095703 25.568132400512695 26.088623046875 27.211641311645508 29.12103271484375 31.782949447631836 34.648948669433594 36.25346755981445 36.928001403808594 36.955875396728516 36.351863861083984 35.0147819519043 33.72378921508789 32.62443161010742 31.7078800201416 30.960256576538086 30.406511306762695 30.098430633544922 -9999
-9999 25.60157012939453 25.932294845581055 26.708675384521484 28.051998138427734 29.98663330078125 32.34918212890625 34.76511764526367 36.16126251220703 36.793888092041016 36.872371673583984 36.3998908996582 35.27244186401367 34.17970275878906 33.225975036621094 32.40325927734375 31.720821380615234 31.2202205657959 30.93724250793457 -9999
-9999 26.2669620513916 26.72525978088379 27.679397583007812 29.056468963623047 30.729368209838867 32.55154037475586 34.27229309082031 35.43660354614258 36.059844970703125 36.23427963256836 35.97370147705078 35.32097244262695 34.5797119140625 33.843597412109375 33.129783630371094 32.456295013427734 31.920135498046875 31.56536293029785 -9999
-9999 27.328168869018555 27.853649139404297 28.809236526489258 30.00798988342285 31.32282257080078 32.66732406616211 33.917545318603516 34.88197708129883 35.47468566894531 35.73643493652344 35.703792572021484 35.434383392333984 35.045169830322266 34.582176208496094 34.03457260131836 33.42599868774414 32.808746337890625 32.110511779785156 -9999
-9999 28.46609115600586 28.954801559448242 29.773235321044922 30.740413665771484 31.772390365600586 32.81937026977539 33.81186294555664 34.60759353637695 35.17011642456055 35.507469177246094 35.66071319580078 35.66788101196289 35.57049560546875 35.38346862792969 35.08066177368164 34.68940734863281 34.29429626464844 -9999 -9999
-9999 29.341978073120117 29.79361343383789 30.464879989624023 31.260215759277344 32.14772415161133 33.06320571899414 33.90174865722656 34.597476959228516 35.13027572631836 35.50956726074219 35.77927017211914 35.96485900878906 36.07402801513672 36.09891128540039 36.03352737426758 35.91620635986328 35.875457763671875 -9999 -9999
-9999 29.84341049194336 30.382131576538086 30.947834014892578 31.652124404907227 32.507747650146484 33.36690139770508 34.15424346923828 34.804595947265625 35.31425476074219 35.7056884765625 36.03013229370117 36.30609893798828 36.525360107421875 36.675025939941406 36.75140380859375 36.79320526123047 36.9016227722168 37.256778717041016 37.40712356567383
-9999 -9999 30.9599666595459 31.338619232177734 31.965641021728516 32.81200408935547 33.69673156738281 34.496341705322266 35.13726806640625 35.62646484375 36.005043029785156 36.33863830566406 36.64527130126953 36.92146682739258 37.12600326538086 37.25267791748047 37.34056091308594 37.421913146972656 37.53109359741211 37.56465148925781
-9999 -9999 31.227718353271484 31.604982376098633 32.2026481628418 33.06882858276367 34.00634765625 34.84136962890625 35.4862060546875 35.951377868652344 36.29738235473633 36.6182975769043 36.93197250366211 37.223934173583984 37.441898345947266 37.58048629760742 37.66960906982422 37.71019744873047 37.708255767822266 37.70100402832031
-9999 -9999 -9999 31.851625442504883 32.36680603027344 33.21723937988281 34.182762145996094 35.03616714477539 35.678218841552734 36.126548767089844 36.458377838134766 36.760433197021484 37.074058532714844 37.37250900268555 37.60291290283203 37.74286651611328 37.837486267089844 37.83884811401367 37.81229782104492 37.79496765136719
