ncols         20
nrows         20
xllcorner     0
yllcorner     -3.5992928
cellsize      0.17996463
NODATA_value  -9999
-9999.0 -9999 -9999 -9999 -9999 -9999 -9999 -9999 -9999 -9999 -9999 -9999 -9999 -9999 -9999 -9999 -9999 -9999 -9999 -9999
-9999 -9999 -9999 -9999 -9999 -9999 -9999 -9999 -9999 -9999 -9999 13.367111206054688 13.377792358398438 -9999 -9999 13.270774841308594 13.35429573059082 -9999 -9999 -9999
-9999 -9999 -9999 -9999 13.290311813354492 13.2239990234375 13.11750602722168 13.075891494750977 13.079227447509766 13.087413787841797 13.202054977416992 13.216498374938965 13.169482231140137 13.12719440460205 13.161242485046387 13.220052719116211 13.31368350982666 13.396211624145508 -9999 -9999
-9999 -9999 -9999 13.2749662399292 13.21473217010498 13.14413070678711 13.072980880737305 13.05097770690918 13.036932945251465 13.02506160736084 13.003878593444824 12.968472480773926 12.91818618774414 12.912986755371094 12.93346881866455 13.01488208770752 13.140188217163086 13.230978012084961 -9999 -9999
-9999 -9999 -9999 13.22935676574707 13.15695858001709 13.051064491271973 13.017022132873535 13.054591178894043 13.094286918640137 13.107983589172363 13.099719047546387 13.061681747436523 12.977713584899902 12.888073921203613 12.812040328979492 12.832908630371094 12.924409866333008 12.929581642150879 -9999 -9999
-9999 -9999 13.308115005493164 13.192636489868164 13.078630447387695 13.028334617614746 13.149846076965332 13.400396347045898 13.583189010620117 13.733970642089844 13.848990440368652 13.853349685668945 13.688536643981934 13.414320945739746 13.124634742736816 12.93933391571045 12.883590698242188 12.87401294708252 12.99377155303955 -9999
-9999 -9999 13.241241455078125 13.129470825195312 12.997410774230957 13.082715034484863 13.537029266357422 14.27930736541748 14.663257598876953 14.933588981628418 15.130010604858398 15.121241569519043 14.770801544189453 14.31830883026123 13.83156967163086 13.411843299865723 13.140607833862305 13.027677536010742 13.018540382385254 -9999
-9999 -9999 13.048280715942383 12.916255950927734 12.857561111450195 13.20602035522461 14.183625221252441 15.98733901977539 16.464452743530273 16.648778915405273 16.754919052124023 16.6494140625 15.836458206176758 15.244684219360352 14.694823265075684 14.163861274719238 13.73515510559082 13.463915824890137 13.347097396850586 -9999
-9999 12.97988510131836 12.802379608154297 12.655828475952148 12.736177444458008 13.333680152893066 14.563493728637695 16.460893630981445 16.994478225708008 17.170114517211914 17.24129295349121 17.133426666259766 16.456714630126953 15.961814880371094 15.509737968444824 15.026119232177734 14.554210662841797 14.19986343383789 14.028045654296875 -9999
-9999 12.752030372619629 12.596959114074707 12.50596809387207 12.816887855529785 13.672136306762695 15.004819869995117 16.732925415039062 17.242755889892578 17.39946174621582 17.44772720336914 17.36189079284668 16.84741973876953 16.486494064331055 16.16777229309082 15.817715644836426 15.4287109375 15.09890079498291 14.928914070129395 -9999
-9999 12.533254623413086 12.49073600769043 12.628137588500977 13.202614784240723 14.194513320922852 15.511969566345215 17.01053237915039 17.45214080810547 17.57879638671875 17.616039276123047 17.55097007751465 17.134971618652344 16.865819931030273 16.655960083007812 16.43219757080078 16.183313369750977 15.952314376831055 15.830891609191895 -9999
-9999 12.585919380187988 12.704928398132324 13.107983589172363 13.849987030029297 14.828435897827148 15.977723121643066 17.190832138061523 17.555898666381836 17.66437339782715 17.699094772338867 17.656696319580078 17.315635681152344 17.12326431274414 16.992305755615234 16.856657028198242 16.706174850463867 16.57665252685547 16.519359588623047 -9999
-9999 13.09659194946289 13.358087539672852 13.939671516418457 14.688766479492188 15.504692077636719 16.311195373535156 16.999649047851562 17.325572967529297 17.45634651184082 17.50223159790039 17.481563568115234 17.37230682373047 17.29104232788086 17.221071243286133 17.140554428100586 17.031848907470703 16.94691276550293 16.93648338317871 -9999
-9999 13.961654663085938 14.28481674194336 14.911331176757812 15.570487976074219 16.156614303588867 16.654773712158203 17.039939880371094 17.269094467163086 17.377046585083008 17.42214584350586 17.430280685424805 17.416067123413086 17.405345916748047 17.39699935913086 17.360637664794922 17.281517028808594 17.174285888671875 17.198265075683594 -9999
-9999 14.816149711608887 15.139181137084961 15.720973014831543 16.25180435180664 16.644798278808594 16.93597984313965 17.152366638183594 17.28595542907715 17.362285614013672 17.40125274658203 17.42701530456543 17.449779510498047 17.476200103759766 17.50998306274414 17.51995277404785 17.490209579467773 17.372190475463867 -9999 -9999
-9999 15.418952941894531 15.73305892944336 16.236083984375 16.655052185058594 16.942710876464844 17.127277374267578 17.249103546142578 17.32169532775879 17.368480682373047 17.396886825561523 17.42722511291504 17.46482276916504 17.508729934692383 17.556211471557617 17.598737716674805 17.62896156311035 17.696819305419922 -9999 -9999
-9999 15.778071403503418 16.142330169677734 16.546615600585938 16.88119125366211 17.123119354248047 17.25389862060547 17.33331871032715 17.37454605102539 17.40144920349121 17.42089080810547 17.447547912597656 17.483890533447266 17.52484703063965 17.5718936920166 17.61832618713379 17.65716552734375 17.68661117553711 17.637451171875 17.649150848388672
-9999 -9999 16.533191680908203 16.768030166625977 17.021257400512695 17.224390029907227 17.343463897705078 17.40755844116211 17.435832977294922 17.450462341308594 17.458101272583008 17.47665786743164 17.504438400268555 17.54688835144043 17.58535385131836 17.6165828704834 17.64959716796875 17.669158935546875 17.66529083251953 17.641202926635742
-9999 -9999 16.78229331970215 16.937820434570312 17.123510360717773 17.303829193115234 17.422334671020508 17.48506736755371 17.50817108154297 17.508451461791992 17.498281478881836 17.50959587097168 17.533687591552734 17.568891525268555 17.59351348876953 17.611188888549805 17.632129669189453 17.641719818115234 17.617820739746094 17.6033878326416
-9999 -9999 -9999 17.04336166381836 17.178970336914062 17.337797164916992 17.45757484436035 17.518842697143555 17.53438949584961 17.526636123657227 17.514997482299805 17.5152587890625 17.53765296936035 17.569849014282227 17.594404220581055 17.601213455200195 17.623748779296875 17.60773468017578 17.59027099609375 17.581907272338867
