ncols         20
nrows         20
xllcorner     0
yllcorner     -3.5992928
cellsize      0.17996463
NODATA_value  -9999
-9999.0 -9999 -9999 -9999 -9999 -9999 -9999 -9999 -9999 -9999 -9999 -9999 -9999 -9999 -9999 -9999 -9999 -9999 -9999 -9999
-9999 -9999 -9999 -9999 -9999 -9999 -9999 -9999 -9999 -9999 -9999 26.574193954467773 26.575048446655273 -9999 -9999 26.710752487182617 26.791709899902344 -9999 -9999 -9999
-9999 -9999 -9999 -9999 26.718650817871094 26.598012924194336 26.423030853271484 26.28968048095703 26.21452522277832 26.192493438720703 26.265708923339844 26.356929779052734 26.327880859375 26.2324275970459 26.300521850585938 26.503643035888672 26.640417098999023 26.68120765686035 -9999 -9999
-9999 -9999 -9999 26.75423812866211 26.68210220336914 26.567108154296875 26.433820724487305 26.3441104888916 26.287803649902344 26.257078170776367 26.245025634765625 26.226207733154297 26.15537452697754 26.091205596923828 26.11456871032715 26.235931396484375 26.357799530029297 26.410659790039062 -9999 -9999
-9999 -9999 -9999 26.694063186645508 26.627885818481445 26.54768943786621 26.5245418548584 26.577390670776367 26.644512176513672 26.6879940032959 26.692230224609375 26.617502212524414 26.441049575805664 26.23710823059082 26.096389770507812 26.059894561767578 26.06526756286621 26.042137145996094 -9999 -9999
-9999 -9999 26.695613861083984 26.628461837768555 26.570375442504883 26.625886917114258 26.89251708984375 27.326723098754883 27.714540481567383 28.001577377319336 28.161354064941406 28.052539825439453 27.64225196838379 27.09267807006836 26.61298370361328 26.256879806518555 26.043184280395508 25.913867950439453 25.856624603271484 -9999
-9999 -9999 26.549102783203125 26.507646560668945 26.53525733947754 26.863794326782227 27.678020477294922 28.946685791015625 29.951730728149414 30.556638717651367 30.75971794128418 30.468963623046875 29.665761947631836 28.710247039794922 27.77935028076172 26.996604919433594 26.47588539123535 26.16819190979004 26.027931213378906 -9999
-9999 -9999 26.267593383789062 26.278749465942383 26.497135162353516 27.262056350708008 28.911884307861328 31.562992095947266 33.04785919189453 33.70557403564453 33.77223205566406 33.197608947753906 31.8363037109375 30.516151428222656 29.31884002685547 28.261764526367188 27.417266845703125 26.860191345214844 26.597652435302734 -9999
-9999 25.91637420654297 25.959503173828125 26.066068649291992 26.538145065307617 27.743629455566406 30.04991912841797 33.17255401611328 34.8820915222168 35.57986831665039 35.592132568359375 34.91807556152344 33.44696044921875 32.032867431640625 30.78650665283203 29.683250427246094 28.74292755126953 28.05011749267578 27.686513900756836 -9999
-9999 25.734375 25.78664779663086 26.042739868164062 26.824481964111328 28.422985076904297 31.068227767944336 34.15309143066406 35.855430603027344 36.5494384765625 36.55588912963867 35.89913558959961 34.49586486816406 33.137474060058594 31.960796356201172 30.944772720336914 30.07757568359375 29.41545295715332 29.051090240478516 -9999
-9999 25.638553619384766 25.81232261657715 26.32838249206543 27.44205665588379 29.33580780029297 31.951204299926758 34.74488830566406 36.304725646972656 36.95847702026367 36.98381042480469 36.399253845214844 35.11625671386719 33.874752044677734 32.808837890625 31.908193588256836 31.161277770996094 30.599916458129883 30.28619956970215 -9999
-9999 25.879505157470703 26.212688446044922 26.99566650390625 28.342830657958984 30.258079528808594 32.56770324707031 34.904388427734375 36.25299835205078 36.86295700073242 36.937660217285156 36.48422622680664 35.41295623779297 34.36959457397461 33.45075225830078 32.64857864379883 31.973705291748047 31.472307205200195 31.187419891357422 -9999
-9999 26.590803146362305 27.057233810424805 28.030014038085938 29.411190032958984 31.065898895263672 32.84442901611328 34.5051383972168 35.622859954833984 36.21791458129883 36.38264083862305 36.13151168823242 35.5090217590332 34.79917907714844 34.08873748779297 33.39401626586914 32.732601165771484 32.203643798828125 31.85338592529297 -9999
-9999 27.711198806762695 28.247146606445312 29.218151092529297 30.421829223632812 31.722129821777344 33.03188705444336 34.23494338989258 35.15538024902344 35.71443176269531 35.95624923706055 35.91736602783203 35.65296936035156 35.273193359375 34.8201904296875 34.283687591552734 33.68788528442383 33.08553695678711 32.407657623291016 -9999
-9999 28.894044876098633 29.394746780395508 30.229522705078125 31.201738357543945 32.22023391723633 33.23622131347656 34.18693542480469 34.938968658447266 35.46357345581055 35.77164077758789 35.904266357421875 35.897403717041016 35.79019546508789 35.59645080566406 35.29185485839844 34.90427780151367 34.51729965209961 -9999 -9999
-9999 29.80307388305664 30.269359588623047 30.956432342529297 31.754039764404297 32.62477111816406 33.50786209106445 34.30363464355469 34.955604553222656 35.44814682006836 35.79247283935547 36.031517028808594 36.18992614746094 36.27529525756836 36.280494689941406 36.200443267822266 36.073272705078125 36.02409362792969 -9999 -9999
-9999 30.32607650756836 30.887187957763672 31.46595573425293 32.16659927368164 32.997982025146484 33.816951751708984 34.557701110839844 35.163055419921875 35.63101577758789 35.98460006713867 36.27336120605469 36.51552200317383 36.704017639160156 36.827056884765625 36.88161849975586 36.90547180175781 36.99607849121094 37.324058532714844 37.46308517456055
-9999 -9999 31.496747970581055 31.878074645996094 32.491973876953125 33.30326843261719 34.138275146484375 34.88587188720703 35.478553771972656 35.92543029785156 36.26609802246094 36.56324005126953 36.83450698852539 37.077362060546875 37.25353240966797 37.35736083984375 37.42644119262695 37.49248504638672 37.58883285522461 37.61713790893555
-9999 -9999 31.780860900878906 32.15666580200195 32.73344802856445 33.55455017089844 34.43429183959961 35.210140228271484 35.803951263427734 36.22744369506836 36.537757873535156 36.823646545410156 37.10250473022461 37.361568450927734 37.55227279663086 37.66956329345703 37.74190902709961 37.770843505859375 37.762508392333984 37.75242614746094
-9999 -9999 -9999 32.40835189819336 32.89946365356445 33.69862365722656 34.60103225708008 35.39173126220703 35.981788635253906 36.38923263549805 36.68654251098633 36.955322265625 37.23489761352539 37.50104904174805 37.70482635498047 37.82496643066406 37.904022216796875 37.89680099487305 37.86575698852539 37.84638595581055
