ncols         20
nrows         20
xllcorner     0
yllcorner     -3.5992928
cellsize      0.17996463
NODATA_value  -9999
-9999.0 -9999 -9999 -9999 -9999 -9999 -9999 -9999 -9999 -9999 -9999 -9999 -9999 -9999 -9999 -9999 -9999 -9999 -9999 -9999
-9999 -9999 -9999 -9999 -9999 -9999 -9999 -9999 -9999 -9999 -9999 0.018967807292938232 0.0189676396548748 -9999 -9999 0.019068043678998947 0.01907533034682274 -9999 -9999 -9999
-9999 -9999 -9999 -9999 0.019081946462392807 0.0190421212464571 0.018984239548444748 0.018915215507149696 0.018848678097128868 0.018798911944031715 0.01877821795642376 0.03984174132347107 0.03984186798334122 0.018780507147312164 0.018808942288160324 0.040022075176239014 0.04007001966238022 0.018907859921455383 -9999 -9999
-9999 -9999 -9999 0.018974147737026215 0.040157631039619446 0.08350347727537155 0.083224356174469 0.0828704982995987 0.08252440392971039 0.0822535902261734 0.0821024477481842 0.09886500984430313 0.09885501861572266 0.08206895738840103 0.0821862518787384 0.0992550179362297 0.08259724825620651 0.018736017867922783 -9999 -9999
-9999 -9999 -9999 0.018827274441719055 0.08297449350357056 0.1198180615901947 0.11931751668453217 0.11869525164365768 0.11809942871332169 0.1176338642835617 0.11735767126083374 0.11729932576417923 0.11727751791477203 0.11727689951658249 0.11745377629995346 0.11774756759405136 0.08150655031204224 0.018447138369083405 -9999 -9999
-9999 -9999 0.018554991111159325 0.03934741020202637 0.09875968843698502 0.11835305392742157 0.11766673624515533 0.1168685033917427 0.11613888293504715 0.11559733748435974 0.11526473611593246 0.11511974781751633 0.11508682370185852 0.11514993011951447 0.11533975601196289 0.11557416617870331 0.09617473185062408 0.038146138191223145 0.01790650188922882 -9999
-9999 -9999 0.01837555505335331 0.08091502636671066 0.11690923571586609 0.11633802950382233 0.11540225148200989 0.11439315229654312 0.1135425865650177 0.11293613910675049 0.11256011575460434 0.11237792670726776 0.11231865733861923 0.11237377673387527 0.11256878823041916 0.11283767968416214 0.11292577534914017 0.07786110788583755 0.017654016613960266 -9999
-9999 -9999 0.018103836104273796 0.07974771410226822 0.1148875430226326 0.11400007456541061 0.11282715201377869 0.11174213886260986 0.11085072159767151 0.11018902063369751 0.10974224656820297 0.10948130488395691 0.10936480760574341 0.1093788892030716 0.10953032970428467 0.10981263220310211 0.11011961102485657 0.07622150331735611 0.017291773110628128 -9999
-9999 0.017720626667141914 0.03757844865322113 0.09421959519386292 0.11262217164039612 0.11151144653558731 0.11023345589637756 0.10910139977931976 0.10817014425992966 0.10745689272880554 0.10694465041160583 0.10661549866199493 0.10644345730543137 0.10641169548034668 0.10651340335607529 0.10673172026872635 0.10701657831668854 0.07416760176420212 0.01684499904513359 -9999
-9999 0.01753992773592472 0.07708469033241272 0.11116993427276611 0.11033027619123459 0.10900455713272095 0.1076778694987297 0.10651475936174393 0.1055508479475975 0.10478977859020233 0.10421702265739441 0.10382620990276337 0.10360107570886612 0.10352515429258347 0.10358300805091858 0.10375139862298965 0.10397812724113464 0.07203206419944763 0.01636597327888012 -9999
-9999 0.01729249581694603 0.07593906670808792 0.10914178192615509 0.10800634324550629 0.10653777420520782 0.10518281161785126 0.10400290787220001 0.1030120998620987 0.10220833867788315 0.10158345848321915 0.10113923996686935 0.10086611658334732 0.10074824839830399 0.1007709950208664 0.1009145975112915 0.10113135725259781 0.07005627453327179 0.01590922847390175 -9999
-9999 0.016990473493933678 0.07452138513326645 0.1068967804312706 0.10560549050569534 0.10411479324102402 0.10276126861572266 0.10157691687345505 0.10056473314762115 0.09972506761550903 0.09905572980642319 0.0985645204782486 0.09824632108211517 0.09808553010225296 0.09807693958282471 0.0982234925031662 0.09849967062473297 0.06831234693527222 0.015511560253798962 -9999
-9999 0.01665516011416912 0.07296380400657654 0.1045231968164444 0.10317064076662064 0.10174865275621414 0.10043193399906158 0.0992569774389267 0.09823201596736908 0.09736461192369461 0.09665476530790329 0.09611514210700989 0.09574165940284729 0.09552358835935593 0.09547047317028046 0.09562023729085922 0.09607662260532379 0.0668945163488388 0.015191157348453999 -9999
-9999 0.016311021521687508 0.07137994468212128 0.10215074568986893 0.1008361354470253 0.09949632734060287 0.09822984039783478 0.09707561135292053 0.0960494801402092 0.09516765922307968 0.0944271981716156 0.09383495897054672 0.09338924288749695 0.09308493137359619 0.09293552488088608 0.09297633171081543 0.07733092457056046 0.03125216066837311 0.014953402802348137 -9999
-9999 0.015988212078809738 0.06990701705217361 0.09992799162864685 0.09867266565561295 0.09740250557661057 0.09619069844484329 0.0950704962015152 0.09406591206789017 0.09318366646766663 0.09241918474435806 0.09177327901124954 0.09124322980642319 0.09082852303981781 0.09053919464349747 0.09038776159286499 0.06243005394935608 0.014151204377412796 -9999 -9999
-9999 0.015720773488283157 0.06832808256149292 0.0979713648557663 0.09669692814350128 0.09549424052238464 0.09434998780488968 0.09328742325305939 0.0923193171620369 0.09145072102546692 0.09067291766405106 0.08998004347085953 0.08936722576618195 0.08883396536111832 0.08838809281587601 0.08803404867649078 0.06023614853620529 0.013630307279527187 -9999 -9999
-9999 0.015532724559307098 0.03235526755452156 0.0795343741774559 0.09485029429197311 0.09379477053880692 0.09275518357753754 0.09176559746265411 0.09084556251764297 0.08999970555305481 0.08921461552381516 0.08848412334918976 0.08780080080032349 0.08716047555208206 0.08655904978513718 0.08597300201654434 0.07060758024454117 0.027757925912737846 0.012791692279279232 0.01266175601631403
-9999 -9999 0.014909381978213787 0.06482686847448349 0.09333150833845139 0.09238837659358978 0.09145957976579666 0.09054983407258987 0.0896817147731781 0.08886021375656128 0.08807462453842163 0.08731909841299057 0.08658509701490402 0.08586480468511581 0.08514510840177536 0.08437950909137726 0.08344116806983948 0.06835256516933441 0.05602967366576195 0.05567939952015877
-9999 -9999 0.014532441273331642 0.0308405552059412 0.07627572864294052 0.09129653871059418 0.09051559865474701 0.08968714624643326 0.08886554092168808 0.08806698769330978 0.08728612214326859 0.08651752024888992 0.0857531875371933 0.08498679101467133 0.0842098519206047 0.08339754492044449 0.08251267671585083 0.08156301081180573 0.08081359416246414 0.08042467385530472
-9999 -9999 -9999 0.014209491200745106 0.06271600723266602 0.09068693965673447 0.09000861644744873 0.08923323452472687 0.08844015002250671 0.08765535801649094 0.08687899261713028 0.08610613644123077 0.08532844483852386 0.08454188704490662 0.08374326676130295 0.08292674273252487 0.0820915699005127 0.08129356801509857 0.08067025989294052 0.08033405989408493
