ncols         20
nrows         20
xllcorner     0
yllcorner     -3.5992928
cellsize      0.17996463
NODATA_value  -9999
-9999.0 -9999 -9999 -9999 -9999 -9999 -9999 -9999 -9999 -9999 -9999 -9999 -9999 -9999 -9999 -9999 -9999 -9999 -9999 -9999
-9999 -9999 -9999 -9999 -9999 -9999 -9999 -9999 -9999 -9999 -9999 0.09641319513320923 0.0964728444814682 -9999 -9999 0.09726927429437637 0.0973379835486412 -9999 -9999 -9999
-9999 -9999 -9999 -9999 0.0959123745560646 0.09599464386701584 0.09614616632461548 0.09633328020572662 0.09653264284133911 0.0967196375131607 0.09686718881130219 0.0895787701010704 0.08974956721067429 0.09750888496637344 0.09774075448513031 0.09042388200759888 0.09062115848064423 0.09840171784162521 -9999 -9999
-9999 -9999 -9999 0.09630042314529419 0.08901455998420715 0.07589007169008255 0.0760432556271553 0.07622532546520233 0.07642228901386261 0.07661823183298111 0.07680598646402359 0.07113706320524216 0.07131605595350266 0.07740861177444458 0.07762035727500916 0.07194355875253677 0.07808703184127808 0.09935677796602249 -9999 -9999
-9999 -9999 -9999 0.09672848135232925 0.07626701891422272 0.055675387382507324 0.05146845057606697 0.051640331745147705 0.05182923749089241 0.05202515795826912 0.052220094949007034 0.04848047345876694 0.048644017428159714 0.05276813730597496 0.052965059876441956 0.05322461202740669 0.07949165999889374 0.1010524183511734 -9999 -9999
-9999 -9999 0.09754480421543121 0.09009506553411484 0.07107825577259064 0.04795585572719574 0.02979407086968422 0.029928408563137054 0.030085157603025436 0.030252384021878242 0.03042006678879261 0.028200216591358185 0.028341367840766907 0.03089759312570095 0.031090091913938522 0.05049595236778259 0.07524015009403229 0.09585016965866089 0.10471756011247635 -9999
-9999 -9999 0.0980878695845604 0.07737021148204803 0.056574419140815735 0.03825198858976364 0.021917954087257385 0.014838012866675854 0.01494559831917286 0.015062564052641392 0.015181530267000198 0.014117458835244179 0.014231348410248756 0.015566970221698284 0.02334650605916977 0.04111985117197037 0.06111804023385048 0.0838652104139328 0.1066291332244873 -9999
-9999 -9999 0.09892243146896362 0.07814240455627441 0.052777249366045 0.030448896810412407 0.015001191757619381 0.00737979868426919 0.0063628870993852615 0.006431857123970985 0.006503729615360498 0.0060747223906219006 0.006160303018987179 0.007952651008963585 0.016441646963357925 0.03358645737171173 0.058343008160591125 0.08645559102296829 0.10950277745723724 -9999
-9999 0.10023069381713867 0.09251239150762558 0.07309653609991074 0.04949798434972763 0.028528520837426186 0.014100361615419388 0.005954639986157417 0.002333572367206216 0.0023735403083264828 0.002413554582744837 0.0022595087066292763 0.002512862905859947 0.007165820337831974 0.01718653365969658 0.034936029464006424 0.06046084687113762 0.08933619409799576 0.1129477322101593 -9999
-9999 0.10111476480960846 0.07981816679239273 0.058487553149461746 0.03969554230570793 0.023006537929177284 0.011368164792656898 0.0048112040385603905 0.0017709964886307716 0.001171643496491015 0.001201300765387714 0.0012236987240612507 0.002660250524058938 0.007509089075028896 0.017907653003931046 0.03628121316432953 0.06263827532529831 0.09238801896572113 0.11668382585048676 -9999
-9999 0.10252043604850769 0.0810965821146965 0.05492900311946869 0.03183242306113243 0.015775851905345917 0.007816899567842484 0.0033367853611707687 0.0012364417780190706 0.0012318136868998408 0.0012666196562349796 0.0012901972513645887 0.0027921858709305525 0.007833844982087612 0.01860862411558628 0.03760819882154465 0.06481583416461945 0.0954655110836029 0.12045995146036148 -9999
-9999 0.10433180630207062 0.08262816071510315 0.05608021095395088 0.03257979080080986 0.016185816377401352 0.006877826526761055 0.0025161264929920435 0.0012339429231360555 0.0012844364391639829 0.0013230418553575873 0.0014235321432352066 0.004055848810821772 0.00962059386074543 0.019297711551189423 0.03891337662935257 0.06695164740085602 0.09844768047332764 0.12403959035873413 -9999
-9999 0.10645779222249985 0.08438201248645782 0.05735272169113159 0.03337302803993225 0.016718396916985512 0.0071289679035544395 0.0026191379874944687 0.0012746891006827354 0.001328200101852417 0.0013701473362743855 0.0021998516749590635 0.006246794946491718 0.01477439422160387 0.02989359013736248 0.051271550357341766 0.07491428405046463 0.10128121823072433 0.1271585375070572 -9999
-9999 0.10876106470823288 0.08626926690340042 0.05893438309431076 0.03437582775950432 0.017146704718470573 0.007318461779505014 0.0026884442195296288 0.0013074495363980532 0.001362441573292017 0.0014055621577426791 0.0028622017707675695 0.008111495524644852 0.01928320899605751 0.038898419588804245 0.06674901396036148 0.09776950627565384 0.1222270131111145 0.12939542531967163 -9999
-9999 0.11103963851928711 0.08816125988960266 0.06029098853468895 0.03519928827881813 0.017577124759554863 0.008788248524069786 0.0037835687398910522 0.0014038553927093744 0.0013874552678316832 0.0014313641004264355 0.0031669584568589926 0.008934129029512405 0.021257204934954643 0.04295480623841286 0.07392897456884384 0.108322873711586 0.13638871908187866 -9999 -9999
-9999 0.11305142939090729 0.09019801765680313 0.06658503413200378 0.045677702873945236 0.026750808581709862 0.013429869897663593 0.005737493745982647 0.002297972561791539 0.0014032140607014298 0.0014494418865069747 0.003207187168300152 0.009054337628185749 0.021565629169344902 0.0436396524310112 0.07524848729372025 0.11082427203655243 0.13957054913043976 -9999 -9999
-9999 0.11448510736227036 0.10764377564191818 0.08612918108701706 0.058961957693099976 0.03452974185347557 0.018712997436523438 0.009353788569569588 0.004022579174488783 0.00148741714656353 0.0014610221842303872 0.002976112999022007 0.008452686481177807 0.020158512517809868 0.04083965718746185 0.07048897445201874 0.10408937931060791 0.13193321228027344 0.14386166632175446 0.14427976310253143
-9999 -9999 0.11874525249004364 0.0948241800069809 0.07001832127571106 0.04800351336598396 0.028081120923161507 0.014088760130107403 0.006016476545482874 0.002232854487374425 0.0014669494703412056 0.0023582701105624437 0.0067201335914433 0.016095677390694618 0.03256470710039139 0.056388009339571 0.08332385867834091 0.10546983778476715 0.11426488310098648 0.11439099907875061
-9999 -9999 0.12010584771633148 0.11227825284004211 0.08965879678726196 0.06130720302462578 0.03586895018815994 0.01792059652507305 0.007659698370844126 0.0028322776779532433 0.0014696437865495682 0.0015904783504083753 0.004545541014522314 0.010869031772017479 0.0221592728048563 0.038226138800382614 0.056778375059366226 0.07180564105510712 0.07754656672477722 0.07754480838775635
-9999 -9999 -9999 0.12269452214241028 0.0977221131324768 0.06673599779605865 0.03897903487086296 0.019456155598163605 0.008309198543429375 0.0030803862027823925 0.0014710384421050549 0.0015114597044885159 0.0026190392673015594 0.00623915484175086 0.01276162639260292 0.022035008296370506 0.032798733562231064 0.041320886462926865 0.0447395034134388 0.04471556469798088
