ncols         20
nrows         20
xllcorner     0
yllcorner     -3.5992928
cellsize      0.17996463
NODATA_value  -9999
-9999.0 -9999 -9999 -9999 -9999 -9999 -9999 -9999 -9999 -9999 -9999 -9999 -9999 -9999 -9999 -9999 -9999 -9999 -9999 -9999
-9999 -9999 -9999 -9999 -9999 -9999 -9999 -9999 -9999 -9999 -9999 27.329843521118164 27.327129364013672 -9999 -9999 27.304826736450195 27.36542320251465 -9999 -9999 -9999
-9999 -9999 -9999 -9999 27.366518020629883 27.287914276123047 27.167293548583984 27.082077026367188 27.046627044677734 27.053081512451172 27.131166458129883 27.193939208984375 27.15717887878418 27.063501358032227 27.081390380859375 27.187297821044922 27.2634334564209 27.27945327758789 -9999 -9999
-9999 -9999 -9999 27.38736915588379 27.354110717773438 27.30044174194336 27.228599548339844 27.18282699584961 27.173973083496094 27.187023162841797 27.204957962036133 27.200580596923828 27.139400482177734 27.061532974243164 27.024131774902344 27.051401138305664 27.074996948242188 27.068439483642578 -9999 -9999
-9999 -9999 -9999 27.371870040893555 27.370637893676758 27.371122360229492 27.40331268310547 27.46843910217285 27.545181274414062 27.614316940307617 27.656986236572266 27.65183448791504 27.570999145507812 27.4320068359375 27.261226654052734 27.09727668762207 26.93000030517578 26.790977478027344 -9999 -9999
-9999 -9999 27.368833541870117 27.371685028076172 27.422626495361328 27.556941986083984 27.803020477294922 28.039138793945312 28.262710571289062 28.467126846313477 28.609704971313477 28.653160095214844 28.561695098876953 28.334678649902344 27.98872184753418 27.567684173583984 27.096187591552734 26.746719360351562 26.58060646057129 -9999
-9999 -9999 27.288204193115234 27.364978790283203 27.52268409729004 27.831462860107422 28.237613677978516 28.66400909423828 29.08167266845703 29.446958541870117 29.689411163330078 29.773862838745117 29.688920974731445 29.416152954101562 28.93392562866211 28.337982177734375 27.660017013549805 27.12578010559082 26.841012954711914 -9999
-9999 -9999 27.076934814453125 27.278854370117188 27.617576599121094 28.101938247680664 28.687801361083984 29.316118240356445 29.911596298217773 30.387920379638672 30.68446159362793 30.78843879699707 30.718311309814453 30.463109970092773 29.98904037475586 29.33367919921875 28.587255477905273 27.909631729125977 27.51434326171875 -9999
-9999 26.4356632232666 26.733484268188477 27.177343368530273 27.718095779418945 28.415874481201172 29.21687889099121 30.016645431518555 30.705881118774414 31.209651947021484 31.510570526123047 31.61924934387207 31.56019401550293 31.33914566040039 30.92900276184082 30.33373260498047 29.66706085205078 29.016498565673828 28.581031799316406 -9999
-9999 26.1780948638916 26.489913940429688 27.12462043762207 27.938770294189453 28.888397216796875 29.870275497436523 30.74637222290039 31.424257278442383 31.887542724609375 32.15983581542969 32.258209228515625 32.20656967163086 32.024024963378906 31.704833984375 31.242265701293945 30.722980499267578 30.18745231628418 29.813663482666016 -9999
-9999 25.936729431152344 26.37273406982422 27.280467987060547 28.374210357666016 29.523698806762695 30.586891174316406 31.44013214111328 32.05097961425781 32.454505920410156 32.685569763183594 32.75938034057617 32.69960403442383 32.55366134643555 32.3288459777832 32.00867462158203 31.63656997680664 31.243392944335938 30.976158142089844 -9999
-9999 26.00291633605957 26.604991912841797 27.745872497558594 29.026931762695312 30.254423141479492 31.293176651000977 32.07426071166992 32.62495040893555 32.9931526184082 33.20059585571289 33.249874114990234 33.16352081298828 33.0434684753418 32.89735794067383 32.66672897338867 32.40618896484375 32.12474822998047 31.9318790435791 -9999
-9999 26.58854103088379 27.291528701782227 28.547195434570312 29.86492156982422 31.033763885498047 31.967700958251953 32.667545318603516 33.18732452392578 33.552154541015625 33.779300689697266 33.847869873046875 33.79145050048828 33.712608337402344 33.60627746582031 33.44609832763672 33.1897087097168 32.910648345947266 32.69097900390625 -9999
-9999 27.58875846862793 28.319042205810547 29.55344581604004 30.779125213623047 31.80665397644043 32.61286926269531 33.24355697631836 33.74723815917969 34.10357666015625 34.341522216796875 34.4716796875 34.513328552246094 34.52771759033203 34.49431610107422 34.37866973876953 34.13187789916992 33.77751922607422 33.287322998046875 -9999
-9999 28.692907333374023 29.39908790588379 30.534744262695312 31.625164031982422 32.52212142944336 33.23461151123047 33.813621520996094 34.253700256347656 34.5833740234375 34.83076095581055 35.03623580932617 35.208377838134766 35.34663772583008 35.412723541259766 35.38493728637695 35.250526428222656 35.0258674621582 -9999 -9999
-9999 29.607955932617188 30.31191635131836 31.342424392700195 32.3226318359375 33.152549743652344 33.82460021972656 34.335174560546875 34.71294403076172 34.99607467651367 35.228267669677734 35.48149490356445 35.753562927246094 36.01206588745117 36.18730163574219 36.28338623046875 36.31358337402344 36.35151290893555 -9999 -9999
-9999 30.19452476501465 31.05780601501465 31.980937957763672 32.88059616088867 33.69914245605469 34.33750915527344 34.81727981567383 35.152427673339844 35.399131774902344 35.634193420410156 35.91160583496094 36.227325439453125 36.540008544921875 36.78589630126953 36.9571418762207 37.07815933227539 37.2222900390625 37.54280090332031 37.68484115600586
-9999 -9999 31.92738151550293 32.54655838012695 33.32708740234375 34.116539001464844 34.767333984375 35.251495361328125 35.57026672363281 35.8117561340332 36.04096984863281 36.31543731689453 36.632049560546875 36.95952224731445 37.22582244873047 37.41347885131836 37.55194854736328 37.66288375854492 37.77738952636719 37.812828063964844
-9999 -9999 32.40770721435547 32.96846389770508 33.661624908447266 34.432273864746094 35.11061477661133 35.62105941772461 35.947174072265625 36.17900085449219 36.38526916503906 36.643882751464844 36.951934814453125 37.272010803222656 37.53065490722656 37.7112922668457 37.837501525878906 37.9050178527832 37.917144775390625 37.915557861328125
-9999 -9999 -9999 33.34121322631836 33.88762664794922 34.60845184326172 35.297096252441406 35.82048416137695 36.14730453491211 36.3707275390625 36.56798553466797 36.80690002441406 37.10810089111328 37.42441940307617 37.685340881347656 37.8582878112793 37.98368835449219 38.00889205932617 37.996925354003906 37.98596954345703
