ncols         20
nrows         20
xllcorner     0
yllcorner     -3.5992928
cellsize      0.17996463
NODATA_value  -9999
-9999.0 -9999 -9999 -9999 -9999 -9999 -9999 -9999 -9999 -9999 -9999 -9999 -9999 -9999 -9999 -9999 -9999 -9999 -9999 -9999
-9999 -9999 -9999 -9999 -9999 -9999 -9999 -9999 -9999 -9999 -9999 0.01106962375342846 0.010676588863134384 -9999 -9999 0.008978744968771935 0.007904089987277985 -9999 -9999 -9999
-9999 -9999 -9999 -9999 0.011345424689352512 0.01307638082653284 0.016520343720912933 0.019708843901753426 0.02197720855474472 0.02344060316681862 0.019364943727850914 0.016508223488926888 0.01644669473171234 0.016743147745728493 0.013960594311356544 0.01079808734357357 0.008879613131284714 0.007847243919968605 -9999 -9999
-9999 -9999 -9999 0.010569988749921322 0.012227360159158707 0.01472906768321991 0.018786827102303505 0.023344257846474648 0.028787188231945038 0.0337536484003067 0.03710963949561119 0.03669121116399765 0.03543006256222725 0.030316904187202454 0.02360600233078003 0.016916019842028618 0.012515442445874214 0.010459017008543015 -9999 -9999
-9999 -9999 -9999 0.01092391088604927 0.013057934120297432 0.017925472930073738 0.024973023682832718 0.0346534363925457 0.04858465492725372 0.06991180777549744 0.0940844714641571 0.10685662180185318 0.10103903710842133 0.07668166607618332 0.053157564252614975 0.033410146832466125 0.02205285243690014 0.019529037177562714 -9999 -9999
-9999 -9999 0.008339827880263329 0.010789750143885612 0.014788242988288403 0.022138217464089394 0.033320240676403046 0.0509091392159462 0.0839586928486824 0.13828596472740173 0.21065986156463623 0.25311335921287537 0.2471930831670761 0.18651725351810455 0.11865651607513428 0.07019516080617905 0.043675947934389114 0.03488152101635933 0.030073512345552444 -9999
-9999 -9999 0.008761634118855 0.011267581954598427 0.017846407368779182 0.02964850701391697 0.04769466072320938 0.07923576235771179 0.13870371878147125 0.23741203546524048 0.36440038681030273 0.45308783650398254 0.4540664851665497 0.36677086353302 0 0.14980202913284302 0.09077699482440948 0.06188499554991722 0.052009426057338715 -9999
-9999 -9999 0.01062452606856823 0.014861510135233402 0.025922108441591263 0.04552637040615082 0.07885373383760452 0.13510245084762573 0.2247980833053589 0.3574082553386688 0.49872180819511414 0.6090579032897949 0.6306006908416748 0.5564219951629639 0.4269416332244873 0.2876162528991699 0.18486246466636658 0.1246756836771965 0.10357540100812912 -9999
-9999 0.010190587490797043 0.014425587840378284 0.023197825998067856 0.04486376792192459 0.08517222851514816 0.1488223373889923 0.24802376329898834 0.3772636353969574 0.519974946975708 0.6432400941848755 0.7388013601303101 0.7862995266914368 0.753002405166626 0.6595556139945984 0 0.3488835096359253 0.24324962496757507 0.20337606966495514 -9999
-9999 0.0148201584815979 0.021464761346578598 0.04146204888820648 0.08557851612567902 0.16474324464797974 0.2855311632156372 0.44638943672180176 0.6118508577346802 0.7439011335372925 0.831185519695282 0.9081178307533264 0.9655336737632751 0.9807367920875549 0.9288859963417053 0 0.5993597507476807 0.44530755281448364 0.3835724890232086 -9999
-9999 0.027175016701221466 0.03938965126872063 0.07567819207906723 0.14867544174194336 0.27470290660858154 0.46345412731170654 0.6877995729446411 0.8682591319084167 0.9807210564613342 1.057411789894104 1.1399096250534058 1.2378480434417725 1.2835898399353027 1.2470608949661255 1.1433268785476685 0.9373579621315002 0.7512408494949341 0.6682842373847961 -9999
-9999 0.05650336667895317 0.07772313058376312 0.13932988047599792 0.24855464696884155 0.415698379278183 0.6478753089904785 0.8869580030441284 1.0429185628890991 1.1282782554626465 1.2035243511199951 1.3281192779541016 0 0 1.5744925737380981 0 1.3032907247543335 1.117063283920288 1.0230190753936768 -9999
-9999 0.12052398920059204 0.15999923646450043 0.2646467983722687 0.41048550605773926 0.6021333336830139 0.8277170658111572 1.0241341590881348 1.117260217666626 1.1502434015274048 1.2008792161941528 1.3161778450012207 0 0 0 1.528354287147522 1.4500243663787842 1.3620505332946777 1.2704006433486938 -9999
-9999 0.2340652346611023 0.2994981110095978 0.4599173665046692 0.6454684734344482 0.8299962282180786 0.9959002733230591 1.0994194746017456 1.1210678815841675 1.1170154809951782 1.1342276334762573 1.1896919012069702 0 0 0 1.226917028427124 1.2491991519927979 1.3426207304000854 1.2702962160110474 -9999
-9999 0.36978697776794434 0.4577920138835907 0.6649169921875 0.8650518655776978 1.0008997917175293 1.078114628791809 1.1013725996017456 1.0925788879394531 1.0861495733261108 1.097394347190857 1.081066370010376 1.041595697402954 0.9729536175727844 0 0 0.8510869741439819 1.0261651277542114 -9999 -9999
-9999 0.47029808163642883 0.5721688270568848 0.7940919995307922 0.9673112034797668 1.0412163734436035 1.0546921491622925 1.047048568725586 1.0573683977127075 1.0913712978363037 0 0 0 0.7710860371589661 0 0 0.5036723017692566 0 -9999 -9999
-9999 0.5505557656288147 0.6543653011322021 0.8531938791275024 0.988789439201355 1.0043138265609741 0.9761473536491394 0.9595353603363037 0.9977327585220337 0 0 0 0 0.6327660083770752 0.49445462226867676 0.39054128527641296 0.3193955421447754 0.2702364921569824 0 0
-9999 -9999 0.7348122000694275 0.8832302689552307 0.979198694229126 0.9487069249153137 0.8815980553627014 0.8567404747009277 0 0 0 0 0 0 0 0 0 0 0 0
-9999 -9999 0.8368395566940308 0.9133710861206055 0.956543505191803 0.880396842956543 0.7756631970405579 0.725082516670227 0 0 0 0 0 0 0 0 0 0 0 0
-9999 -9999 -9999 0.9245263338088989 0.941289484500885 0.8470209240913391 0.7227195501327515 0.6610456705093384 0 0 0 0 0 0 0 0 0 0 0 0
