ncols         20
nrows         20
xllcorner     0
yllcorner     -3.5992928
cellsize      0.17996463
NODATA_value  -9999
-9999.0 -9999 -9999 -9999 -9999 -9999 -9999 -9999 -9999 -9999 -9999 -9999 -9999 -9999 -9999 -9999 -9999 -9999 -9999 -9999
-9999 -9999 -9999 -9999 -9999 -9999 -9999 -9999 -9999 -9999 -9999 1.1361305713653564 1.1186416149139404 -9999 -9999 1.0765576362609863 1.01211678981781 -9999 -9999 -9999
-9999 -9999 -9999 -9999 1.1576926708221436 1.2323851585388184 1.3645071983337402 1.4647109508514404 1.5235085487365723 1.5601308345794678 1.4203412532806396 1.3348182439804077 1.343621015548706 1.358322024345398 1.2579760551452637 1.1363012790679932 1.038170337677002 0.9677087068557739 -9999 -9999
-9999 -9999 -9999 1.079919695854187 1.1666990518569946 1.266021966934204 1.4011849164962769 1.5258245468139648 1.6599040031433105 1.7750957012176514 1.8558212518692017 1.8599157333374023 1.850256085395813 1.7357393503189087 1.5569517612457275 1.34241783618927 1.1668870449066162 1.0685049295425415 -9999 -9999
-9999 -9999 -9999 1.0512045621871948 1.1403446197509766 1.305307388305664 1.4885807037353516 1.6866645812988281 1.932573676109314 2.275153636932373 2.630869150161743 2.8355679512023926 2.814067840576172 2.509770631790161 2.13405179977417 1.7276148796081543 1.4226150512695312 1.3434900045394897 -9999 -9999
-9999 -9999 0.8258762359619141 0.9629412889480591 1.1095367670059204 1.3023866415023804 1.5046664476394653 1.7360426187515259 2.110443592071533 2.631598472595215 3.2479865550994873 3.652653932571411 3.765606164932251 3.411857843399048 2.812307119369507 2.2293405532836914 1.7887766361236572 1.5993434190750122 1.4343229532241821 -9999
-9999 -9999 0.7930678129196167 0.8924709558486938 1.0786854028701782 1.2906490564346313 1.4677685499191284 1.6492016315460205 1.979641318321228 2.472961187362671 3.0790796279907227 3.6335976123809814 4.059881687164307 3.9696907997131348 3.4786994457244873 2.8094518184661865 2.2620458602905273 1.8991084098815918 1.7383668422698975 -9999
-9999 -9999 0.7832990884780884 0.9019629955291748 1.1123926639556885 1.3081626892089844 1.415510892868042 1.3004443645477295 1.3856018781661987 1.5909730195999146 1.8582351207733154 2.2873783111572266 3.481851577758789 3.897658348083496 3.750260591506958 3.268784284591675 2.754887580871582 2.334853410720825 2.1557443141937256 -9999
-9999 0.6452190279960632 0.7950770258903503 0.9741711020469666 1.2348992824554443 1.4483519792556763 1.4666188955307007 1.1658858060836792 1.1001331806182861 1.1498808860778809 1.2887831926345825 1.6595375537872314 2.8651654720306396 3.5237796306610107 3.7202327251434326 3.527174234390259 3.12099027633667 2.7402546405792236 2.563784122467041 -9999
-9999 0.7219259142875671 0.8608313202857971 1.1345323324203491 1.459108829498291 1.6762290000915527 1.6057262420654297 1.1119126081466675 0.9339905381202698 0.8951484560966492 0.9688965678215027 1.2837152481079102 2.3546271324157715 3.075167655944824 3.449955701828003 3.5120222568511963 3.299872398376465 3.0294876098632812 2.8976078033447266 -9999
-9999 0.8853692412376404 1.041729211807251 1.3597642183303833 1.6950714588165283 1.8818206787109375 1.7286548614501953 1.067351222038269 0.8219472765922546 0.7405222058296204 0.7837166786193848 1.0473719835281372 2.000458240509033 2.6714847087860107 3.0997800827026367 3.296401023864746 3.2888529300689697 3.153306484222412 3.081132411956787 -9999
-9999 1.1598997116088867 1.3249353170394897 1.6681772470474243 1.9772382974624634 2.091595411300659 1.8652700185775757 1.0999162197113037 0.8341614603996277 0.7330634593963623 0.7489723563194275 0.9525613784790039 1.7605646848678589 2.316876173019409 2.7134053707122803 2.975045919418335 3.091048002243042 3.0887277126312256 3.078648328781128 -9999
-9999 1.5573067665100098 1.7445482015609741 2.0977766513824463 2.3189198970794678 2.3372318744659424 2.1056926250457764 1.660090446472168 1.331605315208435 1.148102045059204 1.1217142343521118 1.2664380073547363 1.617605447769165 1.9532376527786255 2.25457763671875 2.520078659057617 2.7280280590057373 2.8439033031463623 2.883312225341797 -9999
-9999 2.0128719806671143 2.1977503299713135 2.516871929168701 2.6392054557800293 2.5314748287200928 2.2456765174865723 1.8669277429580688 1.5415736436843872 1.3301948308944702 1.252267837524414 1.2933963537216187 1.4242353439331055 1.5787599086761475 1.7371656894683838 1.9317076206207275 2.1724307537078857 2.4462385177612305 2.5953667163848877 -9999
-9999 2.337876796722412 2.4810245037078857 2.729198932647705 2.746129274368286 2.5333571434020996 2.2064735889434814 1.8580780029296875 1.5577898025512695 1.3561503887176514 1.2566447257995605 1.2281460762023926 1.2454123497009277 1.282642126083374 1.3222280740737915 1.4043687582015991 1.541426420211792 1.8030346632003784 -9999 -9999
-9999 2.4314777851104736 2.5155723094940186 2.674194574356079 2.603353977203369 2.349362373352051 2.0326128005981445 1.7189786434173584 1.4749668836593628 1.3076398372650146 1.2113747596740723 1.1525002717971802 1.1107702255249023 1.0734803676605225 1.0447136163711548 1.030500888824463 1.044344186782837 0.9669438004493713 -9999 -9999
-9999 2.4696781635284424 2.422231435775757 2.4788482189178467 2.367269992828369 2.107297420501709 1.802083969116211 1.531816840171814 1.3369579315185547 1.2036769390106201 1.1186370849609375 1.049930214881897 0.9839792251586914 0.9241031408309937 0.8636071681976318 0.8092790842056274 0.7660577297210693 0.7145301103591919 0.6827305555343628 0.6156936287879944
-9999 -9999 2.217956066131592 2.2471530437469482 2.1345374584198 1.8774230480194092 1.5856642723083496 1.347107172012329 1.1838257312774658 1.0763661861419678 1.0052287578582764 0.9412842392921448 0.8765794634819031 0.7968668937683105 0.728928804397583 0.6783235669136047 0.6245129704475403 0.5860362648963928 0.5551308989524841 0.5845877528190613
-9999 -9999 2.1666347980499268 2.0826351642608643 1.9509137868881226 1.689769983291626 1.4034271240234375 1.178497076034546 1.030259609222412 0.9436121582984924 0.8996924161911011 0.8431761860847473 0.7769737839698792 0.6980311274528503 0.6398385167121887 0.5989291667938232 0.5609554052352905 0.5400475859642029 0.5796281099319458 0.6018869876861572
-9999 -9999 -9999 1.93930983543396 1.847638487815857 1.5965356826782227 1.3137485980987549 1.0973013639450073 0.9608893394470215 0.8883980512619019 0.8474097847938538 0.8063702583312988 0.7402350902557373 0.662082314491272 0.5982806086540222 0.5721835494041443 0.5278828740119934 0.5596820116043091 0.5945386290550232 0.6138102412223816
