ncols         20
nrows         20
xllcorner     0
yllcorner     -3.5992928
cellsize      0.17996463
NODATA_value  -9999
-9999.0 -9999 -9999 -9999 -9999 -9999 -9999 -9999 -9999 -9999 -9999 -9999 -9999 -9999 -9999 -9999 -9999 -9999 -9999 -9999
-9999 -9999 -9999 -9999 -9999 -9999 -9999 -9999 -9999 -9999 -9999 26.506126403808594 26.506996154785156 -9999 -9999 26.614179611206055 26.693880081176758 -9999 -9999 -9999
-9999 -9999 -9999 -9999 26.551067352294922 26.440528869628906 26.28142547607422 26.16716766357422 26.111515045166016 26.106849670410156 26.19316864013672 26.2896671295166 26.26010513305664 26.159584045410156 26.21910858154297 26.412120819091797 26.543851852416992 26.58245277404785 -9999 -9999
-9999 -9999 -9999 26.5577335357666 26.49983787536621 26.400720596313477 26.28691291809082 26.219045639038086 26.184471130371094 26.172698974609375 26.173925399780273 26.161243438720703 26.08976173400879 26.019136428833008 26.032611846923828 26.144699096679688 26.260494232177734 26.310184478759766 -9999 -9999
-9999 -9999 -9999 26.47863006591797 26.426166534423828 26.365602493286133 26.366838455200195 26.447132110595703 26.540584564208984 26.606367111206055 26.623178482055664 26.551565170288086 26.3721923828125 26.160537719726562 26.007972717285156 25.961978912353516 25.961246490478516 25.933908462524414 -9999 -9999
-9999 -9999 26.420528411865234 26.37688636779785 26.339641571044922 26.42038917541504 26.719594955444336 27.19137191772461 27.613204956054688 27.934770584106445 28.1060848236084 27.98946189880371 27.56614112854004 27.00402069091797 26.50318145751953 26.13824462890625 25.920442581176758 25.78740882873535 25.7249813079834 -9999
-9999 -9999 26.245697021484375 26.218820571899414 26.26743507385254 26.626956939697266 27.48581314086914 28.81097412109375 29.85761833190918 30.48583221435547 30.69220733642578 30.38605499267578 29.554643630981445 28.576501846313477 27.63221549987793 26.837051391601562 26.316307067871094 26.009838104248047 25.869590759277344 -9999
-9999 -9999 25.914709091186523 25.939706802368164 26.180252075195312 26.98320770263672 28.691884994506836 31.411617279052734 32.94998550415039 33.637454986572266 33.7104606628418 33.114540100097656 31.696609497070312 30.3289794921875 29.105606079101562 28.04210090637207 27.203128814697266 26.64699935913086 26.38754653930664 -9999
-9999 25.45671844482422 25.533239364624023 25.660505294799805 26.157554626464844 27.408002853393555 29.784494400024414 33.00511169433594 34.7857666015625 35.520355224609375 35.53905487060547 34.8339729309082 33.27820587158203 31.786611557006836 30.491275787353516 29.37077522277832 28.436176300048828 27.756568908691406 27.4009952545166 -9999
-9999 25.222841262817383 25.286460876464844 25.556589126586914 26.3623046875 28.009265899658203 30.734159469604492 33.95905303955078 35.75295639038086 36.49028015136719 36.50175094604492 35.8036994934082 34.289703369140625 32.82665252685547 31.57829475402832 30.528606414794922 29.659868240356445 29.01096534729004 28.656110763549805 -9999
-9999 25.040565490722656 25.21525001525879 25.73386573791504 26.86162757873535 28.79055404663086 31.523488998413086 34.50060272216797 36.1711540222168 36.87485122680664 36.90574264526367 36.27324295043945 34.8583869934082 33.49504852294922 32.343353271484375 31.395933151245117 30.63556671142578 30.08024024963379 29.773439407348633 -9999
-9999 25.164295196533203 25.488323211669922 26.254413604736328 27.593021392822266 29.561979293823242 32.010807037353516 34.553245544433594 36.024681091308594 36.69361877441406 36.780792236328125 36.28486251831055 35.08324432373047 33.92448806762695 32.92287063598633 32.06984329223633 31.37183380126953 30.86556625366211 30.581010818481445 -9999
-9999 25.733182907104492 26.182594299316406 27.117324829101562 28.50120735168457 30.214420318603516 32.11627197265625 33.93973159790039 35.18183898925781 35.85198211669922 36.046051025390625 35.7772216796875 35.087493896484375 34.307373046875 33.539913177490234 32.803184509277344 32.11369705200195 31.566356658935547 31.203140258789062 -9999
-9999 26.692222595214844 27.214651107788086 28.1712703704834 29.387874603271484 30.745412826538086 32.15890884399414 33.491920471191406 34.52922821044922 35.17456817626953 35.467891693115234 35.44712448120117 35.17350387573242 34.77499771118164 34.302642822265625 33.745689392089844 33.12464141845703 32.49005126953125 31.761619567871094 -9999
-9999 27.780290603637695 28.273595809936523 29.105024337768555 30.098155975341797 31.173049926757812 32.279510498046875 33.34051513671875 34.201194763183594 34.816959381103516 35.19407653808594 35.37599563598633 35.40313720703125 35.32057571411133 35.14491653442383 34.84809112548828 34.45628356933594 34.055397033691406 -9999 -9999
-9999 28.652462005615234 29.11449432373047 29.802919387817383 30.6296443939209 31.56109046936035 32.5303840637207 33.427940368652344 34.18019104003906 34.76308059692383 35.18568801879883 35.494144439697266 35.714332580566406 35.853973388671875 35.90470886230469 35.859458923339844 35.75648498535156 35.727256774902344 -9999 -9999
-9999 29.16532325744629 29.726537704467773 30.314876556396484 31.051448822021484 31.954116821289062 32.866050720214844 33.707359313964844 34.40781784057617 34.96360397338867 35.39870834350586 35.76509475708008 36.08138656616211 36.33787536621094 36.520263671875 36.624000549316406 36.688873291015625 36.8207893371582 37.213294982910156 37.380828857421875
-9999 -9999 30.34395408630371 30.742841720581055 31.401142120361328 32.29771423339844 33.23699951171875 34.088436126708984 34.77671813964844 35.30927658081055 35.72850036621094 36.10262680053711 36.449676513671875 36.76456069946289 37.002681732177734 37.15704345703125 37.26819610595703 37.36986541748047 37.49871063232422 37.542259216308594
-9999 -9999 30.646631240844727 31.04709243774414 31.673858642578125 32.59056091308594 33.58380126953125 34.47148513793945 35.16322326660156 35.668235778808594 36.050621032714844 36.4091796875 36.76168441772461 37.090816497802734 37.340362548828125 37.50422286987305 37.61396026611328 37.670799255371094 37.68159866333008 37.68103790283203
-9999 -9999 -9999 31.323322296142578 31.86530303955078 32.761138916015625 33.781681060791016 34.68879699707031 35.37662124633789 35.86260223388672 36.228614807128906 36.56605911254883 36.91706466674805 37.25126266479492 37.51179885864258 37.675140380859375 37.78889846801758 37.80419921875 37.7879524230957 37.77603530883789
