ncols         20
nrows         20
xllcorner     0
yllcorner     -3.5992928
cellsize      0.17996463
NODATA_value  -9999
-9999.0 -9999 -9999 -9999 -9999 -9999 -9999 -9999 -9999 -9999 -9999 -9999 -9999 -9999 -9999 -9999 -9999 -9999 -9999 -9999
-9999 -9999 -9999 -9999 -9999 -9999 -9999 -9999 -9999 -9999 -9999 0 0 -9999 -9999 0 0 -9999 -9999 -9999
-9999 -9999 -9999 -9999 0 0 0 0 0 0 0 0 0 0 0 0 0 0 -9999 -9999
-9999 -9999 -9999 0 0 0 0 0 0 0 0 0 0 0 0 0 0 0 -9999 -9999
-9999 -9999 -9999 0 0 0 0 0 0 0 0 0 0 0 0 0 0 0 -9999 -9999
-9999 -9999 0 0 0 0 3.58967661857605 3.3921170234680176 3.2007951736450195 2.9763400554656982 2.7512996196746826 2.648869276046753 2.715282678604126 2.9617063999176025 3.295206069946289 3.6491782665252686 0 0 0 -9999
-9999 -9999 0 0 0 3.647160768508911 3.3429269790649414 3.054415702819824 2.722485303878784 2.342628240585327 1.9998583793640137 1.8256981372833252 1.8738491535186768 2.153526782989502 0.2885149121284485 3.1342523097991943 0 0 0 -9999
-9999 -9999 0 0 3.833228826522827 3.4892566204071045 3.1236133575439453 2.709137439727783 2.2529146671295166 1.8021129369735718 1.4593619108200073 1.2778207063674927 1.295730710029602 1.5197882652282715 1.931682825088501 2.4791698455810547 3.0762887001037598 0 0 -9999
-9999 0 0 4.154236793518066 3.758054733276367 3.317944049835205 2.8070693016052246 2.253847122192383 1.7352001667022705 1.3192472457885742 1.0488981008529663 0.9118483066558838 0.9058064222335815 1.0520341396331787 1.3503694534301758 0.40072396397590637 2.3511593341827393 2.8788938522338867 0 -9999
-9999 0 0 4.198066234588623 3.6373181343078613 3.0021839141845703 2.3259432315826416 1.6905879974365234 1.197691798210144 0.8787562251091003 0.7063984274864197 0.6227872967720032 0.6189990639686584 0.6984640955924988 0.8897679448127747 0.26797986030578613 1.649196743965149 2.105367422103882 0 -9999
-9999 0 0 4.140805721282959 3.379693031311035 2.5873923301696777 1.810939073562622 1.1663833856582642 0.7501657009124756 0.5249568819999695 0.41724780201911926 0.3729265332221985 0.3712860643863678 0.41494959592819214 0.5223228931427002 0.7224556803703308 1.0183682441711426 0 0 -9999
-9999 0 0 3.8650734424591064 2.965376615524292 2.119136333465576 1.35586416721344 0.7848486304283142 0.4553331732749939 0.2909435033798218 0.2192430943250656 0.1889823079109192 0.08263465762138367 0.11239561438560486 0.24940170347690582 0.07808727771043777 0.5245987772941589 0 0 -9999
-9999 0 0 3.286834239959717 2.3760671615600586 1.5982351303100586 0.9627490043640137 0.5158705115318298 0.2707512378692627 0.15992054343223572 0.10373415052890778 0.08181335777044296 0.049478720873594284 0.06817716360092163 0.062127839773893356 0.13062036037445068 0.21408918499946594 0 0 -9999
-9999 0 0 2.503833055496216 1.6727741956710815 1.05705988407135 0.610363781452179 0.3178764283657074 0.15543483197689056 0.08721976727247238 0.05535599961876869 0.040395285934209824 0.014744466170668602 0.024207085371017456 0.02223319187760353 0.04304080083966255 0.06598003953695297 0 0 -9999
-9999 0 0 1.7851325273513794 1.0733271837234497 0.6274134516716003 0.34856146574020386 0.1764468103647232 0.09258750081062317 0.05301482602953911 0.033940643072128296 0.023665282875299454 0.01816895231604576 0.015588777139782906 0.009713767096400261 0.008830403909087181 0.019949644804000854 0 -9999 -9999
-9999 0 0 1.314135193824768 0.7162323594093323 0.3751101493835449 0.19417335093021393 0.10230637341737747 0.058017730712890625 0.035146769136190414 0.015523807145655155 0.01269974373281002 0.001453713164664805 0.014329052530229092 0.00707160634920001 0.007831789553165436 0.019255444407463074 0.002934294519945979 -9999 -9999
-9999 0 0 1.0357993841171265 0.5234901905059814 0.23500123620033264 0.11744963377714157 0.062232907861471176 0.0365622378885746 0.015457387082278728 0.014228444546461105 0.014171304181218147 0.011804010719060898 0.01669079251587391 0.018540550023317337 0.020568381994962692 0.02270197495818138 0.025112470611929893 0.020564168691635132 0.03050023876130581
-9999 -9999 0 0.8346569538116455 0.40621575713157654 0.1707453429698944 0.07853720337152481 0.04048294201493263 0.013215006329119205 0.014016360975801945 0.015491042286157608 0.016008801758289337 0.015297011472284794 0.014735314063727856 0.01400821190327406 0.015488374046981335 0.017003070563077927 0.02159680239856243 0.02662372961640358 0.031079083681106567
-9999 -9999 0 0 0.3222615420818329 0.12887468934059143 0.05558700114488602 0.027273595333099365 0.01194101944565773 0.016979791224002838 0.016850143671035767 0.017501873895525932 0.018844302743673325 0.020726826041936874 0.022915935143828392 0.025201892480254173 0.027424080297350883 0.029375867918133736 0.030851196497678757 0.031624507158994675
-9999 -9999 -9999 0 0.2742735743522644 0.1120619848370552 0.0468723326921463 0.02242615632712841 0.012335211969912052 0.017667699605226517 0.0176133643835783 0.018324734643101692 0.01973796635866165 0.02169261872768402 0.023941032588481903 0.026231009513139725 0.028395578265190125 0.030121266841888428 0.0313287153840065 0.03194965422153473
