ncols         20
nrows         20
xllcorner     0
yllcorner     -3.5992928
cellsize      0.17996463
NODATA_value  -9999
-9999.0 -9999 -9999 -9999 -9999 -9999 -9999 -9999 -9999 -9999 -9999 -9999 -9999 -9999 -9999 -9999 -9999 -9999 -9999 -9999
-9999 -9999 -9999 -9999 -9999 -9999 -9999 -9999 -9999 -9999 -9999 1.1122815608978271 1.1108548641204834 -9999 -9999 1.1331332921981812 1.119667887687683 -9999 -9999 -9999
-9999 -9999 -9999 -9999 1.1093186140060425 1.1194061040878296 1.1353880167007446 1.1413463354110718 1.1416593790054321 1.1441993713378906 1.1322487592697144 1.1357837915420532 1.1457598209381104 1.1542205810546875 1.1522972583770752 1.1450097560882568 1.1315587759017944 1.1197254657745361 -9999 -9999
-9999 -9999 -9999 1.1187957525253296 1.1281232833862305 1.1390669345855713 1.1507983207702637 1.1551344394683838 1.1576666831970215 1.158751130104065 1.1629555225372314 1.1700860261917114 1.1797692775726318 1.1852539777755737 1.1891173124313354 1.1822434663772583 1.165071964263916 1.1501421928405762 -9999 -9999
-9999 -9999 -9999 1.1334834098815918 1.1462163925170898 1.1675351858139038 1.178014874458313 1.1778525114059448 1.168980598449707 1.1547820568084717 1.1359508037567139 1.1281588077545166 1.140873908996582 1.1693611145019531 1.1982791423797607 1.210409164428711 1.2032396793365479 1.2039207220077515 -9999 -9999
-9999 -9999 1.1332474946975708 1.150844693183899 1.1726700067520142 1.1913297176361084 1.191331386566162 1.1756274700164795 1.1400160789489746 1.0714616775512695 0.9881047606468201 0.9437283277511597 0.9590086936950684 1.0358498096466064 1.1294342279434204 1.184644341468811 1.212767243385315 1.219677448272705 1.2060129642486572 -9999
-9999 -9999 1.1480375528335571 1.1680887937545776 1.1995859146118164 1.2115458250045776 1.196433186531067 1.155305027961731 1.064836859703064 0.9275000691413879 0.7875260710716248 0.7098732590675354 0.7211853265762329 0.8240243196487427 0 1.098401427268982 1.174257755279541 1.2047306299209595 1.2111270427703857 -9999
-9999 -9999 1.1807732582092285 1.2051938772201538 1.2287025451660156 1.2207002639770508 1.1780498027801514 1.0828578472137451 0.9348379373550415 0.7592942118644714 0.613042414188385 0.5295727252960205 0.5296781659126282 0.6136511564254761 0.7641719579696655 0.9293153882026672 1.058219313621521 1.138851523399353 1.1678247451782227 -9999
-9999 1.190429449081421 1.219403624534607 1.2397798299789429 1.2396641969680786 1.191894769668579 1.0862916707992554 0.9235022068023682 0.7389903664588928 0.5732830166816711 0.45772838592529297 0.3945080041885376 0.38605332374572754 0.44090577960014343 0.5547951459884644 0 0.8710525631904602 0.9879003763198853 1.0432353019714355 -9999
-9999 1.2258902788162231 1.2477046251296997 1.2527954578399658 1.2036713361740112 1.0854144096374512 0.9014050364494324 0.6900486946105957 0.5077304840087891 0.3824995756149292 0.3119862675666809 0.2749774754047394 0.26981714367866516 0.2983992099761963 0.3718266785144806 0 0.6338707804679871 0.7611647844314575 0.826339840888977 -9999
-9999 1.2584748268127441 1.2607468366622925 1.220365285873413 1.115185022354126 0.9300982356071472 0.6918109059333801 0.4653714597225189 0.31049251556396484 0.22470201551914215 0.1830354481935501 0.1649179607629776 0.16256724298000336 0.17764541506767273 0.21737004816532135 0.2914141118526459 0.39208629727363586 0.49990135431289673 0.5572038292884827 -9999
-9999 1.2490804195404053 1.22391939163208 1.1325294971466064 0.9723818302154541 0.7520503401756287 0.5072004795074463 0.3049560487270355 0.18382024765014648 0.12234994024038315 0.09502559900283813 0.0830417051911354 0 0 0.1027701124548912 0 0.2007155865430832 0.2699648141860962 0.3079585134983063 -9999
-9999 1.1660534143447876 1.111325979232788 0.9611549377441406 0.7695640325546265 0.5560498833656311 0.3517684042453766 0.19591660797595978 0.10714428871870041 0.06618734449148178 0.0431741401553154 0.034491509199142456 0 0 0 0.05033133924007416 0.08196930587291718 0.11963869631290436 0.14399650692939758 -9999
-9999 1.012247920036316 0.9235448837280273 0.7286381125450134 0.5305188894271851 0.3578016757965088 0.21736882627010345 0.11803708970546722 0.059012748301029205 0.03503665700554848 0.023515569046139717 0.01799793541431427 0 0 0 0.01802542619407177 0.02603115327656269 0.04257079213857651 0.056760743260383606 -9999
-9999 0.8357614278793335 0.7296954989433289 0.5170271396636963 0.33304905891418457 0.20683448016643524 0.12114819884300232 0.06322146952152252 0.03526937961578369 0.022154804319143295 0.01571492850780487 0.012077352032065392 0.010011519305408001 0.009003843180835247 0 0 0.010444638319313526 0.015297741629183292 -9999 -9999
-9999 0.7062662839889526 0.5917865037918091 0.38197147846221924 0.22016558051109314 0.12160086631774902 0.06538889557123184 0.03693491593003273 0.023218246176838875 0.016008535400032997 0 0 0 0.00993990246206522 0 0 0.012659331783652306 0 -9999 -9999
-9999 0.6118019819259644 0.49067386984825134 0.3048969805240631 0.16154049336910248 0.07465808093547821 0.03991399332880974 0.023592647165060043 0.015958724543452263 0 0 0 0 0.012717748060822487 0.01415314432233572 0.015362809412181377 0.016364216804504395 0.017417961731553078 0 0
-9999 -9999 0.38439080119132996 0.25058695673942566 0.12722061574459076 0.05500677227973938 0.027728799730539322 0.016523350030183792 0 0 0 0 0 0 0 0 0 0 0 0
-9999 -9999 0.27606382966041565 0.19632914662361145 0.10177988559007645 0.04236837849020958 0.02053249068558216 0.012077784165740013 0 0 0 0 0 0 0 0 0 0 0 0
-9999 -9999 -9999 0.16305865347385406 0.08583150058984756 0.03722585737705231 0.017796767875552177 0.010469704866409302 0 0 0 0 0 0 0 0 0 0 0 0
