ncols         20
nrows         20
xllcorner     0
yllcorner     -3.5992928
cellsize      0.17996463
NODATA_value  -9999
-9999.0 -9999 -9999 -9999 -9999 -9999 -9999 -9999 -9999 -9999 -9999 -9999 -9999 -9999 -9999 -9999 -9999 -9999 -9999 -9999
-9999 -9999 -9999 -9999 -9999 -9999 -9999 -9999 -9999 -9999 -9999 0.018434148281812668 0.018438875675201416 -9999 -9999 0.0186003465205431 0.01860875077545643 -9999 -9999 -9999
-9999 -9999 -9999 -9999 0.01857529580593109 0.018532300367951393 0.01846950687468052 0.018394581973552704 0.018323127180337906 0.018272247165441513 0.01825745962560177 0.03875897079706192 0.038787391036748886 0.018315324559807777 0.018363898620009422 0.03909258544445038 0.03914507105946541 0.018476491793990135 -9999 -9999
-9999 -9999 -9999 0.018507802858948708 0.03915012627840042 0.0813831239938736 0.08107662200927734 0.08068295568227768 0.08029872179031372 0.08001301437616348 0.0798933357000351 0.09629303216934204 0.09641032665967941 0.08018264174461365 0.08039923012256622 0.09714998304843903 0.08085446059703827 0.018337376415729523 -9999 -9999
-9999 -9999 -9999 0.018397226929664612 0.08105917274951935 0.11698921024799347 0.11643102765083313 0.115714892745018 0.11502090841531754 0.11450335383415222 0.11427035927772522 0.11435489356517792 0.11455930024385452 0.11481305211782455 0.11516770720481873 0.11553120613098145 0.07997950166463852 0.018103551119565964 -9999 -9999
-9999 -9999 0.018208660185337067 0.03857649862766266 0.09673682600259781 0.11585299670696259 0.1150830015540123 0.1141124814748764 0.1131947934627533 0.1125263124704361 0.11222122609615326 0.11228187382221222 0.1125912070274353 0.11301831901073456 0.11346513777971268 0.11380390077829361 0.09472108632326126 0.03759361058473587 0.01766233704984188 -9999
-9999 -9999 0.01807214505970478 0.07958944141864777 0.11491774767637253 0.11426389962434769 0.11312784999608994 0.11171846091747284 0.11045762896537781 0.10957944393157959 0.1092129796743393 0.10934308171272278 0.10983535647392273 0.11047886312007904 0.11109577119350433 0.1115436777472496 0.1116579920053482 0.07700563222169876 0.017451133579015732 -9999
-9999 -9999 0.01786380261182785 0.07869987189769745 0.11335773020982742 0.11234335601329803 0.11073920130729675 0.10875584185123444 0.10723703354597092 0.10623934864997864 0.10579740256071091 0.10590556263923645 0.10652061551809311 0.10741126537322998 0.10824254155158997 0.10889382660388947 0.10928044468164444 0.0756186842918396 0.017143622040748596 -9999
-9999 0.017571790143847466 0.037247445434331894 0.09337742626667023 0.11157649755477905 0.11024906486272812 0.10825623571872711 0.10598094761371613 0.10425718128681183 0.1031227856874466 0.1025829091668129 0.10262627899646759 0.10321483016014099 0.10412389039993286 0.10509537160396576 0.10591866075992584 0.1064891368150711 0.07382813096046448 0.01675623282790184 -9999
-9999 0.01742926798760891 0.07667350023984909 0.11060922592878342 0.10973593592643738 0.1081109493970871 0.10581724345684052 0.10341323912143707 0.10155804455280304 0.10030306130647659 0.09965172410011292 0.09958802163600922 0.100068598985672 0.10088171064853668 0.10185961425304413 0.1027754545211792 0.10346993803977966 0.07183463871479034 0.016323044896125793 -9999
-9999 0.017235079780220985 0.07577165961265564 0.10900238156318665 0.10785931348800659 0.10600267350673676 0.10351328551769257 0.10108304023742676 0.09915583580732346 0.09780191630125046 0.0970325767993927 0.09683289378881454 0.09716236591339111 0.09783461689949036 0.0987066701054573 0.09963838011026382 0.100413478910923 0.0698051005601883 0.01588110439479351 -9999
-9999 0.0170005951076746 0.0746702179312706 0.10725194960832596 0.10596154630184174 0.10398747026920319 0.10146297514438629 0.09904368966817856 0.09707837551832199 0.09563928097486496 0.09474575519561768 0.0943860113620758 0.09452536702156067 0.09501072019338608 0.09573188424110413 0.09661125391721725 0.0974719449877739 0.06790176779031754 0.015468231402337551 -9999
-9999 0.016744695603847504 0.07348550856113434 0.10545117408037186 0.10409622639417648 0.10210614651441574 0.09966069459915161 0.09731552004814148 0.0953347459435463 0.09381671994924545 0.09279283881187439 0.09225280582904816 0.09215442091226578 0.09240126609802246 0.09291715919971466 0.09367156773805618 0.0946996882557869 0.06629978120326996 0.015116379596292973 -9999
-9999 0.01648753322660923 0.07230834662914276 0.10369043052196503 0.10231621563434601 0.1003718376159668 0.09805713593959808 0.09578432887792587 0.09380806982517242 0.0922299176454544 0.09108445048332214 0.09035945683717728 0.09001707285642624 0.08999240398406982 0.09022641181945801 0.0906817689538002 0.07579628378152847 0.030834300443530083 0.014846318401396275 -9999
-9999 0.01625003293156624 0.07122324407100677 0.10203045606613159 0.10064571350812912 0.09878185391426086 0.09659739583730698 0.09439967572689056 0.09245160222053528 0.09083250910043716 0.0895797461271286 0.08868178725242615 0.08810640126466751 0.08780355006456375 0.08771928399801254 0.08779995143413544 0.060809556394815445 0.01383170671761036 -9999 -9999
-9999 0.016053996980190277 0.06994067132472992 0.10053311288356781 0.09907934069633484 0.09731007367372513 0.09525924921035767 0.09315259009599686 0.09124699234962463 0.08960767090320587 0.08827029913663864 0.08722440153360367 0.08644251525402069 0.08588269352912903 0.08549622446298599 0.08523592352867126 0.058383338153362274 0.013223397545516491 -9999 -9999
-9999 0.01591503992676735 0.03327193111181259 0.08195426315069199 0.0975252240896225 0.0959201455116272 0.09403713047504425 0.09204410016536713 0.09019792824983597 0.08855954557657242 0.08716390281915665 0.08600246906280518 0.08505214005708694 0.08427528291940689 0.083620585501194 0.08302131295204163 0.06814651191234589 0.026739496737718582 0.012276957742869854 0.012134037911891937
-9999 -9999 0.015420617535710335 0.0669933557510376 0.09616991132497787 0.09468594193458557 0.09295791387557983 0.09110291302204132 0.08933115750551224 0.08771209418773651 0.0862843245267868 0.08504294604063034 0.08396949619054794 0.08302993327379227 0.08217404037714005 0.08131682872772217 0.08028929680585861 0.06562721729278564 0.05369199439883232 0.053310833871364594
-9999 -9999 0.015070587396621704 0.03192785382270813 0.07866062223911285 0.09363354742527008 0.09210240840911865 0.0903908833861351 0.08869684487581253 0.08710642158985138 0.08566735684871674 0.08437879383563995 0.08322782814502716 0.08218801021575928 0.08122146874666214 0.08027319610118866 0.07927750051021576 0.07822413742542267 0.0773974359035492 0.07697523385286331
-9999 -9999 -9999 0.01471749134361744 0.06468605995178223 0.09301908314228058 0.09162706881761551 0.0900077223777771 0.0883634090423584 0.08679534494876862 0.08535324037075043 0.08404320478439331 0.08285478502511978 0.08176839351654053 0.08075649291276932 0.07978551834821701 0.07883130759000778 0.07793773710727692 0.07724696397781372 0.07687971740961075
