ncols         20
nrows         20
xllcorner     0
yllcorner     -3.5992928
cellsize      0.17996463
NODATA_value  -9999
-9999.0 -9999 -9999 -9999 -9999 -9999 -9999 -9999 -9999 -9999 -9999 -9999 -9999 -9999 -9999 -9999 -9999 -9999 -9999 -9999
-9999 -9999 -9999 -9999 -9999 -9999 -9999 -9999 -9999 -9999 -9999 26.48129653930664 26.482772827148438 -9999 -9999 26.5976619720459 26.677749633789062 -9999 -9999 -9999
-9999 -9999 -9999 -9999 26.522626876831055 26.41191291809082 26.25250244140625 26.138181686401367 26.083078384399414 26.07938575744629 26.16687774658203 26.265411376953125 26.23820686340332 26.14145851135254 26.203821182250977 26.39830207824707 26.531543731689453 26.572219848632812 -9999 -9999
-9999 -9999 -9999 26.536026000976562 26.476097106933594 26.375816345214844 26.261123657226562 26.193017959594727 26.158689498901367 26.14772605895996 26.150169372558594 26.139774322509766 26.071773529052734 26.00577735900879 26.022899627685547 26.137487411499023 26.255271911621094 26.3063907623291 -9999 -9999
-9999 -9999 -9999 26.46489715576172 26.410659790039062 26.34819221496582 26.348100662231445 26.427433013916016 26.52055549621582 26.586862564086914 26.60597038269043 26.538654327392578 26.364255905151367 26.158544540405273 26.010704040527344 25.967540740966797 25.96900749206543 25.94361114501953 -9999 -9999
-9999 -9999 26.42900848388672 26.378480911254883 26.337350845336914 26.415550231933594 26.712318420410156 27.18144416809082 27.601518630981445 27.92070960998535 28.095985412597656 27.989347457885742 27.575597763061523 27.020652770996094 26.526905059814453 26.164562225341797 25.94866180419922 25.819032669067383 25.76517105102539 -9999
-9999 -9999 26.268489837646484 26.238431930541992 26.283771514892578 26.64021110534668 27.494707107543945 28.813215255737305 29.855865478515625 30.48495101928711 30.69710922241211 30.402671813964844 29.587299346923828 28.621686935424805 27.684219360351562 26.891891479492188 26.371824264526367 26.0659122467041 25.927614212036133 -9999
-9999 -9999 25.962749481201172 25.984355926513672 26.2220401763916 27.021066665649414 28.723190307617188 31.432842254638672 32.961910247802734 33.6455078125 33.721031188964844 33.13764190673828 31.746976852416992 30.40239715576172 29.19232177734375 28.133129119873047 27.29344940185547 26.735206604003906 26.47491455078125 -9999
-9999 25.55585289001465 25.61825180053711 25.739154815673828 26.233118057250977 27.477890014648438 29.84347152709961 33.04154586791992 34.80510330200195 35.53191375732422 35.551944732666016 34.861968994140625 33.34305953979492 31.885217666625977 30.612247467041016 29.501541137695312 28.567583084106445 27.884994506835938 27.527103424072266 -9999
-9999 25.349105834960938 25.41014862060547 25.678083419799805 26.481891632080078 28.12137222290039 30.829185485839844 34.012569427490234 35.77988052368164 36.50584411621094 36.51821517944336 35.83784866333008 34.368385314941406 32.94738006591797 31.72887420654297 30.694997787475586 29.83036231994629 29.1796875 28.82265853881836 -9999
-9999 25.211515426635742 25.389156341552734 25.912368774414062 27.042470932006836 28.965192794799805 31.662185668945312 34.578163146972656 36.21277618408203 36.901145935058594 36.93152618408203 36.317649841308594 34.95268249511719 33.635536193847656 32.51707077026367 31.58890724182129 30.836071014404297 30.281200408935547 29.973180770874023 -9999
-9999 25.393003463745117 25.72313117980957 26.499210357666016 27.84549331665039 29.800065994262695 32.20283126831055 34.672916412353516 36.10166931152344 36.75032424926758 36.83319091796875 36.35258102416992 35.19839859008789 34.081668853759766 33.11029052734375 32.276031494140625 31.587268829345703 31.084041595458984 30.800107955932617 -9999
-9999 26.02692413330078 26.483829498291016 27.43385887145996 28.81912612915039 30.513938903808594 32.37247085571289 34.1368522644043 35.333744049072266 35.97657775878906 36.15941619873047 35.896400451660156 35.23046112060547 34.474998474121094 33.72711944580078 33.00428771972656 32.324180603027344 31.783273696899414 31.425046920776367 -9999
-9999 27.05297088623047 27.57973289489746 28.540063858032227 29.75122833251953 31.08778953552246 32.463050842285156 33.748111724853516 34.74258804321289 35.3568229675293 35.63147735595703 35.60397720336914 35.33348083496094 34.9409294128418 34.47421646118164 33.92250061035156 33.30852127075195 32.68413162231445 31.974445343017578 -9999
-9999 28.174335479736328 28.66736602783203 29.49515724182129 30.477100372314453 31.52988052368164 32.60317611694336 33.624656677246094 34.4472541809082 35.03157424926758 35.38510513305664 35.549922943115234 35.56501770019531 35.47328567504883 35.290321350097656 34.98931884765625 34.59725570678711 34.19927978515625 -9999 -9999
-9999 29.045658111572266 29.503864288330078 30.18758773803711 30.99965476989746 31.908048629760742 32.84764099121094 33.71174240112305 34.43135452270508 34.984954833984375 35.38219451904297 35.667442321777344 35.86655044555664 35.98738479614258 36.02195739746094 35.963924407958984 35.85169219970703 35.81508255004883 -9999 -9999
-9999 29.54784393310547 30.09624671936035 30.67617416381836 31.3990421295166 32.2772102355957 33.16057205200195 33.9720344543457 34.6441764831543 35.17392349243164 35.583534240722656 35.924903869628906 36.216758728027344 36.45041275024414 36.6125373840332 36.699188232421875 36.74953842163086 36.86651611328125 37.23500061035156 37.39070510864258
-9999 -9999 30.683753967285156 31.07509422302246 31.721942901611328 32.592994689941406 33.5032844543457 34.32674026489258 34.98945999145508 35.49775695800781 35.89349365234375 36.24363708496094 36.566322326660156 36.85765075683594 37.07514190673828 37.212337493896484 37.30894470214844 37.39760208129883 37.513214111328125 37.54962158203125
-9999 -9999 30.95992660522461 31.350618362426758 31.9683780670166 32.860740661621094 33.82473373413086 34.68537521362305 35.35202407836914 35.835060119628906 36.196632385253906 36.533016204833984 36.862152099609375 37.16876983642578 37.399112701416016 37.547401428222656 37.644264221191406 37.690513610839844 37.69211959838867 37.686588287353516
-9999 -9999 -9999 31.60652732849121 32.13916778564453 33.015804290771484 34.00859069824219 34.88826370239258 35.551841735839844 36.01725769042969 36.36381912231445 36.68037796020508 37.00897216796875 37.3217658996582 37.564029693603516 37.712974548339844 37.814754486083984 37.82056427001953 37.79668426513672 37.780677795410156
