ncols         20
nrows         20
xllcorner     0
yllcorner     -3.5992928
cellsize      0.17996463
NODATA_value  -9999
-9999.0 -9999 -9999 -9999 -9999 -9999 -9999 -9999 -9999 -9999 -9999 -9999 -9999 -9999 -9999 -9999 -9999 -9999 -9999 -9999
-9999 -9999 -9999 -9999 -9999 -9999 -9999 -9999 -9999 -9999 -9999 0.13596628606319427 0.1352980136871338 -9999 -9999 0.14056411385536194 0.13265855610370636 -9999 -9999 -9999
-9999 -9999 -9999 -9999 0.11847103387117386 0.12707233428955078 0.14338988065719604 0.15849198400974274 0.17104670405387878 0.18227599561214447 0.1722732037305832 0.16630302369594574 0.1730726659297943 0.18383806943893433 0.17449894547462463 0.15709556639194489 0.14509892463684082 0.13937154412269592 -9999 -9999
-9999 -9999 -9999 0.11663632094860077 0.12416907399892807 0.13525167107582092 0.15229909121990204 0.17076243460178375 0.19339925050735474 0.2169107347726822 0.23870854079723358 0.2509080469608307 0.26091429591178894 0.2549578547477722 0.23549194633960724 0.20634618401527405 0.18202795088291168 0.16917768120765686 -9999 -9999
-9999 -9999 -9999 0.12111689895391464 0.13043886423110962 0.14977875351905823 0.1731712818145752 0.20149265229701996 0.24093371629714966 0.30022746324539185 0.37121957540512085 0.42767390608787537 0.45073583722114563 0.42379453778266907 0.3755739629268646 0.3125571012496948 0.26326122879981995 0.25361281633377075 -9999 -9999
-9999 -9999 0.11555126309394836 0.12654611468315125 0.1430964171886444 0.16718129813671112 0.1934698224067688 0.2259252667427063 0.2847689092159271 0.37884610891342163 0.5085920095443726 0.6271789073944092 0.7059699892997742 0.6892186999320984 0.5997385382652283 0.4947693645954132 0.41130125522613525 0.38309362530708313 0.3746029734611511 -9999
-9999 -9999 0.12532778084278107 0.13796508312225342 0.16490986943244934 0.1953217089176178 0.21783602237701416 0.2381129264831543 0.28961601853370667 0.38689908385276794 0.5386976003646851 0.7286643385887146 0.9311604499816895 1.0038840770721436 0.9398547410964966 0.7936436533927917 0.6595163941383362 0.5674931406974792 0.5338048338890076 -9999
-9999 -9999 0.15353937447071075 0.17537379264831543 0.21565544605255127 0.2507476806640625 0.2608279287815094 0.21940617263317108 0.2274634689092636 0.2769136428833008 0.37184977531433105 0.5608863830566406 1.04789137840271 1.303816556930542 1.3402049541473389 1.2179210186004639 1.053039789199829 0.9060633778572083 0.844539225101471 -9999
-9999 0.1868506669998169 0.20820744335651398 0.25118252635002136 0.32091590762138367 0.3774445950984955 0.3707079291343689 0.27063238620758057 0.2459784597158432 0.272289514541626 0.3582960069179535 0.5787885189056396 1.2136409282684326 1.6383568048477173 1.830234408378601 1.7919377088546753 1.6095190048217773 1.4218041896820068 1.3329980373382568 -9999
-9999 0.24752141535282135 0.29094335436820984 0.3901592195034027 0.5175894498825073 0.6117297410964966 0.5907039046287537 0.3948436975479126 0.3343687355518341 0.34422993659973145 0.42830803990364075 0.6809895038604736 1.4548159837722778 2.037179946899414 2.3810007572174072 2.4753851890563965 2.3397409915924072 2.144352674484253 2.045661687850952 -9999
-9999 0.3832058310508728 0.45700353384017944 0.6186447143554688 0.8110705614089966 0.9549909234046936 0.9363723397254944 0.6064480543136597 0.5129088759422302 0.5093389749526978 0.5896216034889221 0.8639436364173889 1.8035774230957031 2.502558708190918 2.975288152694702 3.2016406059265137 3.1985373497009277 3.0469231605529785 2.9594333171844482 -9999
-9999 0.6385707259178162 0.7479736804962158 0.9915758967399597 1.2620304822921753 1.4647489786148071 1.4683811664581299 1.0024458169937134 0.891327977180481 0.8711877465248108 0.930682361125946 1.187579870223999 2.204273223876953 2.915306568145752 3.447439432144165 3.8110036849975586 3.9662463665008545 3.940200090408325 3.9000585079193115 -9999
-9999 1.0759907960891724 1.24850332736969 1.606245756149292 1.944291591644287 2.1998209953308105 2.287510395050049 2.1388795375823975 1.9757401943206787 1.8659799098968506 1.889939785003662 2.109069585800171 2.593785285949707 3.072260856628418 3.5256736278533936 3.943561553955078 4.289022922515869 4.460324287414551 4.483138084411621 -9999
-9999 1.7074787616729736 1.9501711130142212 2.428276777267456 2.831477642059326 3.069692611694336 3.114795207977295 2.9614710807800293 2.7241783142089844 2.53564453125 2.4636549949645996 2.524221420288086 2.698275566101074 2.9159653186798096 3.160221815109253 3.4896152019500732 3.906587600708008 4.353193283081055 4.499401092529297 -9999
-9999 2.373034715652466 2.665623664855957 3.2366247177124023 3.65346360206604 3.79201340675354 3.699841260910034 3.447592258453369 3.149414300918579 2.8990700244903564 2.7416939735412598 2.652137041091919 2.6152920722961426 2.6144139766693115 2.6324779987335205 2.7529566287994385 2.9880778789520264 3.46610951423645 -9999 -9999
-9999 2.866440773010254 3.2044103145599365 3.8079917430877686 4.160440444946289 4.168438911437988 3.9487717151641846 3.622873306274414 3.304579973220825 3.03157377243042 2.8254833221435547 2.640946388244629 2.4642908573150635 2.296330451965332 2.162160634994507 2.075864553451538 2.056377410888672 1.8668431043624878 -9999 -9999
-9999 3.2295641899108887 3.6168911457061768 4.163255214691162 4.423418045043945 4.28702974319458 3.9501240253448486 3.559394359588623 3.222939968109131 2.941180467605591 2.710007429122925 2.4751155376434326 2.229820728302002 2.0039098262786865 1.7943789958953857 1.617006778717041 1.4737732410430908 1.31709623336792 1.190893292427063 1.0453683137893677
-9999 -9999 4.026833534240723 4.406664848327637 4.552776336669922 4.279760837554932 3.8133699893951416 3.3549232482910156 2.992187738418579 2.7088277339935303 2.4761087894439697 2.236572742462158 1.9890949726104736 1.7177098989486694 1.4932159185409546 1.3252215385437012 1.1661434173583984 1.0472420454025269 0.9533239603042603 0.9841687083244324
-9999 -9999 4.4095845222473145 4.590229511260986 4.591978073120117 4.18211555480957 3.596158266067505 3.0671470165252686 2.674710988998413 2.4064700603485107 2.2255921363830566 1.999572992324829 1.7506539821624756 1.4860033988952637 1.2873437404632568 1.1435225009918213 1.0205388069152832 0.9420596957206726 0.9808837175369263 1.0026898384094238
-9999 -9999 -9999 4.664765357971191 4.595626354217529 4.1272358894348145 3.476410388946533 2.916959762573242 2.524264335632324 2.2769243717193604 2.096529483795166 1.9070358276367188 1.6589361429214478 1.3981654644012451 1.1901829242706299 1.0780223608016968 0.9456900358200073 0.9640440344810486 0.9966151118278503 1.0146112442016602
