ncols         20
nrows         20
xllcorner     0
yllcorner     -3.5992928
cellsize      0.17996463
NODATA_value  -9999
-9999.0 -9999 -9999 -9999 -9999 -9999 -9999 -9999 -9999 -9999 -9999 -9999 -9999 -9999 -9999 -9999 -9999 -9999 -9999 -9999
-9999 -9999 -9999 -9999 -9999 -9999 -9999 -9999 -9999 -9999 -9999 0.18631255626678467 0.18340268731117249 -9999 -9999 0.16796329617500305 0.15745654702186584 -9999 -9999 -9999
-9999 -9999 -9999 -9999 0.17081356048583984 0.18548990786075592 0.212637796998024 0.2377353459596634 0.25705686211586 0.2710382044315338 0.25011560320854187 0.2323060929775238 0.23357073962688446 0.23836755752563477 0.2176281362771988 0.1891120970249176 0.17108140885829926 0.1621033251285553 -9999 -9999
-9999 -9999 -9999 0.16743838787078857 0.18029309809207916 0.20050933957099915 0.2313438355922699 0.2645348906517029 0.3016536235809326 0.33462491631507874 0.35786497592926025 0.3605146110057831 0.35722291469573975 0.33194661140441895 0.29263657331466675 0.246405228972435 0.2112814486026764 0.19333702325820923 -9999 -9999
-9999 -9999 -9999 0.17470982670783997 0.19232767820358276 0.22933737933635712 0.2775392532348633 0.33661893010139465 0.4109286665916443 0.5074329972267151 0.6024920344352722 0.652044951915741 0.63922518491745 0.5582327842712402 0.4637608230113983 0.36612218618392944 0.2965332865715027 0.27925920486450195 -9999 -9999
-9999 -9999 0.16201230883598328 0.18185585737228394 0.21473273634910583 0.2683122754096985 0.3385809659957886 0.4322042465209961 0.5742019414901733 0.7597509026527405 0.9604567289352417 1.069151759147644 1.0650122165679932 0.9269593954086304 0.7371603846549988 0.5648089647293091 0.4446447789669037 0.3990549147129059 0.37818092107772827 -9999
-9999 -9999 0.17230260372161865 0.1958988606929779 0.2504872679710388 0.3311511278152466 0.4329908490180969 0.5772224068641663 0.7893999814987183 1.0630544424057007 1.3467097282409668 1.5239651203155518 1.5368613004684448 1.3832464218139648 1.1538456678390503 0.8781471252441406 0.6814970374107361 0.5620965361595154 0.5171223282814026 -9999
-9999 -9999 0.20125433802604675 0.24028560519218445 0.3241085410118103 0.4416089355945587 0.5999175906181335 0.8109150528907776 1.077170491218567 1.39231276512146 1.675913691520691 1.8761476278305054 1.9220454692840576 1.8084582090377808 1.57986319065094 1.2916531562805176 1.0319156646728516 0.8451471924781799 0.7697961926460266 -9999
-9999 0.21471044421195984 0.2513361871242523 0.32236799597740173 0.45938751101493835 0.6517204642295837 0.8881251215934753 1.1804825067520142 1.4930177927017212 1.788337230682373 2.0188608169555664 2.185607671737671 2.267259120941162 2.2215356826782227 2.0735044479370117 1.8436274528503418 1.4963308572769165 1.2466557025909424 1.1384057998657227 -9999
-9999 0.26810452342033386 0.3241465985774994 0.4600278437137604 0.6793610453605652 0.9704934358596802 1.315055251121521 1.6877906322479248 2.018770933151245 2.2620105743408203 2.41764497756958 2.544481039047241 2.6320931911468506 2.653792142868042 2.576148748397827 2.4253594875335693 2.0571842193603516 1.770848035812378 1.6418592929840088 -9999
-9999 0.380707323551178 0.4634001553058624 0.6586422920227051 0.9495887160301208 1.3268457651138306 1.7695810794830322 2.2059881687164307 2.5229861736297607 2.714599609375 2.8395795822143555 2.957364320755005 3.080984354019165 3.135293960571289 3.088529109954834 2.9513168334960938 2.6734697818756104 2.392629384994507 2.255794048309326 -9999
-9999 0.578198254108429 0.6865401268005371 0.9438973069190979 1.2931060791015625 1.7129809856414795 2.186755657196045 2.6065547466278076 2.8641693592071533 3.002821445465088 3.110537052154541 3.261945962905884 3.5139553546905518 3.6100680828094482 3.530916690826416 3.4947686195373535 3.2296535968780518 2.996829032897949 2.8708972930908203 -9999
-9999 0.8888047933578491 1.038657307624817 1.3668044805526733 1.7382584810256958 2.146557092666626 2.559760808944702 2.884436845779419 3.036423921585083 3.0901410579681396 3.152923822402954 3.28250789642334 3.530975818634033 3.631103038787842 3.6303412914276123 3.5155696868896484 3.445284605026245 3.3527653217315674 3.248645067214966 -9999
-9999 1.3005740642547607 1.4894917011260986 1.8777238130569458 2.262080192565918 2.6025452613830566 2.8826799392700195 3.049321174621582 3.0854618549346924 3.074147939682007 3.080810785293579 3.129051923751831 3.2519569396972656 3.265075922012329 3.2254323959350586 3.1396989822387695 3.18902587890625 3.32442045211792 3.2624266147613525 -9999
-9999 1.6982128620147705 1.9069087505340576 2.330462694168091 2.6934165954589844 2.9257266521453857 3.053102970123291 3.088188648223877 3.064990997314453 3.032661199569702 3.016850709915161 2.9640817642211914 2.8824057579040527 2.7666444778442383 2.685986280441284 2.6072425842285156 2.5810861587524414 2.8434767723083496 -9999 -9999
-9999 1.9641884565353394 2.186824083328247 2.607602596282959 2.906496286392212 3.0316803455352783 3.0518417358398438 3.0261459350585938 3.010580062866211 3.0143284797668457 3.048621892929077 2.936434507369995 2.7198941707611084 2.422637939453125 2.236457347869873 2.0518600940704346 1.916898250579834 1.7183141708374023 -9999 -9999
-9999 2.1569857597351074 2.3849129676818848 2.75166392326355 2.981670379638672 3.0081496238708496 2.952228546142578 2.8950884342193604 2.901925802230835 2.9569778442382812 2.923064708709717 2.758302688598633 2.4825644493103027 2.14841365814209 1.8770626783370972 1.6460957527160645 1.4646270275115967 1.3119972944259644 1.2413877248764038 1.105782389640808
-9999 -9999 2.5776290893554688 2.839825391769409 2.9984045028686523 2.9434046745300293 2.8112080097198486 2.724752426147461 2.760282516479492 2.754772901535034 2.685757637023926 2.510371208190918 2.2506496906280518 1.918320894241333 1.6375970840454102 1.4244332313537598 1.2325068712234497 1.1013691425323486 1.0114165544509888 1.0486106872558594
-9999 -9999 2.778801441192627 2.914700984954834 2.98363995552063 2.8467743396759033 2.6380560398101807 2.4976463317871094 2.4907548427581787 2.4655888080596924 2.4270219802856445 2.2590129375457764 2.004150152206421 1.6948573589324951 1.4494285583496094 1.266214370727539 1.1120480298995972 1.0160443782806396 1.0540612936019897 1.0762486457824707
-9999 -9999 -9999 2.948727607727051 2.969432830810547 2.7973906993865967 2.5463814735412598 2.3799684047698975 2.3593902587890625 2.340574264526367 2.2930219173431396 2.1618947982788086 1.9097297191619873 1.6089204549789429 1.3550975322723389 1.2087088823318481 1.0430283546447754 1.0501773357391357 1.0778977870941162 1.0940200090408325
