ncols         20
nrows         20
xllcorner     0
yllcorner     -3.5992928
cellsize      0.17996463
NODATA_value  -9999
-9999.0 -9999 -9999 -9999 -9999 -9999 -9999 -9999 -9999 -9999 -9999 -9999 -9999 -9999 -9999 -9999 -9999 -9999 -9999 -9999
-9999 -9999 -9999 -9999 -9999 -9999 -9999 -9999 -9999 -9999 -9999 0.04004313796758652 0.03835096210241318 -9999 -9999 0.03042687103152275 0.02671513520181179 -9999 -9999 -9999
-9999 -9999 -9999 -9999 0.048260148614645004 0.05488657206296921 0.06763062626123428 0.07808760553598404 0.08395550400018692 0.08641748875379562 0.0692128911614418 0.05786237120628357 0.0563817098736763 0.055461984127759933 0.04544580727815628 0.03522036224603653 0.028762774541974068 0.024915292859077454 -9999 -9999
-9999 -9999 -9999 0.04359537735581398 0.05055809020996094 0.059963811188936234 0.07435519248247147 0.08905429393053055 0.10536262392997742 0.11853700131177902 0.1253606677055359 0.1201314628124237 0.1130221039056778 0.09443416446447372 0.0722464770078659 0.05132068321108818 0.0376754030585289 0.03121229261159897 -9999 -9999
-9999 -9999 -9999 0.04307686537504196 0.05113083869218826 0.06861013919115067 0.09224274754524231 0.1223699152469635 0.16327926516532898 0.2239355742931366 0.28793370723724365 0.3150917887687683 0.28949448466300964 0.21435320377349854 0.14549703896045685 0.09040986746549606 0.05911627411842346 0.05184533819556236 -9999 -9999
-9999 -9999 0.02926531434059143 0.039047226309776306 0.05308498069643974 0.07716060429811478 0.11114675551652908 0.16099730134010315 0.250916451215744 0.390004426240921 0.56352299451828 0.6492092609405518 0.6141055226325989 0.4510011374950409 0.2804943323135376 0.1638607233762741 0.1006135642528534 0.07864563912153244 0.06384047120809555 -9999
-9999 -9999 0.02851971611380577 0.03673955425620079 0.05699102580547333 0.09101647883653641 0.13900411128997803 0.21774505078792572 0.3569883406162262 0.5722620487213135 0.8278985619544983 0.980908215045929 0.9485014081001282 0.7431060671806335 0 0.29280388355255127 0.17664287984371185 0.11957212537527084 0.09886161237955093 -9999
-9999 -9999 0.030311914160847664 0.0420386865735054 0.07114830613136292 0.11914560198783875 0.19479133188724518 0.31194350123405457 0.4832673668861389 0.7160890102386475 0.9379015564918518 1.0855352878570557 1.0791528224945068 0.9227700233459473 0.6912271976470947 0.45910388231277466 0.29588431119918823 0.20049545168876648 0.16661855578422546 -9999
-9999 0.022588787600398064 0.034272775053977966 0.055159538984298706 0.10325942933559418 0.1856166273355484 0.3031795024871826 0.46792688965797424 0.6576310992240906 0.8405330777168274 0.9713999032974243 1.051994800567627 1.0682766437530518 0.9883100986480713 0.8443732261657715 0 0.44665247201919556 0.31701746582984924 0.2676829397678375 -9999
-9999 0.029271764680743217 0.04302646964788437 0.08226355910301208 0.16339312493801117 0.29571840167045593 0.4736868143081665 0.6775597333908081 0.8489888310432434 0.9491637945175171 0.9833697080612183 1.0049854516983032 1.0120435953140259 0.990995466709137 0.9201241135597229 0 0.603706955909729 0.460568904876709 0.4031083285808563 -9999
-9999 0.04559478163719177 0.06602716445922852 0.12514273822307587 0.23603692650794983 0.4067273736000061 0.626179575920105 0.8386510014533997 0.9566981196403503 0.9833744764328003 0.9724336862564087 0.9688809514045715 0.9832463264465332 0.9818901419639587 0.9463728070259094 0.8726004958152771 0.737148106098175 0.6098392009735107 0.5538049936294556 -9999
-9999 0.08010566979646683 0.10957858711481094 0.19319278001785278 0.3278990387916565 0.5067198276519775 0.713405430316925 0.8735871911048889 0.921501636505127 0.9008415937423706 0.8747645020484924 0.8815634250640869 0 0 0.9237024188041687 0 0.8064858913421631 0.718035101890564 0.6749541163444519 -9999
-9999 0.1469200998544693 0.19308926165103912 0.3090488314628601 0.4495384991168976 0.6029176712036133 0.7440536618232727 0.8211249113082886 0.8029486536979675 0.7463651895523071 0.707964301109314 0.7071726322174072 0 0 0 0.7516076564788818 0.7398369908332825 0.7210050225257874 0.6970444917678833 -9999
-9999 0.25148630142211914 0.31433114409446716 0.4555182456970215 0.5885291695594788 0.6848157048225403 0.7358406782150269 0.7263047099113464 0.6650475263595581 0.5948829054832458 0.5476139783859253 0.5275363922119141 0 0 0 0.5059989094734192 0.5392008423805237 0.6090990900993347 0.6232953071594238 -9999
-9999 0.35368451476097107 0.4197562336921692 0.5629482269287109 0.6636142730712891 0.6899279356002808 0.6657397150993347 0.6089454889297485 0.5376377701759338 0.4776260554790497 0.43778619170188904 0.40217354893684387 0.3703964352607727 0.339002400636673 0 0 0.31226006150245667 0.3897396922111511 -9999 -9999
-9999 0.4038345515727997 0.46116387844085693 0.5804837942123413 0.6341903209686279 0.6119310855865479 0.5551490187644958 0.4888819456100464 0.4365977346897125 0.40067076683044434 0 0 0 0.23744744062423706 0 0 0.16056182980537415 0 -9999 -9999
-9999 0.4369494915008545 0.46475961804389954 0.5430310368537903 0.5627931952476501 0.5137516260147095 0.4441400468349457 0.38520100712776184 0.3522825539112091 0 0 0 0 0.1765383929014206 0.13937433063983917 0.11129388213157654 0.09185336530208588 0.07668984681367874 0 0
-9999 -9999 0.4432365894317627 0.4912644326686859 0.4922158122062683 0.42986059188842773 0.35533860325813293 0.30407339334487915 0 0 0 0 0 0 0 0 0 0 0 0
-9999 -9999 0.45757558941841125 0.45719781517982483 0.43727779388427734 0.3645094633102417 0.28685447573661804 0.23692533373832703 0 0 0 0 0 0 0 0 0 0 0 0
-9999 -9999 -9999 0.42491665482521057 0.40751054883003235 0.33417046070098877 0.25573089718818665 0.20737601816654205 0 0 0 0 0 0 0 0 0 0 0 0
