ncols         20
nrows         20
xllcorner     0
yllcorner     -3.5992928
cellsize      0.17996463
NODATA_value  -9999
-9999.0 -9999 -9999 -9999 -9999 -9999 -9999 -9999 -9999 -9999 -9999 -9999 -9999 -9999 -9999 -9999 -9999 -9999 -9999 -9999
-9999 -9999 -9999 -9999 -9999 -9999 -9999 -9999 -9999 -9999 -9999 1.7290085554122925 1.7275681495666504 -9999 -9999 1.777477741241455 1.7583638429641724 -9999 -9999 -9999
-9999 -9999 -9999 -9999 1.726542592048645 1.737974762916565 1.7566733360290527 1.7604655027389526 1.7573566436767578 1.7593339681625366 1.7427036762237549 1.754002332687378 1.77174711227417 1.785820722579956 1.7895562648773193 1.7883949279785156 1.7730755805969238 1.7568891048431396 -9999 -9999
-9999 -9999 -9999 1.745776891708374 1.755866289138794 1.7663713693618774 1.777269959449768 1.7781994342803955 1.7786962985992432 1.7757318019866943 1.7785840034484863 1.789338231086731 1.8065646886825562 1.8196958303451538 1.8344029188156128 1.835051417350769 1.8170554637908936 1.7983312606811523 -9999 -9999
-9999 -9999 -9999 1.7687585353851318 1.7824201583862305 1.8062779903411865 1.8134148120880127 1.807989478111267 1.7812461853027344 1.734329342842102 1.6856926679611206 1.6672860383987427 1.6949033737182617 1.759702205657959 1.8288239240646362 1.862627387046814 1.8633328676223755 1.8708045482635498 -9999 -9999
-9999 -9999 1.776577115058899 1.7971110343933105 1.820867896080017 1.8375896215438843 1.8274600505828857 1.7841371297836304 1.6890119314193726 1.5434569120407104 1.3897123336791992 1.3144232034683228 1.346889615058899 1.489503264427185 1.6715145111083984 1.79722261428833 1.8631131649017334 1.8823727369308472 1.8639596700668335 -9999
-9999 -9999 1.7984123229980469 1.821729302406311 1.8573077917099 1.8618205785751343 1.8191118240356445 1.7090718746185303 1.5174497365951538 1.267289161682129 1.0370426177978516 0.9189625978469849 0.943519651889801 1.1154283285140991 1.399830937385559 1.611860990524292 1.7718673944473267 1.846396565437317 1.8648910522460938 -9999
-9999 -9999 1.8467769622802734 1.8738470077514648 1.8930662870407104 1.8631819486618042 1.7530690431594849 1.5504904985427856 1.2759730815887451 0.9834254384040833 0.7584055662155151 0.640342116355896 0.6474666595458984 0.780565083026886 1.0235788822174072 1.305263876914978 1.542963981628418 1.7017308473587036 1.765582799911499 -9999
-9999 1.869370698928833 1.9046144485473633 1.9191508293151855 1.8996200561523438 1.7890678644180298 1.5720707178115845 1.2746974229812622 0.9654672145843506 0.7072955965995789 0.5380645394325256 0.4526309072971344 0.4474043846130371 0.531781017780304 0.7059279680252075 0.9695157408714294 1.21608567237854 1.4187719821929932 1.5185309648513794 -9999
-9999 1.919643521308899 1.9411895275115967 1.9269695281982422 1.825545310974121 1.5921525955200195 1.2643544673919678 0.9176098704338074 0.6370829939842224 0.45345550775527954 0.3534889221191406 0.3048720359802246 0.3020203709602356 0.34636926651000977 0.453609436750412 0.6325047016143799 0.8453863263130188 1.0437591075897217 1.1485021114349365 -9999
-9999 1.960707664489746 1.9510143995285034 1.8677761554718018 1.6613483428955078 1.3306268453598022 0.9419394135475159 0.5994566679000854 0.3778620958328247 0.25942420959472656 0.20304681360721588 0.1797737032175064 0.17892366647720337 0.20178453624248505 0.25765159726142883 0.36019808053970337 0.501456618309021 0.6544581055641174 0.7379566431045532 -9999
-9999 1.9330452680587769 1.8828880786895752 1.7076183557510376 1.4162145853042603 1.0492222309112549 0.6734899282455444 0.38426464796066284 0.21993720531463623 0.1396622210741043 0.10472443699836731 0.09028993546962738 0.08918831497430801 0.09734563529491425 0.12005992233753204 0.16921071708202362 0.2486485093832016 0.3399202525615692 0.39071863889694214 -9999
-9999 1.7899832725524902 1.6810271739959717 1.4146981239318848 1.092656135559082 0.7572072148323059 0.458005428314209 0.24370509386062622 0.12735527753829956 0.07555200159549713 0.047580692917108536 0.037702880799770355 0.03450227156281471 0.035681724548339844 0.043008867651224136 0.05988427624106407 0.09970143437385559 0.14673787355422974 0.176844984292984 -9999
-9999 1.5105334520339966 1.3571096658706665 1.0424764156341553 0.7336804866790771 0.4767979085445404 0.27895310521125793 0.14578554034233093 0.06981750577688217 0.040326040238142014 0.02679486572742462 0.020729105919599533 0.017870955169200897 0.017120590433478355 0.01806265488266945 0.022255374118685722 0.03202096000313759 0.05180375650525093 0.06766992807388306 -9999
-9999 1.2072150707244873 1.0401453971862793 0.7200392484664917 0.4504423141479492 0.2713485658168793 0.15414562821388245 0.07775107771158218 0.04241766035556793 0.02656504698097706 0.01919495314359665 0.015252135694026947 0.013125249184668064 0.012206917628645897 0.011725039221346378 0.012422658503055573 0.014446145854890347 0.02085285261273384 -9999 -9999
-9999 0.9944031238555908 0.8238427639007568 0.5215387940406799 0.2937577962875366 0.15836051106452942 0.08295368403196335 0.04611550271511078 0.029022861272096634 0.020457517355680466 0.01616130955517292 0.013516136445105076 0.012430863454937935 0.014548659324645996 0.01645645871758461 0.017952382564544678 0.018957413733005524 0.019677480682730675 -9999 -9999
-9999 0.8493039011955261 0.6722828149795532 0.4115173816680908 0.21447108685970306 0.09716721624135971 0.05134102702140808 0.030448639765381813 0.021073950454592705 0.016297517344355583 0.013812449760735035 0.01430082879960537 0.016859108582139015 0.019429028034210205 0.02179875783622265 0.023820700123906136 0.025554712861776352 0.027509493753314018 0.031341083347797394 0.032851092517375946
-9999 -9999 0.5189613103866577 0.335967093706131 0.16903389990329742 0.07235245406627655 0.036524008959531784 0.022217748686671257 0.016165563836693764 0.013438448309898376 0.015605558641254902 0.018101245164871216 0.020843416452407837 0.023660268634557724 0.02622925117611885 0.028366606682538986 0.0301415603607893 0.031660400331020355 0.033146932721138 0.03369531035423279
-9999 -9999 0.3707036077976227 0.26263293623924255 0.1356121301651001 0.056397005915641785 0.027669332921504974 0.016833702102303505 0.01407790370285511 0.016218766570091248 0.018510164692997932 0.021083058789372444 0.023901604115962982 0.026773860678076744 0.029308835044503212 0.03130387142300606 0.03280431032180786 0.033740922808647156 0.03413853421807289 0.03424500674009323
-9999 -9999 -9999 0.21780388057231903 0.11451661586761475 0.04989694803953171 0.024313965812325478 0.014876245521008968 0.015515848062932491 0.017762282863259315 0.02010268345475197 0.02266784757375717 0.025488270446658134 0.028347548097372055 0.030838647857308388 0.03267795965075493 0.0340021550655365 0.034486740827560425 0.03454655781388283 0.03450331091880798
