ncols         20
nrows         20
xllcorner     0
yllcorner     -3.5992928
cellsize      0.17996463
NODATA_value  -9999
-9999.0 -9999 -9999 -9999 -9999 -9999 -9999 -9999 -9999 -9999 -9999 -9999 -9999 -9999 -9999 -9999 -9999 -9999 -9999 -9999
-9999 -9999 -9999 -9999 -9999 -9999 -9999 -9999 -9999 -9999 -9999 11.776548385620117 11.766305923461914 -9999 -9999 12.022358894348145 11.886804580688477 -9999 -9999 -9999
-9999 -9999 -9999 -9999 11.84786319732666 11.917068481445312 12.043586730957031 12.060879707336426 12.012821197509766 11.987176895141602 11.820869445800781 11.874279975891113 12.000640869140625 12.111796379089355 12.133757591247559 12.102738380432129 12.016584396362305 11.960607528686523 -9999 -9999
-9999 -9999 -9999 11.988850593566895 11.994434356689453 11.968899726867676 11.951981544494629 11.881695747375488 11.811760902404785 11.744653701782227 11.74504566192627 11.818224906921387 11.963226318359375 12.100926399230957 12.24588680267334 12.306573867797852 12.30643367767334 12.298728942871094 -9999 -9999
-9999 -9999 -9999 12.127337455749512 12.0402250289917 11.929981231689453 11.65451431274414 11.389273643493652 11.12014389038086 10.848485946655273 10.631717681884766 10.586420059204102 10.784347534179688 11.185464859008789 11.671686172485352 12.111814498901367 12.509475708007812 12.845781326293945 -9999 -9999
-9999 -9999 12.403626441955566 12.305438995361328 12.05526351928711 11.552756309509277 10.587897300720215 9.995624542236328 9.4193115234375 8.74488639831543 8.070475578308105 7.761632919311523 7.954612731933594 8.682026863098145 9.669707298278809 10.718413352966309 12.124492645263672 12.86637020111084 13.05286979675293 -9999
-9999 -9999 12.59105396270752 12.342132568359375 11.84337329864502 10.760905265808105 9.855031967163086 8.99288558959961 8.000953674316406 6.868813514709473 5.84945821762085 5.331017017364502 5.469521999359131 6.291496753692627 7.597737789154053 9.183609008789062 11.0620756149292 12.235824584960938 12.770113945007324 -9999
-9999 -9999 13.040125846862793 12.460053443908691 11.3120756149292 10.290404319763184 9.20228099822998 7.967992305755615 6.610728740692139 5.272557258605957 4.256608486175537 3.7186806201934814 3.768264055252075 4.4239068031311035 5.633240699768066 7.243426322937012 8.999823570251465 10.76115608215332 11.642875671386719 -9999
-9999 14.345260620117188 13.764723777770996 12.260351181030273 11.085128784179688 9.778849601745605 8.261834144592285 6.620007514953613 5.082706451416016 3.851771593093872 3.0522210597991943 2.646733045578003 2.626643657684326 3.0526764392852783 3.9251749515533447 5.2521185874938965 6.858386039733887 8.405020713806152 9.600906372070312 -9999
-9999 14.971872329711914 14.29086685180664 12.384062767028809 10.722119331359863 8.839902877807617 6.836799144744873 4.9574503898620605 3.501807689666748 2.5609495639801025 2.051988363265991 1.80460524559021 1.7915507555007935 2.022035598754883 2.5791449546813965 3.5013508796691895 4.794810771942139 6.126157760620117 7.127260208129883 -9999
-9999 15.612802505493164 14.661829948425293 12.206478118896484 9.953230857849121 7.608856201171875 5.314740180969238 3.414475440979004 2.1897852420806885 1.527780294418335 1.21071457862854 1.0796178579330444 1.0735528469085693 1.1995710134506226 1.5108435153961182 2.0917305946350098 2.9508562088012695 4.00062370300293 4.6336164474487305 -9999
-9999 15.631153106689453 14.354854583740234 11.380719184875488 8.721293449401855 6.222064971923828 3.972599983215332 2.2940447330474854 1.3274906873703003 0.8459458947181702 0.6357106566429138 0.5468199253082275 0.5373765230178833 0.5844064950942993 0.7202925086021423 1.0150500535964966 1.5156524181365967 2.146207094192505 2.5134620666503906 -9999
-9999 14.482099533081055 12.921008110046387 9.661598205566406 6.975282192230225 4.683793067932129 2.8158998489379883 1.5056260824203491 0.7883323431015015 0.46444469690322876 0.3002067506313324 0.23626267910003662 0.21411144733428955 0.2210853546857834 0.2683982849121094 0.37600335478782654 0.6167522668838501 0.9421101808547974 1.1628700494766235 -9999
-9999 12.178665161132812 10.510939598083496 7.34309196472168 4.899126052856445 3.091063976287842 1.7818151712417603 0.9260791540145874 0.4514130651950836 0.2526869773864746 0.1599782109260559 0.11653970181941986 0.0956135094165802 0.08960121124982834 0.09589194506406784 0.12360946834087372 0.18933908641338348 0.33296287059783936 0.46894386410713196 -9999
-9999 9.682893753051758 8.101032257080078 5.221707820892334 3.135573387145996 1.8304460048675537 1.0152652263641357 0.5125648975372314 0.2683483958244324 0.15337106585502625 0.09800545126199722 0.06824561953544617 0.05234909802675247 0.04487859085202217 0.041911397129297256 0.04566832259297371 0.05724513530731201 0.09164635837078094 -9999 -9999
-9999 7.913766384124756 6.404777526855469 3.8345632553100586 2.0875186920166016 1.0917519330978394 0.5638341903686523 0.2965275049209595 0.16792064905166626 0.10161346942186356 0.06726004928350449 0.04713647812604904 0.037752315402030945 0.04132148623466492 0.04585907608270645 0.05075918883085251 0.055439986288547516 0.05913956090807915 -9999 -9999
-9999 6.719875335693359 5.179572582244873 3.01631760597229 1.5227274894714355 0.6820195317268372 0.34029582142829895 0.18010663986206055 0.10573476552963257 0.06704158335924149 0.04628569260239601 0.04097862169146538 0.04387542977929115 0.048232655972242355 0.053560834378004074 0.059408027678728104 0.06557859480381012 0.07259991019964218 0.08337794244289398 0.08838929980993271
-9999 -9999 3.8952341079711914 2.42634916305542 1.179724097251892 0.49474528431892395 0.22725795209407806 0.11705741286277771 0.06878788024187088 0.04562855139374733 0.04485192894935608 0.046368565410375595 0.04984267055988312 0.05485793575644493 0.06083005294203758 0.06725254654884338 0.07384084165096283 0.08042708039283752 0.08681037276983261 0.09010693430900574
-9999 -9999 2.7574493885040283 1.8947205543518066 0.9345729351043701 0.3730064332485199 0.16072167456150055 0.07883867621421814 0.051812924444675446 0.04916629567742348 0.04883448779582977 0.05074591189622879 0.054641444236040115 0.0600920170545578 0.06642872840166092 0.07305022329092026 0.07949715107679367 0.08517339080572128 0.08947396278381348 0.09172916412353516
-9999 -9999 -9999 1.5412142276763916 0.7940469980239868 0.32404181361198425 0.13544033467769623 0.06481508165597916 0.05352834612131119 0.051170818507671356 0.05106503516435623 0.05315442383289337 0.05726061761379242 0.06292589008808136 0.06943895667791367 0.07607538998126984 0.08235740661621094 0.08737222850322723 0.09088622778654099 0.09269412606954575
