ncols         20
nrows         20
xllcorner     0
yllcorner     -3.5992928
cellsize      0.17996463
NODATA_value  -9999
-9999.0 -9999 -9999 -9999 -9999 -9999 -9999 -9999 -9999 -9999 -9999 -9999 -9999 -9999 -9999 -9999 -9999 -9999 -9999 -9999
-9999 -9999 -9999 -9999 -9999 -9999 -9999 -9999 -9999 -9999 -9999 0 0 -9999 -9999 0 0 -9999 -9999 -9999
-9999 -9999 -9999 -9999 0 0 0 0 0 0 0 0 0 0 0 0 0 0 -9999 -9999
-9999 -9999 -9999 0 0 0 0 0 0 0 0 0 0 0 0 0 0 0 -9999 -9999
-9999 -9999 -9999 0 0 0 0 0 0 0 0 0 0 0 0 0 0 0 -9999 -9999
-9999 -9999 0 0 0 0 8.671467781066895 7.792261123657227 7.086703777313232 6.328864574432373 5.607040882110596 5.296136856079102 5.52094841003418 6.363370895385742 7.622924327850342 9.206855773925781 0 0 0 -9999
-9999 -9999 0 0 0 8.688780784606934 7.3030548095703125 6.229795455932617 5.163637161254883 4.068813800811768 3.1779284477233887 2.76281476020813 2.8849005699157715 3.6083779335021973 4.923493385314941 6.870765209197998 0 0 0 -9999
-9999 -9999 0 0 9.349278450012207 7.714714527130127 6.294240474700928 4.937836647033691 3.6549720764160156 2.5630862712860107 1.848240613937378 1.5103645324707031 1.546976923942566 1.9888672828674316 2.9360530376434326 4.495697975158691 6.667610168457031 0 0 -9999
-9999 0 0 10.747427940368652 8.719257354736328 6.891042709350586 5.132383823394775 3.546159029006958 2.316889762878418 1.5053116083145142 1.0626778602600098 0.8640303611755371 0.8578228950500488 1.0799137353897095 1.6031770706176758 2.5871334075927734 4.110840797424316 5.984203815460205 0 -9999
-9999 0 0 10.715449333190918 8.087806701660156 5.707806587219238 3.6671483516693115 2.1529223918914795 1.2387158870697021 0.7710760831832886 0.5607283115386963 0.46949607133865356 0.4673629105091095 0.560022234916687 0.811729371547699 1.3216149806976318 2.2425527572631836 3.477095603942871 0 -9999
-9999 0 0 10.361550331115723 7.050042152404785 4.370469570159912 2.3708698749542236 1.1522310972213745 0.5809870958328247 0.3452839255332947 0.251796156167984 0.21740521490573883 0.21736595034599304 0.2550974190235138 0.35726791620254517 0.5869073271751404 1.0259255170822144 0 0 -9999
-9999 0 0 9.147887229919434 5.588405132293701 3.0822975635528564 1.4495962858200073 0.60660320520401 0.2715345025062561 0.14753252267837524 0.10297481715679169 0.08603470772504807 0.08484791964292526 0.09529808908700943 0.12681929767131805 0.20556840300559998 0.3751068115234375 0 0 -9999
-9999 0 0 6.891237735748291 3.8048787117004395 1.9064372777938843 0.8268179297447205 0.31884339451789856 0.13057129085063934 0.06719062477350235 0.04058875888586044 0.031149277463555336 0.028087420389056206 0.02953510545194149 0.037772029638290405 0.058158028870821 0.11145219951868057 0 0 -9999
-9999 0 0 4.318087577819824 2.1038613319396973 0.9692670106887817 0.40821680426597595 0.16018249094486237 0.06402888894081116 0.0324089340865612 0.019575094804167747 0.013982996344566345 0.011409380473196507 0.010817085392773151 0.01195903867483139 0.01640319637954235 0.02779439277946949 0 0 -9999
-9999 0 0 2.445178985595703 1.0252025127410889 0.43437692523002625 0.18331219255924225 0.07469505071640015 0.034303802996873856 0.01826823316514492 0.011278887279331684 0.007733387406915426 0.0059120808728039265 0.0051117632538080215 0.004881052765995264 0.005549699533730745 0.007436246145516634 0 -9999 -9999
-9999 0 0 1.4768790006637573 0.5482966303825378 0.20839086174964905 0.08551745861768723 0.038637902587652206 0.020013965666294098 0.01150112971663475 0.007404392119497061 0.005117469001561403 0.004091336391866207 0.00454308744519949 0.005156056955456734 0.005896866321563721 0.006732224486768246 0.00747361546382308 -9999 -9999
-9999 0 0 1.0031975507736206 0.34361743927001953 0.11211875826120377 0.046265631914138794 0.0217940341681242 0.011956448666751385 0.007278487551957369 0.004909762181341648 0.004318472929298878 0.00464974157512188 0.005177471321076155 0.005854870192706585 0.006650092080235481 0.007556166499853134 0.008565686643123627 0.00973453838378191 0.010293315164744854
-9999 -9999 0 0.7086719274520874 0.23810790479183197 0.07451128959655762 0.02886616811156273 0.013489877805113792 0.007489389274269342 0.004803621210157871 0.0046676830388605595 0.004811594728380442 0.0051964265294373035 0.005780860781669617 0.006504332646727562 0.007316673174500465 0.008183988742530346 0.009060372598469257 0.009827849455177784 0.010212508030235767
-9999 -9999 0 0 0.17360082268714905 0.052810270339250565 0.019527049735188484 0.008796587586402893 0.005523027386516333 0.005129866302013397 0.005037246271967888 0.005218246020376682 0.00564164575189352 0.006261151283979416 0.00700497068464756 0.007807006593793631 0.00860928650945425 0.009323898702859879 0.009849677793681622 0.010120385326445103
-9999 -9999 -9999 0 0.14005933701992035 0.04464047774672508 0.01614321395754814 0.007135400548577309 0.005681294947862625 0.005317790433764458 0.005246561951935291 0.005443842615932226 0.005885961465537548 0.006522153504192829 0.007275053299963474 0.008062898181378841 0.008825287222862244 0.009443924762308598 0.009875609539449215 0.010096129029989243
