ncols         20
nrows         20
xllcorner     0
yllcorner     -3.5992928
cellsize      0.17996463
NODATA_value  -9999
-9999.0 -9999 -9999 -9999 -9999 -9999 -9999 -9999 -9999 -9999 -9999 -9999 -9999 -9999 -9999 -9999 -9999 -9999 -9999 -9999
-9999 -9999 -9999 -9999 -9999 -9999 -9999 -9999 -9999 -9999 -9999 2.3500418663024902 2.344683885574341 -9999 -9999 2.4237210750579834 2.398355007171631 -9999 -9999 -9999
-9999 -9999 -9999 -9999 2.4778788089752197 2.4880013465881348 2.5008907318115234 2.4827721118927 2.4480812549591064 2.4197211265563965 2.369765281677246 2.3698019981384277 2.3834455013275146 2.3925464153289795 2.4023942947387695 2.4161481857299805 2.3999104499816895 2.3736653327941895 -9999 -9999
-9999 -9999 -9999 2.515021562576294 2.52490496635437 2.5307271480560303 2.526759624481201 2.4950501918792725 2.454282283782959 2.41054368019104 2.3811264038085938 2.371593952178955 2.3801896572113037 2.395350217819214 2.425165891647339 2.440478563308716 2.424967050552368 2.4020237922668457 -9999 -9999
-9999 -9999 -9999 2.5500707626342773 2.565711736679077 2.586041212081909 2.561885356903076 2.4938788414001465 2.406327962875366 2.3089494705200195 2.2160072326660156 2.1632094383239746 2.173994779586792 2.243001699447632 2.337221622467041 2.4051382541656494 2.4216468334198 2.437497854232788 -9999 -9999
-9999 -9999 2.5596189498901367 2.590718984603882 2.6190290451049805 2.6142308712005615 2.5257787704467773 2.359421968460083 2.1884021759033203 2.00445556640625 1.8166961669921875 1.7091269493103027 1.7236623764038086 1.8580912351608276 2.0535647869110107 2.219926118850708 2.314612865447998 2.3457212448120117 2.2907984256744385 -9999
-9999 -9999 2.5875580310821533 2.622572422027588 2.660721778869629 2.5997393131256104 2.369664430618286 1.967562198638916 1.6995199918746948 1.4521946907043457 1.23187255859375 1.126609206199646 1.1943410634994507 1.379014492034912 1.6361949443817139 1.8870201110839844 2.077958583831787 2.171790599822998 2.1922988891601562 -9999
-9999 -9999 2.6465303897857666 2.6890523433685303 2.691514492034912 2.5192034244537354 2.044813394546509 0.9095266461372375 0.6688440442085266 0.5614306926727295 0.4968709647655487 0.5022594332695007 0.7502301931381226 0.947678804397583 1.1976759433746338 1.4827390909194946 1.7235736846923828 1.8793350458145142 1.9467902183532715 -9999
-9999 2.6275227069854736 2.6977357864379883 2.729752540588379 2.660644054412842 2.3800833225250244 1.8062944412231445 0.682130753993988 0.42087358236312866 0.33251649141311646 0.30276650190353394 0.3284156322479248 0.4968574643135071 0.6293553709983826 0.7991458773612976 1.0340009927749634 1.2925739288330078 1.4927265644073486 1.584984302520752 -9999
-9999 2.653402805328369 2.690821409225464 2.6757936477661133 2.489447832107544 2.09326434135437 1.4935128688812256 0.5536753535270691 0.31705668568611145 0.24001581966876984 0.220773383975029 0.2398967742919922 0.3354707956314087 0.40044814348220825 0.49245062470436096 0.6380690336227417 0.8404321074485779 1.025604248046875 1.1193277835845947 -9999
-9999 2.6133017539978027 2.59391450881958 2.4684560298919678 2.1661856174468994 1.7295111417770386 1.153267502784729 0.4358346462249756 0.2436489760875702 0.1786288619041443 0.15933187305927277 0.16549845039844513 0.2050393670797348 0.22966453433036804 0.26828134059906006 0.3441318869590759 0.4583738446235657 0.5854775309562683 0.6540402173995972 -9999
-9999 2.4205567836761475 2.3348097801208496 2.095827341079712 1.7325308322906494 1.3245030641555786 0.837497353553772 0.33912184834480286 0.18799717724323273 0.12913993000984192 0.10661786049604416 0.09988917410373688 0.10731969773769379 0.10982375591993332 0.11990886926651001 0.15069997310638428 0.20744724571704865 0.2740256190299988 0.31048521399497986 -9999
-9999 2.0362625122070312 1.8932266235351562 1.5871837139129639 1.2541394233703613 0.9059045314788818 0.564433217048645 0.28639718890190125 0.15161065757274628 0.09511252492666245 0.06563505530357361 0.05244269222021103 0.04506191983819008 0.040517956018447876 0.04112182557582855 0.04932253807783127 0.07617153972387314 0.10704931616783142 0.12618108093738556 -9999
-9999 1.549828052520752 1.3912290334701538 1.0749849081039429 0.7725214958190918 0.522411048412323 0.32072585821151733 0.17414012551307678 0.08997610211372375 0.055618274956941605 0.038496073335409164 0.028905337676405907 0.02253907360136509 0.01856171526014805 0.016624726355075836 0.01763198710978031 0.02275378443300724 0.03419359773397446 0.042543452233076096 -9999
-9999 1.1423554420471191 0.9773846864700317 0.6730642318725586 0.4249188005924225 0.2646492123603821 0.1584717035293579 0.08543385565280914 0.05045340582728386 0.03360423073172569 0.024669671431183815 0.018748335540294647 0.014693842269480228 0.012194443494081497 0.010567058809101582 0.010298295877873898 0.01116135437041521 0.015277155674993992 -9999 -9999
-9999 0.8719213604927063 0.709565281867981 0.4399971067905426 0.24627788364887238 0.13547064363956451 0.07381173968315125 0.04399707913398743 0.029962176457047462 0.022382687777280807 0.01793702319264412 0.014491723850369453 0.012529224157333374 0.013837185688316822 0.014893213286995888 0.015623651444911957 0.016075409948825836 0.016548577696084976 -9999 -9999
-9999 0.7036792039871216 0.5338282585144043 0.31564033031463623 0.1608477532863617 0.07181291282176971 0.039341021329164505 0.025136947631835938 0.018947787582874298 0.015643848106265068 0.013607000932097435 0.014040869660675526 0.016231335699558258 0.018243148922920227 0.02001744881272316 0.02152889594435692 0.022949010133743286 0.024899819865822792 0.0291487667709589 0.030886109918355942
-9999 -9999 0.3740993142127991 0.23573675751686096 0.11521138995885849 0.047650836408138275 0.024852436035871506 0.016466176137328148 0.013230214826762676 0.011910203844308853 0.014478905126452446 0.01711462065577507 0.019732661545276642 0.022250257432460785 0.024479161947965622 0.026339614763855934 0.027971748262643814 0.02953079156577587 0.031217193230986595 0.03189413622021675
-9999 -9999 0.2499009370803833 0.1709955930709839 0.08533860743045807 0.034188251942396164 0.017441101372241974 0.011784709990024567 0.011082099750638008 0.013904758729040623 0.016749972477555275 0.019627701491117477 0.022510595619678497 0.025287998840212822 0.027679339051246643 0.029561074450612068 0.031017543748021126 0.03198632597923279 0.03246134892106056 0.032618630677461624
-9999 -9999 -9999 0.13324768841266632 0.06699954718351364 0.02874954231083393 0.014779966324567795 0.010246014222502708 0.012048779986798763 0.015051078051328659 0.018030347302556038 0.020992029458284378 0.023978261277079582 0.026851385831832886 0.029300125315785408 0.031104719266295433 0.03242253512144089 0.03292232006788254 0.03300592675805092 0.032978355884552
