ncols         20
nrows         20
xllcorner     0
yllcorner     -3.5992928
cellsize      0.17996463
NODATA_value  -9999
-9999.0 -9999 -9999 -9999 -9999 -9999 -9999 -9999 -9999 -9999 -9999 -9999 -9999 -9999 -9999 -9999 -9999 -9999 -9999 -9999
-9999 -9999 -9999 -9999 -9999 -9999 -9999 -9999 -9999 -9999 -9999 0.13445501029491425 0.13456019759178162 -9999 -9999 0.13688743114471436 0.13706691563129425 -9999 -9999 -9999
-9999 -9999 -9999 -9999 0.13393770158290863 0.13390962779521942 0.13391201198101044 0.13396582007408142 0.1340877115726471 0.1342754364013672 0.13448548316955566 0.12452657520771027 0.12485404312610626 0.1357499063014984 0.13637445867061615 0.12667378783226013 0.12720757722854614 0.13820648193359375 -9999 -9999
-9999 -9999 -9999 0.13421326875686646 0.12398981302976608 0.10550796985626221 0.10554220527410507 0.1056407243013382 0.10580580681562424 0.10602343082427979 0.1062711700797081 0.09846172481775284 0.09877704828977585 0.10735397040843964 0.1078740730881691 0.10029418766498566 0.10920294374227524 0.13930535316467285 -9999 -9999
-9999 -9999 -9999 0.13443808257579803 0.10578392446041107 0.07700950652360916 0.07107117027044296 0.07122968137264252 0.07144500315189362 0.07169672101736069 0.07195887714624405 0.06681373715400696 0.06707669794559479 0.07286012172698975 0.07329970598220825 0.0739249512553215 0.11095009744167328 0.14157652854919434 -9999 -9999
-9999 -9999 0.13494426012039185 0.12466191500425339 0.09812688827514648 0.06601434201002121 0.040938202291727066 0.04111023247241974 0.041331060230731964 0.04156998544931412 0.041806843131780624 0.03876745328307152 0.03899124264717102 0.042582012712955475 0.04298591613769531 0.07016294449567795 0.10511812567710876 0.13467782735824585 0.14784318208694458 -9999
-9999 -9999 0.1353560984134674 0.10657833516597748 0.07772450149059296 0.05243419110774994 0.03001438081264496 0.02033243328332901 0.020504584535956383 0.020685730502009392 0.02086467668414116 0.019423015415668488 0.019617851823568344 0.02153370901942253 0.032455287873744965 0.05746462196111679 0.08588778227567673 0.11858351528644562 0.15142038464546204 -9999
-9999 -9999 0.136143296957016 0.10730136930942535 0.07227416336536407 0.04162256047129631 0.020505357533693314 0.010105732828378677 0.008734969422221184 0.00884756725281477 0.00896316859871149 0.008396647870540619 0.008560222573578358 0.01114201731979847 0.023179225623607635 0.04755667969584465 0.08298535645008087 0.12361688166856766 0.1571727991104126 -9999
-9999 0.13788430392742157 0.1271342635154724 0.10020628571510315 0.06769008189439774 0.038970157504081726 0.019277498126029968 0.008162531070411205 0.003213838441297412 0.0032817344181239605 0.0033517018891870975 0.0031588729470968246 0.0035508370492607355 0.010218393057584763 0.02463964745402336 0.05030587315559387 0.0874457061290741 0.12977756559848785 0.16463518142700195 -9999
-9999 0.13952533900737762 0.10987444221973419 0.08028152585029602 0.05436401069164276 0.03148733824491501 0.015580501407384872 0.006614207290112972 0.0024503187742084265 0.0016345334006473422 0.0016892515122890472 0.0017373663140460849 0.003824409330263734 0.010889888741075993 0.02612552046775818 0.05321911722421646 0.09237545728683472 0.13691391050815582 0.17348723113536835 -9999
-9999 0.14244478940963745 0.11235792934894562 0.07586032897233963 0.04388052970170975 0.021745383739471436 0.01078784465789795 0.004617225844413042 0.0017251468962058425 0.0017338423058390617 0.0018002642318606377 0.0018556389259174466 0.004074855707585812 0.011541164480149746 0.027610819786787033 0.05618905648589134 0.0974859669804573 0.14441066980361938 0.18288454413414001 -9999
-9999 0.14655007421970367 0.11573127657175064 0.07830116152763367 0.04541609436273575 0.022562555968761444 0.009598007425665855 0.003519525518640876 0.0017378642223775387 0.001824048114940524 0.0018991036340594292 0.0020724167115986347 0.006004930008202791 0.014382841996848583 0.029086101800203323 0.05914551019668579 0.1025431677699089 0.1517174243927002 0.19184376299381256 -9999
-9999 0.1517767757177353 0.12001242488622665 0.08137737214565277 0.04728405922651291 0.023670077323913574 0.01009239349514246 0.0037111458368599415 0.0018139613093808293 0.0019033461576327682 0.0019851839169859886 0.00324060651473701 0.009349715895950794 0.022369613870978355 0.04573635011911392 0.07918095588684082 0.11661140620708466 0.1585482656955719 0.1995110660791397 -9999
-9999 0.15797992050647736 0.12517069280147552 0.08538464456796646 0.04971494525671005 0.02474377118051052 0.010541095398366451 0.0038665044121444225 0.0018814478535205126 0.0019694215152412653 0.002052013063803315 0.0042486428283154964 0.012231389060616493 0.029458241537213326 0.06015489995479584 0.10440453886985779 0.15436282753944397 0.19396451115608215 0.20482853055000305 -9999
-9999 0.16454793512821198 0.13058441877365112 0.08922945708036423 0.05201118439435959 0.025895915925502777 0.012906800024211407 0.00553649989888072 0.0020453534089028835 0.002023085718974471 0.0021034206729382277 0.004726799670606852 0.013548428192734718 0.03269680216908455 0.06697304546833038 0.11674202978610992 0.17289228737354279 0.21913786232471466 -9999 -9999
-9999 0.17044861614704132 0.1361706554889679 0.10056231915950775 0.06891705840826035 0.04023977369070053 0.020092707127332687 0.008528148755431175 0.003392639569938183 0.002063955646008253 0.002142821904271841 0.004807551857084036 0.013792905956506729 0.03334825113415718 0.06846621632575989 0.11967986822128296 0.1783454716205597 0.22634552419185638 -9999 -9999
-9999 0.1746092438697815 0.1652650684118271 0.13237449526786804 0.09040553867816925 0.05268625169992447 0.02836741879582405 0.014071465469896793 0.006002447102218866 0.0022047520615160465 0.002171386731788516 0.004476514179259539 0.012921754270792007 0.03129329904913902 0.06434795260429382 0.11264742910861969 0.1684945970773697 0.2159564197063446 0.23820620775222778 0.24003759026527405
-9999 -9999 0.18498735129833221 0.1475776731967926 0.10859986394643784 0.07402898371219635 0.04297428950667381 0.021368851885199547 0.009040559642016888 0.0033297594636678696 0.00218905764631927 0.0035550289321690798 0.010296639055013657 0.02504047378897667 0.051407359540462494 0.09024667739868164 0.1350030153989792 0.17265595495700836 0.18855324387550354 0.1894899308681488
-9999 -9999 0.18848314881324768 0.17623332142829895 0.1401878297328949 0.09518495947122574 0.05519577115774155 0.02730715274810791 0.011556494981050491 0.0042380294762551785 0.0021982956677675247 0.002399344928562641 0.0069703152403235435 0.016918271780014038 0.034976039081811905 0.06110922992229462 0.09178048372268677 0.11710737645626068 0.12726089358329773 0.12764805555343628
-9999 -9999 -9999 0.19339334964752197 0.15334145724773407 0.10392113775014877 0.06012550741434097 0.02970602549612522 0.01255798526108265 0.004616109654307365 0.0022025450598448515 0.002280209446325898 0.004011466633528471 0.00970629882067442 0.02012120932340622 0.03515640273690224 0.05285709723830223 0.06711341440677643 0.07305040210485458 0.07320177555084229
