ncols         20
nrows         20
xllcorner     0
yllcorner     -3.5992928
cellsize      0.17996463
NODATA_value  -9999
-9999.0 -9999 -9999 -9999 -9999 -9999 -9999 -9999 -9999 -9999 -9999 -9999 -9999 -9999 -9999 -9999 -9999 -9999 -9999 -9999
-9999 -9999 -9999 -9999 -9999 -9999 -9999 -9999 -9999 -9999 -9999 0.008900512009859085 0.008587570860981941 -9999 -9999 0.006891472265124321 0.00604024576023221 -9999 -9999 -9999
-9999 -9999 -9999 -9999 0.008173211477696896 0.009576994925737381 0.012432189658284187 0.01528435293585062 0.017535768449306488 0.01913783699274063 0.01602322608232498 0.013655217364430428 0.013625339604914188 0.013917339034378529 0.01145588792860508 0.00860994216054678 0.00700029032304883 0.006216955371201038 -9999 -9999
-9999 -9999 -9999 0.007713178172707558 0.008965566754341125 0.011011243797838688 0.014459166675806046 0.01856132410466671 0.023634083569049835 0.028493810445070267 0.03195858746767044 0.03190105780959129 0.03086472488939762 0.02626962959766388 0.020167166367173195 0.014174263924360275 0.010347825475037098 0.008615277707576752 -9999 -9999
-9999 -9999 -9999 0.008202559314668179 0.009915104135870934 0.013954106718301773 0.020092634484171867 0.02892226353287697 0.04213818907737732 0.06292209774255753 0.0868782252073288 0.09995225816965103 0.09459740668535233 0.07105453312397003 0.048308465629816055 0.029818443581461906 0.019418245181441307 0.017127864062786102 -9999 -9999
-9999 -9999 0.006644237786531448 0.00850973092019558 0.01183266844600439 0.01823383942246437 0.028452729806303978 0.045310281217098236 0.07817672938108444 0.13368643820285797 0.20899036526679993 0.25418996810913086 0.2482323944568634 0.18503117561340332 0.11514712125062943 0.06693650782108307 0.04112252593040466 0.032823991030454636 0.028821051120758057 -9999
-9999 -9999 0.007265409920364618 0.009404904209077358 0.015245442278683186 0.026198919862508774 0.04386117309331894 0.07625705003738403 0.1391938179731369 0.24637754261493683 0.3865865170955658 0.4854613244533539 0.48557791113853455 0.3865179717540741 0 0.15174032747745514 0.09104809165000916 0.06174109876155853 0.0519646555185318 -9999
-9999 -9999 0.009386692196130753 0.013326051644980907 0.023952528834342957 0.043669819831848145 0.07901760935783386 0.1411219835281372 0.24310313165187836 0.39664426445961 0.562086284160614 0.6905056238174438 0.7123762369155884 0.620502769947052 0.46607643365859985 0.30796805024147034 0.1963992863893509 0.13195578753948212 0.109537772834301 -9999
-9999 0.009780233725905418 0.013698214665055275 0.022490598261356354 0.04513435810804367 0.08924530446529388 0.1623619794845581 0.28032365441322327 0.43787845969200134 0.6138889193534851 0.7652616500854492 0.878727912902832 0.9285213947296143 0.8772169947624207 0.7524806261062622 0 0.3886308968067169 0.27176278829574585 0.22755782306194305 -9999
-9999 0.014747955836355686 0.021618491038680077 0.04327782243490219 0.0931423157453537 0.18675585091114044 0.3357553482055664 0.5402039289474487 0.7544332146644592 0.9251562356948853 1.0326374769210815 1.118462324142456 1.1727404594421387 1.1738289594650269 1.0931429862976074 0 0.6970391869544983 0.5219255089759827 0.4513618052005768 -9999
-9999 0.02848137356340885 0.04212838038802147 0.08444036543369293 0.17328029870986938 0.33243077993392944 0.5785685181617737 0.8775730133056641 1.1198608875274658 1.2647068500518799 1.3486933708190918 1.4243203401565552 1.5058008432388306 1.5364750623703003 1.4860271215438843 1.3558859825134277 1.1263823509216309 0.9128517508506775 0.8173041939735413 -9999
-9999 0.06303476542234421 0.08873433619737625 0.16636450588703156 0.3081355690956116 0.5312154293060303 0.8468969464302063 1.174322485923767 1.3826669454574585 1.4804998636245728 1.5437930822372437 1.6423112154006958 0 0 1.8339766263961792 0 1.5764058828353882 1.379460096359253 1.278158187866211 -9999
-9999 0.14453156292438507 0.19667667150497437 0.33711132407188416 0.5373201370239258 0.8043228387832642 1.118726372718811 1.3861738443374634 1.4968899488449097 1.5079365968704224 1.5219635963439941 1.5915247201919556 0 0 0 1.7682011127471924 1.7357983589172363 1.6723942756652832 1.591849446296692 -9999
-9999 0.30263200402259827 0.39445242285728455 0.6187386512756348 0.8830777406692505 1.1459168195724487 1.374070167541504 1.4988459348678589 1.4920849800109863 1.4346257448196411 1.3926663398742676 1.3870537281036377 0 0 0 1.352189302444458 1.4298843145370483 1.5881799459457397 1.5740389823913574 -9999
-9999 0.5064186453819275 0.6331619024276733 0.9311013221740723 1.2207894325256348 1.4100674390792847 1.498233675956726 1.489573359489441 1.4175692796707153 1.3357597589492798 1.2716484069824219 1.1891226768493652 1.0965489149093628 0.9957278370857239 0 0 0.88462895154953 1.091347098350525 -9999 -9999
-9999 0.6671478748321533 0.8178180456161499 1.1427627801895142 1.39155113697052 1.4796240329742432 1.4581745862960815 1.3836002349853516 1.3120702505111694 1.2535401582717896 0 0 0 0.7306050062179565 0 0 0.45517075061798096 0 -9999 -9999
-9999 0.7960504293441772 0.9567614793777466 1.2506247758865356 1.4380028247833252 1.4278011322021484 1.329877495765686 1.2243834733963013 1.1660897731781006 0 0 0 0 0.5487385392189026 0.41512781381607056 0.31668898463249207 0.2485230416059494 0.1946687251329422 0 0
-9999 -9999 1.0953853130340576 1.3112810850143433 1.4322741031646729 1.3431501388549805 1.1788251399993896 1.0514007806777954 0 0 0 0 0 0 0 0 0 0 0 0
-9999 -9999 1.259190559387207 1.3650871515274048 1.402570128440857 1.2403481006622314 1.0212749242782593 0.864867091178894 0 0 0 0 0 0 0 0 0 0 0 0
-9999 -9999 -9999 1.3820222616195679 1.3799148797988892 1.1891964673995972 0.9433218240737915 0.7768118381500244 0 0 0 0 0 0 0 0 0 0 0 0
