ncols         20
nrows         20
xllcorner     0
yllcorner     -3.5992928
cellsize      0.17996463
NODATA_value  -9999
-9999.0 -9999 -9999 -9999 -9999 -9999 -9999 -9999 -9999 -9999 -9999 -9999 -9999 -9999 -9999 -9999 -9999 -9999 -9999 -9999
-9999 -9999 -9999 -9999 -9999 -9999 -9999 -9999 -9999 -9999 -9999 1.8023935556411743 1.8005400896072388 -9999 -9999 1.8429456949234009 1.821731686592102 -9999 -9999 -9999
-9999 -9999 -9999 -9999 1.7979577779769897 1.8128926753997803 1.836722731590271 1.8444294929504395 1.8434282541275024 1.846408486366272 1.827603816986084 1.8358479738235474 1.8534607887268066 1.8684237003326416 1.8682382106781006 1.8599703311920166 1.84006929397583 1.8217366933822632 -9999 -9999
-9999 -9999 -9999 1.8151673078536987 1.8287315368652344 1.8443039655685425 1.8608158826828003 1.8656625747680664 1.8680092096328735 1.86689031124115 1.8717325925827026 1.8836395740509033 1.9014976024627686 1.9141610860824585 1.924570083618164 1.9173160791397095 1.8923124074935913 1.8696134090423584 -9999 -9999
-9999 -9999 -9999 1.8394113779067993 1.8580213785171509 1.8895337581634521 1.9034290313720703 1.9011480808258057 1.887055516242981 1.857454538345337 1.820842981338501 1.806447982788086 1.8301602602005005 1.8832876682281494 1.9353667497634888 1.9590615034103394 1.9509336948394775 1.954223394393921 -9999 -9999
-9999 -9999 1.8427120447158813 1.8687471151351929 1.9007855653762817 1.9271059036254883 1.923985242843628 1.8976800441741943 1.8298991918563843 1.7070304155349731 1.5640350580215454 1.4900774955749512 1.518117904663086 1.6507163047790527 1.8136894702911377 1.9146242141723633 1.9628592729568481 1.97743558883667 1.9564632177352905 -9999
-9999 -9999 1.8669925928115845 1.896920084953308 1.9437593221664429 1.95891535282135 1.9331943988800049 1.8548623323440552 1.6932429075241089 1.4586145877838135 1.226706862449646 1.101191759109497 1.1223427057266235 1.2944011688232422 1.5750091075897217 1.762306809425354 1.896715760231018 1.9516093730926514 1.9629106521606445 -9999
-9999 -9999 1.9206254482269287 1.9567556381225586 1.9896045923233032 1.9727425575256348 1.8944793939590454 1.7249960899353027 1.4711803197860718 1.1791397333145142 0.9413695931434631 0.8090354800224304 0.811937689781189 0.9506223797798157 1.1996997594833374 1.476628303527832 1.697014331817627 1.8374223709106445 1.889986276626587 -9999
-9999 1.9416100978851318 1.9849317073822021 2.0123939514160156 2.0054354667663574 1.9213610887527466 1.7359495162963867 1.458817481994629 1.1517269611358643 0.8812317848205566 0.6958403587341309 0.5967845916748047 0.5859227180480957 0.676071286201477 0.8621325492858887 1.1402878761291504 1.384367823600769 1.5804895162582397 1.6741588115692139 -9999
-9999 1.9990304708480835 2.030985116958618 2.033283233642578 1.9479345083236694 1.7417868375778198 1.4311699867248535 1.0819207429885864 0.785412073135376 0.5841588377952576 0.471912145614624 0.41431957483291626 0.40784892439842224 0.45517468452453613 0.5739890336990356 0.7717986106872559 0.9989446401596069 1.2070146799087524 1.3142145872116089 -9999
-9999 2.051116943359375 2.051039457321167 1.9797966480255127 1.7985016107559204 1.4856318235397339 1.0927903652191162 0.726222813129425 0.47867435216903687 0.3426450490951538 0.27695232629776 0.24886015057563782 0.24607376754283905 0.27096259593963623 0.3348240852355957 0.45310306549072266 0.614152193069458 0.786861002445221 0.87916499376297 -9999
-9999 2.034968852996826 1.9891761541366577 1.8342317342758179 1.5614957809448242 1.1965588331222534 0.7988588213920593 0.47539857029914856 0.28375476598739624 0.187235489487648 0.14454692602157593 0.12610480189323425 0.12364862859249115 0.13217899203300476 0.1587098091840744 0.21796919405460358 0.3136746883392334 0.42318594455718994 0.483448326587677 -9999
-9999 1.9016376733779907 1.8049756288528442 1.5498069524765015 1.231178641319275 0.8824210166931152 0.5537578463554382 0.3060947060585022 0.16623377799987793 0.10209234803915024 0.06637819111347198 0.05304788798093796 0.04800070822238922 0.048694316297769547 0.05755066126585007 0.07870803028345108 0.12839506566524506 0.18757762014865875 0.22577786445617676 -9999
-9999 1.642130970954895 1.4916707277297974 1.1697444915771484 0.846438467502594 0.56741863489151 0.34285250306129456 0.18534404039382935 0.09237045049667358 0.054771147668361664 0.036824461072683334 0.02830107882618904 0.023902516812086105 0.022410381585359573 0.02332315593957901 0.028633542358875275 0.04124064743518829 0.0672362819314003 0.08921729028224945 -9999
-9999 1.3453834056854248 1.1715589761734009 0.8274627923965454 0.5310203433036804 0.3286534249782562 0.192029669880867 0.10016598552465439 0.05596208572387695 0.03528420999646187 0.025185853242874146 0.01950930617749691 0.01626964844763279 0.014690645970404148 0.013825608417391777 0.014549672603607178 0.016989752650260925 0.02480633556842804 -9999 -9999
-9999 1.1315536499023438 0.9474736452102661 0.6108722686767578 0.3516964912414551 0.19417479634284973 0.10459774732589722 0.05926952511072159 0.03745121881365776 0.026005901396274567 0.019936874508857727 0.01608104631304741 0.014316940680146217 0.016436757519841194 0.018338263034820557 0.019836708903312683 0.020836491137742996 0.021516427397727966 -9999 -9999
-9999 0.9789683818817139 0.785407543182373 0.48831215500831604 0.25905275344848633 0.12022508680820465 0.06457780301570892 0.03839980065822601 0.026170896366238594 0.019628053531050682 0.016020003706216812 0.016090061515569687 0.018584977835416794 0.021134182810783386 0.02346356213092804 0.02541910856962204 0.02704121544957161 0.028778299689292908 0.03213036432862282 0.03343379497528076
-9999 -9999 0.6164474487304688 0.40250205993652344 0.20498794317245483 0.0892966166138649 0.045339006930589676 0.027232373133301735 0.019237708300352097 0.01540805771946907 0.01737743243575096 0.01971372216939926 0.022342637181282043 0.02508903294801712 0.0275755375623703 0.029600564390420914 0.03122878447175026 0.03255200758576393 0.03380005806684494 0.03422332555055618
-9999 -9999 0.4438594877719879 0.31653693318367004 0.16483533382415771 0.06924916058778763 0.03384356573224068 0.020092209801077843 0.016221454367041588 0.018116271123290062 0.02016691491007805 0.0225345641374588 0.02520686946809292 0.02797095477581024 0.03039335273206234 0.03225936368107796 0.033620476722717285 0.034415822476148605 0.03468945622444153 0.03473180532455444
-9999 -9999 -9999 0.2639918327331543 0.13984553515911102 0.061130326241254807 0.029463887214660645 0.01749229244887829 0.01763550192117691 0.01961190067231655 0.02168719470500946 0.024022039026021957 0.026678942143917084 0.029413461685180664 0.03178315609693527 0.033493269234895706 0.034695159643888474 0.03507323935627937 0.03505752980709076 0.03497742861509323
