ncols         20
nrows         20
xllcorner     0
yllcorner     -3.5992928
cellsize      0.17996463
NODATA_value  -9999
-9999.0 -9999 -9999 -9999 -9999 -9999 -9999 -9999 -9999 -9999 -9999 -9999 -9999 -9999 -9999 -9999 -9999 -9999 -9999 -9999
-9999 -9999 -9999 -9999 -9999 -9999 -9999 -9999 -9999 -9999 -9999 0 0 -9999 -9999 0 0 -9999 -9999 -9999
-9999 -9999 -9999 -9999 0 0 0 0 0 0 0 0 0 0 0 0 0 0 -9999 -9999
-9999 -9999 -9999 0 0 0 0 0 0 0 0 0 0 0 0 0 0 0 -9999 -9999
-9999 -9999 -9999 0 0 0 0 0 0 0 0 0 0 0 0 0 0 0 -9999 -9999
-9999 -9999 0 0 0 0 2.329923391342163 1.9533953666687012 1.7414836883544922 1.5988575220108032 1.5047255754470825 1.4853606224060059 1.555160403251648 1.733750581741333 2.0308969020843506 2.5211548805236816 0 0 0 -9999
-9999 -9999 0 0 0 2.143120765686035 1.6140520572662354 1.317800760269165 1.12483549118042 0.9796738624572754 0.8772881031036377 0.8393223285675049 0.8800660967826843 1.0158636569976807 1.2656702995300293 1.7022931575775146 0 0 0 -9999
-9999 -9999 0 0 2.1619577407836914 1.5633137226104736 1.1910600662231445 0.9476847648620605 0.7752012610435486 0.6462581753730774 0.5627319812774658 0.5272800326347351 0.5486940145492554 0.6373705267906189 0.8120840191841125 1.110888957977295 1.600827693939209 0 0 -9999
-9999 0 0 2.3851776123046875 1.6712480783462524 1.2154724597930908 0.9092577695846558 0.6960229277610779 0.5462325215339661 0.44527870416641235 0.3869580030441284 0.36307260394096375 0.373166024684906 0.42642268538475037 0.5349212884902954 0.7241238951683044 1.021523118019104 1.436538815498352 0 -9999
-9999 0 0 2.0581462383270264 1.3904662132263184 0.9732208847999573 0.6947159767150879 0.505090594291687 0.3827298581600189 0.3113369345664978 0.2759725749492645 0.2625713050365448 0.2693745195865631 0.2995521128177643 0.3648417890071869 0.4809171259403229 0.672245442867279 0.9451440572738647 0 -9999
-9999 0 0 1.841873288154602 1.1870864629745483 0.7912782430648804 0.5339652895927429 0.3673539459705353 0.27167683839797974 0.2226259559392929 0.20050984621047974 0.19366586208343506 0.1983443647623062 0.21642223000526428 0.2546951472759247 0.32633838057518005 0.44897547364234924 0 0 -9999
-9999 0 0 1.6232894659042358 1.0048056840896606 0.6439151167869568 0.416822612285614 0.2783690392971039 0.20485983788967133 0.16915977001190186 0.15399456024169922 0.14908365905284882 0.15187755227088928 0.16195598244667053 0.18322867155075073 0.22433239221572876 0.29836809635162354 0 0 -9999
-9999 0 0 1.3526670932769775 0.8135625720024109 0.5097787976264954 0.3273065686225891 0.22021546959877014 0.16516439616680145 0.13995565474033356 0.12788422405719757 0.12401503324508667 0.12505397200584412 0.13086897134780884 0.14333386719226837 0.16617567837238312 0.20919588208198547 0 0 -9999
-9999 0 0 1.0496302843093872 0.6156620979309082 0.38441479206085205 0.25351592898368835 0.17984257638454437 0.1412363350391388 0.12371809035539627 0.11554016172885895 0.11253762245178223 0.11301018297672272 0.11685080826282501 0.12471862137317657 0.13889044523239136 0.16424816846847534 0 0 -9999
-9999 0 0 0.7869733572006226 0.4539288282394409 0.28796589374542236 0.20023298263549805 0.1519443392753601 0.12750272452831268 0.11510517448186874 0.10903320461511612 0.10659481585025787 0.10686743259429932 0.10966867953538895 0.11527356505393982 0.1249089166522026 0.1408315747976303 0 -9999 -9999
-9999 0 0 0.611305296421051 0.3542254567146301 0.22983209788799286 0.16821987926959991 0.13621880114078522 0.11931515485048294 0.11001048982143402 0.10515798628330231 0.10308849811553955 0.10330028831958771 0.10588723421096802 0.11044219136238098 0.11751529574394226 0.12807750701904297 0.13892370462417603 -9999 -9999
-9999 0 0 0.5013161301612854 0.2961425185203552 0.19599810242652893 0.15062683820724487 0.12691062688827515 0.1139490008354187 0.10653334110975266 0.10251028835773468 0.10109300911426544 0.10158179700374603 0.10351120680570602 0.10687748342752457 0.11184243112802505 0.11866896599531174 0.12537801265716553 0.12472741305828094 0.1247696802020073
-9999 -9999 0 0.41826966404914856 0.25878438353538513 0.17791728675365448 0.14060993492603302 0.12134646624326706 0.1105646938085556 0.10431751608848572 0.10141266882419586 0.10024027526378632 0.10045838356018066 0.10186281055212021 0.10431024432182312 0.10770223289728165 0.11183805763721466 0.11599695682525635 0.11783431470394135 0.11845506727695465
-9999 -9999 0 0 0.23627471923828125 0.1666194647550583 0.13456952571868896 0.11792802810668945 0.10879822075366974 0.1038367748260498 0.10100532323122025 0.09977620840072632 0.09980696439743042 0.10085170716047287 0.10269327461719513 0.10512767732143402 0.10786684602499008 0.11037133634090424 0.11188295483589172 0.11254812031984329
-9999 -9999 -9999 0 0.22158224880695343 0.16134102642536163 0.13195474445819855 0.11650490015745163 0.10846466571092606 0.10363168269395828 0.10083737969398499 0.09957404434680939 0.09950856119394302 0.10037421435117722 0.10192513465881348 0.10391756147146225 0.10607677698135376 0.10797173529863358 0.10924924165010452 0.10986809432506561
