ncols         20
nrows         20
xllcorner     0
yllcorner     -3.5992928
cellsize      0.17996463
NODATA_value  -9999
-9999.0 -9999 -9999 -9999 -9999 -9999 -9999 -9999 -9999 -9999 -9999 -9999 -9999 -9999 -9999 -9999 -9999 -9999 -9999 -9999
-9999 -9999 -9999 -9999 -9999 -9999 -9999 -9999 -9999 -9999 -9999 3.1188199520111084 3.1332459449768066 -9999 -9999 3.4437999725341797 3.464735984802246 -9999 -9999 -9999
-9999 -9999 -9999 -9999 3.2520928382873535 3.1770029067993164 3.0735247135162354 2.9725232124328613 2.895272970199585 2.855379581451416 2.863295793533325 2.946279764175415 2.992137908935547 3.0212039947509766 3.118269205093384 3.2746124267578125 3.3551294803619385 3.3755481243133545 -9999 -9999
-9999 -9999 -9999 3.218186616897583 3.156493902206421 3.0263400077819824 2.8781445026397705 2.7518510818481445 2.662355899810791 2.6136186122894287 2.6078312397003174 2.6430420875549316 2.6943070888519287 2.7653167247772217 2.8766980171203613 3.0221991539001465 3.1599292755126953 3.244638681411743 -9999 -9999
-9999 -9999 -9999 3.0813913345336914 2.9440832138061523 2.729325532913208 2.4946224689483643 2.329023599624634 2.2241575717926025 2.1664891242980957 2.1488358974456787 2.166628837585449 2.2145304679870605 2.296670913696289 2.425647258758545 2.611355781555176 2.8475341796875 2.9999756813049316 -9999 -9999
-9999 -9999 2.939889669418335 2.8616552352905273 2.6258561611175537 2.2927005290985107 1.8961178064346313 1.7076698541641235 1.6078112125396729 1.5563913583755493 1.5378570556640625 1.5464446544647217 1.5819780826568604 1.6512181758880615 1.7720351219177246 1.987511157989502 2.417853593826294 2.657752513885498 2.676547050476074 -9999
-9999 -9999 2.761709690093994 2.5671546459198 2.2185616493225098 1.7699103355407715 1.4901875257492065 1.3316161632537842 1.2439454793930054 1.198394536972046 1.1807639598846436 1.1857540607452393 1.2145534753799438 1.274918556213379 1.3855611085891724 1.5899025201797485 1.9937412738800049 2.290311336517334 2.4285531044006348 -9999
-9999 -9999 2.5158674716949463 2.209796667098999 1.742032766342163 1.4249733686447144 1.2188146114349365 1.0930522680282593 1.0207176208496094 0.9826334714889526 0.967464029788971 0.9709091782569885 0.9940979480743408 1.0431840419769287 1.1313360929489136 1.2828871011734009 1.529847264289856 1.8742926120758057 2.0687668323516846 -9999
-9999 2.5083258152008057 2.3100385665893555 1.8061299324035645 1.446260690689087 1.2017097473144531 1.0411596298217773 0.9410690665245056 0.8821164965629578 0.8500838875770569 0.8369314074516296 0.8393183350563049 0.8577648401260376 0.8963305354118347 0.9630383253097534 1.070218563079834 1.2317368984222412 1.448587417602539 1.6943222284317017 -9999
-9999 2.4095864295959473 2.1460061073303223 1.604283332824707 1.2733745574951172 1.0627366304397583 0.928386390209198 0.8452625274658203 0.7952393293380737 0.7673102021217346 0.7553564310073853 0.7565708756446838 0.7709531784057617 0.8010385036468506 0.8519355058670044 0.931342601776123 1.0488120317459106 1.213213562965393 1.409198522567749 -9999
-9999 2.2813308238983154 2.007903575897217 1.4795596599578857 1.1677920818328857 0.9761741757392883 0.8576453328132629 0.7845687866210938 0.7401777505874634 0.714981734752655 0.7036966681480408 0.7037097811698914 0.7147006392478943 0.7383686900138855 0.7784268856048584 0.841273307800293 0.9382178783416748 1.0931978225708008 1.2112499475479126 -9999
-9999 2.141573429107666 1.8794573545455933 1.3872168064117432 1.0966315269470215 0.9196000695228577 0.8116567730903625 0.7451354265213013 0.7046685814857483 0.6814699172973633 0.6706424951553345 0.6695777773857117 0.6777867078781128 0.6965435147285461 0.7286585569381714 0.7791481018066406 0.8571687340736389 0.979281485080719 1.0640994310379028 -9999
-9999 1.9925692081451416 1.749962329864502 1.307192325592041 1.0410349369049072 0.8788608312606812 0.7796080112457275 0.7184469103813171 0.6812556982040405 0.6596787571907043 0.6493840217590332 0.6474294662475586 0.6534557342529297 0.668413519859314 0.6944670081138611 0.7355812788009644 0.7983003854751587 0.8946393728256226 0.9648972749710083 -9999
-9999 1.8344452381134033 1.614454984664917 1.228143334388733 0.9904239177703857 0.8449497818946838 0.7550264596939087 0.6993892788887024 0.6655149459838867 0.6451378464698792 0.634722113609314 0.6320274472236633 0.6363525390625 0.6482464075088501 0.6693633794784546 0.7031452655792236 0.7564569115638733 0.8374142050743103 0.9124285578727722 -9999
-9999 1.67638099193573 1.4786244630813599 1.1481338739395142 0.9421301484107971 0.8145506381988525 0.7348878383636475 0.6851579546928406 0.6536361575126648 0.634492039680481 0.6242930889129639 0.6210699677467346 0.6240132451057434 0.6332663893699646 0.6498724818229675 0.6762089729309082 0.7166677713394165 0.7660426497459412 -9999 -9999
-9999 1.5409083366394043 1.3562548160552979 1.0740406513214111 0.8980493545532227 0.7879436612129211 0.718439519405365 0.6733816862106323 0.6444756984710693 0.6266003251075745 0.6167197227478027 0.6130887269973755 0.6148303747177124 0.6217585802078247 0.6342789530754089 0.6536393761634827 0.6819012761116028 0.7098535895347595 -9999 -9999
-9999 1.4515745639801025 1.2490516901016235 1.0111216306686401 0.8606259822845459 0.7662123441696167 0.7044779658317566 0.6639364361763 0.6375071406364441 0.6208477020263672 0.6113565564155579 0.6074191331863403 0.6081135272979736 0.6130044460296631 0.6220120787620544 0.6354387998580933 0.6537112593650818 0.6709057688713074 0.6670049428939819 0.6661795377731323
-9999 -9999 1.1024408340454102 0.9519751667976379 0.8301745057106018 0.7485804557800293 0.6936061382293701 0.6568488478660583 0.6324949860572815 0.6168999075889587 0.6077634692192078 0.6035847067832947 0.603421151638031 0.6066798567771912 0.6129372715950012 0.6218525171279907 0.6327357292175293 0.6434373259544373 0.647444486618042 0.6485865712165833
-9999 -9999 1.041242241859436 0.9321384429931641 0.8145542144775391 0.7374042272567749 0.6864079236984253 0.6522026062011719 0.6293279528617859 0.6144955158233643 0.6055972576141357 0.6012437343597412 0.6004858016967773 0.6026285290718079 0.6070694327354431 0.6132169961929321 0.6202197670936584 0.6265649795532227 0.6301935315132141 0.6317161321640015
-9999 -9999 -9999 0.8874984383583069 0.8012471199035645 0.7307196855545044 0.6825963258743286 0.6498688459396362 0.6277961730957031 0.613362729549408 0.604588508605957 0.6001362800598145 0.5990756154060364 0.6006627678871155 0.6042273640632629 0.6090970635414124 0.6144797801971436 0.6192344427108765 0.6223856806755066 0.6238845586776733
