ncols         20
nrows         20
xllcorner     0
yllcorner     -3.5992928
cellsize      0.17996463
NODATA_value  -9999
-9999.0 -9999 -9999 -9999 -9999 -9999 -9999 -9999 -9999 -9999 -9999 -9999 -9999 -9999 -9999 -9999 -9999 -9999 -9999 -9999
-9999 -9999 -9999 -9999 -9999 -9999 -9999 -9999 -9999 -9999 -9999 0 0 -9999 -9999 0 0 -9999 -9999 -9999
-9999 -9999 -9999 -9999 0 0 0 0 0 0 0 0 0 0 0 0 0 0 -9999 -9999
-9999 -9999 -9999 0 0 0 0 0 0 0 0 0 0 0 0 0 0 0 -9999 -9999
-9999 -9999 -9999 0 0 0 0 0 0 0 0 0 0 0 0 0 0 0 -9999 -9999
-9999 -9999 0 0 0 0 2.2898504734039307 1.913134217262268 1.7003631591796875 1.5575013160705566 1.4638547897338867 1.4449201822280884 1.5143752098083496 1.6914108991622925 1.9856570959091187 2.469738245010376 0 0 0 -9999
-9999 -9999 0 0 0 2.108242988586426 1.5820695161819458 1.2874623537063599 1.0958014726638794 0.9523506760597229 0.8516998291015625 0.8147570490837097 0.8549954295158386 0.988344132900238 1.2335503101348877 1.6616524457931519 0 0 0 -9999
-9999 -9999 0 0 2.1282413005828857 1.5337849855422974 1.1649268865585327 0.9245544672012329 0.754406750202179 0.6277338862419128 0.5460864305496216 0.5117439031600952 0.5328847169876099 0.6195932626724243 0.7903152704238892 1.0819580554962158 1.56014883518219 0 0 -9999
-9999 0 0 2.34965181350708 1.6411707401275635 1.1901206970214844 0.8881762623786926 0.6784693598747253 0.5314921736717224 0.4327964186668396 0.37602925300598145 0.35298895835876465 0.3630387485027313 0.4150219261646271 0.5207850337028503 0.7051010131835938 0.994500458240509 1.3985815048217773 0 -9999
-9999 0 0 2.0241432189941406 1.3633290529251099 0.9518263339996338 0.6783003807067871 0.492496132850647 0.37295886874198914 0.30344608426094055 0.26913467049598694 0.25626668334007263 0.26305291056632996 0.29254063963890076 0.35613343119621277 0.46909523010253906 0.6551259756088257 0.9202976822853088 0 -9999
-9999 0 0 1.8095388412475586 1.1629977226257324 0.7738205790519714 0.5216652154922485 0.35886889696121216 0.26569074392318726 0.21807624399662018 0.1966877430677414 0.1901593953371048 0.19484274089336395 0.21254391968250275 0.24986225366592407 0.31960880756378174 0.43890678882598877 0 0 -9999
-9999 0 0 1.5936152935028076 0.9842230081558228 0.6301556825637817 0.40791964530944824 0.2728213667869568 0.20132073760032654 0.1667129248380661 0.15207427740097046 0.14741256833076477 0.15024781227111816 0.16017679870128632 0.18100258708000183 0.22114676237106323 0.29338538646698 0 0 -9999
-9999 0 0 1.3272790908813477 0.797240674495697 0.4996110796928406 0.32117047905921936 0.21668505668640137 0.16311530768871307 0.13866789638996124 0.12700919806957245 0.12334471195936203 0.12446756660938263 0.13025273382663727 0.1425390988588333 0.1649928092956543 0.20724213123321533 0 0 -9999
-9999 0 0 1.0299335718154907 0.6041660308837891 0.3776760399341583 0.2496495395898819 0.17770299315452576 0.14007282257080078 0.12307337671518326 0.11518281698226929 0.11234070360660553 0.11289867013692856 0.11676225066184998 0.12459530681371689 0.13865500688552856 0.16378624737262726 0 0 -9999
-9999 0 0 0.772922694683075 0.44643962383270264 0.28385889530181885 0.19796857237815857 0.15073159337043762 0.12688787281513214 0.11483338475227356 0.10896282643079758 0.10664720088243484 0.1069941371679306 0.10983610898256302 0.11546043306589127 0.125096395611763 0.14101345837116241 0 -9999 -9999
-9999 0 0 0.6015995144844055 0.3493799865245819 0.2273501455783844 0.16691847145557404 0.13557595014572144 0.11904851347208023 0.10997303575277328 0.1052633672952652 0.10328743606805801 0.10355915129184723 0.10617703944444656 0.1107565313577652 0.11785519123077393 0.12845751643180847 0.13935595750808716 -9999 -9999
-9999 0 0 0.49459320306777954 0.29295381903648376 0.19448374211788177 0.14990991353988647 0.12662732601165771 0.11391641944646835 0.10665722191333771 0.10273531079292297 0.10138079524040222 0.1019095629453659 0.10386843234300613 0.10726145654916763 0.11225676536560059 0.11912751197814941 0.12589865922927856 0.12531732022762299 0.12538588047027588
-9999 -9999 0 0.4139016568660736 0.2567262649536133 0.177005335688591 0.14025507867336273 0.12129093706607819 0.11068444699048996 0.10454729199409485 0.1017073541879654 0.1005803570151329 0.100831538438797 0.10226184129714966 0.10473265498876572 0.10814976692199707 0.11231712251901627 0.11651593446731567 0.11838996410369873 0.1190270334482193
-9999 -9999 0 0 0.23495236039161682 0.16609326004981995 0.13443762063980103 0.11801215261220932 0.10900779813528061 0.10412193834781647 0.10134167969226837 0.10014929622411728 0.10020749270915985 0.10127415508031845 0.10313481837511063 0.1055881679058075 0.10834822803735733 0.11087474972009659 0.11240442842245102 0.11307845264673233
-9999 -9999 -9999 0 0.2206524908542633 0.16099873185157776 0.13192656636238098 0.11665236949920654 0.10871171206235886 0.10394357889890671 0.10119348764419556 0.09996221214532852 0.09992116689682007 0.10080639272928238 0.10237392783164978 0.10438184440135956 0.10655676573514938 0.10846637934446335 0.10975517332553864 0.11037974804639816
