ncols         20
nrows         20
xllcorner     0
yllcorner     -3.5992928
cellsize      0.17996463
NODATA_value  -9999
-9999.0 -9999 -9999 -9999 -9999 -9999 -9999 -9999 -9999 -9999 -9999 -9999 -9999 -9999 -9999 -9999 -9999 -9999 -9999 -9999
-9999 -9999 -9999 -9999 -9999 -9999 -9999 -9999 -9999 -9999 -9999 0.17109502851963043 0.1684217005968094 -9999 -9999 0.15540972352027893 0.14578478038311005 -9999 -9999 -9999
-9999 -9999 -9999 -9999 0.1593829095363617 0.172633558511734 0.19708040356636047 0.2193489670753479 0.2361849844455719 0.24822816252708435 0.22865760326385498 0.21243180334568024 0.21357834339141846 0.2179032415151596 0.1993580460548401 0.1739911288022995 0.1576768159866333 0.14930051565170288 -9999 -9999
-9999 -9999 -9999 0.15587277710437775 0.1677345633506775 0.18599770963191986 0.2136639952659607 0.24314038455486298 0.2759530246257782 0.30495452880859375 0.3252550959587097 0.32729050517082214 0.32429248094558716 0.30162879824638367 0.2665272057056427 0.2250962108373642 0.19341424107551575 0.1770980805158615 -9999 -9999
-9999 -9999 -9999 0.16190031170845032 0.17793937027454376 0.21140193939208984 0.2545963227748871 0.30716556310653687 0.372916042804718 0.45817112922668457 0.5421631336212158 0.585857629776001 0.5744398832321167 0.5025485754013062 0.4187794625759125 0.33155661821365356 0.26913905143737793 0.2536541819572449 -9999 -9999
-9999 -9999 0.14875678718090057 0.16725246608257294 0.19709114730358124 0.24524395167827606 0.3078756034374237 0.39074084162712097 0.5159302949905396 0.6792771220207214 0.8559134006500244 0.9515069127082825 0.9481849670410156 0.8270159959793091 0.6599718332290649 0.507112979888916 0.4001092314720154 0.3592607080936432 0.3397928476333618 -9999
-9999 -9999 0.15730634331703186 0.17869646847248077 0.227757528424263 0.2996726930141449 0.38971656560897827 0.5163969993591309 0.7023926973342896 0.9419237375259399 1.1901482343673706 1.3455650806427002 1.3579038381576538 1.2251988649368286 1.0269019603729248 0.7827613353729248 0.6085691452026367 0.5024983286857605 0.4623013734817505 -9999
-9999 -9999 0.18217632174491882 0.2170775681734085 0.2916337251663208 0.395384818315506 0.5340899229049683 0.7181752324104309 0.9499655961990356 1.2242515087127686 1.471298336982727 1.6466500759124756 1.6885930299758911 1.592336893081665 1.3956774473190308 1.1445493698120117 0.9156906604766846 0.7505770921707153 0.6838463544845581 -9999
-9999 0.19238288700580597 0.22546662390232086 0.28840628266334534 0.4090736508369446 0.5773425698280334 0.7829005122184753 1.0363255739212036 1.3068921566009521 1.5628880262374878 1.763638973236084 1.9105229377746582 1.9848594665527344 1.949205994606018 1.8250240087509155 1.6302207708358765 1.3218926191329956 1.1011202335357666 1.0054130554199219 -9999
-9999 0.23934733867645264 0.2888462543487549 0.4080559313297272 0.5995636582374573 0.8523381948471069 1.1501578092575073 1.4717143774032593 1.757432222366333 1.9685723781585693 2.105802536010742 2.220240592956543 2.302098512649536 2.326380491256714 2.2637672424316406 2.139413833618164 1.8109266757965088 1.5574085712432861 1.4432551860809326 -9999
-9999 0.3387240469455719 0.41083890199661255 0.5801985859870911 0.8321424722671509 1.157788872718811 1.5391347408294678 1.915079116821289 2.1893177032470703 2.357802152633667 2.471750020980835 2.582813024520874 2.701472043991089 2.755519390106201 2.71614670753479 2.5970778465270996 2.348512887954712 2.0987226963043213 1.9769394397735596 -9999
-9999 0.5113509893417358 0.6048553586006165 0.8260279297828674 1.1265215873718262 1.487513542175293 1.8951231241226196 2.2575368881225586 2.4827136993408203 2.608696460723877 2.712031364440918 2.859044075012207 3.103930711746216 3.1975395679473877 3.1203181743621826 3.087886095046997 2.8400192260742188 2.6280598640441895 2.513575792312622 -9999
-9999 0.7794848084449768 0.9068207144737244 1.1883549690246582 1.506906509399414 1.8575422763824463 2.2139079570770264 2.4967572689056396 2.6341350078582764 2.6902413368225098 2.758239507675171 2.88997220993042 3.1363799571990967 3.236321449279785 3.2325503826141357 3.1132545471191406 3.0377042293548584 2.9463701248168945 2.84702205657959 -9999
-9999 1.1294403076171875 1.2911280393600464 1.624159574508667 1.9538813829421997 2.2473344802856445 2.491769313812256 2.6421608924865723 2.6836681365966797 2.6876580715179443 2.7098946571350098 2.7709479331970215 2.904160499572754 2.9267494678497314 2.8921029567718506 2.800144910812378 2.8303823471069336 2.937915325164795 2.8651785850524902 -9999
-9999 1.4664452075958252 1.645320177078247 2.0089528560638428 2.321499824523926 2.524531126022339 2.6412408351898193 2.6827774047851562 2.6783573627471924 2.6692934036254883 2.6758384704589844 2.6462836265563965 2.5872645378112793 2.491873264312744 2.4293365478515625 2.3553903102874756 2.3200714588165283 2.548444986343384 -9999 -9999
-9999 1.6907281875610352 1.8816773891448975 2.243582010269165 2.5030384063720703 2.617063522338867 2.645559787750244 2.6399736404418945 2.648494005203247 2.678340196609497 2.738609790802002 2.6565465927124023 2.471418619155884 2.203552484512329 2.0440878868103027 1.8785768747329712 1.7536078691482544 1.577345371246338 -9999 -9999
-9999 1.8537484407424927 2.048920154571533 2.365333318710327 2.567725896835327 2.5998194217681885 2.566857099533081 2.539193630218506 2.5740561485290527 2.6574621200561523 2.6533052921295166 2.5218007564544678 2.2801907062530518 1.975633978843689 1.7327650785446167 1.526007890701294 1.364762544631958 1.2344242334365845 1.1904405355453491 1.068963885307312
-9999 -9999 2.2124485969543457 2.4402589797973633 2.5831265449523926 2.547701358795166 2.452033758163452 2.4030635356903076 2.470573902130127 2.4962821006774902 2.457758665084839 2.314817428588867 2.0873193740844727 1.7870638370513916 1.5330500602722168 1.3407878875732422 1.1677570343017578 1.0522884130477905 0.9758715033531189 1.0167893171310425
-9999 -9999 2.3842689990997314 2.5047249794006348 2.571634292602539 2.4672436714172363 2.306699275970459 2.2114341259002686 2.24102520942688 2.2465412616729736 2.2335433959960938 2.0957045555114746 1.8715864419937134 1.5919969081878662 1.3693420886993408 1.2035353183746338 1.0640785694122314 0.9791622161865234 1.021864652633667 1.0465643405914307
-9999 -9999 -9999 2.5354628562927246 2.5604121685028076 2.4261958599090576 2.2294254302978516 2.11141037940979 2.1280934810638428 2.138333320617676 2.1162495613098145 2.011747121810913 1.7895750999450684 1.5173028707504272 1.2859195470809937 1.1541972160339355 1.002682089805603 1.0157469511032104 1.0473073720932007 1.0653342008590698
