ncols         20
nrows         20
xllcorner     0
yllcorner     -3.5992928
cellsize      0.17996463
NODATA_value  -9999
-9999.0 -9999 -9999 -9999 -9999 -9999 -9999 -9999 -9999 -9999 -9999 -9999 -9999 -9999 -9999 -9999 -9999 -9999 -9999 -9999
-9999 -9999 -9999 -9999 -9999 -9999 -9999 -9999 -9999 -9999 -9999 0.198495551943779 0.1953963190317154 -9999 -9999 0.1776673048734665 0.16644273698329926 -9999 -9999 -9999
-9999 -9999 -9999 -9999 0.17933142185211182 0.19521263241767883 0.22465786337852478 0.25222769379615784 0.27377569675445557 0.2895278036594391 0.2676146626472473 0.248493492603302 0.24986031651496887 0.2550680637359619 0.23243124783039093 0.20114511251449585 0.18166416883468628 0.17224696278572083 -9999 -9999
-9999 -9999 -9999 0.17618878185749054 0.18982844054698944 0.21169762313365936 0.24525012075901031 0.28168267011642456 0.3225677013397217 0.35908621549606323 0.3849751353263855 0.3882331848144531 0.3847092092037201 0.3571905791759491 0.314252644777298 0.26388949155807495 0.22584348917007446 0.2065494954586029 -9999 -9999
-9999 -9999 -9999 0.18467043340206146 0.2036013901233673 0.24361415207386017 0.29612886905670166 0.3608868718147278 0.4427427649497986 0.5492265820503235 0.6540951728820801 0.7088651657104492 0.6948364973068237 0.6058648824691772 0.5019916296005249 0.3953453302383423 0.31959182024002075 0.3008034825325012 -9999 -9999
-9999 -9999 0.17283326387405396 0.19367137551307678 0.22909583151340485 0.2873375117778778 0.36424776911735535 0.4674135148525238 0.6244193911552429 0.8298215270042419 1.0520470142364502 1.1724610328674316 1.1675305366516113 1.0143383741378784 0.8042396903038025 0.6147423386573792 0.48309436440467834 0.4335034191608429 0.4116690754890442 -9999
-9999 -9999 0.1848941147327423 0.21034495532512665 0.2697075307369232 0.35803699493408203 0.4703950583934784 0.6304727792739868 0.8663409948348999 1.1709195375442505 1.4866554737091064 1.6835932731628418 1.6967523097991943 1.523855209350586 1.2658674716949463 0.9621970653533936 0.7457192540168762 0.6146445870399475 0.565561830997467 -9999
-9999 -9999 0.21791136264801025 0.2605411410331726 0.3525756597518921 0.48241525888442993 0.6585751175880432 0.8942360281944275 1.1921457052230835 1.5447882413864136 1.8618409633636475 2.084615468978882 2.1336669921875 2.003610134124756 1.7452690601348877 1.423150658607483 1.1357779502868652 0.929786205291748 0.8468425273895264 -9999
-9999 0.23536424338817596 0.27487045526504517 0.35305365920066833 0.5048776268959045 0.7192359566688538 0.9841620922088623 1.3126904964447021 1.6642637252807617 1.9960355758666992 2.2538881301879883 2.4384469985961914 2.5260298252105713 2.470059871673584 2.299039840698242 2.0357913970947266 1.65395188331604 1.378516435623169 1.2591345310211182 -9999
-9999 0.29535725712776184 0.35727933049201965 0.5083024501800537 0.7531945109367371 1.0799146890640259 1.4682142734527588 1.8890233039855957 2.262471914291382 2.535511016845703 2.707648754119873 2.8448870182037354 2.9364142417907715 2.9544124603271484 2.861717700958252 2.685007333755493 2.281954526901245 1.9663267135620117 1.8241422176361084 -9999
-9999 0.42204147577285767 0.514464259147644 0.7330682277679443 1.0600736141204834 1.4856575727462769 1.9863029718399048 2.4798707962036133 2.8370468616485596 3.0497214794158936 3.183626174926758 3.305506706237793 3.431032180786133 3.48392391204834 3.429941177368164 3.275846481323242 2.972440242767334 2.664083242416382 2.513962745666504 -9999
-9999 0.6444563269615173 0.7670043110847473 1.057098388671875 1.451609492301941 1.926972508430481 2.463463068008423 2.937559127807617 3.22526216506958 3.3744585514068604 3.483902931213379 3.6357343196868896 3.8884787559509277 3.9846391677856445 3.9054927825927734 3.8662197589874268 3.5890581607818604 3.339020013809204 3.203531503677368 -9999
-9999 0.9974781274795532 1.1674385070800781 1.5388789176940918 1.9599809646606445 2.422863721847534 2.889923572540283 3.253756523132324 3.4182474613189697 3.4674830436706543 3.52219295501709 3.6453332901000977 3.8890626430511475 3.9866201877593994 3.989461660385132 3.8831865787506104 3.821331024169922 3.7302815914154053 3.623344659805298 -9999
-9999 1.4678897857666016 1.682317852973938 2.122746467590332 2.55885910987854 2.943791151046753 3.2572343349456787 3.4379231929779053 3.466704845428467 3.437831163406372 3.426112174987793 3.458035707473755 3.5657482147216797 3.567765474319458 3.523844003677368 3.4477717876434326 3.518109083175659 3.682133913040161 3.632876396179199 -9999
-9999 1.9238197803497314 2.1609458923339844 2.641772985458374 3.0526883602142334 3.3122339248657227 3.448291778564453 3.474828004837036 3.4304614067077637 3.3721070289611816 3.330982208251953 3.252899169921875 3.1473731994628906 3.0115132331848145 2.9132471084594727 2.8317604064941406 2.817133665084839 3.112590789794922 -9999 -9999
-9999 2.2302541732788086 2.483408212661743 2.960768938064575 3.29703950881958 3.431600332260132 3.4414560794830322 3.3931281566619873 3.3502283096313477 3.3241066932678223 3.328310012817383 3.1849751472473145 2.9382739067077637 2.6148781776428223 2.404130220413208 2.2034037113189697 2.0612642765045166 1.843351125717163 -9999 -9999
-9999 2.452186107635498 2.711970090866089 3.1271512508392334 3.3828999996185303 3.4020655155181885 3.320976734161377 3.2313058376312256 3.205962657928467 3.227829694747925 3.161633014678955 2.963827610015869 2.6565258502960205 2.296858787536621 2.0006606578826904 1.7490346431732178 1.5506175756454468 1.3788751363754272 1.2847522497177124 1.137364149093628
-9999 -9999 2.9336905479431152 3.2287673950195312 3.4012715816497803 3.3249406814575195 3.153881549835205 3.0265281200408936 3.0249757766723633 2.9848146438598633 2.883829116821289 2.6768834590911865 2.3877642154693604 2.027698516845703 1.724352240562439 1.4938441514968872 1.2864820957183838 1.142606258392334 1.0416929721832275 1.0764331817626953
-9999 -9999 3.1638777256011963 3.314154624938965 3.383533477783203 3.2124881744384766 2.9534108638763428 2.764712333679199 2.7168519496917725 2.6582741737365723 2.5927858352661133 2.395772695541382 2.1131958961486816 1.7784509658813477 1.5140774250030518 1.3167790174484253 1.1510602235794067 1.0466976165771484 1.081925630569458 1.1029760837554932
-9999 -9999 -9999 3.351379632949829 3.3664982318878174 3.154945135116577 2.847644567489624 2.6298739910125732 2.5678675174713135 2.51741623878479 2.4433255195617676 2.286465644836426 2.0074284076690674 1.6823216676712036 1.4100446701049805 1.251985788345337 1.0754820108413696 1.0788400173187256 1.1048167943954468 1.1202301979064941
