ncols         20
nrows         20
xllcorner     0
yllcorner     -3.5992928
cellsize      0.17996463
NODATA_value  -9999
-9999.0 -9999 -9999 -9999 -9999 -9999 -9999 -9999 -9999 -9999 -9999 -9999 -9999 -9999 -9999 -9999 -9999 -9999 -9999 -9999
-9999 -9999 -9999 -9999 -9999 -9999 -9999 -9999 -9999 -9999 -9999 1.049225091934204 1.0257937908172607 -9999 -9999 0.9039129614830017 0.8465542793273926 -9999 -9999 -9999
-9999 -9999 -9999 -9999 1.1641087532043457 1.240599513053894 1.3748494386672974 1.4734115600585938 1.5224922895431519 1.5387847423553467 1.372381567955017 1.2525417804718018 1.2321887016296387 1.214208960533142 1.0952062606811523 0.9644277095794678 0.8701420426368713 0.8063126802444458 -9999 -9999
-9999 -9999 -9999 1.096449613571167 1.1834646463394165 1.2882965803146362 1.4316511154174805 1.561521291732788 1.69101881980896 1.7848436832427979 1.826223611831665 1.779569149017334 1.718445897102356 1.5633289813995361 1.3620645999908447 1.1453341245651245 0.9793329238891602 0.8895969986915588 -9999 -9999
-9999 -9999 -9999 1.0788905620574951 1.1758636236190796 1.3598989248275757 1.5713386535644531 1.800614595413208 2.0669562816619873 2.4043283462524414 2.7072536945343018 2.8140289783477783 2.6824867725372314 2.2958121299743652 1.8817603588104248 1.478630781173706 1.1926689147949219 1.1142926216125488 -9999 -9999
-9999 -9999 0.8641481995582581 1.0068256855010986 1.1747208833694458 1.4119088649749756 1.6849323511123657 2.0123066902160645 2.4894676208496094 3.0720372200012207 3.6558642387390137 3.8904824256896973 3.7579383850097656 3.2002198696136475 2.509125232696533 1.9126334190368652 1.494244933128357 1.3142272233963013 1.1653856039047241 -9999
-9999 -9999 0.838175892829895 0.9528449177742004 1.1837267875671387 1.4866544008255005 1.8209739923477173 2.2538821697235107 2.847280263900757 3.552722454071045 4.2143731117248535 4.534028053283691 4.420560836791992 3.8837602138519287 3.1716439723968506 2.420661211013794 1.8820717334747314 1.5479285717010498 1.4024734497070312 -9999
-9999 -9999 0.8369358777999878 0.9839923977851868 1.2723031044006348 1.6299781799316406 2.0568485260009766 2.5603978633880615 3.1284079551696777 3.7357263565063477 4.200654983520508 4.452652931213379 4.39309024810791 4.033075332641602 3.4736151695251465 2.828218698501587 2.281094789505005 1.885939121246338 1.722219467163086 -9999
-9999 0.6781366467475891 0.8494800329208374 1.0763649940490723 1.458824634552002 1.926582932472229 2.4146876335144043 2.930506944656372 3.3884053230285645 3.7393360137939453 3.9347729682922363 4.02298641204834 4.001778602600098 3.817899703979492 3.5119431018829346 3.0900914669036865 2.578800678253174 2.1956331729888916 2.0288825035095215 -9999
-9999 0.7487302422523499 0.9090542793273926 1.2476654052734375 1.7325694561004639 2.2815470695495605 2.808887243270874 3.2535271644592285 3.524869918823242 3.617084503173828 3.588474750518799 3.551774024963379 3.5087437629699707 3.4413886070251465 3.306053400039673 3.0976383686065674 2.723447322845459 2.4147610664367676 2.278109550476074 -9999
-9999 0.8917180299758911 1.0681657791137695 1.45262610912323 1.9557563066482544 2.495659351348877 2.985445976257324 3.315760850906372 3.402536392211914 3.3290300369262695 3.211069345474243 3.12331485748291 3.080914258956909 3.050760269165039 3.0016260147094727 2.9016177654266357 2.714601516723633 2.511146068572998 2.4175221920013428 -9999
-9999 1.1182749271392822 1.2975349426269531 1.6936932802200317 2.1503212451934814 2.5804824829101562 2.9303410053253174 3.0928988456726074 3.0390872955322266 2.890974283218384 2.7559752464294434 2.6826679706573486 2.6859803199768066 2.6826446056365967 2.6588125228881836 2.6573941707611084 2.565519332885742 2.4668169021606445 2.4193811416625977 -9999
-9999 1.4269596338272095 1.6171897649765015 1.9988294839859009 2.333066463470459 2.591237783432007 2.742863655090332 2.7433738708496094 2.5961647033691406 2.4105496406555176 2.2724075317382812 2.2012579441070557 2.2049641609191895 2.2084102630615234 2.226789712905884 2.2450881004333496 2.273203134536743 2.282148838043213 2.2734272480010986 -9999
-9999 1.7583003044128418 1.9345346689224243 2.2572391033172607 2.462714672088623 2.534705400466919 2.5014641284942627 2.3724710941314697 2.18001651763916 1.9861750602722168 1.8466120958328247 1.7647391557693481 1.7341978549957275 1.7096998691558838 1.7026517391204834 1.7296559810638428 1.8288875818252563 1.9843051433563232 2.055976390838623 -9999
-9999 1.9672757387161255 2.096754550933838 2.3333537578582764 2.4147093296051025 2.343684196472168 2.1970226764678955 2.0142455101013184 1.8172532320022583 1.6525200605392456 1.5373387336730957 1.4475007057189941 1.3765177726745605 1.3184685707092285 1.2797197103500366 1.2787020206451416 1.3283754587173462 1.509437084197998 -9999 -9999
-9999 1.99347722530365 2.0646698474884033 2.2080559730529785 2.191391944885254 2.051074743270874 1.8708446025848389 1.683075189590454 1.5292630195617676 1.4142662286758423 1.3398358821868896 1.2571399211883545 1.1664717197418213 1.0688235759735107 1.0007771253585815 0.9481061100959778 0.9265767335891724 0.8482087850570679 -9999 -9999
-9999 1.9943674802780151 1.94728684425354 1.995417594909668 1.9290852546691895 1.763639211654663 1.571455478668213 1.4058011770248413 1.2936503887176514 1.2220948934555054 1.1610687971115112 1.0868666172027588 0.9964802861213684 0.9018948674201965 0.8184733390808105 0.7477292418479919 0.6950530409812927 0.6464564204216003 0.6279966831207275 0.5697396993637085
-9999 -9999 1.7508552074432373 1.7741979360580444 1.6985329389572144 1.5257248878479004 1.3347147703170776 1.1893188953399658 1.1074706315994263 1.049544095993042 1.0019365549087524 0.9419685006141663 0.8683341145515442 0.7741311192512512 0.6942712068557739 0.6351838111877441 0.5780142545700073 0.5404763221740723 0.5138806700706482 0.5424178242683411
-9999 -9999 1.691104531288147 1.6230491399765015 1.5283691883087158 1.3476978540420532 1.156099796295166 1.0164768695831299 0.9412873983383179 0.8970748782157898 0.874957799911499 0.826616108417511 0.7591649889945984 0.6746325492858887 0.610238790512085 0.5643595457077026 0.5239465236663818 0.5023713707923889 0.5389934778213501 0.5599162578582764
-9999 -9999 -9999 1.5002521276474 1.4369595050811768 1.2618616819381714 1.0712522268295288 0.9361089468002319 0.8677949905395508 0.8344947099685669 0.8147640824317932 0.783062219619751 0.718612551689148 0.6380813121795654 0.5706659555435181 0.5404194593429565 0.49472612142562866 0.5223326683044434 0.5540324449539185 0.5718061327934265
