ncols         20
nrows         20
xllcorner     0
yllcorner     -3.5992928
cellsize      0.17996463
NODATA_value  -9999
-9999.0 -9999 -9999 -9999 -9999 -9999 -9999 -9999 -9999 -9999 -9999 -9999 -9999 -9999 -9999 -9999 -9999 -9999 -9999 -9999
-9999 -9999 -9999 -9999 -9999 -9999 -9999 -9999 -9999 -9999 -9999 0 0 -9999 -9999 0 0 -9999 -9999 -9999
-9999 -9999 -9999 -9999 0 0 0 0 0 0 0 0 0 0 0 0 0 0 -9999 -9999
-9999 -9999 -9999 0 0 0 0 0 0 0 0 0 0 0 0 0 0 0 -9999 -9999
-9999 -9999 -9999 0 0 0 0 0 0 0 0 0 0 0 0 0 0 0 -9999 -9999
-9999 -9999 0 0 0 0 3.473126173019409 3.3091580867767334 3.148001194000244 2.948432683944702 2.739983320236206 2.6420953273773193 2.7013025283813477 2.9286653995513916 3.2341132164001465 3.5564770698547363 0 0 0 -9999
-9999 -9999 0 0 0 3.528092384338379 3.264828681945801 3.0130691528320312 2.7133073806762695 2.358473300933838 2.030026912689209 1.8594622611999512 1.903170108795166 2.1698226928710938 0.2877648174762726 3.096967935562134 0 0 0 -9999
-9999 -9999 0 0 3.703629970550537 3.4036123752593994 3.079257011413574 2.701495409011841 2.274808883666992 1.8427166938781738 1.5078216791152954 1.3266178369522095 1.3417335748672485 1.559778094291687 1.959134578704834 2.4863803386688232 3.058938980102539 0 0 -9999
-9999 0 0 4.0063629150390625 3.6570661067962646 3.261770486831665 2.7914834022521973 2.2709031105041504 1.7731807231903076 1.366888165473938 1.0989186763763428 0.9604761004447937 0.9521521329879761 1.0964946746826172 1.3908838033676147 0.4079430103302002 2.372149705886841 2.888188362121582 0 -9999
-9999 0 0 4.069974422454834 3.560797929763794 2.9719252586364746 2.3319783210754395 1.719269037246704 1.2361009120941162 0.9195005893707275 0.7470648884773254 0.6620660424232483 0.6570339202880859 0.7360571026802063 0.9280039668083191 0.2765880227088928 1.6884119510650635 2.1443018913269043 0 -9999
-9999 0 0 4.033649921417236 3.326281785964966 2.576601505279541 1.8278231620788574 1.1944057941436768 0.7792652249336243 0.5524322986602783 0.44345709681510925 0.3982623219490051 0.39607861638069153 0.4401642084121704 0.5496526956558228 0.7541903853416443 1.0566586256027222 0 0 -9999
-9999 0 0 3.784116506576538 2.933656930923462 2.121443271636963 1.3752708435058594 0.8069159984588623 0.47433987259864807 0.30678340792655945 0.23342421650886536 0.20214559137821198 0.08830712735652924 0.1196083128452301 0.2639797031879425 0.08220397680997849 0.5501829385757446 0 0 -9999
-9999 0 0 3.2368404865264893 2.3634231090545654 1.6076900959014893 0.979992151260376 0.5314424633979797 0.2823679447174072 0.16875338554382324 0.11078304797410965 0.08783382922410965 0.053077276796102524 0.07291799038648605 0.0662446916103363 0.1388877034187317 0.22661511600017548 0 0 -9999
-9999 0 0 2.4820990562438965 1.6734071969985962 1.068015456199646 0.6230276226997375 0.32804691791534424 0.16262222826480865 0.09226822853088379 0.05909700319170952 0.04333481937646866 0.01582055725157261 0.025938093662261963 0.02379428967833519 0.046044591814279556 0.07055850327014923 0 0 -9999
-9999 0 0 1.7813745737075806 1.079401969909668 0.6362508535385132 0.3567288815975189 0.18274660408496857 0.09692617505788803 0.055998820811510086 0.036095693707466125 0.025272546336054802 0.01942124404013157 0.016647877171635628 0.010361249558627605 0.009420552290976048 0.02131226658821106 0 -9999 -9999
-9999 0 0 1.3186415433883667 0.7231951355934143 0.38157153129577637 0.19949392974376678 0.1060689315199852 0.060635585337877274 0.0369703471660614 0.01640530489385128 0.01345400232821703 0.0015406995080411434 0.015185925178229809 0.007488918490707874 0.008289603516459465 0.02037232369184494 0.00310129695571959 -9999 -9999
-9999 0 0 1.043727993965149 0.5301507711410522 0.23994004726409912 0.12081041932106018 0.06444413959980011 0.03807402029633522 0.016167830675840378 0.014924122020602226 0.014887086115777493 0.012410024181008339 0.017552921548485756 0.01948644407093525 0.02159232087433338 0.023786848410964012 0.026221757754683495 0.0213326383382082 0.03156260773539543
-9999 -9999 0 0.8440041542053223 0.41226518154144287 0.17448486387729645 0.08072417974472046 0.041811518371105194 0.013703864999115467 0.014579905197024345 0.01614798977971077 0.016706939786672592 0.015973718836903572 0.015390369109809399 0.01462289784103632 0.016148027032613754 0.017693813890218735 0.022416966035962105 0.02755400724709034 0.0321173295378685
-9999 -9999 0 0 0.32767412066459656 0.1317349225282669 0.057071536779403687 0.028109997510910034 0.012346254661679268 0.01759905181825161 0.017493996769189835 0.018186064437031746 0.01959226466715336 0.02155168168246746 0.023814626038074493 0.026160119101405144 0.02842174656689167 0.030390223488211632 0.03186403214931488 0.03263311833143234
-9999 -9999 -9999 0 0.2796243727207184 0.11462293565273285 0.04808580502867699 0.0230895783752203 0.012735222466289997 0.01827985979616642 0.01824958063662052 0.019002094864845276 0.02047860436141491 0.022507769986987114 0.024826906621456146 0.027172528207302094 0.02937411516904831 0.031114818528294563 0.03232293203473091 0.03294115141034126
