ncols         20
nrows         20
xllcorner     0
yllcorner     -3.5992928
cellsize      0.17996463
NODATA_value  -9999
-9999.0 -9999 -9999 -9999 -9999 -9999 -9999 -9999 -9999 -9999 -9999 -9999 -9999 -9999 -9999 -9999 -9999 -9999 -9999 -9999
-9999 -9999 -9999 -9999 -9999 -9999 -9999 -9999 -9999 -9999 -9999 27.047657012939453 27.04896354675293 -9999 -9999 27.1079158782959 27.171241760253906 -9999 -9999 -9999
-9999 -9999 -9999 -9999 27.158592224121094 27.068458557128906 26.927919387817383 26.816871643066406 26.75414276123047 26.739770889282227 26.814435958862305 26.892192840576172 26.868772506713867 26.790409088134766 26.831907272338867 26.9664306640625 27.051624298095703 27.06270408630371 -9999 -9999
-9999 -9999 -9999 27.185516357421875 27.146812438964844 27.080524444580078 26.985023498535156 26.905712127685547 26.85479164123535 26.83833885192871 26.85242462158203 26.861858367919922 26.820350646972656 26.771318435668945 26.76451301574707 26.811012268066406 26.840986251831055 26.83135986328125 -9999 -9999
-9999 -9999 -9999 27.163745880126953 27.157691955566406 27.14444351196289 27.14589500427246 27.15595817565918 27.208301544189453 27.285459518432617 27.35824966430664 27.38265609741211 27.312274932861328 27.1641902923584 26.984333038330078 26.83234977722168 26.666854858398438 26.52301597595215 -9999 -9999
-9999 -9999 27.15029525756836 27.154054641723633 27.198959350585938 27.316089630126953 27.518985748291016 27.72933578491211 27.97356605529785 28.244033813476562 28.476287841796875 28.582889556884766 28.49649429321289 28.215011596679688 27.793996810913086 27.310989379882812 26.79978370666504 26.44036865234375 26.249279022216797 -9999
-9999 -9999 27.061399459838867 27.138425827026367 27.29034996032715 27.573814392089844 27.95622444152832 28.40673828125 28.90496826171875 29.405813217163086 29.80080223083496 29.987319946289062 29.908281326293945 29.54452896118164 28.920976638793945 28.190696716308594 27.406579971313477 26.804773330688477 26.48896598815918 -9999
-9999 -9999 26.84246253967285 27.048465728759766 27.38842010498047 27.854307174682617 28.474828720092773 29.191402435302734 29.932140350341797 30.596294403076172 31.073345184326172 31.29613494873047 31.240034103393555 30.88959503173828 30.24614715576172 29.400850296020508 28.489274978637695 27.688251495361328 27.230545043945312 -9999
-9999 26.191423416137695 26.500198364257812 26.959903717041016 27.50645637512207 28.25763702392578 29.17001724243164 30.13706398010254 31.028606414794922 31.735576629638672 32.20149612426758 32.41291809082031 32.372806549072266 32.07503128051758 31.507244110107422 30.702878952026367 29.832908630371094 29.01681137084961 28.487897872924805 -9999
-9999 25.937801361083984 26.27265167236328 26.949813842773438 27.822134017944336 28.910402297973633 30.09589385986328 31.215261459350586 32.126182556152344 32.772865295410156 33.16620635986328 33.332088470458984 33.291446685791016 33.05691909790039 32.616146087646484 31.969829559326172 31.244340896606445 30.52350616455078 30.041236877441406 -9999
-9999 25.713836669921875 26.18956756591797 27.174135208129883 28.418954849243164 29.79245376586914 31.13807487487793 32.28065872192383 33.11952209472656 33.66694259643555 33.973716735839844 34.078861236572266 34.01642990112305 33.835838317871094 33.53479766845703 33.08512878417969 32.547000885009766 31.98549461364746 31.618608474731445 -9999
-9999 25.83142852783203 26.49080467224121 27.798198699951172 29.304737091064453 30.812618255615234 32.16415023803711 33.225040435791016 33.96160888671875 34.42295837402344 34.6630973815918 34.71177673339844 34.60332489013672 34.457672119140625 34.278480529785156 33.98320770263672 33.62887954711914 33.238800048828125 32.97926712036133 -9999
-9999 26.540531158447266 27.3697509765625 28.858993530273438 30.44923973083496 31.909313201904297 33.123355865478516 34.0390625 34.67312240600586 35.06841278076172 35.28459548950195 35.318302154541016 35.21628189086914 35.10421371459961 34.98134994506836 34.813087463378906 34.53557205200195 34.22774124145508 33.99714660644531 -9999
-9999 27.79635238647461 28.681734085083008 30.192733764648438 31.70865249633789 32.99214172363281 33.99658203125 34.74492645263672 35.2808723449707 35.60342025756836 35.7796745300293 35.83781433105469 35.80474853515625 35.76188659667969 35.69633102416992 35.58373260498047 35.361915588378906 35.054588317871094 34.668060302734375 -9999
-9999 29.169185638427734 30.048606872558594 31.482131958007812 32.84873962402344 33.93646240234375 34.7504768371582 35.35302734375 35.7481575012207 35.99281692504883 36.13978576660156 36.24302291870117 36.3172607421875 36.37092971801758 36.36813735961914 36.309364318847656 36.17975616455078 35.98339080810547 -9999 -9999
-9999 30.294158935546875 31.18402671813965 32.50541687011719 33.72121047973633 34.672706604003906 35.366580963134766 35.82469940185547 36.10655975341797 36.270626068115234 36.37649154663086 36.50714874267578 36.66432571411133 36.82035446166992 36.90021896362305 36.92458724975586 36.905433654785156 36.89628601074219 -9999 -9999
-9999 31.01804542541504 32.094879150390625 33.27198791503906 34.355350494384766 35.23410415649414 35.82541275024414 36.19977569580078 36.404510498046875 36.51156997680664 36.61088562011719 36.758235931396484 36.95328903198242 37.15916061401367 37.303199768066406 37.38393783569336 37.42271041870117 37.47353744506836 37.63862609863281 37.71840286254883
-9999 -9999 33.149715423583984 33.92667007446289 34.82480239868164 35.61348342895508 36.164371490478516 36.504642486572266 36.66977310180664 36.76469039916992 36.85828399658203 37.005210876464844 37.20393371582031 37.42422103881836 37.59443283081055 37.69750213623047 37.758567810058594 37.79671096801758 37.840091705322266 37.843448638916016
-9999 -9999 33.74977111816406 34.407833099365234 35.15778350830078 35.877967834472656 36.417152404785156 36.757442474365234 36.91657638549805 37.00153350830078 37.08012008666992 37.21864700317383 37.4155387878418 37.63541793823242 37.80891799926758 37.917789459228516 37.981136322021484 37.99662780761719 37.9725341796875 37.95386505126953
-9999 -9999 -9999 34.820396423339844 35.3830451965332 36.02315139770508 36.551239013671875 36.89283752441406 37.04798126220703 37.126747131347656 37.200286865234375 37.32572937011719 37.52074432373047 37.74205017089844 37.9240837097168 38.0341911315918 38.10544967651367 38.092994689941406 38.056888580322266 38.034576416015625
