ncols         20
nrows         20
xllcorner     0
yllcorner     -3.5992928
cellsize      0.17996463
NODATA_value  -9999
-9999.0 -9999 -9999 -9999 -9999 -9999 -9999 -9999 -9999 -9999 -9999 -9999 -9999 -9999 -9999 -9999 -9999 -9999 -9999 -9999
-9999 -9999 -9999 -9999 -9999 -9999 -9999 -9999 -9999 -9999 -9999 3.02797794342041 3.0394644737243652 -9999 -9999 3.2588491439819336 3.266045331954956 -9999 -9999 -9999
-9999 -9999 -9999 -9999 3.2830684185028076 3.228365659713745 3.146691083908081 3.0512709617614746 2.9635508060455322 2.9032747745513916 2.8826522827148438 2.9250504970550537 2.963711977005005 3.0054736137390137 3.077327251434326 3.166808605194092 3.205509901046753 3.2122790813446045 -9999 -9999
-9999 -9999 -9999 3.3244550228118896 3.264361619949341 3.164257526397705 3.0436484813690186 2.9150803089141846 2.8044402599334717 2.730048418045044 2.702244997024536 2.72377872467041 2.77915358543396 2.857928514480591 2.951282024383545 3.041062831878662 3.108083724975586 3.14982008934021 -9999 -9999
-9999 -9999 -9999 3.303910970687866 3.201960325241089 3.043938636779785 2.8524932861328125 2.656343460083008 2.499638795852661 2.399867057800293 2.3619327545166016 2.3869094848632812 2.4675989151000977 2.5855071544647217 2.7204790115356445 2.8487250804901123 2.9547739028930664 3.024259328842163 -9999 -9999
-9999 -9999 3.3741250038146973 3.2853710651397705 3.11449933052063 2.8685710430145264 2.5653090476989746 2.2583274841308594 2.0426087379455566 1.920248031616211 1.8802987337112427 1.9228489398956299 2.045680522918701 2.2120401859283447 2.3960652351379395 2.571685791015625 2.7173736095428467 2.808598518371582 2.7879481315612793 -9999
-9999 -9999 3.3682875633239746 3.23982834815979 2.997896432876587 2.639613151550293 2.17864990234375 1.6845803260803223 1.4221606254577637 1.3060920238494873 1.2893450260162354 1.3727574348449707 1.581399917602539 1.8005893230438232 2.021395206451416 2.2326388359069824 2.4131505489349365 2.544226884841919 2.603062868118286 -9999
-9999 -9999 3.374385118484497 3.1979150772094727 2.8726086616516113 2.3908772468566895 1.7370258569717407 0.8255593180656433 0.6152322292327881 0.567793607711792 0.592609703540802 0.713637113571167 1.1494122743606567 1.4301066398620605 1.6637763977050781 1.8804051876068115 2.07375168800354 2.227694272994995 2.3154375553131104 -9999
-9999 3.521353006362915 3.391684055328369 3.141818046569824 2.7437641620635986 2.1894474029541016 1.486522912979126 0.6260782480239868 0.40787234902381897 0.36085745692253113 0.39174148440361023 0.518625795841217 0.8965801000595093 1.1588126420974731 1.3717037439346313 1.5640144348144531 1.742138385772705 1.8933049440383911 1.9860012531280518 -9999
-9999 3.466129779815674 3.318132162094116 3.0270676612854004 2.587603807449341 2.0134365558624268 1.3366249799728394 0.5749325156211853 0.3634432852268219 0.3123617470264435 0.3388108015060425 0.452364444732666 0.7563643455505371 0.9770190119743347 1.1544578075408936 1.313629388809204 1.4599236249923706 1.5896002054214478 1.6737658977508545 -9999
-9999 3.319749116897583 3.1529805660247803 2.8355343341827393 2.386622428894043 1.8396549224853516 1.233343482017517 0.5776523351669312 0.38579636812210083 0.3344689905643463 0.3530985116958618 0.4461404085159302 0.6871811747550964 0.8628647327423096 1.0026211738586426 1.1292028427124023 1.2463855743408203 1.3529601097106934 1.4248130321502686 -9999
-9999 3.059953212738037 2.883711338043213 2.5623085498809814 2.1402666568756104 1.6629558801651 1.1641292572021484 0.6317020058631897 0.4668744206428528 0.4151335656642914 0.4222840368747711 0.4895738661289215 0.6702147722244263 0.7994838953018188 0.9039317965507507 1.0009386539459229 1.094101905822754 1.182375431060791 1.2446062564849854 -9999
-9999 2.704127788543701 2.53062105178833 2.2299578189849854 1.8685098886489868 1.4918208122253418 1.1336753368377686 0.8286527991294861 0.6646484136581421 0.5916023254394531 0.5786161422729492 0.6143126487731934 0.6945408582687378 0.7726325392723083 0.8445044159889221 0.9162900447845459 0.9910821914672852 1.0670896768569946 1.1257423162460327 -9999
-9999 2.3104159832000732 2.151987075805664 1.8943699598312378 1.612626075744629 1.3354014158248901 1.0838818550109863 0.8837827444076538 0.7575923800468445 0.6902288794517517 0.6675923466682434 0.6795772314071655 0.7166935205459595 0.7619898319244385 0.8099499344825745 0.8628709316253662 0.9249500036239624 0.993903636932373 1.0626535415649414 -9999
-9999 1.9596402645111084 1.8238263130187988 1.6221057176589966 1.4102401733398438 1.2077124118804932 1.0283774137496948 0.8875702023506165 0.7932472229003906 0.7382450699806213 0.7142529487609863 0.7142300009727478 0.7312658429145813 0.7576690912246704 0.7897391319274902 0.8279667496681213 0.8759240508079529 0.9201738834381104 -9999 -9999
-9999 1.7075960636138916 1.5871925354003906 1.4238173961639404 1.2601001262664795 1.1089072227478027 0.9773149490356445 0.8735038042068481 0.8023619055747986 0.7589222192764282 0.7371323704719543 0.732186496257782 0.7396370768547058 0.7553932070732117 0.7770962715148926 0.8047407865524292 0.840924084186554 0.8741090297698975 -9999 -9999
-9999 1.569068193435669 1.4264652729034424 1.2858047485351562 1.15253746509552 1.0347965955734253 0.9346351027488708 0.8553436994552612 0.8007056713104248 0.7663882374763489 0.7477025985717773 0.7412580251693726 0.7440863251686096 0.7536475658416748 0.768339991569519 0.7877824902534485 0.8130173087120056 0.8381076455116272 0.8410521745681763 0.8430918455123901
-9999 -9999 1.2710916996002197 1.181465744972229 1.0762075185775757 0.9813976883888245 0.9014506340026855 0.8389732837677002 0.7959230542182922 0.7682561278343201 0.7523834705352783 0.7457559108734131 0.7462731599807739 0.7521793246269226 0.7621053457260132 0.7752202749252319 0.7908817529678345 0.8071226477622986 0.8157363533973694 0.8189182281494141
-9999 -9999 1.1976068019866943 1.1182316541671753 1.0294628143310547 0.946906328201294 0.8788371682167053 0.8271303772926331 0.7916192412376404 0.7683107256889343 0.7543636560440063 0.7478964924812317 0.7472836375236511 0.7511006593704224 0.7580808997154236 0.7672282457351685 0.7775103449821472 0.7871356010437012 0.7933273911476135 0.796131432056427
-9999 -9999 -9999 1.0662226676940918 1.0030161142349243 0.9291378259658813 0.867275595664978 0.8209670186042786 0.7891587615013123 0.7679694294929504 0.755017876625061 0.7486839890480042 0.7476055026054382 0.7504797577857971 0.7560919523239136 0.7633835077285767 0.7713469862937927 0.7784590125083923 0.7834026217460632 0.7858377695083618
