ncols         20
nrows         20
xllcorner     0
yllcorner     -3.5992928
cellsize      0.17996463
NODATA_value  -9999
-9999.0 -9999 -9999 -9999 -9999 -9999 -9999 -9999 -9999 -9999 -9999 -9999 -9999 -9999 -9999 -9999 -9999 -9999 -9999 -9999
-9999 -9999 -9999 -9999 -9999 -9999 -9999 -9999 -9999 -9999 -9999 26.520282745361328 26.51956558227539 -9999 -9999 26.616430282592773 26.69622230529785 -9999 -9999 -9999
-9999 -9999 -9999 -9999 26.583589553833008 26.47220802307129 26.311769485473633 26.195951461791992 26.137855529785156 26.129222869873047 26.210102081298828 26.301225662231445 26.26643943786621 26.159669876098633 26.21648597717285 26.409730911254883 26.541364669799805 26.57865333557129 -9999 -9999
-9999 -9999 -9999 26.59239959716797 26.533069610595703 26.432315826416016 26.31694793701172 26.247072219848633 26.209247589111328 26.192564010620117 26.186656951904297 26.16537094116211 26.085182189941406 26.008352279663086 26.019123077392578 26.131120681762695 26.24751091003418 26.297344207763672 -9999 -9999
-9999 -9999 -9999 26.5142822265625 26.459884643554688 26.397096633911133 26.395320892333984 26.471004486083984 26.558895111083984 26.617887496948242 26.62505531311035 26.541648864746094 26.348676681518555 26.128461837768555 25.973012924194336 25.92803192138672 25.929203033447266 25.90224838256836 -9999 -9999
-9999 -9999 26.460254669189453 26.4136905670166 26.373262405395508 26.449874877929688 26.742568969726562 27.207090377807617 27.621593475341797 27.936086654663086 28.092275619506836 27.956592559814453 27.51544761657715 26.942031860351562 26.436824798583984 26.073928833007812 25.859394073486328 25.726184844970703 25.655031204223633 -9999
-9999 -9999 26.283281326293945 26.253305435180664 26.298025131225586 26.649883270263672 27.498910903930664 28.815183639526367 29.854055404663086 30.472320556640625 30.665456771850586 30.338871002197266 29.47939682006836 28.479570388793945 27.526214599609375 26.732994079589844 26.217809677124023 25.915573120117188 25.77554702758789 -9999
-9999 -9999 25.945762634277344 25.966875076293945 26.201826095581055 26.994014739990234 28.689634323120117 31.400390625 32.938392639160156 33.62480926513672 33.691009521484375 33.07432174682617 31.610933303833008 30.205116271972656 28.96029281616211 27.8919620513916 27.058273315429688 26.511207580566406 26.255592346191406 -9999
-9999 25.47394561767578 25.55025863647461 25.67180061340332 26.1613712310791 27.3996639251709 29.76296615600586 32.98652267456055 34.774383544921875 35.511932373046875 35.52519226074219 34.79695510864258 33.186012268066406 31.643911361694336 30.31490135192871 29.179616928100586 28.24506378173828 27.57204818725586 27.221424102783203 -9999
-9999 25.220964431762695 25.278554916381836 25.53826141357422 26.333858489990234 27.969852447509766 30.686336517333984 33.932132720947266 35.741085052490234 36.483551025390625 36.48934555053711 35.766239166259766 34.191612243652344 32.67132568359375 31.381778717041016 30.309646606445312 29.434656143188477 28.7885799407959 28.43785858154297 -9999
-9999 25.00360870361328 25.168521881103516 25.670244216918945 26.779813766479492 28.696151733398438 31.441011428833008 34.458133697509766 36.151527404785156 36.8630256652832 36.889339447021484 36.2319450378418 34.75392150878906 33.33182144165039 32.13752365112305 31.165205001831055 30.39505958557129 29.839527130126953 29.535526275634766 -9999
-9999 25.078285217285156 25.390052795410156 26.134441375732422 27.44936180114746 29.411087036132812 31.883201599121094 34.47765350341797 35.977970123291016 36.658592224121094 36.74446105957031 36.22766876220703 34.967777252197266 33.757347106933594 32.7190055847168 31.84409523010254 31.13640022277832 30.6283016204834 30.344974517822266 -9999
-9999 25.588945388793945 26.024864196777344 26.93354034423828 28.295257568359375 30.005470275878906 31.93126106262207 33.79679870605469 35.07048034667969 35.75761413574219 35.9554557800293 35.674224853515625 34.952884674072266 34.14159393310547 33.35097885131836 32.599853515625 31.902673721313477 31.351362228393555 30.984907150268555 -9999
-9999 26.49232292175293 27.004756927490234 27.944265365600586 29.138158798217773 30.494426727294922 31.930261611938477 33.297698974609375 34.36515808105469 35.030723571777344 35.33415985107422 35.31284713745117 35.02973556518555 34.620723724365234 34.14138412475586 33.580047607421875 32.954830169677734 32.313072204589844 31.565563201904297 -9999
-9999 27.567527770996094 28.05840301513672 28.882099151611328 29.851036071777344 30.911518096923828 32.03462600708008 33.12360763549805 34.0115966796875 34.648433685302734 35.04057312011719 35.231571197509766 35.26488494873047 35.187713623046875 35.01791763305664 34.72584533691406 34.33641815185547 33.93564224243164 -9999 -9999
-9999 28.422914505004883 28.89132308959961 29.590068817138672 30.405990600585938 31.318567276000977 32.2955207824707 33.216060638427734 33.99189758300781 34.59488296508789 35.034507751464844 35.35823059082031 35.593387603759766 35.747276306152344 35.8113899230957 35.777591705322266 35.683631896972656 35.66176986694336 -9999 -9999
-9999 28.926502227783203 29.500032424926758 30.10973358154297 30.85562515258789 31.75417137145996 32.661277770996094 33.51983642578125 34.240478515625 34.81439971923828 35.26655960083008 35.65012741088867 35.98398971557617 36.25756072998047 36.4555778503418 36.572959899902344 36.650238037109375 36.797645568847656 37.214134216308594 37.38715362548828
-9999 -9999 30.124502182006836 30.54729461669922 31.23006820678711 32.13550567626953 33.075138092041016 33.934017181396484 34.63810729980469 35.186370849609375 35.62153625488281 36.01213073730469 36.37614059448242 36.70765686035156 36.960716247558594 37.128421783447266 37.252071380615234 37.364707946777344 37.502201080322266 37.54867935180664
-9999 -9999 30.437143325805664 30.864166259765625 31.52216339111328 32.456268310546875 33.456207275390625 34.349796295166016 35.05057144165039 35.568817138671875 35.96540832519531 36.33881378173828 36.70658874511719 37.05152893066406 37.31509780883789 37.49055480957031 37.60958480834961 37.67311477661133 37.687252044677734 37.688053131103516
-9999 -9999 -9999 31.155839920043945 31.724424362182617 32.640960693359375 33.67165756225586 34.58536911010742 35.2813720703125 35.778099060058594 36.15691375732422 36.508201599121094 36.873870849609375 37.222412109375 37.4952392578125 37.668216705322266 37.78925323486328 37.80895233154297 37.79464340209961 37.78353500366211
