ncols         20
nrows         20
xllcorner     0
yllcorner     -3.5992928
cellsize      0.17996463
NODATA_value  -9999
-9999.0 -9999 -9999 -9999 -9999 -9999 -9999 -9999 -9999 -9999 -9999 -9999 -9999 -9999 -9999 -9999 -9999 -9999 -9999 -9999
-9999 -9999 -9999 -9999 -9999 -9999 -9999 -9999 -9999 -9999 -9999 1.722707986831665 1.7213069200515747 -9999 -9999 1.7734397649765015 1.754685878753662 -9999 -9999 -9999
-9999 -9999 -9999 -9999 1.722396731376648 1.7331526279449463 1.7508549690246582 1.75375235080719 1.7503161430358887 1.7526969909667969 1.734731674194336 1.745723009109497 1.7634856700897217 1.7776483297348022 1.782210111618042 1.7827621698379517 1.7684249877929688 1.7526321411132812 -9999 -9999
-9999 -9999 -9999 1.7416517734527588 1.7511680126190186 1.760629653930664 1.7703444957733154 1.770035743713379 1.7701504230499268 1.7656068801879883 1.7666786909103394 1.7767518758773804 1.7944873571395874 1.8089935779571533 1.8241944313049316 1.8268951177597046 1.8104608058929443 1.7927219867706299 -9999 -9999
-9999 -9999 -9999 1.7639796733856201 1.7766046524047852 1.7988754510879517 1.804729700088501 1.7968800067901611 1.7665534019470215 1.715719223022461 1.6642200946807861 1.644692301750183 1.6730341911315918 1.7403250932693481 1.813184142112732 1.8513001203536987 1.8538228273391724 1.8628320693969727 -9999 -9999
-9999 -9999 1.7717000246047974 1.7913897037506104 1.8133704662322998 1.8277864456176758 1.8151767253875732 1.7668437957763672 1.6659374237060547 1.5158770084381104 1.3598194122314453 1.283930778503418 1.3168784379959106 1.4611314535140991 1.646864414215088 1.778405785560608 1.849710464477539 1.8722851276397705 1.8530703783035278 -9999
-9999 -9999 1.7925806045532227 1.8144757747650146 1.8474657535552979 1.8493480682373047 1.8009812831878662 1.684010624885559 1.4865691661834717 1.2335479259490967 1.003524899482727 0.8865383267402649 0.911244809627533 1.0824936628341675 1.3671412467956543 1.5841805934906006 1.750171422958374 1.8299193382263184 1.8509271144866943 -9999
-9999 -9999 1.839240550994873 1.8641817569732666 1.8796591758728027 1.8451483249664307 1.7277729511260986 1.5185798406600952 1.2403301000595093 0.9479832053184509 0.725437343120575 0.6098294854164124 0.6172599196434021 0.7485513091087341 0.9895793199539185 1.271731972694397 1.5130575895309448 1.6761982440948486 1.7429583072662354 -9999
-9999 1.8610336780548096 1.8949487209320068 1.906517744064331 1.8824901580810547 1.764726996421814 1.54087233543396 1.239667534828186 0.9304674863815308 0.6750648617744446 0.509052574634552 0.4260540008544922 0.4214830696582794 0.5040909051895142 0.6750710010528564 0.9349703192710876 1.1816747188568115 1.3857841491699219 1.4870318174362183 -9999
-9999 1.9093027114868164 1.928604006767273 1.9114108085632324 1.8029758930206299 1.5625799894332886 1.2310941219329834 0.8852563500404358 0.6084126830101013 0.4286087453365326 0.33116966485977173 0.2842026650905609 0.28176000714302063 0.32504841685295105 0.4293519854545593 0.6037223935127258 0.8130674958229065 1.009114146232605 1.1132817268371582 -9999
-9999 1.9469475746154785 1.9340202808380127 1.8465780019760132 1.6332378387451172 1.298135757446289 0.9105326533317566 0.5735636949539185 0.35770875215530396 0.2430843561887741 0.18867520987987518 0.16633017361164093 0.16570547223091125 0.1878887265920639 0.2417609691619873 0.3406118154525757 0.4772554337978363 0.6257217526435852 0.7071836590766907 -9999
-9999 1.9157401323318481 1.861647605895996 1.6806944608688354 1.3843356370925903 1.0168002843856812 0.6462647318840027 0.36487579345703125 0.20664824545383453 0.12993480265140533 0.0966726765036583 0.08305671811103821 0.08216574043035507 0.0901259183883667 0.11188217997550964 0.15869688987731934 0.23442204296588898 0.3215520977973938 0.3701948821544647 -9999
-9999 1.7655915021896362 1.6533808708190918 1.3838179111480713 1.0606873035430908 0.7284680604934692 0.4363431930541992 0.22984400391578674 0.11887688934803009 0.06985335797071457 0.04357743635773659 0.034432146698236465 0.03159385547041893 0.03283538669347763 0.039785031229257584 0.05567584186792374 0.09326675534248352 0.1375584453344345 0.165850430727005 -9999
-9999 1.4797918796539307 1.3252854347229004 1.011903166770935 0.7065489888191223 0.4551677107810974 0.2638895511627197 0.13658350706100464 0.06462569534778595 0.03701901435852051 0.02448750101029873 0.01896614022552967 0.016436094418168068 0.015837477520108223 0.016781017184257507 0.020728126168251038 0.029845835641026497 0.04820680618286133 0.06272753328084946 -9999
-9999 1.1733018159866333 1.0075669288635254 0.6931664347648621 0.4302942156791687 0.2571077048778534 0.14479872584342957 0.07223796844482422 0.03908179700374603 0.024392716586589813 0.017660683020949364 0.01413109339773655 0.01227514073252678 0.01152061391621828 0.011141063645482063 0.011840514838695526 0.013767126947641373 0.01981743983924389 -9999 -9999
-9999 0.9594994783401489 0.7920911908149719 0.49839985370635986 0.2787099778652191 0.1490517109632492 0.07729969918727875 0.04265640676021576 0.026770295575261116 0.01892656460404396 0.01507667638361454 0.012751813977956772 0.011853809468448162 0.013969141989946365 0.01588432677090168 0.017393309623003006 0.01841738633811474 0.01916259527206421 -9999 -9999
-9999 0.8155744671821594 0.6423810124397278 0.390988826751709 0.20244181156158447 0.09083811193704605 0.04765743389725685 0.02818877063691616 0.01957150548696518 0.015270201489329338 0.013098941184580326 0.013705681078135967 0.016280554234981537 0.01886596344411373 0.021263323724269867 0.02332555688917637 0.025115204975008965 0.027155395597219467 0.031141288578510284 0.03271843492984772
-9999 -9999 0.4923586845397949 0.31763026118278503 0.15897628664970398 0.06746997684240341 0.033913079649209976 0.02066836878657341 0.015165179967880249 0.012762172147631645 0.014975727535784245 0.017522728070616722 0.020305588841438293 0.023160362616181374 0.025776568800210953 0.027972538024187088 0.029815757647156715 0.031412169337272644 0.0329798087477684 0.03356926888227463
-9999 -9999 0.3502926826477051 0.2473674714565277 0.12716640532016754 0.052539024502038956 0.025740941986441612 0.015753692016005516 0.013323890045285225 0.015520172193646431 0.017883675172924995 0.020527277141809464 0.02340504713356495 0.026332367211580276 0.02892707847058773 0.030986446887254715 0.03255077078938484 0.03354461118578911 0.03398667275905609 0.03411469981074333
-9999 -9999 -9999 0.20440208911895752 0.10696233808994293 0.04643198475241661 0.022647028788924217 0.013973799534142017 0.014741005375981331 0.01705627329647541 0.01948429085314274 0.022129632532596588 0.02501837909221649 0.02794037200510502 0.030494939535856247 0.032397303730249405 0.03377804532647133 0.034306563436985016 0.03439449146389961 0.034363992512226105
