ncols         20
nrows         20
xllcorner     0
yllcorner     -3.5992928
cellsize      0.17996463
NODATA_value  -9999
-9999.0 -9999 -9999 -9999 -9999 -9999 -9999 -9999 -9999 -9999 -9999 -9999 -9999 -9999 -9999 -9999 -9999 -9999 -9999 -9999
-9999 -9999 -9999 -9999 -9999 -9999 -9999 -9999 -9999 -9999 -9999 1.0500941276550293 1.0263707637786865 -9999 -9999 0.9081993699073792 0.8508654236793518 -9999 -9999 -9999
-9999 -9999 -9999 -9999 1.1911333799362183 1.2663742303848267 1.3977692127227783 1.4909151792526245 1.5332844257354736 1.5433685779571533 1.3723193407058716 1.250822901725769 1.229511022567749 1.2107634544372559 1.0934401750564575 0.9656904339790344 0.872286319732666 0.8079257607460022 -9999 -9999
-9999 -9999 -9999 1.1232950687408447 1.2105376720428467 1.3136268854141235 1.453230619430542 1.5768003463745117 1.698446273803711 1.7841323614120483 1.818543553352356 1.7681248188018799 1.70582914352417 1.5522358417510986 1.3543676137924194 1.1413969993591309 0.9775057435035706 0.8883270025253296 -9999 -9999
-9999 -9999 -9999 1.104060173034668 1.2007821798324585 1.3832017183303833 1.5898106098175049 1.8106942176818848 2.0653913021087646 2.3885080814361572 2.676948070526123 2.77485728263855 2.6426594257354736 2.263232946395874 1.858566403388977 1.463788390159607 1.1828447580337524 1.1057918071746826 -9999 -9999
-9999 -9999 0.8830247521400452 1.0281622409820557 1.1961030960083008 1.4307012557983398 1.6969592571258545 2.012681484222412 2.4721357822418213 3.030884265899658 3.588696241378784 3.807882785797119 3.674475908279419 3.1314594745635986 2.4606308937072754 1.8794639110565186 1.470638632774353 1.2936269044876099 1.1439175605773926 -9999
-9999 -9999 0.8544176816940308 0.9697646498680115 1.200065016746521 1.4987156391143799 1.8234728574752808 2.240535020828247 2.8099770545959473 3.4839444160461426 4.112861633300781 4.4121198654174805 4.29722261428833 3.7779500484466553 3.0946249961853027 2.3626205921173096 1.8386571407318115 1.5128964185714722 1.3698813915252686 -9999
-9999 -9999 0.8492499589920044 0.9962106347084045 1.2821273803710938 1.632511854171753 2.045869827270508 2.528820276260376 3.069617748260498 3.645500659942627 4.082751274108887 4.316675186157227 4.253818511962891 3.905066728591919 3.367013454437256 2.743879795074463 2.2134196758270264 1.8301429748535156 1.6709553003311157 -9999
-9999 0.6824696063995361 0.8561989068984985 1.0820869207382202 1.4591618776321411 1.9149503707885742 2.3845674991607666 2.8760151863098145 3.3077099323272705 3.634953022003174 3.8130042552948 3.890080690383911 3.8645119667053223 3.685014486312866 3.391369342803955 2.990692615509033 2.4891934394836426 2.116952657699585 1.9552048444747925 -9999
-9999 0.749857485294342 0.9097657799720764 1.2443956136703491 1.719071865081787 2.250541925430298 2.7551932334899902 3.1756927967071533 3.427143096923828 3.5062637329101562 3.4704160690307617 3.4288487434387207 3.383074998855591 3.315115213394165 3.1840450763702393 2.988506555557251 2.6168313026428223 2.3151793479919434 2.1820883750915527 -9999
-9999 0.8862882852554321 1.0602439641952515 1.4369945526123047 1.925871729850769 2.445671319961548 2.9127800464630127 3.2237043380737305 3.2993881702423096 3.2214138507843018 3.101957321166992 3.013596534729004 2.971083641052246 2.93839430809021 2.8856987953186035 2.78598690032959 2.5976083278656006 2.396864652633667 2.30452299118042 -9999
-9999 1.1017355918884277 1.2767678499221802 1.6619763374328613 2.102771759033203 2.514948606491089 2.847676992416382 2.999166250228882 2.9421629905700684 2.794832229614258 2.661378860473633 2.5906100273132324 2.6018176078796387 2.5957932472229004 2.559401273727417 2.553680181503296 2.4498236179351807 2.34757661819458 2.2987899780273438 -9999
-9999 1.3937450647354126 1.578080415725708 1.9468618631362915 2.2678020000457764 2.514406442642212 2.6578221321105957 2.6554856300354004 2.510591983795166 2.3288919925689697 2.1939198970794678 2.1268088817596436 2.139500856399536 2.1417722702026367 2.15067458152771 2.1521246433258057 2.1668245792388916 2.16780686378479 2.1558408737182617 -9999
-9999 1.7049016952514648 1.8749052286148071 2.1857235431671143 2.3832180500030518 2.4519550800323486 2.419102668762207 2.2935078144073486 2.106227397918701 1.9179449081420898 1.7828197479248047 1.7053136825561523 1.682306170463562 1.6579824686050415 1.6456542015075684 1.658246397972107 1.742951512336731 1.8841137886047363 1.9480177164077759 -9999
-9999 1.897810935974121 2.0226688385009766 2.250805616378784 2.3303422927856445 2.262956142425537 2.1220076084136963 1.9454255104064941 1.7551077604293823 1.596339225769043 1.4861094951629639 1.3999079465866089 1.331918478012085 1.2746055126190186 1.2371245622634888 1.2304946184158325 1.2693781852722168 1.4374816417694092 -9999 -9999
-9999 1.917251706123352 1.9863783121109009 2.1256911754608154 2.1117630004882812 1.9783447980880737 1.8055245876312256 1.6251819133758545 1.4779893159866333 1.3695060014724731 1.3022550344467163 1.2226662635803223 1.1331729888916016 1.0343209505081177 0.9684089422225952 0.9147933721542358 0.8898439407348633 0.8144994974136353 -9999 -9999
-9999 1.9153019189834595 1.8711007833480835 1.9192492961883545 1.8576382398605347 1.6999845504760742 1.5162378549575806 1.3582408428192139 1.2532395124435425 1.1896601915359497 1.1330008506774902 1.060904860496521 0.9711030721664429 0.8750659227371216 0.7926713824272156 0.722906768321991 0.6710662841796875 0.6249576210975647 0.610261082649231 0.5547168254852295
-9999 -9999 1.6822614669799805 1.706148386001587 1.63517165184021 1.470332145690918 1.2880256175994873 1.1506378650665283 1.0776184797286987 1.0250822305679321 0.9804078936576843 0.9219741225242615 0.848987340927124 0.7552538514137268 0.676190197467804 0.617815375328064 0.5618054270744324 0.5256036520004272 0.5006088614463806 0.5288838744163513
-9999 -9999 1.625110387802124 1.5609321594238281 1.4712241888046265 1.2986911535263062 1.115897536277771 0.9842968583106995 0.9175869822502136 0.8777496814727783 0.8576284646987915 0.8105514645576477 0.743925154209137 0.6602113842964172 0.5963831543922424 0.550942063331604 0.5111716389656067 0.490171879529953 0.5261833667755127 0.5468016266822815
-9999 -9999 -9999 1.4433035850524902 1.383157730102539 1.2159353494644165 1.034111499786377 0.9068421721458435 0.8465269207954407 0.8171314597129822 0.7992498278617859 0.768507719039917 0.7049366235733032 0.6252927780151367 0.5585688948631287 0.5284469127655029 0.4834733009338379 0.5103941559791565 0.541466474533081 0.5589258670806885
