ncols         20
nrows         20
xllcorner     0
yllcorner     -3.5992928
cellsize      0.17996463
NODATA_value  -9999
-9999.0 -9999 -9999 -9999 -9999 -9999 -9999 -9999 -9999 -9999 -9999 -9999 -9999 -9999 -9999 -9999 -9999 -9999 -9999 -9999
-9999 -9999 -9999 -9999 -9999 -9999 -9999 -9999 -9999 -9999 -9999 11.933731079101562 11.922438621520996 -9999 -9999 12.140901565551758 12.001457214355469 -9999 -9999 -9999
-9999 -9999 -9999 -9999 11.975428581237793 12.049799919128418 12.185699462890625 12.213528633117676 12.175984382629395 12.159517288208008 11.995240211486816 12.045906066894531 12.171481132507324 12.280594825744629 12.290647506713867 12.24090576171875 12.146470069885254 12.09074592590332 -9999 -9999
-9999 -9999 -9999 12.118425369262695 12.126070976257324 12.10594654083252 12.098200798034668 12.039216041564941 11.982161521911621 11.926966667175293 11.936564445495605 12.013690948486328 12.158830642700195 12.291142463684082 12.425003051757812 12.471755027770996 12.46214485168457 12.450760841369629 -9999 -9999
-9999 -9999 -9999 12.262468338012695 12.17788028717041 12.074167251586914 11.807632446289062 11.554360389709473 11.299288749694824 11.041727066040039 10.836129188537598 10.797505378723145 10.998135566711426 11.397403717041016 11.87704849243164 12.308801651000977 12.70145034790039 13.038034439086914 -9999 -9999
-9999 -9999 12.548487663269043 12.449234008789062 12.20144271850586 11.703591346740723 10.742547035217285 10.159639358520508 9.594797134399414 8.929052352905273 8.258999824523926 7.953276634216309 8.15078353881836 8.88503360748291 9.877910614013672 10.93144416809082 12.352631568908691 13.104589462280273 13.308073997497559 -9999
-9999 -9999 12.742613792419434 12.494162559509277 11.998054504394531 10.916475296020508 10.014893531799316 9.159741401672363 8.173209190368652 7.040811538696289 6.0164690017700195 5.495078086853027 5.638841152191162 6.475358009338379 7.7996673583984375 9.405802726745605 11.312841415405273 12.50436782836914 13.050329208374023 -9999
-9999 -9999 13.204320907592773 12.624165534973145 11.474894523620605 10.454277992248535 9.368256568908691 8.134716987609863 6.773947715759277 5.426272392272949 4.399765491485596 3.855093479156494 3.9086217880249023 4.580602169036865 5.8150224685668945 7.454575538635254 9.242252349853516 11.039774894714355 11.940488815307617 -9999
-9999 14.53116226196289 13.947198867797852 12.43687915802002 11.2598876953125 9.950650215148926 8.428122520446777 6.776366233825684 5.225097179412842 3.9789159297943115 3.167912244796753 2.7562012672424316 2.7378830909729004 3.1774191856384277 4.07363224029541 5.433270454406738 7.077603340148926 8.661480903625488 9.891115188598633 -9999
-9999 15.173418045043945 14.491928100585938 12.57669734954834 10.906692504882812 9.011990547180176 6.991191864013672 5.089201927185059 3.6113390922546387 2.6539454460144043 2.13631272315979 1.8849905729293823 1.8736642599105835 2.1129448413848877 2.6889846324920654 3.6405515670776367 4.974711894989014 6.347491264343262 7.382627964019775 -9999
-9999 15.837143898010254 14.88510799407959 12.412964820861816 10.141740798950195 7.773642063140869 5.448639392852783 3.514864921569824 2.264235496520996 1.5869135856628418 1.2629430294036865 1.1296759843826294 1.1248666048049927 1.2566601037979126 1.5807327032089233 2.1847634315490723 3.0778727531433105 4.169638633728027 4.827700138092041 -9999
-9999 15.881120681762695 14.598453521728516 11.594598770141602 8.905381202697754 6.37217903137207 4.082910060882568 2.3669486045837402 1.3752429485321045 0.8800063729286194 0.6639775037765503 0.5727725625038147 0.5636054277420044 0.6131419539451599 0.7555727958679199 1.0640958547592163 1.5881354808807373 2.248478412628174 2.633122205734253 -9999
-9999 14.751365661621094 13.173924446105957 9.86858081817627 7.141846656799316 4.809913158416748 2.9012515544891357 1.5566825866699219 0.8181787133216858 0.4839518964290619 0.3144288659095764 0.2481977790594101 0.22519785165786743 0.23271264135837555 0.2827240228652954 0.3962162733078003 0.6490896344184875 0.991675078868866 1.2244195938110352 -9999
-9999 12.448151588439941 10.75344467163086 7.525525093078613 5.032894611358643 3.1839663982391357 1.8406113386154175 0.959816575050354 0.4701347351074219 0.264175683259964 0.16787400841712952 0.12259965389966965 0.10071931779384613 0.09450019150972366 0.10126754641532898 0.13070279359817505 0.20037859678268433 0.3527657389640808 0.49720340967178345 -9999
-9999 9.93600845336914 8.319838523864746 5.3713178634643555 3.232492446899414 1.8913780450820923 1.0519030094146729 0.5332953333854675 0.2802164554595947 0.16063261032104492 0.1029365286231041 0.0718146562576294 0.05514657869935036 0.04731355980038643 0.044220272451639175 0.04824404418468475 0.06057080253958702 0.09711436182260513 -9999 -9999
-9999 8.149023056030273 6.60098934173584 3.9580070972442627 2.15885066986084 1.131687879562378 0.5865793824195862 0.30941492319107056 0.17564330995082855 0.10648944973945618 0.07058821618556976 0.049505654722452164 0.03966357186436653 0.04343544691801071 0.04822444170713425 0.05340399220585823 0.058352068066596985 0.06223510578274727 -9999 -9999
-9999 6.93572998046875 5.353733062744141 3.1221301555633545 1.5789703130722046 0.7096522450447083 0.3550269305706024 0.18827612698078156 0.1106870099902153 0.07021898776292801 0.04848027229309082 0.04291452467441559 0.04595104232430458 0.050527725368738174 0.05611582472920418 0.06223803013563156 0.0686703696846962 0.07591550797224045 0.0869312584400177 0.09205645322799683
-9999 -9999 4.038313865661621 2.5175254344940186 1.2258967161178589 0.515845000743866 0.23746681213378906 0.12248000502586365 0.07199010998010635 0.04772263765335083 0.04687558487057686 0.04842826724052429 0.052047248929739 0.057286228984594345 0.06352083384990692 0.07021290808916092 0.07705240696668625 0.08385109901428223 0.09040185064077377 0.09378103166818619
-9999 -9999 2.864039421081543 1.9698479175567627 0.9729984998703003 0.3894621729850769 0.16809363663196564 0.08250871300697327 0.05419036000967026 0.051363255828619 0.050956327468156815 0.052909474819898605 0.05695207044482231 0.06262592226266861 0.06922262161970139 0.0761069655418396 0.08279289305210114 0.0886576846241951 0.09308408200740814 0.09540321677923203
-9999 -9999 -9999 1.6050620079040527 0.8286063075065613 0.3387458622455597 0.14175356924533844 0.067841075360775 0.055970463901758194 0.05343164503574371 0.053248096257448196 0.0553799644112587 0.05963360518217087 0.06552179902791977 0.07229428738355637 0.07918848842382431 0.08569991588592529 0.0908849686384201 0.09450860321521759 0.09637122601270676
