ncols         20
nrows         20
xllcorner     0
yllcorner     -3.5992928
cellsize      0.17996463
NODATA_value  -9999
-9999.0 -9999 -9999 -9999 -9999 -9999 -9999 -9999 -9999 -9999 -9999 -9999 -9999 -9999 -9999 -9999 -9999 -9999 -9999 -9999
-9999 -9999 -9999 -9999 -9999 -9999 -9999 -9999 -9999 -9999 -9999 11.92508316040039 11.895752906799316 -9999 -9999 11.892459869384766 11.734807014465332 -9999 -9999 -9999
-9999 -9999 -9999 -9999 11.89395809173584 12.041067123413086 12.27652359008789 12.394000053405762 12.420063018798828 12.43028450012207 12.236366271972656 12.191081047058105 12.25902271270752 12.32119083404541 12.236488342285156 12.064714431762695 11.889668464660645 11.78153133392334 -9999 -9999
-9999 -9999 -9999 11.948965072631836 12.05874252319336 12.188835144042969 12.348006248474121 12.41193675994873 12.439549446105957 12.430793762207031 12.439509391784668 12.466927528381348 12.543975830078125 12.583247184753418 12.58258056640625 12.454143524169922 12.262758255004883 12.14017391204834 -9999 -9999
-9999 -9999 -9999 12.1039457321167 12.211600303649902 12.405794143676758 12.466534614562988 12.366920471191406 12.198812484741211 12.0023193359375 11.812466621398926 11.754499435424805 11.918476104736328 12.24559211730957 12.569411277770996 12.706998825073242 12.664566993713379 12.736610412597656 -9999 -9999
-9999 -9999 12.136007308959961 12.297228813171387 12.464862823486328 12.533050537109375 12.262511253356934 11.675440788269043 11.069059371948242 10.40229606628418 9.729765892028809 9.45178508758545 9.738935470581055 10.568315505981445 11.537899017333984 12.256117820739746 12.626232147216797 12.807902336120605 12.713805198669434 -9999
-9999 -9999 12.359694480895996 12.520700454711914 12.732000350952148 12.518406867980957 11.552165985107422 9.8965425491333 8.672069549560547 7.603811740875244 6.714715003967285 6.383172035217285 6.867435932159424 7.979008197784424 9.442753791809082 10.855974197387695 11.812172889709473 12.311670303344727 12.489374160766602 -9999
-9999 -9999 12.854369163513184 13.048233032226562 13.083061218261719 12.306842803955078 10.231428146362305 6.16727352142334 4.7715888023376465 3.9742822647094727 3.4854683876037598 3.4306600093841553 4.467324733734131 5.568090438842773 7.0259809494018555 8.672905921936035 10.077582359313965 11.036951065063477 11.461793899536133 -9999
-9999 13.233110427856445 13.463530540466309 13.60734748840332 13.29468822479248 11.899030685424805 9.104260444641113 4.820679187774658 3.286780834197998 2.568737745285034 2.2430062294006348 2.2694098949432373 2.969493865966797 3.731567144393921 4.785891532897949 6.192512035369873 7.703577518463135 8.896239280700684 9.4819974899292 -9999
-9999 13.703989028930664 13.877321243286133 13.85549545288086 12.958374977111816 10.861444473266602 7.676179885864258 3.8027400970458984 2.3667521476745605 1.752036690711975 1.5257002115249634 1.5493305921554565 1.9609096050262451 2.377225875854492 3.0168144702911377 3.960069417953491 5.190073490142822 6.295118808746338 6.870039463043213 -9999
-9999 14.094684600830078 14.02200698852539 13.447554588317871 11.876007080078125 9.305952072143555 6.090261459350586 2.8483481407165527 1.6366643905639648 1.1390211582183838 0.9564918279647827 0.953126072883606 1.1477248668670654 1.3509197235107422 1.6750671863555908 2.2248973846435547 2.98345685005188 3.794485569000244 4.235068321228027 -9999
-9999 13.815673828125 13.384088516235352 12.149295806884766 10.07193374633789 7.419877052307129 4.567097187042236 2.0794548988342285 1.1096065044403076 0.6996212005615234 0.5422750115394592 0.5009976029396057 0.5643346309661865 0.6299414038658142 0.7530394792556763 1.007612943649292 1.4215551614761353 1.8922572135925293 2.1542155742645264 -9999
-9999 12.400304794311523 11.595415115356445 9.805743217468262 7.621190547943115 5.314026355743408 3.184730291366577 1.587228536605835 0.7911058664321899 0.45721322298049927 0.3021019995212555 0.24316802620887756 0.225753054022789 0.22814342379570007 0.26202592253685 0.34367406368255615 0.5357987284660339 0.7729507684707642 0.930441677570343 -9999
-9999 9.952705383300781 8.924200057983398 6.924020290374756 4.933901786804199 3.239856719970703 1.8968034982681274 0.9732747077941895 0.4697231948375702 0.26092198491096497 0.16533878445625305 0.11997926235198975 0.0968581959605217 0.08693747967481613 0.08740547299385071 0.10510057955980301 0.15138079226016998 0.2509351372718811 0.3449017405509949 -9999
-9999 7.441074371337891 6.4023284912109375 4.486733913421631 2.844730854034424 1.7263151407241821 0.9808422327041626 0.49883410334587097 0.2622526288032532 0.15006761252880096 0.0956544429063797 0.06576278805732727 0.04905588924884796 0.040228601545095444 0.03576473519206047 0.03722332790493965 0.04466162994503975 0.0684710219502449 -9999 -9999
-9999 5.700435638427734 4.6873955726623535 2.983452320098877 1.6896673440933228 0.9112358689308167 0.47881996631622314 0.2561419904232025 0.14721153676509857 0.09002743661403656 0.05974347144365311 0.0413660854101181 0.032400794327259064 0.03474598377943039 0.03784598782658577 0.041215457022190094 0.044464800506830215 0.04717971384525299 -9999 -9999
-9999 4.612718105316162 3.5326218605041504 2.137847423553467 1.1031386852264404 0.49699410796165466 0.2520485520362854 0.13645116984844208 0.08209145069122314 0.053145281970500946 0.03706446662545204 0.03302939981222153 0.035535965114831924 0.03920939564704895 0.04370835795998573 0.048709992319345474 0.05417337268590927 0.060808561742305756 0.07165955752134323 0.07679984718561172
-9999 -9999 2.470975399017334 1.5765935182571411 0.7738349437713623 0.32129615545272827 0.14912055432796478 0.07883436977863312 0.04784523695707321 0.03277968615293503 0.03327173739671707 0.035405971109867096 0.03902597352862358 0.04388217628002167 0.04955747723579407 0.055679623037576675 0.062074776738882065 0.06864162534475327 0.07517760246992111 0.07860209792852402
-9999 -9999 1.6538238525390625 1.1298439502716064 0.5618278384208679 0.2210974097251892 0.0961000993847847 0.04862546548247337 0.0334269143640995 0.03328980132937431 0.03466169536113739 0.03760480880737305 0.04204457998275757 0.04773475602269173 0.054175667464733124 0.06088893860578537 0.06748323142528534 0.07337445020675659 0.07790451496839523 0.08030194044113159
-9999 -9999 -9999 0.8701504468917847 0.4471495747566223 0.18176792562007904 0.0769742801785469 0.038279108703136444 0.0333353728055954 0.03371463716030121 0.03553064167499542 0.03886778652667999 0.04372980445623398 0.04985067993402481 0.056686751544475555 0.06361853331327438 0.07021469622850418 0.07554876059293747 0.07933511584997177 0.08129851520061493
