ncols         20
nrows         20
xllcorner     0
yllcorner     -3.5992928
cellsize      0.17996463
NODATA_value  -9999
-9999.0 -9999 -9999 -9999 -9999 -9999 -9999 -9999 -9999 -9999 -9999 -9999 -9999 -9999 -9999 -9999 -9999 -9999 -9999 -9999
-9999 -9999 -9999 -9999 -9999 -9999 -9999 -9999 -9999 -9999 -9999 1.0431462526321411 1.0195244550704956 -9999 -9999 0.9021693468093872 0.845234215259552 -9999 -9999 -9999
-9999 -9999 -9999 -9999 1.1863218545913696 1.2609531879425049 1.3912018537521362 1.4831691980361938 1.5245317220687866 1.5338448286056519 1.3633273839950562 1.242335557937622 1.2209700345993042 1.2021608352661133 1.0857021808624268 0.95903480052948 0.8663331866264343 0.8023661971092224 -9999 -9999
-9999 -9999 -9999 1.1189326047897339 1.2056444883346558 1.3079090118408203 1.4462401866912842 1.5683612823486328 1.6883817911148071 1.7725900411605835 1.805935025215149 1.7553170919418335 1.6931707859039307 1.5406266450881958 1.344329595565796 1.1330995559692383 0.9704921245574951 0.8819584250450134 -9999 -9999
-9999 -9999 -9999 1.099684476852417 1.1957902908325195 1.3769248723983765 1.5817694664001465 1.8004157543182373 2.052262544631958 2.3716952800750732 2.656623363494873 2.752798557281494 2.621216058731079 2.2448954582214355 1.8438042402267456 1.4523857831954956 1.1737439632415771 1.097284197807312 -9999 -9999
-9999 -9999 0.8794362545013428 1.0239201784133911 1.1908522844314575 1.4237828254699707 1.687776803970337 2.0004096031188965 2.455169677734375 3.007993221282959 3.5596189498901367 3.775712728500366 3.642848491668701 3.104586362838745 2.4399964809417725 1.863843321800232 1.4584729671478271 1.2828141450881958 1.1340211629867554 -9999
-9999 -9999 0.8507425785064697 0.9654694199562073 1.194345474243164 1.4908283948898315 1.8127586841583252 2.2257843017578125 2.7895259857177734 3.456554412841797 4.078679084777832 4.374133586883545 4.259584426879883 3.7450032234191895 3.068974018096924 2.342283010482788 1.82255220413208 1.4994432926177979 1.357495903968811 -9999
-9999 -9999 0.8451818227767944 0.9912697672843933 1.2752795219421387 1.6229585409164429 2.0326666831970215 2.511014461517334 3.0464675426483154 3.616563081741333 4.049082279205322 4.280047416687012 4.217019557952881 3.8709733486175537 3.3377456665039062 2.7198126316070557 2.1933624744415283 1.8130944967269897 1.655113935470581 -9999
-9999 0.6784830689430237 0.8514316082000732 1.075900912284851 1.4502512216567993 1.9023525714874268 2.367788314819336 2.85473370552063 3.282384157180786 3.6064233779907227 3.7823987007141113 3.8581490516662598 3.832125663757324 3.653644323348999 3.3624749183654785 2.9662046432495117 2.4666717052459717 2.096745252609253 1.9360454082489014 -9999
-9999 0.7450093030929565 0.9039477705955505 1.2361973524093628 1.7071729898452759 2.2342123985290527 2.734544277191162 3.151559829711914 3.4010009765625 3.479410171508789 3.443568468093872 3.40190052986145 3.3559930324554443 3.2880146503448486 3.157747268676758 2.9647812843322754 2.5932424068450928 2.2928404808044434 2.1603503227233887 -9999
-9999 0.8797839879989624 1.0524687767028809 1.4262739419937134 1.9111535549163818 2.4266726970672607 2.8901991844177246 3.1991126537323 3.2746496200561523 3.1974706649780273 3.078890800476074 2.991129159927368 2.949009656906128 2.915961742401123 2.8625400066375732 2.7628591060638428 2.5740156173706055 2.3736579418182373 2.281486988067627 -9999
-9999 1.0925917625427246 1.266226053237915 1.6482627391815186 2.0854878425598145 2.4946088790893555 2.825368642807007 2.9765288829803467 2.9205775260925293 2.7746176719665527 2.642293691635132 2.572589635848999 2.5859227180480957 2.579542398452759 2.540530204772949 2.5340986251831055 2.4277303218841553 2.324795722961426 2.2757863998413086 -9999
-9999 1.3810322284698486 1.5638259649276733 1.9296107292175293 2.248317003250122 2.49375319480896 2.6371188163757324 2.635754108428955 2.492483377456665 2.3123109340667725 2.178483247756958 2.112528085708618 2.1274538040161133 2.1296541690826416 2.1366753578186035 2.134673595428467 2.1467719078063965 2.146397352218628 2.1340224742889404 -9999
-9999 1.6883896589279175 1.8570773601531982 2.1656970977783203 2.3625271320343018 2.4319794178009033 2.400562047958374 2.276702880859375 2.0911478996276855 1.9043338298797607 1.7702869176864624 1.6937825679779053 1.672518253326416 1.6482977867126465 1.6349222660064697 1.6445401906967163 1.7264814376831055 1.8651704788208008 1.9280776977539062 -9999
-9999 1.8790456056594849 2.00321102142334 2.230255603790283 2.3104941844940186 2.2449779510498047 2.1060705184936523 1.9313150644302368 1.7426209449768066 1.5851285457611084 1.4758827686309814 1.3903634548187256 1.3229455947875977 1.2657496929168701 1.2285959720611572 1.220829963684082 1.257533073425293 1.4231946468353271 -9999 -9999
-9999 1.898443579673767 1.9676258563995361 2.1068923473358154 2.094418525695801 1.9631085395812988 1.7922227382659912 1.6135684251785278 1.4677282571792603 1.3604974746704102 1.294654130935669 1.2155686616897583 1.126175880432129 1.0269286632537842 0.9614728689193726 0.9076542258262634 0.8819661736488342 0.807303249835968 -9999 -9999
-9999 1.8968472480773926 1.8541455268859863 1.903066635131836 1.843031883239746 1.6872789859771729 1.5053215026855469 1.3488023281097412 1.2451269626617432 1.1830673217773438 1.1271569728851318 1.0553276538848877 0.9654868245124817 0.8689928650856018 0.7867761254310608 0.7172101140022278 0.6655328869819641 0.6199114918708801 0.6058661937713623 0.5509015321731567
-9999 -9999 1.6682851314544678 1.692660927772522 1.62291419506073 1.4596977233886719 1.2789812088012695 1.1429929733276367 1.071615219116211 1.020004391670227 0.9757571816444397 0.9174763560295105 0.8444889187812805 0.7507664561271667 0.6718360185623169 0.6135995388031006 0.5578375458717346 0.5219056606292725 0.4972201883792877 0.5253810286521912
-9999 -9999 1.6124250888824463 1.5492913722991943 1.4606410264968872 1.2895482778549194 1.108209490776062 0.9779377579689026 0.9127740859985352 0.8736444711685181 0.8537570238113403 0.8067929148674011 0.7402294874191284 0.6566302180290222 0.5928930044174194 0.5475310683250427 0.5078954100608826 0.48700591921806335 0.5228167176246643 0.5433313250541687
-9999 -9999 -9999 1.4330650568008423 1.3734594583511353 1.207513451576233 1.0270601511001587 0.9010628461837769 0.8421857953071594 0.8134006857872009 0.7957261204719543 0.7650333642959595 0.7015464901924133 0.6220424771308899 0.5554474592208862 0.5253267884254456 0.4805150330066681 0.5072292685508728 0.538109302520752 0.5554702281951904
