ncols         20
nrows         20
xllcorner     0
yllcorner     -3.5992928
cellsize      0.17996463
NODATA_value  -9999
-9999.0 -9999 -9999 -9999 -9999 -9999 -9999 -9999 -9999 -9999 -9999 -9999 -9999 -9999 -9999 -9999 -9999 -9999 -9999 -9999
-9999 -9999 -9999 -9999 -9999 -9999 -9999 -9999 -9999 -9999 -9999 12.124098777770996 12.107112884521484 -9999 -9999 12.222819328308105 12.074801445007324 -9999 -9999 -9999
-9999 -9999 -9999 -9999 12.079658508300781 12.179134368896484 12.355935096740723 12.428955078125 12.431483268737793 12.441125869750977 12.27476978302002 12.296685218811035 12.407193183898926 12.504338264465332 12.475484848022461 12.37134075164795 12.251422882080078 12.19106674194336 -9999 -9999
-9999 -9999 -9999 12.214886665344238 12.241738319396973 12.257713317871094 12.298940658569336 12.293156623840332 12.286240577697754 12.267473220825195 12.293286323547363 12.363304138183594 12.490056037902832 12.590744018554688 12.678272247314453 12.673966407775879 12.627836227416992 12.599211692810059 -9999 -9999
-9999 -9999 -9999 12.378223419189453 12.32336139678955 12.27060317993164 12.06535816192627 11.876449584960938 11.680161476135254 11.468338012695312 11.2860107421875 11.2481050491333 11.432687759399414 11.800046920776367 12.233283042907715 12.613401412963867 12.964845657348633 13.282696723937988 -9999 -9999
-9999 -9999 12.674575805664062 12.59504222869873 12.393607139587402 11.959269523620605 11.062442779541016 10.541609764099121 10.029540061950684 9.394766807556152 8.731245994567871 8.419463157653809 8.607736587524414 9.33130931854248 10.303277969360352 11.328947067260742 12.733128547668457 13.475939750671387 13.709979057312012 -9999
-9999 -9999 12.900493621826172 12.68580150604248 12.250815391540527 11.23715591430664 10.40031909942627 9.59990119934082 8.64625358581543 7.516699314117432 6.470673084259033 5.927243232727051 6.066251754760742 6.91530704498291 8.252735137939453 9.8670654296875 11.78858470916748 12.982669830322266 13.536088943481445 -9999
-9999 -9999 13.414079666137695 12.879152297973633 11.79561710357666 10.841845512390137 9.810368537902832 8.608444213867188 7.250215530395508 5.87418794631958 4.807326793670654 4.229850769042969 4.2778239250183105 4.97229528427124 6.244214057922363 7.923266887664795 9.746463775634766 11.587641716003418 12.509044647216797 -9999
-9999 14.766687393188477 14.212480545043945 12.75890827178955 11.648298263549805 10.39098834991455 8.894469261169434 7.237264633178711 5.652289390563965 4.358078956604004 3.5042600631713867 3.062991142272949 3.0363032817840576 3.4961066246032715 4.433929920196533 5.851021766662598 7.559598922729492 9.20325756072998 10.488517761230469 -9999
-9999 15.448405265808105 14.817354202270508 12.962221145629883 11.34239387512207 9.468332290649414 7.431002140045166 5.479780197143555 3.940685987472534 2.931976795196533 2.382500648498535 2.111560821533203 2.0954296588897705 2.3471648693084717 2.9587655067443848 3.967677116394043 5.381594181060791 6.834100723266602 7.933586120605469 -9999
-9999 16.18088722229004 15.279470443725586 12.847166061401367 10.59592056274414 8.2092924118042 5.824807643890381 3.8071045875549316 2.484410285949707 1.7615829706192017 1.4142898321151733 1.2702326774597168 1.2632317543029785 1.4036943912506104 1.7526179552078247 2.4044883251190186 3.3684580326080322 4.5479416847229 5.256685256958008 -9999
-9999 16.30093765258789 15.05379581451416 12.052992820739746 9.345617294311523 6.759369850158691 4.382750511169434 2.5720181465148926 1.512244701385498 0.9782394766807556 0.7444257140159607 0.644717812538147 0.6336908340454102 0.6865928173065186 0.8417630791664124 1.1794532537460327 1.7540810108184814 2.4786229133605957 2.899907112121582 -9999
-9999 15.235527038574219 13.661482810974121 10.310367584228516 7.52935266494751 5.12257194519043 3.1230719089508057 1.6939139366149902 0.9001794457435608 0.5380744338035583 0.3532896935939789 0.280126690864563 0.2539178431034088 0.2616121470928192 0.3168697953224182 0.44286423921585083 0.7225463390350342 1.1027553081512451 1.3613413572311401 -9999
-9999 12.948129653930664 11.224438667297363 7.906698226928711 5.331295967102051 3.403055191040039 1.9854599237442017 1.045577049255371 0.5184136033058167 0.2941824495792389 0.18844492733478546 0.1381937861442566 0.11351674795150757 0.10634774714708328 0.11381345987319946 0.14682283997535706 0.22498610615730286 0.3963411748409271 0.5590253472328186 -9999
-9999 10.409942626953125 8.742012023925781 5.674812316894531 3.4389376640319824 2.0273027420043945 1.1367946863174438 0.5824462175369263 0.30896449089050293 0.17852573096752167 0.11508418619632721 0.08058173954486847 0.06192612275481224 0.053082577884197235 0.04955530911684036 0.05406710132956505 0.06795410811901093 0.10911863297224045 -9999 -9999
-9999 8.588797569274902 6.974881172180176 4.2008466720581055 2.3040895462036133 1.2157936096191406 0.635715126991272 0.3380420207977295 0.193266823887825 0.11784803122282028 0.07844690978527069 0.0551462359726429 0.04420676454901695 0.048414476215839386 0.05372036248445511 0.05946413427591324 0.06494995206594467 0.06921115517616272 -9999 -9999
-9999 7.337093830108643 5.681241512298584 3.3251073360443115 1.6890463829040527 0.7645019292831421 0.38496124744415283 0.20536856353282928 0.12134253978729248 0.07729655504226685 0.05351588875055313 0.047453682869672775 0.05086185038089752 0.05595465376973152 0.06211930513381958 0.06883282214403152 0.07582797855138779 0.08358756452798843 0.09519720822572708 0.10060352087020874
-9999 -9999 4.304574966430664 2.688858985900879 1.31345534324646 0.5559290051460266 0.25721263885498047 0.1332327276468277 0.07860685139894485 0.05227333679795265 0.05146542191505432 0.05324944108724594 0.05727885663509369 0.06307307630777359 0.06991729140281677 0.07721009850502014 0.08460059016942978 0.0918700098991394 0.09880470484495163 0.10237008333206177
-9999 -9999 3.059992790222168 2.1081435680389404 1.0439422130584717 0.41971009969711304 0.1818392425775528 0.08956772089004517 0.05901266261935234 0.05608341470360756 0.05575171858072281 0.057960133999586105 0.06244465336203575 0.06869231909513474 0.075906902551651 0.08338374644517899 0.09059232473373413 0.09686566144227982 0.10156188160181046 0.1040123850107193
-9999 -9999 -9999 1.7209150791168213 0.8908544778823853 0.3651841878890991 0.1532035917043686 0.07356870919466019 0.06086990237236023 0.058251071721315384 0.058157846331596375 0.060559023171663284 0.06526774168014526 0.07173772156238556 0.0791313648223877 0.08660855889320374 0.09362581372261047 0.0991733968257904 0.1030232235789299 0.10499315708875656
