ncols         20
nrows         20
xllcorner     0
yllcorner     -3.5992928
cellsize      0.17996463
NODATA_value  -9999
-9999.0 -9999 -9999 -9999 -9999 -9999 -9999 -9999 -9999 -9999 -9999 -9999 -9999 -9999 -9999 -9999 -9999 -9999 -9999 -9999
-9999 -9999 -9999 -9999 -9999 -9999 -9999 -9999 -9999 -9999 -9999 0.4529689848423004 0.44389867782592773 -9999 -9999 0.39965781569480896 0.37467098236083984 -9999 -9999 -9999
-9999 -9999 -9999 -9999 0.4822227656841278 0.5154991149902344 0.5748435854911804 0.6214898824691772 0.6489713191986084 0.663077175617218 0.5971143245697021 0.5480762720108032 0.5434287190437317 0.5427623987197876 0.49298322200775146 0.4336168169975281 0.39236128330230713 0.36675116419792175 -9999 -9999
-9999 -9999 -9999 0.46094974875450134 0.49615222215652466 0.5418799519538879 0.6066250801086426 0.6686302423477173 0.7333059906959534 0.7844688296318054 0.8132854104042053 0.801415741443634 0.7816364169120789 0.7180065512657166 0.6302523612976074 0.5320231318473816 0.45651307702064514 0.4162807762622833 -9999 -9999
-9999 -9999 -9999 0.462089866399765 0.5041202306747437 0.5865594148635864 0.6849718689918518 0.7963042259216309 0.9295151829719543 1.1001744270324707 1.26040780544281 1.3297487497329712 1.2829376459121704 1.1099920272827148 0.9186132550239563 0.7257481813430786 0.5879467129707336 0.5517737865447998 -9999 -9999
-9999 -9999 0.38976868987083435 0.44742894172668457 0.5226146578788757 0.6340285539627075 0.7682665586471558 0.9357401132583618 1.183748483657837 1.496651530265808 1.8227577209472656 1.977117657661438 1.9381558895111084 1.67171311378479 1.3251620531082153 1.015393853187561 0.7979316115379333 0.7092030048370361 0.6495570540428162 -9999
-9999 -9999 0.39084020256996155 0.44355207681655884 0.5551727414131165 0.7081317901611328 0.8861526846885681 1.1255764961242676 1.465889573097229 1.8887302875518799 2.3086798191070557 2.546459913253784 2.5283055305480957 2.255641460418701 0 1.4276171922683716 1.1092960834503174 0.9139183759689331 0.8346539735794067 -9999
-9999 -9999 0.41483643651008606 0.4899051785469055 0.6425986886024475 0.8421667218208313 1.0939525365829468 1.4107551574707031 1.7923327684402466 2.2273759841918945 2.5976269245147705 2.8397560119628906 2.865407705307007 2.6731576919555664 2.3281471729278564 1.9034790992736816 1.525453805923462 1.253024697303772 1.1417551040649414 -9999
-9999 0.3802175521850586 0.4608233869075775 0.5858265161514282 0.8102622628211975 1.1044955253601074 1.4408986568450928 1.8331855535507202 2.228147268295288 2.580575466156006 2.8357062339782715 3.0074074268341064 3.076143264770508 2.9902284145355225 2.7834956645965576 0 2.0202438831329346 1.6911473274230957 1.5485098361968994 -9999
-9999 0.4461682438850403 0.5398386120796204 0.7517011165618896 1.075263500213623 1.477413535118103 1.9198682308197021 2.365957260131836 2.7306981086730957 2.9718058109283447 3.104578971862793 3.211165189743042 3.282247543334961 3.2874577045440674 3.186612129211426 0 2.561617851257324 2.2160263061523438 2.0612711906433105 -9999
-9999 0.5841317772865295 0.7048015594482422 0.9797457456588745 1.3699426651000977 1.8453527688980103 2.3660812377929688 2.841050863265991 3.1477503776550293 3.302497148513794 3.3884005546569824 3.479036569595337 3.5897438526153564 3.6348214149475098 3.5770041942596436 3.424910545349121 3.1128032207489014 2.797948122024536 2.6460647583007812 -9999
-9999 0.8183960914611816 0.9615973234176636 1.292728304862976 1.7212653160095215 2.2060513496398926 2.7195780277252197 3.1383883953094482 3.358055830001831 3.449143886566162 3.5197081565856934 3.652817964553833 0 0 3.909435749053955 0 3.5812008380889893 3.3317625522613525 3.199355125427246 -9999
-9999 1.1718934774398804 1.3529123067855835 1.7427794933319092 2.159430980682373 2.590700387954712 3.000997543334961 3.2953240871429443 3.399022102355957 3.4073126316070557 3.440209150314331 3.5582432746887207 0 0 0 3.7862582206726074 3.707094192504883 3.6106784343719482 3.5047390460968018 -9999
-9999 1.6162569522857666 1.8293043375015259 2.2580816745758057 2.654571533203125 2.979649782180786 3.2260148525238037 3.3484609127044678 3.340003252029419 3.2915592193603516 3.2763831615448 3.3177719116210938 0 0 0 3.326950788497925 3.376746416091919 3.523482084274292 3.4669551849365234 -9999
-9999 2.017211437225342 2.236610174179077 2.675957679748535 3.023545503616333 3.2177531719207764 3.301205635070801 3.295591115951538 3.237692356109619 3.183190107345581 3.1582438945770264 3.1029458045959473 3.0227293968200684 2.907606601715088 0 0 2.721973180770874 3.000023603439331 -9999 -9999
-9999 2.2565126419067383 2.4740774631500244 2.888223886489868 3.155151605606079 3.2379672527313232 3.219907283782959 3.1634387969970703 3.130096435546875 3.1295242309570312 0 0 0 2.542686700820923 0 0 2.0366880893707275 0 -9999 -9999
-9999 2.4264519214630127 2.6190614700317383 2.96144700050354 3.15529203414917 3.145277738571167 3.059659481048584 2.9859237670898438 2.9913604259490967 0 0 0 0 2.263867139816284 1.990733027458191 1.7585532665252686 1.5782618522644043 1.4319223165512085 0 0
-9999 -9999 2.7410566806793213 2.9838309288024902 3.112194061279297 3.029276132583618 2.8785784244537354 2.788396120071411 0 0 0 0 0 0 0 0 0 0 0 0
-9999 -9999 2.9053866863250732 3.012639284133911 3.0564610958099365 2.8994855880737305 2.6813604831695557 2.545093536376953 0 0 0 0 0 0 0 0 0 0 0 0
-9999 -9999 -9999 3.0130715370178223 3.0211143493652344 2.834533214569092 2.579171895980835 2.4206862449645996 0 0 0 0 0 0 0 0 0 0 0 0
