ncols         20
nrows         20
xllcorner     0
yllcorner     -3.5992928
cellsize      0.17996463
NODATA_value  -9999
-9999.0 -9999 -9999 -9999 -9999 -9999 -9999 -9999 -9999 -9999 -9999 -9999 -9999 -9999 -9999 -9999 -9999 -9999 -9999 -9999
-9999 -9999 -9999 -9999 -9999 -9999 -9999 -9999 -9999 -9999 -9999 0 0 -9999 -9999 0 0 -9999 -9999 -9999
-9999 -9999 -9999 -9999 0 0 0 0 0 0 0 0 0 0 0 0 0 0 -9999 -9999
-9999 -9999 -9999 0 0 0 0 0 0 0 0 0 0 0 0 0 0 0 -9999 -9999
-9999 -9999 -9999 0 0 0 0 0 0 0 0 0 0 0 0 0 0 0 -9999 -9999
-9999 -9999 0 0 0 0 3.402653217315674 3.2659640312194824 3.128894567489624 2.9483206272125244 2.751373767852783 2.6553845405578613 2.7075161933898926 2.9188475608825684 3.2011754512786865 3.497283697128296 0 0 0 -9999
-9999 -9999 0 0 0 3.4504878520965576 3.2208800315856934 2.9991414546966553 2.7249579429626465 2.3887219429016113 2.0694899559020996 1.899727702140808 1.93840754032135 2.1936299800872803 0.2882601320743561 3.0757949352264404 0 0 0 -9999
-9999 -9999 0 0 3.610837697982788 3.3475992679595947 3.0576887130737305 2.7099523544311523 2.306542158126831 1.8880963325500488 1.5576081275939941 1.3747702836990356 1.3861106634140015 1.597949504852295 1.9857423305511475 2.4950013160705566 3.045731544494629 0 0 -9999
-9999 0 0 3.890347480773926 3.580725908279419 3.2235443592071533 2.7874386310577393 2.2936062812805176 1.8125650882720947 1.4132624864578247 1.1460137367248535 1.0050753355026245 0.9935122132301331 1.1348434686660767 1.4241832494735718 0.4133859872817993 2.3845057487487793 2.8881168365478516 0 -9999
-9999 0 0 3.963097333908081 3.4976277351379395 2.948117971420288 2.339008331298828 1.745672583580017 1.2708548307418823 0.956084132194519 0.7831330895423889 0.696236789226532 0.6891895532608032 0.7665458917617798 0.9571995139122009 0.2826020121574402 1.7123291492462158 2.1643052101135254 0 -9999
-9999 0 0 3.9368250370025635 3.2752106189727783 2.5625040531158447 1.8384212255477905 1.2160649299621582 0.8030030727386475 0.5753297805786133 0.4653330147266388 0.4191306531429291 0.41593632102012634 0.459470272064209 0.5692659616470337 0.7751277685165405 1.0795763731002808 0 0 -9999
-9999 0 0 3.7015507221221924 2.8942697048187256 2.1131038665771484 1.3845245838165283 0.8214303255081177 0.48815447092056274 0.3188270032405853 0.24437248706817627 0.21225115656852722 0.09255515038967133 0.12476569414138794 0.27374061942100525 0.08475872874259949 0.5649452209472656 0 0 -9999
-9999 0 0 3.1736414432525635 2.3356428146362305 1.60273277759552 0.9861032962799072 0.5398625135421753 0.2896279990673065 0.1746649146080017 0.11561515927314758 0.09196344763040543 0.055488429963588715 0.07595232129096985 0.06873303651809692 0.1436183899641037 0.23346908390522003 0 0 -9999
-9999 0 0 2.439234495162964 1.655884861946106 1.0648059844970703 0.6259835958480835 0.3322935700416565 0.16629602015018463 0.09508392959833145 0.06125769019126892 0.0450371578335762 0.016426417976617813 0.02686416544020176 0.02459605783224106 0.04757123067975044 0.07286391407251358 0 0 -9999
-9999 0 0 1.753652811050415 1.0685925483703613 0.6337077021598816 0.357609361410141 0.18461155891418457 0.09858748316764832 0.05727427825331688 0.03704671189188957 0.02597663551568985 0.019954463467001915 0.017078272998332977 0.010616487823426723 0.00965531263500452 0.02186899445950985 0 -9999 -9999
-9999 0 0 1.299095869064331 0.7154655456542969 0.3793180584907532 0.19949369132518768 0.10664708912372589 0.06124962121248245 0.03746970370411873 0.01665271259844303 0.013664929196238518 0.0015648321714252234 0.015430999919772148 0.007612232584506273 0.00843075942248106 0.02072926051914692 0.003155105747282505 -9999 -9999
-9999 0 0 1.0282373428344727 0.523762583732605 0.23801495134830475 0.1203111782670021 0.0644070953130722 0.03815539553761482 0.016227617859840393 0.014992180280387402 0.014972551725804806 0.012501262128353119 0.01771249622106552 0.019687015563249588 0.021829020231962204 0.02404579147696495 0.02647084929049015 0.021457431837916374 0.031702470034360886
-9999 -9999 0 0.8311316967010498 0.4066292345523834 0.1725422739982605 0.08002019673585892 0.04152997210621834 0.013628104701638222 0.014516117982566357 0.016103431582450867 0.016696220263838768 0.01600130833685398 0.015451557002961636 0.014704945497214794 0.016252918168902397 0.0178102757781744 0.022547544911503792 0.027675654739141464 0.03223273530602455
-9999 -9999 0 0 0.32271209359169006 0.12991337478160858 0.05635741725564003 0.027783669531345367 0.012215729802846909 0.017440112307667732 0.017372416332364082 0.01810588128864765 0.01955905370414257 0.021568704396486282 0.023876944556832314 0.026255905628204346 0.028534753248095512 0.03050217777490616 0.03196188434958458 0.032719340175390244
-9999 -9999 -9999 0 0.2751973867416382 0.11287341266870499 0.04738285392522812 0.022767135873436928 0.012570920400321484 0.018075082451105118 0.018086951225996017 0.018883831799030304 0.02040984481573105 0.02249029092490673 0.02485506609082222 0.02723386324942112 0.029453493654727936 0.031196229159832 0.03239731118083 0.03300894796848297
