ncols         20
nrows         20
xllcorner     0
yllcorner     -3.5992928
cellsize      0.17996463
NODATA_value  -9999
-9999.0 -9999 -9999 -9999 -9999 -9999 -9999 -9999 -9999 -9999 -9999 -9999 -9999 -9999 -9999 -9999 -9999 -9999 -9999 -9999
-9999 -9999 -9999 -9999 -9999 -9999 -9999 -9999 -9999 -9999 -9999 11.752212524414062 11.740541458129883 -9999 -9999 11.981696128845215 11.845954895019531 -9999 -9999 -9999
-9999 -9999 -9999 -9999 11.829957008361816 11.901610374450684 12.03160572052002 12.052226066589355 12.006036758422852 11.979790687561035 11.809414863586426 11.855642318725586 11.977428436279297 12.084892272949219 12.102235794067383 12.066099166870117 11.978046417236328 11.921916961669922 -9999 -9999
-9999 -9999 -9999 11.971628189086914 11.978812217712402 11.956789016723633 11.94409465789795 11.877492904663086 11.80958080291748 11.741857528686523 11.738378524780273 11.805818557739258 11.945378303527832 12.078123092651367 12.218103408813477 12.274426460266113 12.27163314819336 12.262709617614746 -9999 -9999
-9999 -9999 -9999 12.113714218139648 12.029633522033691 11.924104690551758 11.653565406799316 11.39217472076416 11.124710083007812 10.852001190185547 10.631173133850098 10.580530166625977 10.773094177246094 11.169203758239746 11.650697708129883 12.08658218383789 12.48099422454834 12.815366744995117 -9999 -9999
-9999 -9999 12.394027709960938 12.297122955322266 12.051393508911133 11.554377555847168 10.593694686889648 10.004425048828125 9.428654670715332 8.752115249633789 8.07336139678955 7.759897232055664 7.948737144470215 8.672405242919922 9.656620025634766 10.702013969421387 12.104560852050781 12.84519100189209 13.03453540802002 -9999
-9999 -9999 12.585126876831055 12.339673042297363 11.84654426574707 10.769275665283203 9.867569923400879 9.007207870483398 8.014029502868652 6.878245830535889 5.853991985321045 5.331331729888916 5.466693878173828 6.286116600036621 7.590151786804199 9.173723220825195 11.049643516540527 12.222082138061523 12.756316184997559 -9999
-9999 -9999 13.038566589355469 12.463183403015137 11.320923805236816 10.304570198059082 9.219475746154785 7.985089302062988 6.624918460845947 5.282095909118652 4.261317253112793 3.7197513580322266 3.766908645629883 4.420757293701172 5.628711700439453 7.237766265869141 8.992918014526367 10.7531156539917 11.634105682373047 -9999
-9999 14.341781616210938 13.765276908874512 12.267142295837402 11.098087310791016 9.795939445495605 8.279918670654297 6.63608980178833 5.094840049743652 3.8595564365386963 3.0562307834625244 2.648038148880005 2.62614369392395 3.0508761405944824 3.922422170639038 5.248701572418213 6.854318141937256 8.400308609008789 9.59544563293457 -9999
-9999 14.968596458435059 14.292431831359863 12.392573356628418 10.735940933227539 8.855972290039062 6.851781845092773 4.969218730926514 3.5098960399627686 2.566030740737915 2.0548081398010254 1.8057769536972046 1.7915421724319458 2.0211126804351807 2.577451705932617 3.4990174770355225 4.791726589202881 6.122473239898682 7.122864246368408 -9999
-9999 15.608509063720703 14.662454605102539 12.21382999420166 9.964642524719238 7.620857238769531 5.324676036834717 3.421297073364258 2.1940789222717285 1.5304583311080933 1.2123024463653564 1.0804312229156494 1.0737545490264893 1.1992063522338867 1.5098687410354614 2.0900416374206543 2.9482619762420654 3.9970452785491943 4.629351615905762 -9999
-9999 15.624008178710938 14.352137565612793 11.384308815002441 8.727996826171875 6.228868007659912 3.9777581691741943 2.2972497940063477 1.3293787240982056 0.8470925688743591 0.6364023089408875 0.5472172498703003 0.5375463366508484 0.584301233291626 0.7198049426078796 1.0140202045440674 1.5137939453125 2.1433236598968506 2.5099027156829834 -9999
-9999 14.47015380859375 12.913054466247559 9.659782409667969 6.976426124572754 4.685668468475342 2.8174526691436768 1.506587266921997 0.7888671159744263 0.4647524952888489 0.3002851605415344 0.23626422882080078 0.2140580415725708 0.22092613577842712 0.2680445611476898 0.37532636523246765 0.6156413555145264 0.9402521252632141 1.1604454517364502 -9999
-9999 12.161648750305176 10.49777603149414 7.336341857910156 4.895808219909668 3.089560031890869 1.7811851501464844 0.9257913827896118 0.451178640127182 0.2525438070297241 0.15985901653766632 0.11643446981906891 0.0955062136054039 0.08945856988430023 0.09568062424659729 0.1232636421918869 0.18874582648277283 0.33183735609054565 0.46734756231307983 -9999
-9999 9.662285804748535 8.084442138671875 5.212207794189453 3.130338430404663 1.8276652097702026 1.0138047933578491 0.5117365717887878 0.2678898572921753 0.15310494601726532 0.0978117436170578 0.06809267401695251 0.05220905318856239 0.04472832754254341 0.041741643100976944 0.045456662774086 0.05695842579007149 0.091182179749012 -9999 -9999
-9999 7.891186237335205 6.386480331420898 3.824035882949829 2.0819156169891357 1.0888646841049194 0.5622519254684448 0.2956807017326355 0.16744717955589294 0.10132948309183121 0.06705579161643982 0.04697331786155701 0.03759705647826195 0.04112422466278076 0.04561356455087662 0.050461772829294205 0.05509330332279205 0.05875813215970993 -9999 -9999
-9999 6.697202682495117 5.161065578460693 3.0055408477783203 1.5172100067138672 0.6793525815010071 0.33893120288848877 0.179392009973526 0.10532915592193604 0.0667852982878685 0.04609919711947441 0.040797531604766846 0.04365892708301544 0.047964587807655334 0.05323491990566254 0.05901980400085449 0.06512536108493805 0.07207562029361725 0.08274003118276596 0.08770005404949188
-9999 -9999 3.878413200378418 2.4158718585968018 1.1745057106018066 0.4923573136329651 0.22613278031349182 0.1164797842502594 0.06846152991056442 0.04541678726673126 0.04464230686426163 0.04613851010799408 0.04957294091582298 0.054532818496227264 0.06044057011604309 0.06679420173168182 0.07331224530935287 0.0798281580209732 0.08614304661750793 0.08940383791923523
-9999 -9999 2.7440943717956543 1.885262370109558 0.9297907948493958 0.37094950675964355 0.15981562435626984 0.07839991897344589 0.05153816193342209 0.04891521856188774 0.04858684167265892 0.0504772774875164 0.054330892860889435 0.059723228216171265 0.06599190831184387 0.07254152745008469 0.07891842722892761 0.08453187346458435 0.08878318965435028 0.09101235121488571
-9999 -9999 -9999 1.5327768325805664 0.7894826531410217 0.32210633158683777 0.13461698591709137 0.06443293392658234 0.05322999879717827 0.05089772492647171 0.05079597607254982 0.05286429822444916 0.0569276325404644 0.06253309547901154 0.06897629797458649 0.07554075866937637 0.08175409585237503 0.08671127259731293 0.09018321335315704 0.09196914732456207
