ncols         20
nrows         20
xllcorner     0
yllcorner     -3.5992928
cellsize      0.17996463
NODATA_value  -9999
-9999.0 -9999 -9999 -9999 -9999 -9999 -9999 -9999 -9999 -9999 -9999 -9999 -9999 -9999 -9999 -9999 -9999 -9999 -9999 -9999
-9999 -9999 -9999 -9999 -9999 -9999 -9999 -9999 -9999 -9999 -9999 0.15019705891609192 0.15017512440681458 -9999 -9999 0.16546306014060974 0.1565810889005661 -9999 -9999 -9999
-9999 -9999 -9999 -9999 0.1265629678964615 0.135355144739151 0.15231284499168396 0.16835269331932068 0.18238674104213715 0.19587887823581696 0.18730027973651886 0.18353499472141266 0.19378775358200073 0.2097245156764984 0.20243006944656372 0.18477897346019745 0.17208470404148102 0.16631825268268585 -9999 -9999
-9999 -9999 -9999 0.1266573667526245 0.13383892178535461 0.14491605758666992 0.1624833643436432 0.18201281130313873 0.20689567923545837 0.2340371161699295 0.26085931062698364 0.27835533022880554 0.29409563541412354 0.2924403250217438 0.2747213840484619 0.24422577023506165 0.21763935685157776 0.20342981815338135 -9999 -9999
-9999 -9999 -9999 0.13331620395183563 0.1425304114818573 0.16236194968223572 0.18648536503314972 0.21631021797657013 0.25938543677330017 0.32631850242614746 0.4095495641231537 0.4800236225128174 0.5145989060401917 0.4922182559967041 0.4433467388153076 0.3742922842502594 0.31868308782577515 0.308908611536026 -9999 -9999
-9999 -9999 0.1328110694885254 0.14306268095970154 0.15989764034748077 0.1847771555185318 0.21160286664962769 0.24520975351333618 0.3092098832130432 0.41530942916870117 0.5676939487457275 0.7153458595275879 0.8215104341506958 0.8158555030822754 0.7205895781517029 0.6017780900001526 0.5049147009849548 0.4736115336418152 0.46631279587745667 -9999
-9999 -9999 0.1473364233970642 0.16068458557128906 0.19002209603786469 0.22231638431549072 0.24427594244480133 0.2626428008079529 0.3179416060447693 0.42894425988197327 0.6091848611831665 0.8442546129226685 1.1057730913162231 1.212988018989563 1.1498093605041504 0.9794958829879761 0.8191074132919312 0.7079738974571228 0.6678987145423889 -9999
-9999 -9999 0.1873319447040558 0.21234841644763947 0.2587342858314514 0.2974298894405365 0.30423375964164734 0.24790650606155396 0.2523443400859833 0.30716341733932495 0.41872188448905945 0.6490902304649353 1.2669825553894043 1.6017190217971802 1.660688042640686 1.5171090364456177 1.3161011934280396 1.135015606880188 1.0592923164367676 -9999
-9999 0.24274206161499023 0.2656983733177185 0.3174106776714325 0.402704656124115 0.46998071670532227 0.45547249913215637 0.31983688473701477 0.2826741337776184 0.30965253710746765 0.4109194278717041 0.6811585426330566 1.4930658340454102 2.0405139923095703 2.2895805835723877 2.2438931465148926 2.014678716659546 1.7791588306427002 1.668093204498291 -9999
-9999 0.32872679829597473 0.384054571390152 0.5123844742774963 0.6775193214416504 0.7976510524749756 0.7628843188285828 0.48543664813041687 0.39823925495147705 0.4032095968723297 0.5010092258453369 0.8118183612823486 1.8146657943725586 2.5647590160369873 2.999798059463501 3.110355854034424 2.928799867630005 2.675926685333252 2.548997402191162 -9999
-9999 0.5227563381195068 0.6221041679382324 0.8403379917144775 1.1007264852523804 1.2945973873138428 1.2534408569335938 0.7645649313926697 0.6283819675445557 0.6138496398925781 0.7034651041030884 1.0398614406585693 2.2763631343841553 3.1786205768585205 3.7694108486175537 4.033170223236084 4.003735542297363 3.794614791870117 3.6761677265167236 -9999
-9999 0.8899984359741211 1.0418776273727417 1.381002426147461 1.75785231590271 2.0343244075775146 2.015106439590454 1.297347068786621 1.1338328123092651 1.09433114528656 1.151243805885315 1.4593772888183594 2.8195571899414062 3.733391761779785 4.387977123260498 4.810807228088379 4.966005325317383 4.902557849884033 4.837035655975342 -9999
-9999 1.5139029026031494 1.755753755569458 2.2581236362457275 2.7327911853790283 3.0902795791625977 3.2019636631011963 2.9649364948272705 2.7128891944885254 2.5299973487854004 2.5223031044006348 2.772611141204834 3.3820767402648926 3.9686999320983887 4.506361961364746 4.9865241050720215 5.371982574462891 5.548691749572754 5.557525157928467 -9999
-9999 2.3933019638061523 2.7309823036193848 3.4006361961364746 3.974114179611206 4.319955348968506 4.387359619140625 4.161026954650879 3.804680109024048 3.5045742988586426 3.3561153411865234 3.3830180168151855 3.560887098312378 3.792027711868286 4.052388668060303 4.417562961578369 4.893731117248535 5.415783882141113 5.577418804168701 -9999
-9999 3.2924697399139404 3.6987597942352295 4.499392032623291 5.101050853729248 5.32065486907959 5.209289073944092 4.855931282043457 4.418197154998779 4.031070709228516 3.762211322784424 3.5814905166625977 3.471811294555664 3.411774158477783 3.3794312477111816 3.483258008956909 3.738417863845825 4.3095383644104 -9999 -9999
-9999 3.946301221847534 4.414351940155029 5.260071277618408 5.7772040367126465 5.82307767868042 5.542725563049316 5.093453884124756 4.632441520690918 4.2164626121521 3.881870985031128 3.5725011825561523 3.2757766246795654 2.9969942569732666 2.770958423614502 2.6159937381744385 2.55631160736084 2.2990047931671143 -9999 -9999
-9999 4.4277520179748535 4.9605817794799805 5.724787712097168 6.1139116287231445 5.962498664855957 5.522360801696777 4.986701965332031 4.5044755935668945 4.080678462982178 3.7160303592681885 3.3428056240081787 2.958763599395752 2.608309507369995 2.2892773151397705 2.0222854614257812 1.8081104755401611 1.5836151838302612 1.3920304775238037 1.2046688795089722
-9999 -9999 5.509012699127197 6.042367458343506 6.270541191101074 5.929378986358643 5.310624599456787 4.6827392578125 4.167112350463867 3.7455246448516846 3.3843183517456055 3.0111351013183594 2.6306302547454834 2.226356029510498 1.8937517404556274 1.643488883972168 1.413656234741211 1.2412395477294922 1.1060807704925537 1.1293882131576538
-9999 -9999 6.0236897468566895 6.285423755645752 6.310689926147461 5.777567386627197 4.992895603179932 4.268187046051025 3.713571310043335 3.316925048828125 3.0323455333709717 2.6835484504699707 2.3073740005493164 1.9179757833480835 1.623781442642212 1.4081487655639648 1.226251244544983 1.1060633659362793 1.1313488483428955 1.1460875272750854
-9999 -9999 -9999 6.389550685882568 6.311530113220215 5.693883895874023 4.818871021270752 4.052512168884277 3.498624563217163 3.1326403617858887 2.8510208129882812 2.5544707775115967 2.1820249557495117 1.8002842664718628 1.4964772462844849 1.3225023746490479 1.1308281421661377 1.1273045539855957 1.1464879512786865 1.1575881242752075
