ncols         20
nrows         20
xllcorner     0
yllcorner     -3.5992928
cellsize      0.17996463
NODATA_value  -9999
-9999.0 -9999 -9999 -9999 -9999 -9999 -9999 -9999 -9999 -9999 -9999 -9999 -9999 -9999 -9999 -9999 -9999 -9999 -9999 -9999
-9999 -9999 -9999 -9999 -9999 -9999 -9999 -9999 -9999 -9999 -9999 18.973392486572266 18.98200035095215 -9999 -9999 18.911983489990234 18.91643524169922 -9999 -9999 -9999
-9999 -9999 -9999 -9999 18.91874122619629 18.940759658813477 18.9581298828125 18.983667373657227 19.005264282226562 19.0001163482666 19.03911590576172 19.011674880981445 19.00037384033203 19.024879455566406 19.021987915039062 18.974985122680664 18.95427703857422 18.963571548461914 -9999 -9999
-9999 -9999 -9999 18.92127227783203 18.919267654418945 18.944120407104492 18.965396881103516 18.98135757446289 18.977445602416992 18.9693603515625 18.94553565979004 18.941431045532227 18.94887351989746 18.98632049560547 19.002769470214844 19.005971908569336 19.00835418701172 19.02304458618164 -9999 -9999
-9999 -9999 -9999 18.945432662963867 18.958662033081055 18.957809448242188 18.95047378540039 18.91978645324707 18.8723087310791 18.796512603759766 18.717369079589844 18.68382453918457 18.71420669555664 18.81117057800293 18.90403175354004 18.988733291625977 19.04985237121582 19.04654312133789 -9999 -9999
-9999 -9999 18.99041175842285 18.983484268188477 18.993473052978516 18.975238800048828 18.911052703857422 18.797950744628906 18.65892219543457 18.505691528320312 18.357757568359375 18.291650772094727 18.326969146728516 18.477638244628906 18.679906845092773 18.859764099121094 18.99150848388672 19.048084259033203 19.132919311523438 -9999
-9999 -9999 19.047914505004883 19.059452056884766 19.039390563964844 18.959474563598633 18.79003143310547 18.561304092407227 18.332176208496094 18.157466888427734 18.022151947021484 17.94841957092285 17.947057723999023 18.082075119018555 18.312288284301758 18.58237648010254 18.792400360107422 18.940380096435547 19.008560180664062 -9999
-9999 -9999 19.1381778717041 19.13370132446289 19.07101058959961 18.90460205078125 18.612634658813477 18.628751754760742 18.29432487487793 18.117826461791992 18.04290199279785 18.04305648803711 17.733959197998047 17.7784423828125 17.95862579345703 18.214017868041992 18.46658706665039 18.67011833190918 18.76627540588379 -9999
-9999 19.273712158203125 19.221742630004883 19.197416305541992 19.065458297729492 18.790992736816406 18.405357360839844 18.319473266601562 17.99970817565918 17.855697631835938 17.810731887817383 17.823345184326172 17.573293685913086 17.562646865844727 17.661319732666016 17.850250244140625 18.081445693969727 18.28722381591797 18.39897918701172 -9999
-9999 19.332088470458984 19.303367614746094 19.197437286376953 18.971620559692383 18.620243072509766 18.215232849121094 18.12447738647461 17.84345817565918 17.72179412841797 17.68671226501465 17.69621467590332 17.461219787597656 17.40526008605957 17.434175491333008 17.543521881103516 17.716325759887695 17.88702964782715 17.98375129699707 -9999
-9999 19.365985870361328 19.292469024658203 19.099306106567383 18.78697395324707 18.38396453857422 18.020862579345703 17.99433708190918 17.759315490722656 17.65413475036621 17.624588012695312 17.62816047668457 17.36693572998047 17.275876998901367 17.255483627319336 17.3000431060791 17.402542114257812 17.52686309814453 17.601041793823242 -9999
-9999 19.263395309448242 19.130992889404297 18.8528995513916 18.49331283569336 18.0988712310791 17.811513900756836 17.89173126220703 17.701435089111328 17.61094093322754 17.584548950195312 17.585779190063477 17.283998489379883 17.179903030395508 17.133556365966797 17.125656127929688 17.165964126586914 17.241239547729492 17.29543113708496 -9999
-9999 18.962858200073242 18.782485961914062 18.461763381958008 18.106136322021484 17.782958984375 17.546659469604492 17.437734603881836 17.367733001708984 17.337238311767578 17.316574096679688 17.283954620361328 17.204782485961914 17.15034294128418 17.104272842407227 17.06937026977539 17.04662322998047 17.06639862060547 17.114032745361328 -9999
-9999 18.534921646118164 18.336071014404297 18.01581573486328 17.71346664428711 17.475757598876953 17.318761825561523 17.244047164916992 17.22405242919922 17.2226619720459 17.220645904541016 17.210247039794922 17.19440460205078 17.1815242767334 17.17257308959961 17.14288330078125 17.090364456176758 17.01744270324707 17.101490020751953 -9999
-9999 18.118436813354492 17.932456970214844 17.642019271850586 17.403812408447266 17.251544952392578 17.17127799987793 17.149362564086914 17.157323837280273 17.174453735351562 17.185483932495117 17.197628021240234 17.21061897277832 17.224767684936523 17.248395919799805 17.250141143798828 17.23065757751465 17.094470977783203 -9999 -9999
-9999 17.834009170532227 17.65923500061035 17.40728759765625 17.226171493530273 17.141826629638672 17.1129150390625 17.121078491210938 17.136695861816406 17.156713485717773 17.171810150146484 17.194578170776367 17.224754333496094 17.260175704956055 17.29397201538086 17.32366180419922 17.337703704833984 17.428327560424805 -9999 -9999
-9999 17.666934967041016 17.485801696777344 17.275192260742188 17.13811492919922 17.10498809814453 17.111846923828125 17.137542724609375 17.156017303466797 17.175148010253906 17.192462921142578 17.21916961669922 17.254287719726562 17.287090301513672 17.323801040649414 17.35871696472168 17.386642456054688 17.415420532226562 17.37832260131836 17.408679962158203
-9999 -9999 17.3257999420166 17.189598083496094 17.09475326538086 17.093555450439453 17.132890701293945 17.17185401916504 17.19438362121582 17.21306610107422 17.228368759155273 17.252561569213867 17.28012466430664 17.321378707885742 17.354082107543945 17.376005172729492 17.40190887451172 17.41862678527832 17.432802200317383 17.40850257873535
-9999 -9999 17.22890853881836 17.136850357055664 17.07801055908203 17.111055374145508 17.175209045410156 17.226699829101562 17.255990982055664 17.268531799316406 17.267337799072266 17.289304733276367 17.316631317138672 17.352188110351562 17.37305450439453 17.387741088867188 17.403942108154297 17.418170928955078 17.39628791809082 17.389415740966797
-9999 -9999 -9999 17.09804344177246 17.068248748779297 17.113927841186523 17.192808151245117 17.247478485107422 17.27308464050293 17.2805118560791 17.284074783325195 17.293426513671875 17.321561813354492 17.355255126953125 17.381450653076172 17.38553237915039 17.411970138549805 17.395458221435547 17.38640022277832 17.383319854736328
