ncols         20
nrows         20
xllcorner     0
yllcorner     -3.5992928
cellsize      0.17996463
NODATA_value  -9999
-9999.0 -9999 -9999 -9999 -9999 -9999 -9999 -9999 -9999 -9999 -9999 -9999 -9999 -9999 -9999 -9999 -9999 -9999 -9999 -9999
-9999 -9999 -9999 -9999 -9999 -9999 -9999 -9999 -9999 -9999 -9999 0.14448417723178864 0.14222073554992676 -9999 -9999 0.1324506402015686 0.12433847039937973 -9999 -9999 -9999
-9999 -9999 -9999 -9999 0.1376171112060547 0.14857059717178345 0.16870242357254028 0.1866491734981537 0.19985008239746094 0.20910577476024628 0.19212712347507477 0.1785031408071518 0.17944177985191345 0.18302588164806366 0.1678798645734787 0.14729204773902893 0.1337539255619049 0.12653732299804688 -9999 -9999
-9999 -9999 -9999 0.13424435257911682 0.14433220028877258 0.15944132208824158 0.18211089074611664 0.20590892434120178 0.2322419434785843 0.25528618693351746 0.27131861448287964 0.27258753776550293 0.27004849910736084 0.25152361392974854 0.22289951145648956 0.1889432668685913 0.16275759041309357 0.1491369903087616 -9999 -9999
-9999 -9999 -9999 0.13869521021842957 0.15210410952568054 0.1798328161239624 0.21517659723758698 0.25774937868118286 0.31074759364128113 0.37927335500717163 0.446845680475235 0.4819020628929138 0.47259193658828735 0.4143607020378113 0.34661048650741577 0.275384783744812 0.22415997087955475 0.2114839404821396 -9999 -9999
-9999 -9999 0.12614887952804565 0.14204537868499756 0.16688628494739532 0.20647352933883667 0.2573690116405487 0.32417717576026917 0.4246293306350708 0.5555230379104614 0.697105884552002 0.773681104183197 0.7713233828544617 0.6744472980499268 0.5404646396636963 0.41679519414901733 0.32977354526519775 0.29641449451446533 0.2797718048095703 -9999
-9999 -9999 0.13262593746185303 0.15038669109344482 0.19073326885700226 0.24927181005477905 0.32176387310028076 0.4229171872138977 0.5711930394172668 0.7619502544403076 0.959731936454773 1.0839511156082153 1.0948565006256104 0.9907169938087463 0.8347744941711426 0.6378159523010254 0.4971674978733063 0.411306232213974 0.3786563277244568 -9999
-9999 -9999 0.15241296589374542 0.18084841966629028 0.24130509793758392 0.32472559809684753 0.4351532459259033 0.5810348987579346 0.764384925365448 0.981523334980011 1.1775215864181519 1.3176937103271484 1.3530313968658447 1.2793424129486084 1.1256808042526245 0.9264534711837769 0.7427391409873962 0.6096915602684021 0.5558648109436035 -9999
-9999 0.16064795851707458 0.18759381771087646 0.2380703240633011 0.33452439308166504 0.4682811498641968 0.630477786064148 0.8299144506454468 1.042773962020874 1.2447625398635864 1.4042989015579224 1.5228078365325928 1.5852160453796387 1.5610958337783813 1.4669649600982666 1.3166770935058594 1.0674121379852295 0.8893272876739502 0.8121334314346313 -9999
-9999 0.19971971213817596 0.23963983356952667 0.3344653248786926 0.48575150966644287 0.6846113801002502 0.9180673360824585 1.1700352430343628 1.3945063352584839 1.5618294477462769 1.6728955507278442 1.7680513858795166 1.8387489318847656 1.8635448217391968 1.8186585903167725 1.7253143787384033 1.4584003686904907 1.2533292770385742 1.1609630584716797 -9999
-9999 0.28145450353622437 0.3392332196235657 0.47248417139053345 0.6689976453781128 0.9233570694923401 1.221443772315979 1.5161447525024414 1.7327826023101807 1.8688926696777344 1.964990258216858 2.061755657196045 2.1665194034576416 2.216519832611084 2.18759822845459 2.093635082244873 1.8906195163726807 1.6871494054794312 1.5877221822738647 -9999
-9999 0.4214285910129547 0.4952378273010254 0.6663357615470886 0.8991953134536743 1.180103063583374 1.4988815784454346 1.7844336032867432 1.9651826620101929 2.071326494216919 2.1633355617523193 2.294618844985962 2.510693311691284 2.595242738723755 2.530028820037842 2.5035481452941895 2.2936339378356934 2.1167361736297607 2.020761013031006 -9999
-9999 0.6347965598106384 0.7332661151885986 0.9492585062980652 1.1953442096710205 1.4683128595352173 1.7485225200653076 1.9745805263519287 2.089890480041504 2.1445741653442383 2.2122864723205566 2.3350818157196045 2.556717872619629 2.6489434242248535 2.6458137035369873 2.5375986099243164 2.466649055480957 2.3843863010406494 2.295901298522949 -9999
-9999 0.9057207107543945 1.0286990404129028 1.2864794731140137 1.542560338973999 1.7728248834609985 1.9685134887695312 2.094564437866211 2.1386466026306152 2.1564736366271973 2.1910736560821533 2.258354663848877 2.387617826461792 2.4172041416168213 2.3918895721435547 2.3070802688598633 2.322221279144287 2.399409294128418 2.319653034210205 -9999
-9999 1.1602296829223633 1.2988829612731934 1.5825592279434204 1.8277934789657593 1.9906866550445557 2.0903608798980713 2.135547161102295 2.1488943099975586 2.161672592163086 2.1878817081451416 2.181471109390259 2.1470839977264404 2.0776925086975098 2.0362510681152344 1.9751440286636353 1.9388830661773682 2.1247658729553223 -9999 -9999
-9999 1.3289388418197632 1.4780420064926147 1.762147307395935 1.9687302112579346 2.0655341148376465 2.1002933979034424 2.113807439804077 2.143761396408081 2.1948492527008057 2.2729482650756836 2.2251524925231934 2.08345890045166 1.8639897108078003 1.741072177886963 1.6071085929870605 1.503609538078308 1.3608821630477905 -9999 -9999
-9999 1.4528621435165405 1.605346441268921 1.8553107976913452 2.0198001861572266 2.055518865585327 2.0461008548736572 2.0471854209899902 2.104586124420166 2.20636248588562 2.2307379245758057 2.1412174701690674 1.9504354000091553 1.6973516941070557 1.4994287490844727 1.3314975500106812 1.2030426263809204 1.106316328048706 1.0985877513885498 0.9990643262863159
-9999 -9999 1.7315070629119873 1.913416862487793 2.0332140922546387 2.0185017585754395 1.9626309871673584 1.9505894184112549 2.040325164794922 2.0934109687805176 2.087951898574829 1.9879497289657593 1.8090870380401611 1.5617644786834717 1.3522522449493408 1.1951547861099243 1.054003119468689 0.9641611576080322 0.9089911580085754 0.9552342891693115
-9999 -9999 1.8654379844665527 1.9645023345947266 2.025712490081787 1.9581530094146729 1.852112054824829 1.8037229776382446 1.8625576496124268 1.8971221446990967 1.9116054773330688 1.8146263360977173 1.6376080513000488 1.4072264432907104 1.2234609127044678 1.087913990020752 0.9743452072143555 0.9087961912155151 0.9591769576072693 0.9883930087089539
-9999 -9999 -9999 1.9906939268112183 2.018181562423706 1.9274736642837524 1.7930362224578857 1.726388692855835 1.7742267847061157 1.8120017051696777 1.8181354999542236 1.749234914779663 1.5733742713928223 1.34869384765625 1.1562296152114868 1.050339698791504 0.9245485663414001 0.9481021165847778 0.986882746219635 1.0089919567108154
