ncols         20
nrows         20
xllcorner     0
yllcorner     -3.5992928
cellsize      0.17996463
NODATA_value  -9999
-9999.0 -9999 -9999 -9999 -9999 -9999 -9999 -9999 -9999 -9999 -9999 -9999 -9999 -9999 -9999 -9999 -9999 -9999 -9999 -9999
-9999 -9999 -9999 -9999 -9999 -9999 -9999 -9999 -9999 -9999 -9999 11.870930671691895 11.841880798339844 -9999 -9999 11.832201957702637 11.676136016845703 -9999 -9999 -9999
-9999 -9999 -9999 -9999 11.800762176513672 11.952040672302246 12.194117546081543 12.320075988769531 12.354025840759277 12.369772911071777 12.180027961730957 12.136012077331543 12.204141616821289 12.267068862915039 12.183331489562988 12.011024475097656 11.838825225830078 11.736104011535645 -9999 -9999
-9999 -9999 -9999 11.860949516296387 11.971786499023438 12.107673645019531 12.274650573730469 12.346779823303223 12.380605697631836 12.375244140625 12.384805679321289 12.412050247192383 12.48939037322998 12.530821800231934 12.533519744873047 12.40913200378418 12.222844123840332 12.104576110839844 -9999 -9999
-9999 -9999 -9999 12.029694557189941 12.141633033752441 12.343525886535645 12.413301467895508 12.320903778076172 12.156381607055664 11.959650039672852 11.767337799072266 11.70715618133545 11.87092399597168 12.201131820678711 12.53111457824707 12.676634788513184 12.642584800720215 12.720823287963867 -9999 -9999
-9999 -9999 12.094379425048828 12.250699043273926 12.42508602142334 12.504640579223633 12.244190216064453 11.661367416381836 11.054242134094238 10.38332748413086 9.706049919128418 9.424542427062988 9.710474014282227 10.542351722717285 11.519402503967285 12.248356819152832 12.6306734085083 12.8255033493042 12.751285552978516 -9999
-9999 -9999 12.34611701965332 12.51281452178955 12.737988471984863 12.540397644042969 11.58211898803711 9.921195030212402 8.68995189666748 7.6147356033325195 6.719864368438721 6.384576320648193 6.866689205169678 7.979944705963135 9.450730323791504 10.875772476196289 11.845505714416504 12.357978820800781 12.546330451965332 -9999
-9999 -9999 12.89139461517334 13.09714412689209 13.153310775756836 12.39482593536377 10.316722869873047 6.22144079208374 4.813982009887695 4.009006500244141 3.5150246620178223 3.4575042724609375 4.491298675537109 5.593932628631592 7.059479713439941 8.719369888305664 10.138874053955078 11.111513137817383 11.5444917678833 -9999
-9999 13.357037544250488 13.574612617492676 13.733611106872559 13.446186065673828 12.061996459960938 9.245262145996094 4.897934436798096 3.342564582824707 2.6136045455932617 2.2819366455078125 2.305983304977417 3.0076048374176025 3.7730369567871094 4.835297584533691 6.255871295928955 7.784689903259277 8.992704391479492 9.586857795715332 -9999
-9999 13.88864517211914 14.071292877197266 14.073588371276855 13.197074890136719 11.095532417297363 7.862145900726318 3.8969321250915527 2.4302377700805664 1.801284670829773 1.568184494972229 1.589253544807434 2.0037567615509033 2.422922134399414 3.0695903301239014 4.025969982147217 5.274538040161133 6.397223472595215 6.9816975593566895 -9999
-9999 14.378119468688965 14.319129943847656 13.762651443481445 12.195368766784668 9.59529972076416 6.302945137023926 2.9510738849639893 1.7015044689178467 1.1865726709365845 0.9957695603370667 0.9890288710594177 1.1850634813308716 1.3897424936294556 1.718687653541565 2.279353380203247 3.0539119243621826 3.882373094558716 4.332402229309082 -9999
-9999 14.213272094726562 13.787121772766113 12.5495023727417 10.447117805480957 7.735164642333984 4.785248756408691 2.1852118968963623 1.1722537279129028 0.7414277791976929 0.5741159915924072 0.5277543067932129 0.5901533365249634 0.6551939845085144 0.7802020907402039 1.0414667129516602 1.4673161506652832 1.9519864320755005 2.2218005657196045 -9999
-9999 12.89574146270752 12.077592849731445 10.246803283691406 8.001364707946777 5.611342906951904 3.3843319416046143 1.69815993309021 0.8519676327705383 0.4942541718482971 0.3268009424209595 0.26143714785575867 0.24042515456676483 0.2409975230693817 0.275115042924881 0.3593372404575348 0.5580438375473022 0.8043763637542725 0.9683042168617249 -9999
-9999 10.495365142822266 9.427688598632812 7.340351104736328 5.25592565536499 3.4721200466156006 2.0467073917388916 1.058796763420105 0.5161823630332947 0.2881235182285309 0.18242265284061432 0.13137459754943848 0.10481026768684387 0.09297569841146469 0.0926220566034317 0.11073274165391922 0.15899619460105896 0.26354241371154785 0.3627448081970215 -9999
-9999 7.975196361541748 6.8761091232299805 4.838345050811768 3.0838282108306885 1.8825225830078125 1.077427625656128 0.5540717244148254 0.2938869595527649 0.16876082122325897 0.10718085616827011 0.07287020981311798 0.05345641076564789 0.04305310547351837 0.037669699639081955 0.03878419101238251 0.046284936368465424 0.07098886370658875 -9999 -9999
-9999 6.206809997558594 5.120778560638428 3.276456356048584 1.8665072917938232 1.0133960247039795 0.5380499362945557 0.2904720604419708 0.1679248958826065 0.10262894630432129 0.06749286502599716 0.045884884893894196 0.035051941871643066 0.036739546805620193 0.03925660252571106 0.042126111686229706 0.04496471583843231 0.04737994819879532 -9999 -9999
-9999 5.081535816192627 3.9218521118164062 2.3897950649261475 1.2418326139450073 0.5656147003173828 0.28943783044815063 0.15764521062374115 0.09490524232387543 0.06099240854382515 0.04178560897707939 0.03628776594996452 0.03798723220825195 0.04088515043258667 0.04464126005768776 0.04893306642770767 0.053697921335697174 0.05954599380493164 0.06915543973445892 0.07370338588953018
-9999 -9999 2.7962732315063477 1.7935385704040527 0.8867130279541016 0.3726842999458313 0.17431727051734924 0.09230552613735199 0.055718597024679184 0.03755689412355423 0.03722107410430908 0.03849725052714348 0.04124314337968826 0.04521895945072174 0.050017282366752625 0.05527856945991516 0.0608331598341465 0.06657527387142181 0.07231312245130539 0.075309619307518
-9999 -9999 1.8968465328216553 1.3050886392593384 0.6540751457214355 0.26041799783706665 0.11375608295202255 0.057404935359954834 0.03897598758339882 0.038010913878679276 0.03851737827062607 0.04055861383676529 0.04406476765871048 0.04879630357027054 0.05426950380206108 0.060032013803720474 0.06572878360748291 0.07082813233137131 0.07474380731582642 0.07681132107973099
-9999 -9999 -9999 1.018491506576538 0.5278675556182861 0.2162887454032898 0.09174240380525589 0.04533994942903519 0.03887227177619934 0.0384085550904274 0.03933693468570709 0.04174528643488884 0.045644063502550125 0.050763655453920364 0.05658034235239029 0.06252140551805496 0.06820137053728104 0.07277868688106537 0.07601667195558548 0.0776907354593277
