ncols         20
nrows         20
xllcorner     0
yllcorner     -3.5992928
cellsize      0.17996463
NODATA_value  -9999
-9999.0 -9999 -9999 -9999 -9999 -9999 -9999 -9999 -9999 -9999 -9999 -9999 -9999 -9999 -9999 -9999 -9999 -9999 -9999 -9999
-9999 -9999 -9999 -9999 -9999 -9999 -9999 -9999 -9999 -9999 -9999 18.973609924316406 18.982221603393555 -9999 -9999 18.91216278076172 18.916610717773438 -9999 -9999 -9999
-9999 -9999 -9999 -9999 18.91883087158203 18.94085121154785 18.958255767822266 18.983835220336914 19.005481719970703 19.00037956237793 19.039430618286133 19.011959075927734 19.000659942626953 19.025222778320312 19.022296905517578 18.975223541259766 18.954490661621094 18.96377944946289 -9999 -9999
-9999 -9999 -9999 18.921281814575195 18.919288635253906 18.944137573242188 18.965476989746094 18.981510162353516 18.977663040161133 18.96967315673828 18.945924758911133 18.941856384277344 18.949302673339844 18.98676872253418 19.003175735473633 19.006284713745117 19.008628845214844 19.023365020751953 -9999 -9999
-9999 -9999 -9999 18.945388793945312 18.958602905273438 18.95777130126953 18.950532913208008 18.919963836669922 18.87261962890625 18.79696273803711 18.717927932739258 18.684499740600586 18.714916229248047 18.81186866760254 18.90467071533203 18.989299774169922 19.050373077392578 19.047086715698242 -9999 -9999
-9999 -9999 18.990169525146484 18.983293533325195 18.993305206298828 18.975149154663086 18.911144256591797 18.79823112487793 18.65936851501465 18.506385803222656 18.358592987060547 18.292591094970703 18.327999114990234 18.478687286376953 18.680843353271484 18.860658645629883 18.992355346679688 19.0489444732666 19.13392448425293 -9999
-9999 -9999 19.047565460205078 19.0590877532959 19.039119720458984 18.95938491821289 18.79019546508789 18.561738967895508 18.332727432250977 18.158157348632812 18.02293586730957 17.949296951293945 17.94804573059082 18.083152770996094 18.313447952270508 18.583599090576172 18.793537139892578 18.941539764404297 19.009790420532227 -9999
-9999 -9999 19.137670516967773 19.13321304321289 19.070655822753906 18.90454864501953 18.612937927246094 18.629154205322266 18.294790267944336 18.118328094482422 18.04346466064453 18.04373550415039 17.73471450805664 17.77938461303711 17.959732055664062 18.21527862548828 18.46796226501465 18.6715145111084 18.767759323120117 -9999
-9999 19.27294158935547 19.221067428588867 19.19683837890625 19.065143585205078 18.791044235229492 18.405725479125977 18.319826126098633 18.00003433227539 17.85601806640625 17.811086654663086 17.823795318603516 17.573827743530273 17.56339454650879 17.662302017211914 17.85137939453125 18.08275604248047 18.288694381713867 18.40058708190918 -9999
-9999 19.33137321472168 19.302690505981445 19.196983337402344 18.9715576171875 18.620500564575195 18.215679168701172 18.124832153320312 17.843730926513672 17.722023010253906 17.68694496154785 17.69651985168457 17.46160125732422 17.405776977539062 17.434932708740234 17.544475555419922 17.717456817626953 17.888294219970703 17.98513412475586 -9999
-9999 19.365570068359375 19.292142868041992 19.099258422851562 18.78731918334961 18.384553909301758 18.021385192871094 17.994712829589844 17.75956916809082 17.654329299926758 17.62476921081543 17.62837791442871 17.3671932220459 17.27623748779297 17.25604248046875 17.30076026916504 17.40342140197754 17.52785301208496 17.60213851928711 -9999
-9999 19.26358985900879 19.131277084350586 18.85340118408203 18.494070053100586 18.099639892578125 17.812063217163086 17.892114639282227 17.701669692993164 17.611106872558594 17.584699630737305 17.585952758789062 17.28415870666504 17.180131912231445 17.133909225463867 17.126192092895508 17.166610717773438 17.241979598999023 17.2962589263916 -9999
-9999 18.963760375976562 18.783363342285156 18.46274185180664 18.10711669921875 17.78379249572754 17.54722785949707 17.438085556030273 17.367935180664062 17.337364196777344 17.316659927368164 17.284038543701172 17.204885482788086 17.150474548339844 17.104507446289062 17.06976890563965 17.047121047973633 17.06695556640625 17.11465835571289 -9999
-9999 18.53635597229004 18.337251663208008 18.016841888427734 17.714523315429688 17.476625442504883 17.319377899169922 17.244388580322266 17.22422981262207 17.222768783569336 17.22071075439453 17.210315704345703 17.194488525390625 17.1816349029541 17.172731399536133 17.143142700195312 17.09074592590332 17.017887115478516 17.102001190185547 -9999
-9999 18.11977767944336 17.93356704711914 17.64291763305664 17.404552459716797 17.252300262451172 17.17184066772461 17.14969825744629 17.157495498657227 17.1745662689209 17.18558120727539 17.197723388671875 17.210721969604492 17.224905014038086 17.24857521057129 17.250368118286133 17.23095703125 17.09486961364746 -9999 -9999
-9999 17.835208892822266 17.660202026367188 17.4079647064209 17.226665496826172 17.142240524291992 17.113412857055664 17.121402740478516 17.13688087463379 17.156845092773438 17.171934127807617 17.194717407226562 17.224905014038086 17.260334014892578 17.294143676757812 17.3238525390625 17.337974548339844 17.42864418029785 -9999 -9999
-9999 17.668046951293945 17.486595153808594 17.27570152282715 17.13844871520996 17.105255126953125 17.112285614013672 17.137868881225586 17.15622901916504 17.175331115722656 17.192646026611328 17.219362258911133 17.25447654724121 17.28728675842285 17.323999404907227 17.35892677307129 17.386877059936523 17.41568374633789 17.378633499145508 17.40898895263672
-9999 -9999 17.326305389404297 17.189916610717773 17.09496307373047 17.093727111816406 17.133089065551758 17.17213249206543 17.194612503051758 17.213281631469727 17.228559494018555 17.252777099609375 17.28034210205078 17.32158660888672 17.35430908203125 17.37619400024414 17.402084350585938 17.418827056884766 17.433012008666992 17.40873908996582
-9999 -9999 17.22928237915039 17.137075424194336 17.078147888183594 17.11118507385254 17.175350189208984 17.226816177368164 17.25616455078125 17.268709182739258 17.26752471923828 17.289518356323242 17.316829681396484 17.35235023498535 17.37323760986328 17.387916564941406 17.404132843017578 17.418363571166992 17.396512985229492 17.3896541595459
-9999 -9999 -9999 17.098142623901367 17.068336486816406 17.11403465270996 17.192920684814453 17.247512817382812 17.273128509521484 17.280567169189453 17.284168243408203 17.293556213378906 17.32170867919922 17.355398178100586 17.381608963012695 17.385725021362305 17.41215705871582 17.39567756652832 17.386648178100586 17.383575439453125
