ncols         20
nrows         20
xllcorner     0
yllcorner     -3.5992928
cellsize      0.17996463
NODATA_value  -9999
-9999.0 -9999 -9999 -9999 -9999 -9999 -9999 -9999 -9999 -9999 -9999 -9999 -9999 -9999 -9999 -9999 -9999 -9999 -9999 -9999
-9999 -9999 -9999 -9999 -9999 -9999 -9999 -9999 -9999 -9999 -9999 0 0 -9999 -9999 0 0 -9999 -9999 -9999
-9999 -9999 -9999 -9999 0 0 0 0 0 0 0 0 0 0 0 0 0 0 -9999 -9999
-9999 -9999 -9999 0 0 0 0 0 0 0 0 0 0 0 0 0 0 0 -9999 -9999
-9999 -9999 -9999 0 0 0 0 0 0 0 0 0 0 0 0 0 0 0 -9999 -9999
-9999 -9999 0 0 0 0 3.9337332248687744 3.664365291595459 3.469132661819458 3.2871317863464355 3.1264638900756836 3.065744400024414 3.1367785930633545 3.3522942066192627 3.6630866527557373 4.059708118438721 0 0 0 -9999
-9999 -9999 0 0 0 3.8746161460876465 3.4648680686950684 3.161325454711914 2.8816189765930176 2.5975706577301025 2.35451340675354 2.239985466003418 2.2938122749328613 2.5278267860412598 0.323106974363327 3.421704053878784 0 0 0 -9999
-9999 -9999 0 0 3.9752869606018066 3.5113463401794434 3.1204967498779297 2.757619619369507 2.4032912254333496 2.07197642326355 1.8266767263412476 1.7033483982086182 1.7323851585388184 1.9229426383972168 2.2699050903320312 2.754570960998535 3.34546160697937 0 0 -9999
-9999 0 0 4.2370285987854 3.705003499984741 3.2346959114074707 2.78013277053833 2.3391940593719482 1.9463293552398682 1.6383473873138428 1.4417202472686768 1.347506046295166 1.3563339710235596 1.4870165586471558 1.7438362836837769 0.4748048484325409 2.634932041168213 3.1633546352386475 0 -9999
-9999 0 0 4.119243621826172 3.500037670135498 2.9226748943328857 2.3716561794281006 1.8799551725387573 1.5046697854995728 1.2629728317260742 1.1342896223068237 1.0766054391860962 1.0846328735351562 1.163163423538208 1.3363800048828125 0.3596779406070709 2.01902437210083 2.46468448638916 0 -9999
-9999 0 0 3.9949405193328857 3.2531542778015137 2.579314708709717 1.9651025533676147 1.4670584201812744 1.143976092338562 0.967314600944519 0.883558452129364 0.8528050184249878 0.8602855205535889 0.9096505641937256 1.0172529220581055 1.2089602947235107 1.4958734512329102 0 0 -9999
-9999 0 0 3.7483532428741455 2.9239487648010254 2.218801975250244 1.614601492881775 1.1672024726867676 0.9048954248428345 0.7711496949195862 0.7125598192214966 0.6906590461730957 0.3089621663093567 0.40096238255500793 0.781086266040802 0.19887754321098328 1.0827679634094238 0 0 -9999
-9999 0 0 3.3040788173675537 2.4836862087249756 1.8300367593765259 1.3154280185699463 0.9558174014091492 0.7542263865470886 0.6592605113983154 0.6116620302200317 0.5948286652565002 0.3962332606315613 0.5406416058540344 0.42751383781433105 0.7018936276435852 0.8138138055801392 0 0 -9999
-9999 0 0 2.7164833545684814 1.9648218154907227 1.428979754447937 1.0490636825561523 0.8007858395576477 0.6599048972129822 0.5958527326583862 0.5653475522994995 0.5528817772865295 0.24507980048656464 0.4353713393211365 0.38578638434410095 0.6134739518165588 0.6741878390312195 0 0 -9999
-9999 0 0 2.167038679122925 1.5150611400604248 1.1062345504760742 0.8495182394981384 0.6899672150611877 0.6062188148498535 0.5633947253227234 0.5421366095542908 0.5326085090637207 0.5313760042190552 0.537311315536499 0.3669034540653229 0.31840935349464417 0.6096819043159485 0 -9999 -9999
-9999 0 0 1.789617896080017 1.2349148988723755 0.9100852608680725 0.7288536429405212 0.6288180947303772 0.5749583840370178 0.5448982119560242 0.3526422083377838 0.40557754039764404 0.05787970870733261 0.5278663635253906 0.23982438445091248 0.2475907951593399 0.5819169878959656 0.08661051094532013 -9999 -9999
-9999 0 0 1.551854133605957 1.0736171007156372 0.7963373064994812 0.6646915674209595 0.5936729907989502 0.5547420978546143 0.3548460304737091 0.4621308743953705 0.515823245048523 0.4025247395038605 0.5229945778846741 0.5320539474487305 0.5448914766311646 0.5618684887886047 0.578245997428894 0.41302254796028137 0.5789934396743774
-9999 -9999 0 1.369394063949585 0.9698926210403442 0.738628089427948 0.629524827003479 0.5733246803283691 0.301228404045105 0.46601980924606323 0.5170918703079224 0.5144491791725159 0.4582509398460388 0.40427061915397644 0.35113173723220825 0.3572729825973511 0.36453282833099365 0.4336617588996887 0.5002015233039856 0.5646094083786011
-9999 -9999 0 0 0.9006794691085815 0.7013649344444275 0.6083139181137085 0.5608134865760803 0.35731199383735657 0.5236411690711975 0.5166494846343994 0.5138834714889526 0.5145306587219238 0.517922043800354 0.5233941674232483 0.530319094657898 0.5378921627998352 0.5447136759757996 0.5489110946655273 0.5507957339286804
-9999 -9999 -9999 0 0.8577039837837219 0.6848841905593872 0.5995481014251709 0.5558409690856934 0.35697051882743835 0.5234396457672119 0.5165444612503052 0.5136992931365967 0.5141202807426453 0.5170828104019165 0.5218523144721985 0.5276960730552673 0.5338517427444458 0.5391433238983154 0.5427036285400391 0.5444342494010925
