ncols         20
nrows         20
xllcorner     0
yllcorner     -3.5992928
cellsize      0.17996463
NODATA_value  -9999
-9999.0 -9999 -9999 -9999 -9999 -9999 -9999 -9999 -9999 -9999 -9999 -9999 -9999 -9999 -9999 -9999 -9999 -9999 -9999 -9999
-9999 -9999 -9999 -9999 -9999 -9999 -9999 -9999 -9999 -9999 -9999 26.536623001098633 26.535799026489258 -9999 -9999 26.627206802368164 26.706531524658203 -9999 -9999 -9999
-9999 -9999 -9999 -9999 26.59486198425293 26.484365463256836 26.325342178344727 26.211177825927734 26.154743194580078 26.147607803344727 26.229257583618164 26.32004737854004 26.28516387939453 26.178306579589844 26.23344612121582 26.42384910583496 26.554229736328125 26.591569900512695 -9999 -9999
-9999 -9999 -9999 26.603923797607422 26.545074462890625 26.445423126220703 26.33148765563965 26.26321792602539 26.226966857910156 26.212223052978516 26.208271026611328 26.188282012939453 26.108661651611328 26.031328201293945 26.04038429260254 26.15012550354004 26.264873504638672 26.313936233520508 -9999 -9999
-9999 -9999 -9999 26.527076721191406 26.473466873168945 26.411867141723633 26.411361694335938 26.489168167114258 26.579465866088867 26.64128875732422 26.65094757080078 26.569957733154297 26.37918472290039 26.158958435058594 26.00168800354004 25.954334259033203 25.95351791381836 25.925662994384766 -9999 -9999
-9999 -9999 26.475419998168945 26.42876625061035 26.38921356201172 26.46691131591797 26.761695861816406 27.228923797607422 27.64624786376953 27.965879440307617 28.12604522705078 27.993751525878906 27.555526733398438 26.982952117919922 26.474966049194336 26.109634399414062 25.892871856689453 25.759092330932617 25.690752029418945 -9999
-9999 -9999 26.300682067871094 26.271438598632812 26.317167282104492 26.67076301574707 27.52260398864746 28.843021392822266 29.883543014526367 30.503992080688477 30.699548721313477 30.37685775756836 29.522964477539062 28.527416229248047 27.575162887573242 26.78017807006836 26.261455535888672 25.957429885864258 25.817340850830078 -9999
-9999 -9999 25.967079162597656 25.989274978637695 26.225385665893555 27.019901275634766 28.7198486328125 31.429847717285156 32.965763092041016 33.65144729614258 33.718894958496094 33.10667037963867 31.652311325073242 30.25446319580078 29.014591217041016 27.947765350341797 27.112892150878906 26.562326431274414 26.305723190307617 -9999
-9999 25.501361846923828 25.577003479003906 25.699878692626953 26.190675735473633 27.430814743041992 29.797327041625977 33.01558303833008 34.79880905151367 35.534400939941406 35.54854965209961 34.82490158081055 33.22359848022461 31.690759658813477 30.368873596191406 29.238079071044922 28.305383682250977 27.63223648071289 27.281070709228516 -9999
-9999 25.252798080444336 25.311481475830078 25.57326316833496 26.370498657226562 28.006818771362305 30.723726272583008 33.96076583862305 35.76351547241211 36.50342559814453 36.50981903076172 35.7907600402832 34.22474670410156 32.712989807128906 31.43070411682129 30.364227294921875 29.49310302734375 28.849018096923828 28.498750686645508 -9999
-9999 25.042434692382812 25.2088680267334 25.712926864624023 26.82440757751465 28.741756439208984 31.481159210205078 34.48681640625 36.17292404174805 36.88123321533203 36.90744400024414 36.25297546386719 34.78173828125 33.366519927978516 32.17824172973633 31.21099853515625 30.444900512695312 29.892072677612305 29.58905029296875 -9999
-9999 25.125490188598633 25.43856430053711 26.18505096435547 27.502357482910156 29.4617977142334 31.925384521484375 34.507259368896484 35.99949645996094 36.6760368347168 36.76072692871094 36.24532699584961 34.99003601074219 33.78436279296875 32.75012969970703 31.878732681274414 31.17404556274414 30.668224334716797 30.385913848876953 -9999
-9999 25.644805908203125 26.081178665161133 26.991588592529297 28.353172302246094 30.0584774017334 31.974491119384766 33.828407287597656 35.093505859375 35.77560806274414 35.97102737426758 35.68967056274414 34.97016143798828 34.16120147705078 33.37269592285156 32.623348236083984 31.927915573120117 31.378250122070312 31.013158798217773 -9999
-9999 26.556142807006836 27.065980911254883 28.000457763671875 29.194673538208008 30.545398712158203 31.97156524658203 33.328712463378906 34.387996673583984 35.0482177734375 35.348567962646484 35.3259391784668 35.042720794677734 34.63405990600586 34.15508270263672 33.59405517578125 32.969322204589844 32.32880783081055 31.58503532409668 -9999
-9999 27.62908172607422 28.1159725189209 28.932125091552734 29.894947052001953 30.95587158203125 32.07151794433594 33.15174865722656 34.032501220703125 34.664161682128906 35.052886962890625 35.24193572998047 35.27396774291992 35.195945739746094 35.02545928955078 34.732818603515625 34.342952728271484 33.94182586669922 -9999 -9999
-9999 28.48320198059082 28.94603157043457 29.63496208190918 30.44186019897461 31.35248565673828 32.326416015625 33.23991394042969 34.00941467285156 34.60753631591797 35.04365158081055 35.36509704589844 35.59852981567383 35.75125503540039 35.8144645690918 35.77992630004883 35.685218811035156 35.66267776489258 -9999 -9999
-9999 28.9852294921875 29.551362991333008 30.15053939819336 30.885652542114258 31.776933670043945 32.68471145629883 33.53825378417969 34.25349807739258 34.822998046875 35.27184295654297 35.65314483642578 35.98548126220703 36.258026123046875 36.4554557800293 36.57239532470703 36.64892578125 36.794105529785156 37.20874786376953 37.38163375854492
-9999 -9999 30.169971466064453 30.584264755249023 31.256227493286133 32.15229797363281 33.08676528930664 33.94567108154297 34.646240234375 35.19087600708008 35.623355865478516 36.01212692260742 36.37495422363281 36.70571517944336 36.95831298828125 37.12516784667969 37.2480583190918 37.36034393310547 37.497440338134766 37.54365158081055
-9999 -9999 30.478185653686523 30.897262573242188 31.545454025268555 32.46993637084961 33.46290588378906 34.352745056152344 35.05408477783203 35.570030212402344 35.964500427246094 36.33637237548828 36.703155517578125 37.046878814697266 37.30989456176758 37.48563766479492 37.605018615722656 37.66865539550781 37.682491302490234 37.68304443359375
-9999 -9999 -9999 31.184627532958984 31.745559692382812 32.653167724609375 33.676605224609375 34.585750579833984 35.28010559082031 35.77596664428711 36.15311813354492 36.50261688232422 36.867034912109375 37.215904235839844 37.48939895629883 37.66300964355469 37.784637451171875 37.80430603027344 37.7896842956543 37.7783317565918
