ncols         20
nrows         20
xllcorner     0
yllcorner     -3.5992928
cellsize      0.17996463
NODATA_value  -9999
-9999.0 -9999 -9999 -9999 -9999 -9999 -9999 -9999 -9999 -9999 -9999 -9999 -9999 -9999 -9999 -9999 -9999 -9999 -9999 -9999
-9999 -9999 -9999 -9999 -9999 -9999 -9999 -9999 -9999 -9999 -9999 2.3583037853240967 2.353135585784912 -9999 -9999 2.433666229248047 2.4081337451934814 -9999 -9999 -9999
-9999 -9999 -9999 -9999 2.483152151107788 2.4935388565063477 2.506760358810425 2.4888479709625244 2.4543564319610596 2.4264163970947266 2.376997470855713 2.377904176712036 2.392322063446045 2.4021761417388916 2.412403106689453 2.4262259006500244 2.4098427295684814 2.383425712585449 -9999 -9999
-9999 -9999 -9999 2.519371509552002 2.529670000076294 2.5357470512390137 2.531893730163574 2.500089645385742 2.4593331813812256 2.415905237197876 2.3872718811035156 2.3790135383605957 2.3888959884643555 2.404972553253174 2.435377836227417 2.4508888721466064 2.4352660179138184 2.412140369415283 -9999 -9999
-9999 -9999 -9999 2.5538439750671387 2.5696287155151367 2.5898940563201904 2.5653696060180664 2.496941089630127 2.409055709838867 2.3116066455841064 2.2193267345428467 2.167797803878784 2.180595636367798 2.251171588897705 2.3467001914978027 2.415391683578491 2.4321138858795166 2.4480316638946533 -9999 -9999
-9999 -9999 2.5620012283325195 2.5935001373291016 2.6216821670532227 2.616203784942627 2.526845693588257 2.3594400882720947 2.187537670135498 2.0027780532836914 1.8158100843429565 1.7092304229736328 1.7254356145858765 1.8621407747268677 2.060389757156372 2.2287166118621826 2.324371337890625 2.355823516845703 2.3007400035858154 -9999
-9999 -9999 2.5897064208984375 2.6245670318603516 2.661817789077759 2.5994718074798584 2.367706060409546 1.9637396335601807 1.6947484016418457 1.4470160007476807 1.2268630266189575 1.1222732067108154 1.1913141012191772 1.3785332441329956 1.639203667640686 1.8932287693023682 2.0859391689300537 2.1806187629699707 2.2013981342315674 -9999
-9999 -9999 2.648705244064331 2.690596342086792 2.691230535507202 2.516655206680298 2.0399250984191895 0.9021778702735901 0.6622320413589478 0.5553380250930786 0.491087406873703 0.4965094327926636 0.7440040111541748 0.9431309700012207 1.196263313293457 1.4851531982421875 1.7291146516799927 1.8858953714370728 1.9539990425109863 -9999
-9999 2.6308937072753906 2.700509548187256 2.7313132286071777 2.6594114303588867 2.375706911087036 1.7993768453598022 0.6750214099884033 0.4147576093673706 0.32686078548431396 0.29718953371047974 0.32247090339660645 0.4892355799674988 0.6224849224090576 0.7943421602249146 1.0320895910263062 1.2938483953475952 1.496444582939148 1.5899808406829834 -9999
-9999 2.6575052738189697 2.694392442703247 2.677858829498291 2.4882476329803467 2.08813738822937 1.4853768348693848 0.5469322800636292 0.31132709980010986 0.23460513353347778 0.2152682989835739 0.23390479385852814 0.32765263319015503 0.3930683732032776 0.4862879812717438 0.6334497332572937 0.8375841379165649 1.0244677066802979 1.11922287940979 -9999
-9999 2.6182987689971924 2.598296642303467 2.4712274074554443 2.166160821914673 1.726041555404663 1.1450861692428589 0.42952507734298706 0.2382078766822815 0.17343395948410034 0.15407897531986237 0.15992188453674316 0.19831007719039917 0.22333483397960663 0.2627091407775879 0.33913540840148926 0.4538184404373169 0.5812936425209045 0.6501820683479309 -9999
-9999 2.4259419441223145 2.339507818222046 2.0992884635925293 1.734787106513977 1.3206478357315063 0.8293800354003906 0.3328544795513153 0.18251973390579224 0.12409190833568573 0.10176678746938705 0.09517733007669449 0.10238771140575409 0.10543978214263916 0.1160736083984375 0.14702525734901428 0.20355229079723358 0.2697726786136627 0.3061133921146393 -9999
-9999 2.041250705718994 1.8974403142929077 1.5915206670761108 1.2542529106140137 0.9008892774581909 0.5565730333328247 0.27903640270233154 0.14546139538288116 0.08986267447471619 0.06115021929144859 0.048636727035045624 0.0419200137257576 0.037990305572748184 0.0389607809484005 0.04725286737084389 0.07378335297107697 0.10417866706848145 0.1230555847287178 -9999
-9999 1.5547311305999756 1.394315242767334 1.0752599239349365 0.7696282863616943 0.5170839428901672 0.3144311010837555 0.16829396784305573 0.08507505059242249 0.05155191570520401 0.03515283018350601 0.026235288009047508 0.020503317937254906 0.017021629959344864 0.015406216494739056 0.0165312048047781 0.02157186158001423 0.032629020512104034 0.040800586342811584 -9999
-9999 1.1416425704956055 0.9755362272262573 0.6699867844581604 0.4209352433681488 0.26020553708076477 0.1540471911430359 0.081401027739048 0.046966154128313065 0.03063736855983734 0.022198490798473358 0.016822490841150284 0.013253523036837578 0.01111593283712864 0.009752335958182812 0.009607149288058281 0.010495625436306 0.014399716630578041 -9999 -9999
-9999 0.8674268126487732 0.7047697901725769 0.4357110559940338 0.24260932207107544 0.13213719427585602 0.07076433300971985 0.04126887768507004 0.027466144412755966 0.020160863175988197 0.016044236719608307 0.013011668808758259 0.011372392997145653 0.012712884694337845 0.013848315924406052 0.014679537154734135 0.015227103605866432 0.01575719378888607 -9999 -9999
-9999 0.6977153420448303 0.5278642177581787 0.3110879361629486 0.15764980018138885 0.06939727067947388 0.03724377974867821 0.02325212024152279 0.017178799957036972 0.014029978774487972 0.012215287424623966 0.01271260529756546 0.014867177233099937 0.016918914392590523 0.018784966319799423 0.020407088100910187 0.021928682923316956 0.02394644357264042 0.028200171887874603 0.029963452368974686
-9999 -9999 0.3679686188697815 0.23126552999019623 0.11238496005535126 0.045777030289173126 0.02333666943013668 0.0151033541187644 0.011952543631196022 0.010721547529101372 0.013088290579617023 0.015617980621755123 0.01822635531425476 0.02081003040075302 0.023154329508543015 0.02514648251235485 0.026899337768554688 0.02854830026626587 0.030285967513918877 0.030988680198788643
-9999 -9999 0.24498748779296875 0.1670568436384201 0.08286070823669434 0.03269675001502037 0.01629996858537197 0.010778463445603848 0.010032787919044495 0.012575809843838215 0.015232540667057037 0.018034987151622772 0.020943770185112953 0.023823507130146027 0.026362344622612 0.028397303074598312 0.02998257800936699 0.031036444008350372 0.03155285120010376 0.03172604739665985
-9999 -9999 -9999 0.1295756995677948 0.06470902264118195 0.027393631637096405 0.013778000138700008 0.009367596358060837 0.010927109979093075 0.013651886023581028 0.01645636186003685 0.019366616383194923 0.02240370772778988 0.025402309373021126 0.02801557071506977 0.029981663450598717 0.03142638877034187 0.031997233629226685 0.03210953250527382 0.03209051489830017
