ncols         20
nrows         20
xllcorner     0
yllcorner     -3.5992928
cellsize      0.17996463
NODATA_value  -9999
-9999.0 -9999 -9999 -9999 -9999 -9999 -9999 -9999 -9999 -9999 -9999 -9999 -9999 -9999 -9999 -9999 -9999 -9999 -9999 -9999
-9999 -9999 -9999 -9999 -9999 -9999 -9999 -9999 -9999 -9999 -9999 3.0328664779663086 3.044116973876953 -9999 -9999 3.2199647426605225 3.2230663299560547 -9999 -9999 -9999
-9999 -9999 -9999 -9999 3.172196865081787 3.134155750274658 3.0771937370300293 3.0083703994750977 2.9447121620178223 2.902940511703491 2.8928732872009277 2.9377448558807373 2.976625442504883 3.015960216522217 3.076327085494995 3.1465253829956055 3.1751279830932617 3.1797289848327637 -9999 -9999
-9999 -9999 -9999 3.188354969024658 3.1461338996887207 3.0696558952331543 2.97690749168396 2.8764090538024902 2.790520191192627 2.7352192401885986 2.7197046279907227 2.747241973876953 2.8042075634002686 2.8799731731414795 2.9644877910614014 3.04136061668396 3.0978667736053467 3.134335994720459 -9999 -9999
-9999 -9999 -9999 3.161649703979492 3.0796327590942383 2.9502432346343994 2.7901763916015625 2.623627185821533 2.4915969371795654 2.410266876220703 2.3845107555389404 2.4166042804718018 2.5007386207580566 2.6184637546539307 2.7491559982299805 2.8700132369995117 2.968867778778076 3.0349700450897217 -9999 -9999
-9999 -9999 3.1951277256011963 3.129502773284912 2.9878487586975098 2.7762115001678467 2.5075912475585938 2.2310967445373535 2.038490056991577 1.9320635795593262 1.9022549390792847 1.951351284980774 2.079155683517456 2.2486000061035156 2.433166265487671 2.607268810272217 2.7511911392211914 2.843843936920166 2.8325657844543457 -9999
-9999 -9999 3.185253381729126 3.0782551765441895 2.869628429412842 2.5495786666870117 2.1261086463928223 1.66339111328125 1.4205318689346313 1.316321849822998 1.3068939447402954 1.3960658311843872 1.6126457452774048 1.8374035358428955 2.0605087280273438 2.2732737064361572 2.4554264545440674 2.5891671180725098 2.651684284210205 -9999
-9999 -9999 3.185577392578125 3.033313512802124 2.74428653717041 2.3035409450531006 1.6903142929077148 0.8124567866325378 0.6130192279815674 0.5707374811172485 0.5987668633460999 0.7239868640899658 1.1765906810760498 1.4682847261428833 1.7058337926864624 1.9215296506881714 2.115780830383301 2.272263526916504 2.36230206489563 -9999
-9999 3.294227361679077 3.190606117248535 2.973828077316284 2.614854574203491 2.1034128665924072 1.443434476852417 0.6170297265052795 0.4082667827606201 0.3650081157684326 0.3983317017555237 0.5292298197746277 0.9208630919456482 1.194662094116211 1.4151487350463867 1.6085734367370605 1.782729983329773 1.9339507818222046 2.0276498794555664 -9999
-9999 3.242246389389038 3.1154892444610596 2.8574700355529785 2.456993818283081 1.9268858432769775 1.2951860427856445 0.5683553218841553 0.36608487367630005 0.31836968660354614 0.346958726644516 0.46410155296325684 0.778875470161438 1.008079171180725 1.1951886415481567 1.357765793800354 1.503798246383667 1.6323128938674927 1.7159448862075806 -9999
-9999 3.1031816005706787 2.953787326812744 2.6659719944000244 2.2547531127929688 1.7531366348266602 1.1932048797607422 0.5727499723434448 0.3900168836116791 0.3418271243572235 0.36229196190834045 0.4583354890346527 0.7081291675567627 0.8906140327453613 1.039058804512024 1.169370174407959 1.2875093221664429 1.3946847915649414 1.4675967693328857 -9999
-9999 2.8523340225219727 2.6906774044036865 2.396531581878662 2.012876272201538 1.5818521976470947 1.126865267753601 0.6277289986610413 0.47182029485702515 0.42328423261642456 0.43218865990638733 0.5019508004188538 0.6897722482681274 0.8244113922119141 0.9353702068328857 1.035805583000183 1.1302101612091064 1.219931721687317 1.2842087745666504 -9999
-9999 2.509097099304199 2.350231170654297 2.0794143676757812 1.7600517272949219 1.4281368255615234 1.104673147201538 0.8219934105873108 0.6690321564674377 0.6012061834335327 0.5910755395889282 0.6294108033180237 0.7133277058601379 0.7951022982597351 0.8717162013053894 0.9462184906005859 1.022151231765747 1.100052833557129 1.1614224910736084 -9999
-9999 2.140911817550659 2.0005829334259033 1.7825186252593994 1.5379729270935059 1.2925519943237305 1.0656880140304565 0.8807325959205627 0.7629063129425049 0.7004578709602356 0.6807284355163574 0.6949321627616882 0.7343393564224243 0.7821103930473328 0.8333441019058228 0.8888036608695984 0.9521465301513672 1.02317214012146 1.0955092906951904 -9999
-9999 1.8385590314865112 1.721825361251831 1.546452522277832 1.359145164489746 1.178147315979004 1.0167535543441772 0.8883814215660095 0.8000911474227905 0.7489507794380188 0.7273432016372681 0.7290005087852478 0.7475182414054871 0.7754591703414917 0.8093909621238708 0.8499182462692261 0.8993642330169678 0.9446160197257996 -9999 -9999
-9999 1.6278798580169678 1.5193812847137451 1.372223138809204 1.2242662906646729 1.0872749090194702 0.9693816304206848 0.8766173720359802 0.8105034828186035 0.76992267370224 0.7499144673347473 0.7461509704589844 0.7545261979103088 0.7711646556854248 0.7938684821128845 0.8226990699768066 0.8602187037467957 0.8938983082771301 -9999 -9999
-9999 1.5097465515136719 1.3799397945404053 1.2497385740280151 1.126389503479004 1.0184998512268066 0.9294478893280029 0.8599006533622742 0.8095347881317139 0.7774354815483093 0.760067880153656 0.7544185519218445 0.7577903270721436 0.7678210735321045 0.7830013036727905 0.8029502630233765 0.8285855054855347 0.8535966277122498 0.8544998168945312 0.8557068705558777
-9999 -9999 1.241538643836975 1.156279444694519 1.0567342042922974 0.969597339630127 0.8992525339126587 0.8446961045265198 0.805011510848999 0.7791754007339478 0.7643038034439087 0.7582238912582397 0.7590615153312683 0.7651995420455933 0.7753409147262573 0.7886474132537842 0.8043825030326843 0.8203942179679871 0.8282812237739563 0.8310496211051941
-9999 -9999 1.1761199235916138 1.100390076637268 1.0149562358856201 0.9388790726661682 0.8793779611587524 0.8338242173194885 0.8009019494056702 0.7790658473968506 0.7659251093864441 0.7598696947097778 0.7594588994979858 0.7633892297744751 0.7704599499702454 0.7796757221221924 0.7899528741836548 0.7994400858879089 0.8053591847419739 0.8079832792282104
-9999 -9999 -9999 1.0530003309249878 0.9912804961204529 0.9232081770896912 0.8693714737892151 0.8281886577606201 0.7985562682151794 0.7786430716514587 0.7663972973823547 0.7604155540466309 0.7594888210296631 0.7624266147613525 0.7680792212486267 0.7753980755805969 0.7833435535430908 0.7903775572776794 0.7951924800872803 0.7975366711616516
