ncols         20
nrows         20
xllcorner     0
yllcorner     -3.5992928
cellsize      0.17996463
NODATA_value  -9999
-9999.0 -9999 -9999 -9999 -9999 -9999 -9999 -9999 -9999 -9999 -9999 -9999 -9999 -9999 -9999 -9999 -9999 -9999 -9999 -9999
-9999 -9999 -9999 -9999 -9999 -9999 -9999 -9999 -9999 -9999 -9999 0.011672759428620338 0.01126028597354889 -9999 -9999 0.009351898916065693 0.008223989978432655 -9999 -9999 -9999
-9999 -9999 -9999 -9999 0.011568311601877213 0.013396207243204117 0.017056915909051895 0.020528694614768028 0.02308587171137333 0.0247937198728323 0.02056822180747986 0.01753907836973667 0.017484251409769058 0.017816640436649323 0.014804000034928322 0.011362309567630291 0.009316534735262394 0.008246003650128841 -9999 -9999
-9999 -9999 -9999 0.010815409943461418 0.01252767350524664 0.015173974446952343 0.01951746642589569 0.024485308676958084 0.030483949929475784 0.03604396805167198 0.03986012935638428 0.03952596336603165 0.038197264075279236 0.03263406455516815 0.02530927024781704 0.018041102215647697 0.01330038532614708 0.011104761622846127 -9999 -9999
-9999 -9999 -9999 0.01126348227262497 0.013506317511200905 0.018673425540328026 0.026267725974321365 0.03685114532709122 0.052236542105674744 0.07597982883453369 0.10302038490772247 0.11745644360780716 0.11111154407262802 0.08409356325864792 0.05798477306962013 0.036264024674892426 0.023845037445425987 0.02108965627849102 -9999 -9999
-9999 -9999 0.00873242411762476 0.011270016431808472 0.015513855963945389 0.02342408336699009 0.03564082831144333 0.05510837212204933 0.09207706153392792 0.15331368148326874 0.235319122672081 0.28377893567085266 0.2772098183631897 0.2085181325674057 0.1318749636411667 0.07763280719518661 0.048128046095371246 0.03840731456875801 0.03327319771051407 -9999
-9999 -9999 0.00926173198968172 0.011940664611756802 0.01905183494091034 0.03198122978210449 0.052059777081012726 0.08764537423849106 0.15530091524124146 0.2684023082256317 0.41461655497550964 0.5170832276344299 0.5180894136428833 0.41697263717651367 0 0.16853627562522888 0.10180414468050003 0.06924892961978912 0.05818326026201248 -9999
-9999 -9999 0.011388277634978294 0.016027335077524185 0.028248747810721397 0.05020492523908615 0.08811752498149872 0.15284408628940582 0.256919801235199 0.4115488827228546 0.5768911838531494 0.7058702111244202 0.7303680777549744 0.6424474716186523 0.49031925201416016 0.32867807149887085 0.21071535348892212 0.14186139404773712 0.11776715517044067 -9999
-9999 0.011026471853256226 0.015662143006920815 0.02547280304133892 0.04998483881354332 0.09618964046239853 0.17021054029464722 0.28671693801879883 0.4395579397678375 0.608879804611206 0.7550697326660156 0.867494523525238 0.9218124151229858 0.8798863887786865 0.766718327999115 0 0.402942031621933 0.2809629440307617 0.2348974347114563 -9999
-9999 0.016099777072668076 0.023510968312621117 0.0462615005671978 0.09725967049598694 0.19002968072891235 0.333309531211853 0.5257004499435425 0.7246307730674744 0.8834036588668823 0.9872041940689087 1.0765475034713745 1.1408708095550537 1.1546434164047241 1.0889276266098022 0 0.7000928521156311 0.5208585262298584 0.4489646255970001 -9999
-9999 0.029832974076271057 0.04366680607199669 0.08575766533613205 0.17203786969184875 0.3225181996822357 0.54986172914505 0.8216453790664673 1.0407793521881104 1.1759662628173828 1.2647953033447266 1.3568449020385742 1.4640685319900513 1.512007236480713 1.4667233228683472 1.3425753116607666 1.1035250425338745 0.8863897919654846 0.7896220684051514 -9999
-9999 0.06311734020709991 0.08773889392614365 0.16114795207977295 0.29271140694618225 0.49548593163490295 0.77834552526474 1.0700870752334595 1.2591981887817383 1.3588895797729492 1.441460371017456 1.5767078399658203 0 0 1.8410011529922485 0 1.5352587699890137 1.3218427896499634 1.214045763015747 -9999
-9999 0.13783316314220428 0.18516284227371216 0.3126581907272339 0.4913603961467743 0.7267745137214661 1.0034868717193604 1.2427066564559937 1.3522439002990723 1.384230375289917 1.4326884746551514 1.552188515663147 0 0 0 1.778827428817749 1.6997871398925781 1.6059401035308838 1.5063635110855103 -9999
-9999 0.27558913826942444 0.35661330819129944 0.5538457036018372 0.7833801507949829 1.0114479064941406 1.2141841650009155 1.336228609085083 1.3535845279693604 1.3356620073318481 1.3402061462402344 1.387305736541748 0 0 0 1.4053202867507935 1.4421480894088745 1.5622498989105225 1.4994760751724243 -9999
-9999 0.44673264026641846 0.5557821989059448 0.812018632888794 1.0603089332580566 1.2270839214324951 1.3169831037521362 1.3351930379867554 1.3092625141143799 1.2824933528900146 1.2751308679580688 1.2386502027511597 1.1794068813323975 1.092475175857544 0 0 0.952227771282196 1.152998685836792 -9999 -9999
-9999 0.5762643814086914 0.7032215595245361 0.9789048433303833 1.1930512189865112 1.2800291776657104 1.286523461341858 1.260968565940857 1.2512861490249634 1.2645496129989624 0 0 0 0.8444304466247559 0 0 0.5380465388298035 0 -9999 -9999
-9999 0.6794777512550354 0.8106679916381836 1.0582406520843506 1.2239323854446411 1.2351090908050537 1.185951828956604 1.144493818283081 1.1617140769958496 0 0 0 0 0.6737314462661743 0.5194944739341736 0.4040459096431732 0.3242228925228119 0.26593145728111267 0 0
-9999 -9999 0.9161937832832336 1.1000276803970337 1.2144197225570679 1.1656097173690796 1.0656784772872925 1.011182427406311 0 0 0 0 0 0 0 0 0 0 0 0
-9999 -9999 1.046581745147705 1.1399892568588257 1.187326431274414 1.0803508758544922 0.9337050914764404 0.849185585975647 0 0 0 0 0 0 0 0 0 0 0 0
-9999 -9999 -9999 1.1541142463684082 1.1684463024139404 1.0385353565216064 0.867973804473877 0.7710712552070618 0 0 0 0 0 0 0 0 0 0 0 0
