ncols         20
nrows         20
xllcorner     0
yllcorner     -3.5992928
cellsize      0.17996463
NODATA_value  -9999
-9999.0 -9999 -9999 -9999 -9999 -9999 -9999 -9999 -9999 -9999 -9999 -9999 -9999 -9999 -9999 -9999 -9999 -9999 -9999 -9999
-9999 -9999 -9999 -9999 -9999 -9999 -9999 -9999 -9999 -9999 -9999 2.8085832595825195 2.8247475624084473 -9999 -9999 3.1969242095947266 3.2217748165130615 -9999 -9999 -9999
-9999 -9999 -9999 -9999 2.9892594814300537 2.9065067768096924 2.791511297225952 2.679039478302002 2.5926120281219482 2.547179698944092 2.5540270805358887 2.6384966373443604 2.6882104873657227 2.7260255813598633 2.835690975189209 3.0096569061279297 3.096652030944824 3.1139872074127197 -9999 -9999
-9999 -9999 -9999 2.96166729927063 2.8967578411102295 2.7615041732788086 2.6067779064178467 2.4732189178466797 2.3772192001342773 2.324145555496216 2.31673002243042 2.352526903152466 2.406294822692871 2.481981039047241 2.5990891456604004 2.749601364135742 2.886845588684082 2.9684712886810303 -9999 -9999
-9999 -9999 -9999 2.8263726234436035 2.6911258697509766 2.4798502922058105 2.2501888275146484 2.085750102996826 1.9799728393554688 1.9212384223937988 1.9033465385437012 1.9214411973953247 1.9694117307662964 2.0506021976470947 2.1760759353637695 2.3527393341064453 2.5720479488372803 2.711904525756836 -9999 -9999
-9999 -9999 2.683567762374878 2.6117563247680664 2.387802839279175 2.072922468185425 1.7025277614593506 1.5254652500152588 1.4312657117843628 1.3833377361297607 1.367072582244873 1.376373529434204 1.4100912809371948 1.4737545251846313 1.5832799673080444 1.7766335010528564 2.1612370014190674 2.371408224105835 2.3726489543914795 -9999
-9999 -9999 2.5114214420318604 2.3302009105682373 2.0054829120635986 1.5906586647033691 1.3337860107421875 1.1894491910934448 1.1110426187515259 1.0719074010849 1.058056116104126 1.0641206502914429 1.09035325050354 1.1430824995040894 1.239020824432373 1.4168552160263062 1.7709323167800903 2.029296636581421 2.1466028690338135 -9999
-9999 -9999 2.276012897491455 1.99355149269104 1.5635409355163574 1.275028944015503 1.0899417400360107 0.9799249172210693 0.9184972047805786 0.8874192833900452 0.8763154149055481 0.8809427618980408 0.9017801284790039 0.9438502788543701 1.0184659957885742 1.1467374563217163 1.359194040298462 1.6583507061004639 1.8273842334747314 -9999
-9999 2.2622427940368652 2.080034017562866 1.6178401708602905 1.2915844917297363 1.073156476020813 0.9331895709037781 0.8486950993537903 0.8003678917884827 0.7753316164016724 0.7662222981452942 0.7698702812194824 0.7864811420440674 0.819392740726471 0.8754839897155762 0.9654936194419861 1.1018004417419434 1.288719654083252 1.5029081106185913 -9999
-9999 2.169633388519287 1.92628014087677 1.4318114519119263 1.1348974704742432 0.949948787689209 0.8361287117004395 0.767626941204071 0.7277703881263733 0.7065576314926147 0.6984769105911255 0.7010370492935181 0.7141848206520081 0.7400853633880615 0.7831656336784363 0.8502218127250671 0.9499666094779968 1.0912033319473267 1.2624311447143555 -9999
-9999 2.050865888595581 1.7991324663162231 1.3191373348236084 1.0415958166122437 0.8758719563484192 0.777050793170929 0.7178924083709717 0.6831016540527344 0.6641706824302673 0.6565053462982178 0.6579344272613525 0.6682628989219666 0.6890501379966736 0.7236214876174927 0.7777373790740967 0.8617411255836487 0.9976168870925903 1.101378083229065 -9999
-9999 1.9234322309494019 1.6831748485565186 1.238062858581543 0.9812392592430115 0.8300797939300537 0.7405912280082703 0.6870561242103577 0.6554111242294312 0.6379013061523438 0.6303815245628357 0.6307704448699951 0.6387953758239746 0.6557356715202332 0.6842184662818909 0.7288967370986938 0.798325777053833 0.9080524444580078 0.9842734932899475 -9999
-9999 1.7893810272216797 1.568382978439331 1.1702063083648682 0.9367322325706482 0.7991052865982056 0.7168586850166321 0.6674067974090576 0.6380350589752197 0.6214762330055237 0.6141077280044556 0.6136027574539185 0.6198073029518127 0.6337429285049438 0.6575190424919128 0.6949461102485657 0.7523583173751831 0.841194748878479 0.9056047797203064 -9999
-9999 1.648192048072815 1.450300931930542 1.1054716110229492 0.8989195227622986 0.7750385999679565 0.6999037861824036 0.6542757749557495 0.6270034313201904 0.6109638810157776 0.6031901836395264 0.6018986701965332 0.6066388487815857 0.6180716753005981 0.6378684043884277 0.6693871021270752 0.7192685604095459 0.7952123284339905 0.86358642578125 -9999
-9999 1.510941505432129 1.3346877098083496 1.0415698289871216 0.8631447553634644 0.753931999206543 0.68653404712677 0.6449774503707886 0.6189777851104736 0.6034741997718811 0.5955587029457092 0.593636155128479 0.5971217751502991 0.6062809824943542 0.62221759557724 0.6472969055175781 0.6858769655227661 0.7332471013069153 -9999 -9999
-9999 1.3959752321243286 1.2329199314117432 0.9836562871932983 0.8304364681243896 0.7353453636169434 0.6756985783576965 0.6373100280761719 0.6128993630409241 0.598020076751709 0.5900700092315674 0.587604284286499 0.5899309515953064 0.5969759821891785 0.609225332736969 0.627962589263916 0.6552819609642029 0.6823904514312744 -9999 -9999
-9999 1.321524739265442 1.145532250404358 0.9346717000007629 0.8025199174880981 0.7200577259063721 0.6662943363189697 0.6311265230178833 0.6083349585533142 0.5941292643547058 0.5862545371055603 0.5833343863487244 0.5845983624458313 0.5897101759910583 0.5986711978912354 0.6118464469909668 0.6297532320022583 0.6468321084976196 0.6441168189048767 0.6437127590179443
-9999 -9999 1.0241092443466187 0.8886638879776001 0.7799593806266785 0.7075450420379639 0.6589086651802063 0.6264923810958862 0.605112612247467 0.5915470719337463 0.5837672352790833 0.5804709792137146 0.5808390974998474 0.5843637585639954 0.5906856060028076 0.5995281338691711 0.6102918982505798 0.6209688186645508 0.6252727508544922 0.6265879273414612
-9999 -9999 0.9752629399299622 0.8774216175079346 0.7698315382003784 0.6999516487121582 0.6541075110435486 0.6235126256942749 0.6031482219696045 0.5900442600250244 0.582317054271698 0.5787441730499268 0.5784796476364136 0.5808976292610168 0.5854469537734985 0.5915929079055786 0.5985531806945801 0.6048842072486877 0.6085805892944336 0.6101543307304382
-9999 -9999 -9999 0.8403351306915283 0.7599227428436279 0.6952273845672607 0.6515412330627441 0.6220227479934692 0.6022123098373413 0.5893517136573792 0.581653892993927 0.577926516532898 0.5773359537124634 0.5791979432106018 0.5828865170478821 0.5877779126167297 0.5931383967399597 0.5978676676750183 0.6010218858718872 0.6025299429893494
