ncols         20
nrows         20
xllcorner     0
yllcorner     -3.5992928
cellsize      0.17996463
NODATA_value  -9999
-9999.0 -9999 -9999 -9999 -9999 -9999 -9999 -9999 -9999 -9999 -9999 -9999 -9999 -9999 -9999 -9999 -9999 -9999 -9999 -9999
-9999 -9999 -9999 -9999 -9999 -9999 -9999 -9999 -9999 -9999 -9999 0.13475020229816437 0.13486820459365845 -9999 -9999 0.13740994036197662 0.13760258257389069 -9999 -9999 -9999
-9999 -9999 -9999 -9999 0.13444429636001587 0.13436880707740784 0.1343138962984085 0.13431614637374878 0.13440120220184326 0.13457123935222626 0.13478302955627441 0.1248178780078888 0.12518192827701569 0.13618068397045135 0.13686677813529968 0.1271757185459137 0.12774959206581116 0.13884040713310242 -9999 -9999
-9999 -9999 -9999 0.13488346338272095 0.1245366781949997 0.1059107780456543 0.10588610172271729 0.10593702644109726 0.10606977343559265 0.10627280920743942 0.10652441531419754 0.09871690720319748 0.09906953573226929 0.10772664099931717 0.10830104351043701 0.10073985904455185 0.10973497480154037 0.14001689851284027 -9999 -9999
-9999 -9999 -9999 0.1352102905511856 0.10634371638298035 0.07736411690711975 0.07134328037500381 0.07146044820547104 0.0716489851474762 0.07188910990953445 0.07215530425310135 0.06701427698135376 0.06730841845273972 0.073154978454113 0.07364152371883392 0.07431809604167938 0.11158940196037292 0.1424228996038437 -9999 -9999
-9999 -9999 0.1360195279121399 0.1255502849817276 0.09876304864883423 0.0663955807685852 0.041136808693408966 0.04127522185444832 0.041475407779216766 0.041705742478370667 0.04194541275501251 0.038908861577510834 0.039155106991529465 0.042792320251464844 0.04323302209377289 0.07061412930488586 0.10583347082138062 0.1356399655342102 0.1489807516336441 -9999
-9999 -9999 0.13655830919742584 0.10748300701379776 0.07834197580814362 0.052814651280641556 0.030204547569155693 0.02043941803276539 0.02059728279709816 0.020772557705640793 0.020953180268406868 0.019513167440891266 0.01972207799553871 0.02166738174855709 0.032685182988643646 0.05790058523416519 0.08655502647161484 0.11951468884944916 0.1526269018650055 -9999
-9999 -9999 0.13753125071525574 0.10836364328861237 0.07296019047498703 0.04199662059545517 0.020675502717494965 0.0101788230240345 0.008788344450294971 0.008897335268557072 0.009013720788061619 0.008447964675724506 0.00861946027725935 0.01123109646141529 0.023377321660518646 0.047964029014110565 0.08367982506752014 0.12462276220321655 0.15843439102172852 -9999
-9999 0.13964501023292542 0.12863858044147491 0.10134240984916687 0.06843163818120956 0.039381708949804306 0.019471677020192146 0.008238998241722584 0.0032408558763563633 0.003307319013401866 0.0033777356147766113 0.0031849213410168886 0.003583103185519576 0.010316495783627033 0.024874774739146233 0.05076340585947037 0.08818668872117996 0.13080507516860962 0.16588883101940155 -9999
-9999 0.1413615643978119 0.11128765344619751 0.08128966391086578 0.05503150448203087 0.03186409920454025 0.015761494636535645 0.006687915418297052 0.0024761627428233624 0.0016514579765498638 0.0017066709697246552 0.0017555366503074765 0.0038651374634355307 0.011004844680428505 0.026388179510831833 0.053708866238594055 0.09312961995601654 0.13789965212345123 0.17463284730911255 -9999
-9999 0.1443226933479309 0.11383531242609024 0.07685824483633041 0.04445509612560272 0.022027233615517616 0.010925624519586563 0.004674943163990974 0.0017461993265897036 0.0017547282623127103 0.0018217110773548484 0.0018775039352476597 0.004121719393879175 0.01166793517768383 0.027890820056200027 0.0566929467022419 0.0982280895113945 0.14532749354839325 0.18389925360679626 -9999
-9999 0.14838337898254395 0.11718547344207764 0.07930190116167068 0.04599975794553757 0.02285357564687729 0.009722094982862473 0.0035651205107569695 0.001760378130711615 0.0018476111581549048 0.0019233020721003413 0.0020981270354241133 0.006075629498809576 0.014540513046085835 0.029373416677117348 0.05964767187833786 0.10325899720191956 0.15256595611572266 0.1927473545074463 -9999
-9999 0.15344306826591492 0.12132835388183594 0.08228147774934769 0.047814346849918365 0.023942723870277405 0.010212165303528309 0.0037566637620329857 0.001837063580751419 0.0019280185224488378 0.0020106674637645483 0.003280569799244404 0.009457072243094444 0.022604169324040413 0.0461602658033371 0.07980428636074066 0.11735890060663223 0.15935109555721283 0.20033963024616241 -9999
-9999 0.1593509018421173 0.12622013688087463 0.08608484268188477 0.05012775957584381 0.0249642264097929 0.01064237765967846 0.003906783182173967 0.0019030884141102433 0.0019933704752475023 0.002077122451737523 0.00429842434823513 0.012363416142761707 0.0297444686293602 0.060666292905807495 0.10515647381544113 0.1552758812904358 0.19489455223083496 0.20561827719211578 -9999
-9999 0.1657630205154419 0.13149458169937134 0.08979063481092453 0.05230517312884331 0.02604573778808117 0.012990191578865051 0.005577684845775366 0.0020641633309423923 0.0020443336106836796 0.002126506995409727 0.004777336027473211 0.01368155051022768 0.032983917742967606 0.06748650968074799 0.11750838160514832 0.17385929822921753 0.2202257663011551 -9999 -9999
-9999 0.1715681552886963 0.13695818185806274 0.10102756321430206 0.06915389001369476 0.04035072401165962 0.020157311111688614 0.008565043099224567 0.003413040190935135 0.0020808286499232054 0.00216251565143466 0.004852589685469866 0.013912699185311794 0.03360743075609207 0.06893355399370193 0.12039119005203247 0.1792764961719513 0.22742857038974762 -9999 -9999
-9999 0.1756352186203003 0.16600394248962402 0.13279102742671967 0.09057695418596268 0.05274425446987152 0.028396744281053543 0.0140975471585989 0.006021974608302116 0.002217282308265567 0.002186994068324566 0.004511728882789612 0.01301830355077982 0.03150487318634987 0.06473511457443237 0.11324938386678696 0.16930583119392395 0.2169310599565506 0.2392420768737793 0.24107398092746735
-9999 -9999 0.18550871312618256 0.14785559475421906 0.10868570953607559 0.07403185218572617 0.04296742007136345 0.021376220509409904 0.009054179303348064 0.003341157454997301 0.002200708957388997 0.0035776018630713224 0.010361646302044392 0.02518688142299652 0.05168111249804497 0.0906871035695076 0.1356225460767746 0.17342060804367065 0.1893751621246338 0.19030976295471191
-9999 -9999 0.1888519525527954 0.17639970779418945 0.14019590616226196 0.09513440728187561 0.05515830218791962 0.02729851007461548 0.011563179083168507 0.004247148521244526 0.002207021927461028 0.0024113173130899668 0.007007639389485121 0.017005501314997673 0.03514653816819191 0.06139218807220459 0.09219104051589966 0.11762185394763947 0.12781575322151184 0.1282012015581131
-9999 -9999 -9999 0.1934213936328888 0.15329064428806305 0.10383773595094681 0.06007108837366104 0.02968893200159073 0.012560711242258549 0.004623438231647015 0.0022097714245319366 0.0022900013718754053 0.004030664451420307 0.009752655401825905 0.020214350894093513 0.03531413525342941 0.053089823573827744 0.06740613281726837 0.07336800545454025 0.07351871579885483
