ncols         20
nrows         20
xllcorner     0
yllcorner     -3.5992928
cellsize      0.17996463
NODATA_value  -9999
-9999.0 -9999 -9999 -9999 -9999 -9999 -9999 -9999 -9999 -9999 -9999 -9999 -9999 -9999 -9999 -9999 -9999 -9999 -9999 -9999
-9999 -9999 -9999 -9999 -9999 -9999 -9999 -9999 -9999 -9999 -9999 1.8328514099121094 1.8306035995483398 -9999 -9999 1.8687264919281006 1.8466808795928955 -9999 -9999 -9999
-9999 -9999 -9999 -9999 1.8280150890350342 1.844333291053772 1.870219349861145 1.8796026706695557 1.8797709941864014 1.883730411529541 1.864192247390747 1.870595932006836 1.8873590230941772 1.9015557765960693 1.899000644683838 1.887818694114685 1.8661073446273804 1.846821665763855 -9999 -9999
-9999 -9999 -9999 1.8440406322479248 1.859070897102356 1.8766331672668457 1.8954156637191772 1.9020514488220215 1.9057624340057373 1.9070416688919067 1.9136626720428467 1.9255874156951904 1.9420408010482788 1.9518240690231323 1.95893394947052 1.9485883712768555 1.92098867893219 1.8967416286468506 -9999 -9999
-9999 -9999 -9999 1.8683502674102783 1.8888838291168213 1.9233431816101074 1.9399305582046509 1.939136028289795 1.9241409301757812 1.8999444246292114 1.8677746057510376 1.8546063899993896 1.8762259483337402 1.9247055053710938 1.972990870475769 1.9944591522216797 1.9835175275802612 1.9851218461990356 -9999 -9999
-9999 -9999 1.8688127994537354 1.8972499370574951 1.9324625730514526 1.9623278379440308 1.9617074728012085 1.935733437538147 1.874909520149231 1.7596125602722168 1.6206412315368652 1.5471036434173584 1.5729918479919434 1.7013413906097412 1.8579351902008057 1.9518611431121826 1.9987727403640747 2.010744094848633 1.9885761737823486 -9999
-9999 -9999 1.8933191299438477 1.9257882833480835 1.9767169952392578 1.9953850507736206 1.970477819442749 1.9002765417099 1.748105764389038 1.5193121433258057 1.287581205368042 1.1596890687942505 1.1789673566818237 1.3496592044830322 1.6276142597198486 1.806949257850647 1.934646725654602 1.985477089881897 1.9966250658035278 -9999
-9999 -9999 1.9475817680358887 1.9871039390563965 2.0246524810791016 2.0100362300872803 1.9382251501083374 1.7783187627792358 1.5315786600112915 1.2407457828521729 0.9995635747909546 0.862634539604187 0.8634403944015503 1.0024839639663696 1.2517510652542114 1.525956630706787 1.740843653678894 1.8760406970977783 1.9250339269638062 -9999
-9999 1.964593529701233 2.0116724967956543 2.0442190170288086 2.042722702026367 1.9625184535980225 1.7851835489273071 1.5141819715499878 1.2084888219833374 0.9350234866142273 0.7449926137924194 0.6415444612503052 0.628266453742981 0.7190362811088562 0.9071849584579468 1.188090205192566 1.4305521249771118 1.6244817972183228 1.7164943218231201 -9999
-9999 2.0230319499969482 2.0583512783050537 2.0656206607818604 1.9838064908981323 1.785445213317871 1.4795615673065186 1.129881739616394 0.829224169254303 0.6232123970985413 0.5074536204338074 0.44699835777282715 0.4389464557170868 0.4863453209400177 0.6074457168579102 0.8094383478164673 1.0395874977111816 1.2497414350509644 1.3574342727661133 -9999
-9999 2.0766398906707764 2.079627752304077 2.0117008686065674 1.8367408514022827 1.528679609298706 1.1345763206481934 0.7614656686782837 0.5069145560264587 0.36615076661109924 0.2978813350200653 0.268320232629776 0.2647019624710083 0.2897028923034668 0.3551509380340576 0.47695326805114746 0.6425592303276062 0.819929838180542 0.914275050163269 -9999
-9999 2.0611283779144287 2.0187411308288574 1.8668568134307861 1.599953055381775 1.235255241394043 0.8315475583076477 0.49906229972839355 0.3003274202346802 0.19962963461875916 0.15492187440395355 0.13538450002670288 0.13245262205600739 0.14088380336761475 0.16812144219875336 0.22958117723464966 0.32898494601249695 0.44268864393234253 0.5050954818725586 -9999
-9999 1.9247674942016602 1.8331438302993774 1.5834760665893555 1.2656149864196777 0.9131184220314026 0.5768754482269287 0.3209191560745239 0.17534565925598145 0.10825379192829132 0.07061503827571869 0.05644538253545761 0.05092693120241165 0.051450878381729126 0.060573868453502655 0.082608662545681 0.13451524078845978 0.19633059203624725 0.2362847477197647 -9999
-9999 1.6695611476898193 1.5221105813980103 1.199336290359497 0.8722579479217529 0.5877177119255066 0.3567897379398346 0.1936735212802887 0.09684398770332336 0.05752919986844063 0.03865411505103111 0.029623687267303467 0.024915466085076332 0.02327685058116913 0.024184290319681168 0.02970493584871292 0.04285624995827675 0.07002772390842438 0.09327127784490585 -9999
-9999 1.3768248558044434 1.2011661529541016 0.8506907820701599 0.547727108001709 0.34005439281463623 0.19918765127658844 0.10402578115463257 0.05810529366135597 0.03655852749943733 0.025980308651924133 0.02000296302139759 0.01659894362092018 0.014933055266737938 0.01402963139116764 0.014772742055356503 0.017285987734794617 0.0252967681735754 -9999 -9999
-9999 1.1620808839797974 0.9737624526023865 0.6285915970802307 0.36238670349121094 0.20025208592414856 0.10781475901603699 0.06099642068147659 0.03841922804713249 0.026544686406850815 0.020219245925545692 0.01621808297932148 0.014395933598279953 0.016520719975233078 0.0184369757771492 0.01996028982102871 0.02098611183464527 0.021679064258933067 -9999 -9999
-9999 1.0064951181411743 0.8075958490371704 0.5020975470542908 0.2662337124347687 0.12326037138700485 0.0660240650177002 0.03910984843969345 0.02651423029601574 0.019758131355047226 0.016042079776525497 0.01607620343565941 0.018570948392152786 0.02114502340555191 0.02350432425737381 0.02548864483833313 0.027130478993058205 0.028865348547697067 0.032171331346035004 0.03345572203397751
-9999 -9999 0.6332581043243408 0.41309654712677 0.20997583866119385 0.09102101624011993 0.04599661007523537 0.027475906535983086 0.01928303763270378 0.015368089079856873 0.017295369878411293 0.01962137408554554 0.02226882427930832 0.025052089244127274 0.027576107531785965 0.029630566015839577 0.0312761589884758 0.03259916976094246 0.033829741179943085 0.03423963859677315
-9999 -9999 0.4552014172077179 0.32404232025146484 0.16824094951152802 0.07023787498474121 0.034128911793231964 0.020126357674598694 0.016161644831299782 0.018000906333327293 0.02002536691725254 0.022398723289370537 0.025100715458393097 0.027907520532608032 0.030370080843567848 0.032264888286590576 0.03364225849509239 0.03443983942270279 0.03470460698008537 0.0347398966550827
-9999 -9999 -9999 0.26948681473731995 0.1421297937631607 0.06179201975464821 0.029613886028528214 0.01746285893023014 0.01752937212586403 0.019457954913377762 0.021516507491469383 0.02386505715548992 0.026556650176644325 0.029337052255868912 0.03174874186515808 0.03348687291145325 0.034705646336078644 0.0350850485265255 0.03506472334265709 0.034980785101652145
