ncols         20
nrows         20
xllcorner     0
yllcorner     -3.5992928
cellsize      0.17996463
NODATA_value  -9999
-9999.0 -9999 -9999 -9999 -9999 -9999 -9999 -9999 -9999 -9999 -9999 -9999 -9999 -9999 -9999 -9999 -9999 -9999 -9999 -9999
-9999 -9999 -9999 -9999 -9999 -9999 -9999 -9999 -9999 -9999 -9999 1.1061973571777344 1.0891129970550537 -9999 -9999 1.0438354015350342 0.9811162948608398 -9999 -9999 -9999
-9999 -9999 -9999 -9999 1.1281394958496094 1.200976014137268 1.330129623413086 1.428573489189148 1.4869128465652466 1.5235456228256226 1.3873087167739868 1.302849531173706 1.311218500137329 1.325732946395874 1.2263718843460083 1.1051000356674194 1.008851408958435 0.9408809542655945 -9999 -9999
-9999 -9999 -9999 1.0553992986679077 1.1391398906707764 1.2359315156936646 1.368309736251831 1.4910403490066528 1.6235871315002441 1.7379554510116577 1.818480134010315 1.8230741024017334 1.8135161399841309 1.7003729343414307 1.5233567953109741 1.3112255334854126 1.1385146379470825 1.042235255241394 -9999 -9999
-9999 -9999 -9999 1.030368685722351 1.1171929836273193 1.2788100242614746 1.4591845273971558 1.6551750898361206 1.8992875814437866 2.23958683013916 2.5936317443847656 2.797874927520752 2.7768824100494385 2.4747579097747803 2.1012630462646484 1.698070764541626 1.3964277505874634 1.3181999921798706 -9999 -9999
-9999 -9999 0.8171699047088623 0.9496158361434937 1.0931421518325806 1.283325433731079 1.4841737747192383 1.7155251502990723 2.090035915374756 2.6123130321502686 3.2310075759887695 3.637650966644287 3.748776435852051 3.3922042846679688 2.7906482219696045 2.207775592803955 1.7689745426177979 1.5815070867538452 1.4219902753829956 -9999
-9999 -9999 0.7889158725738525 0.8866572380065918 1.0713393688201904 1.2830090522766113 1.4624301195144653 1.6497405767440796 1.9866031408309937 2.489067554473877 3.1062657833099365 3.667281150817871 4.085033893585205 3.982663869857788 3.480909585952759 2.8045997619628906 2.25406551361084 1.8907470703125 1.7312684059143066 -9999
-9999 -9999 0.7868211269378662 0.9056100249290466 1.117560625076294 1.3173115253448486 1.4336824417114258 1.3386876583099365 1.4351766109466553 1.6551556587219238 1.9412328004837036 2.3886466026306152 3.5553689002990723 3.9501540660858154 3.784691095352173 3.28875994682312 2.7655446529388428 2.340648651123047 2.1600546836853027 -9999
-9999 0.661418616771698 0.8099073767662048 0.9913368225097656 1.2585785388946533 1.4822291135787964 1.5143661499023438 1.2326017618179321 1.174514889717102 1.2333661317825317 1.3856741189956665 1.7728487253189087 2.9669859409332275 3.6097097396850586 3.788186550140381 3.576759099960327 3.155329704284668 2.7651004791259766 2.58481764793396 -9999
-9999 0.7450114488601685 0.8870093822479248 1.169899821281433 1.5089460611343384 1.7437230348587036 1.6908929347991943 1.2086313962936401 1.03086256980896 0.9937792420387268 1.074219822883606 1.4027671813964844 2.475876569747925 3.188631296157837 3.5484049320220947 3.5913939476013184 3.3600962162017822 3.076417922973633 2.9388515949249268 -9999
-9999 0.9205667972564697 1.0835351943969727 1.4170039892196655 1.7735071182250977 1.983477234840393 1.8498307466506958 1.1916472911834717 0.939706027507782 0.854697585105896 0.9003831744194031 1.175520658493042 2.1412734985351562 2.8098936080932617 3.2260499000549316 3.403541088104248 3.3754074573516846 3.2235260009765625 3.143956422805786 -9999
-9999 1.2117098569869995 1.3853514194488525 1.748469591140747 2.0818939208984375 2.2208964824676514 2.014716386795044 1.248971939086914 0.9741178154945374 0.8671180605888367 0.8827129006385803 1.0949879884719849 1.9185376167297363 2.474057912826538 2.8605148792266846 3.105281114578247 3.20133900642395 3.1817800998687744 3.1628317832946777 -9999
-9999 1.6267549991607666 1.824174404144287 2.1990840435028076 2.443009853363037 2.4845051765441895 2.273743152618408 1.8381383419036865 1.507346749305725 1.317792534828186 1.287804126739502 1.4325518608093262 1.7840681076049805 2.114496946334839 2.4063656330108643 2.6589035987854004 2.8528459072113037 2.9548184871673584 2.983835220336914 -9999
-9999 2.09281325340271 2.2870969772338867 2.625990390777588 2.769042491912842 2.6828155517578125 2.417412757873535 2.0510308742523193 1.7263797521591187 1.510578989982605 1.427298665046692 1.462877869606018 1.586327075958252 1.7311121225357056 1.878343939781189 2.063262701034546 2.296626091003418 2.5653128623962402 2.7008907794952393 -9999
-9999 2.4128615856170654 2.5627996921539307 2.8272836208343506 2.86368989944458 2.6725475788116455 2.366440534591675 2.0318899154663086 1.7363442182540894 1.5332221984863281 1.4289379119873047 1.3919340372085571 1.3975162506103516 1.4213488101959229 1.4468061923980713 1.5193020105361938 1.6518181562423706 1.9192554950714111 -9999 -9999
-9999 2.491007089614868 2.5793004035949707 2.7515318393707275 2.699883460998535 2.467656135559082 2.1721367835998535 1.8752950429916382 1.6402952671051025 1.4750686883926392 1.3759198188781738 1.308122158050537 1.2525074481964111 1.1986949443817139 1.1541998386383057 1.1272833347320557 1.1335102319717407 1.0446031093597412 -9999 -9999
-9999 2.5174560546875 2.4696364402770996 2.5377306938171387 2.445330858230591 2.2060256004333496 1.9223542213439941 1.6696240901947021 1.4853944778442383 1.3561365604400635 1.2694875001907349 1.1923619508743286 1.1125377416610718 1.0369467735290527 0.9605341553688049 0.8925238251686096 0.839141845703125 0.7797181010246277 0.7457207441329956 0.6725177764892578
-9999 -9999 2.253290891647339 2.294161796569824 2.2004995346069336 1.9633152484893799 1.691537857055664 1.4687564373016357 1.3151865005493164 1.211917519569397 1.1399459838867188 1.0690149068832397 0.9925432205200195 0.8968220353126526 0.8141859769821167 0.7519697546958923 0.6878512501716614 0.6426209807395935 0.6075260639190674 0.6392112970352173
-9999 -9999 2.1980910301208496 2.1255006790161133 2.010629177093506 1.7677172422409058 1.49875807762146 1.286126971244812 1.144946813583374 1.062121033668518 1.0197834968566895 0.9575406312942505 0.8804329633712769 0.7868926525115967 0.7163785696029663 0.6658292412757874 0.6196069121360779 0.5936103463172913 0.6352642178535461 0.6587888598442078
-9999 -9999 -9999 1.984171748161316 1.9047359228134155 1.6711559295654297 1.4043382406234741 1.198333740234375 1.0681232213974 0.9998793005943298 0.960353434085846 0.9157416820526123 0.8391062021255493 0.7469292283058167 0.6705350875854492 0.636877715587616 0.5837310552597046 0.6158210635185242 0.6521002054214478 0.6722273230552673
