ncols         20
nrows         20
xllcorner     0
yllcorner     -3.5992928
cellsize      0.17996463
NODATA_value  -9999
-9999.0 -9999 -9999 -9999 -9999 -9999 -9999 -9999 -9999 -9999 -9999 -9999 -9999 -9999 -9999 -9999 -9999 -9999 -9999 -9999
-9999 -9999 -9999 -9999 -9999 -9999 -9999 -9999 -9999 -9999 -9999 1.7916371822357178 1.7897419929504395 -9999 -9999 1.8332996368408203 1.8123563528060913 -9999 -9999 -9999
-9999 -9999 -9999 -9999 1.786987066268921 1.8014227151870728 1.8244709968566895 1.8315612077713013 1.8302607536315918 1.8333017826080322 1.815314769744873 1.824028730392456 1.841377854347229 1.856275200843811 1.8568222522735596 1.8495408296585083 1.8302395343780518 1.8121522665023804 -9999 -9999
-9999 -9999 -9999 1.8045309782028198 1.8176182508468628 1.8324432373046875 1.8480570316314697 1.852185845375061 1.8541133403778076 1.852771282196045 1.858824372291565 1.870552897453308 1.8870975971221924 1.9002437591552734 1.9118250608444214 1.9055392742156982 1.881397008895874 1.8591712713241577 -9999 -9999
-9999 -9999 -9999 1.8287078142166138 1.8466289043426514 1.8769882917404175 1.8897230625152588 1.886634111404419 1.8725262880325317 1.8411929607391357 1.803431510925293 1.7885366678237915 1.8125090599060059 1.8672823905944824 1.9215800762176514 1.9455362558364868 1.938325047492981 1.9421521425247192 -9999 -9999
-9999 -9999 1.8328406810760498 1.8580892086029053 1.888953685760498 1.913834571838379 1.9094228744506836 1.882391333580017 1.8117960691452026 1.6862329244613647 1.5418343544006348 1.4676822423934937 1.4963325262069702 1.630419135093689 1.7959270477294922 1.8995082378387451 1.9483680725097656 1.963857889175415 1.9427425861358643 -9999
-9999 -9999 1.8569328784942627 1.8859816789627075 1.9312880039215088 1.9449876546859741 1.9182208776474 1.8363780975341797 1.671049952507019 1.4343574047088623 1.2024281024932861 1.0778045654296875 1.0995123386383057 1.2718454599380493 1.5532559156417847 1.7436667680740356 1.8808411359786987 1.9377110004425049 1.9480431079864502 -9999
-9999 -9999 1.9101186990737915 1.945021152496338 1.976133942604065 1.9586279392242432 1.8768243789672852 1.7032276391983032 1.4466075897216797 1.1542754173278809 0.9178491234779358 0.7872818112373352 0.7908521890640259 0.9291133284568787 1.1777962446212769 1.4556089639663696 1.6782130002975464 1.8206835985183716 1.8740308284759521 -9999
-9999 1.9319480657577515 1.97401762008667 1.999548316001892 1.9903626441955566 1.9046789407730103 1.7157267332077026 1.4359601736068726 1.1283259391784668 0.8591547012329102 0.6755772233009338 0.5782145261764526 0.5681835412979126 0.6578333973884583 0.842720627784729 1.1194019317626953 1.3640798330307007 1.5610942840576172 1.6553137302398682 -9999
-9999 1.9890435934066772 2.0197017192840576 2.0196533203125 1.9326361417770386 1.7235629558563232 1.4108574390411377 1.061697244644165 0.7669150829315186 0.5676884055137634 0.45681390166282654 0.4003188908100128 0.39438050985336304 0.4414956569671631 0.5590977668762207 0.754835844039917 0.9805552959442139 1.1876457929611206 1.2945116758346558 -9999
-9999 2.0405938625335693 2.0395355224609375 1.9668093919754028 1.7823060750961304 1.4672508239746094 1.0747467279434204 0.7108709812164307 0.4663023054599762 0.3323182761669159 0.26766473054885864 0.24013400077819824 0.2376188039779663 0.2623459994792938 0.3253639340400696 0.4419020712375641 0.6007750034332275 0.7712809443473816 0.8625368475914001 -9999
-9999 2.024146556854248 1.9781455993652344 1.819988489151001 1.5448395013809204 1.179490089416504 0.7841875553131104 0.46461203694343567 0.27610599994659424 0.18146689236164093 0.13964766263961792 0.12166254967451096 0.11937086284160614 0.12789303064346313 0.15403208136558533 0.21216702461242676 0.3060506582260132 0.41349589824676514 0.47264519333839417 -9999
-9999 1.890992283821106 1.7925245761871338 1.5350556373596191 1.2156965732574463 0.8682609796524048 0.5428318977355957 0.2989127039909363 0.16171319782733917 0.0989757552742958 0.06415390223264694 0.051217127591371536 0.04638494923710823 0.047147128731012344 0.055847179144620895 0.0765371099114418 0.12509746849536896 0.18290340900421143 0.22015997767448425 -9999
-9999 1.6290545463562012 1.4774564504623413 1.1560251712799072 0.8341360688209534 0.5574476718902588 0.33577653765678406 0.1809433549642563 0.08986648172140121 0.05316136032342911 0.035699449479579926 0.02744937501847744 0.023223506286740303 0.021818259730935097 0.022741198539733887 0.02793378196656704 0.040231019258499146 0.06553906947374344 0.08681178838014603 -9999
-9999 1.330682396888733 1.1575992107391357 0.8160775899887085 0.5224695205688477 0.3225545883178711 0.18799328804016113 0.09779845178127289 0.0545370914041996 0.03437050059437752 0.024559902027249336 0.01907390169799328 0.015953080728650093 0.014444971457123756 0.013620320707559586 0.0143421720713377 0.01674017310142517 0.024414440616965294 -9999 -9999
-9999 1.1169383525848389 0.9344733357429504 0.6016033887863159 0.34573644399642944 0.19051679968833923 0.10242223739624023 0.05795886367559433 0.03661875054240227 0.025466695427894592 0.01958058774471283 0.01584678143262863 0.014149240218102932 0.01627003774046898 0.018171215429902077 0.01966737024486065 0.02066517062485218 0.02134580910205841 -9999 -9999
-9999 0.9652338624000549 0.7736847400665283 0.48052453994750977 0.25461697578430176 0.11800535023212433 0.06332609057426453 0.03765798360109329 0.02570492774248123 0.01933695748448372 0.015835534781217575 0.015945257619023323 0.01844642497599125 0.020995495840907097 0.023324882611632347 0.025282248854637146 0.026910539716482162 0.028663864359259605 0.03205765038728714 0.03337864205241203
-9999 -9999 0.6065923571586609 0.3959183692932129 0.20152230560779572 0.08774223923683167 0.04455259069800377 0.026796402409672737 0.018984593451023102 0.015255638398230076 0.017245687544345856 0.019595574587583542 0.022230911999940872 0.024978656321763992 0.027467146515846252 0.029497170820832253 0.031134217977523804 0.03247186914086342 0.033739879727363586 0.03417408466339111
-9999 -9999 0.4366024136543274 0.311322957277298 0.16210442781448364 0.06811687350273132 0.03332001343369484 0.01983116753399372 0.016060395166277885 0.01798189803957939 0.02005365677177906 0.022435208782553673 0.025114992633461952 0.027882296591997147 0.030308501794934273 0.03218083456158638 0.03355039656162262 0.03435609117150307 0.03464038670063019 0.034688450396060944
-9999 -9999 -9999 0.25961747765541077 0.13756288588047028 0.06016302853822708 0.029035892337560654 0.017290405929088593 0.017482571303844452 0.01948610320687294 0.021583056077361107 0.02393275313079357 0.026597728952765465 0.029336238279938698 0.0317101776599884 0.033426862210035324 0.03463605418801308 0.03502241522073746 0.03501345217227936 0.03493679687380791
