ncols         20
nrows         20
xllcorner     0
yllcorner     -3.5992928
cellsize      0.17996463
NODATA_value  -9999
-9999.0 -9999 -9999 -9999 -9999 -9999 -9999 -9999 -9999 -9999 -9999 -9999 -9999 -9999 -9999 -9999 -9999 -9999 -9999 -9999
-9999 -9999 -9999 -9999 -9999 -9999 -9999 -9999 -9999 -9999 -9999 0 0 -9999 -9999 0 0 -9999 -9999 -9999
-9999 -9999 -9999 -9999 0 0 0 0 0 0 0 0 0 0 0 0 0 0 -9999 -9999
-9999 -9999 -9999 0 0 0 0 0 0 0 0 0 0 0 0 0 0 0 -9999 -9999
-9999 -9999 -9999 0 0 0 0 0 0 0 0 0 0 0 0 0 0 0 -9999 -9999
-9999 -9999 0 0 0 0 2.4073326587677 2.030109167098999 1.8191171884536743 1.6763617992401123 1.580643892288208 1.5598664283752441 1.6297658681869507 1.8107315301895142 2.1127660274505615 2.6139514446258545 0 0 0 -9999
-9999 -9999 0 0 0 2.2095563411712646 1.674135446548462 1.3744436502456665 1.1787358522415161 1.0302553176879883 0.9242069721221924 0.8839849233627319 0.9253181219100952 1.0652250051498413 1.3230257034301758 1.7746740579605103 0 0 0 -9999
-9999 -9999 0 0 2.224813938140869 1.6178532838821411 1.2392425537109375 0.9904394745826721 0.8131787180900574 0.679874837398529 0.5927134156227112 0.5550673604011536 0.5767770409584045 0.6687580347061157 0.8503884077072144 1.1617964506149292 1.6724029779434204 0 0 -9999
-9999 0 0 2.4496214389801025 1.725462555885315 1.2612388134002686 0.9475990533828735 0.7276915311813354 0.5726282596588135 0.4675186574459076 0.4063195586204529 0.38083416223526 0.39089497923851013 0.4462572932243347 0.5594221949577332 0.7570801973342896 1.0683842897415161 1.5023415088653564 0 -9999
-9999 0 0 2.1179356575012207 1.4382163286209106 1.0110098123550415 0.7237191200256348 0.5272505879402161 0.39986151456832886 0.3251441717147827 0.28789326548576355 0.27351289987564087 0.2802830636501312 0.3115748465061188 0.3796893358230591 0.5010145902633667 0.7012912034988403 0.9873226881027222 0 -9999
-9999 0 0 1.8972407579421997 1.2285223007202148 0.8215622305870056 0.5551348328590393 0.38190531730651855 0.2819487452507019 0.23045380413532257 0.20708619058132172 0.19968602061271667 0.20432986319065094 0.2230023890733719 0.2628166675567627 0.3375454246997833 0.465629518032074 0 0 -9999
-9999 0 0 1.6726924180984497 1.039231538772583 0.6669417023658752 0.4316590428352356 0.28761258721351624 0.21079546213150024 0.1733083426952362 0.15727421641349792 0.15195347368717194 0.1546783149242401 0.16499178111553192 0.18696686625480652 0.22958073019981384 0.30643606185913086 0 0 -9999
-9999 0 0 1.3935585021972656 0.8399693965911865 0.5261682868003845 0.3371621370315552 0.22590598464012146 0.16851206123828888 0.14210247993469238 0.12937355041503906 0.12518534064292908 0.12610110640525818 0.1319684088230133 0.14471006393432617 0.16814543306827545 0.21234622597694397 0 0 -9999
-9999 0 0 1.0801174640655518 0.6334618926048279 0.3948105573654175 0.25947052240371704 0.18315638601779938 0.14306387305259705 0.12476332485675812 0.1161513552069664 0.11290956288576126 0.11326100677251816 0.11707443743944168 0.12500087916851044 0.13934478163719177 0.16504767537117004 0 0 -9999
-9999 0 0 0.8076826333999634 0.4649412930011749 0.29398903250694275 0.20355114340782166 0.15372441709041595 0.128418430685997 0.1155259907245636 0.10916237533092499 0.10654489696025848 0.10671229660511017 0.1094575896859169 0.11503909528255463 0.12467792630195618 0.14061546325683594 0 -9999 -9999
-9999 0 0 0.6246761679649353 0.3608968257904053 0.23324324190616608 0.1699940711259842 0.13708949089050293 0.11966767907142639 0.11004633456468582 0.10499390214681625 0.10279298573732376 0.10291916877031326 0.10545730590820312 0.1099744364619255 0.11700855195522308 0.12751230597496033 0.1382843554019928 -9999 -9999
-9999 0 0 0.5098363161087036 0.30015701055526733 0.19788429141044617 0.1514967828989029 0.12722477316856384 0.11393609642982483 0.10631294548511505 0.102153480052948 0.10064644366502762 0.10107361525297165 0.1029554083943367 0.10627871751785278 0.11119509488344193 0.1179523691534996 0.12456303089857101 0.12378885596990585 0.12378284335136414
-9999 -9999 0 0.42311617732048035 0.26103857159614563 0.17887654900550842 0.14093273878097534 0.12131547182798386 0.11031821370124817 0.1039324626326561 0.10093705356121063 0.099699005484581 0.09986680001020432 0.10122960060834885 0.103638656437397 0.10698918998241425 0.11107350140810013 0.11516692489385605 0.11694084852933884 0.11753160506486893
-9999 -9999 0 0 0.23741234838962555 0.16700799763202667 0.1345648616552353 0.11768919974565506 0.10841275751590729 0.10335443168878555 0.10045511275529861 0.09917477518320084 0.09916437417268753 0.1001741886138916 0.10198405385017395 0.10438638925552368 0.10709010809659958 0.10955687612295151 0.1110362708568573 0.1116844117641449
-9999 -9999 -9999 0 0.22212693095207214 0.16145220398902893 0.13179568946361542 0.11616981029510498 0.10801343619823456 0.10310143232345581 0.10025063157081604 0.09894385188817978 0.09884236007928848 0.09967696666717529 0.10120026767253876 0.10316623002290726 0.10529807209968567 0.10716688632965088 0.10842322558164597 0.109030582010746
