ncols         20
nrows         20
xllcorner     0
yllcorner     -3.5992928
cellsize      0.17996463
NODATA_value  -9999
-9999.0 -9999 -9999 -9999 -9999 -9999 -9999 -9999 -9999 -9999 -9999 -9999 -9999 -9999 -9999 -9999 -9999 -9999 -9999 -9999
-9999 -9999 -9999 -9999 -9999 -9999 -9999 -9999 -9999 -9999 -9999 0.13469462096691132 0.13480617105960846 -9999 -9999 0.13721053302288055 0.13739338517189026 -9999 -9999 -9999
-9999 -9999 -9999 -9999 0.13419218361377716 0.13415271043777466 0.13414254784584045 0.13418705761432648 0.1343056708574295 0.13449719548225403 0.13471749424934387 0.12475460767745972 0.1251000016927719 0.1360473483800888 0.13669337332248688 0.1269814819097519 0.1275261491537094 0.1385650783777237 -9999 -9999
-9999 -9999 -9999 0.13451115787029266 0.12424665689468384 0.1057114526629448 0.10573260486125946 0.10582251101732254 0.10598482936620712 0.10620604455471039 0.1064634770154953 0.09865368902683258 0.09898687154054642 0.10760322213172913 0.10814135521650314 0.10055561363697052 0.10949873179197311 0.13968956470489502 -9999 -9999
-9999 -9999 -9999 0.1347629725933075 0.1060284823179245 0.07717559486627579 0.07121241092681885 0.0713636502623558 0.0715767964720726 0.07183153182268143 0.07210160046815872 0.06695744395256042 0.06723446398973465 0.07304689288139343 0.07350059598684311 0.07413914799690247 0.11128035932779312 0.1420021951198578 -9999 -9999
-9999 -9999 0.13534395396709442 0.1250067800283432 0.09838469326496124 0.06617841124534607 0.041032735258340836 0.04119901359081268 0.04141815006732941 0.041659072041511536 0.04190126806497574 0.03886234387755394 0.03909533843398094 0.042705461382865906 0.043119046837091446 0.07038824260234833 0.10545819252729416 0.1351184993982315 0.14834050834178925 -9999
-9999 -9999 0.13578684628009796 0.10690916329622269 0.0779581144452095 0.05258586257696152 0.030096905305981636 0.02038496732711792 0.02055586315691471 0.02073800377547741 0.020919818431138992 0.01947818510234356 0.019678054377436638 0.021604636684060097 0.03256680816411972 0.057661980390548706 0.08617527037858963 0.11897073686122894 0.15191103518009186 -9999
-9999 -9999 0.13661931455135345 0.10767050832509995 0.07251892983913422 0.04176180064678192 0.020572932437062263 0.010137926787137985 0.00876149907708168 0.008874376304447651 0.008991209790110588 0.008424480445683002 0.00859031267464161 0.011183053255081177 0.02326372265815735 0.0477205291390419 0.08325061202049255 0.12398520857095718 0.1576244980096817 -9999
-9999 0.13846127688884735 0.1276286393404007 0.1005830243229866 0.06794150173664093 0.0391150638461113 0.01934959553182125 0.008193006739020348 0.0032256469130516052 0.003293699352070689 0.0033641248010098934 0.0031709715258330107 0.0035647936165332794 0.010257934220135212 0.024728864431381226 0.05046813562512398 0.08768843859434128 0.13008858263492584 0.16499747335910797 -9999
-9999 0.14011020958423615 0.11032280325889587 0.08059895783662796 0.054577745497226715 0.03161225840449333 0.015643354505300522 0.006641269661486149 0.0024604261852800846 0.001641371170990169 0.001696358434855938 0.0017446535639464855 0.0038399940822273493 0.010931447148323059 0.026214294135570526 0.05336938053369522 0.09257571399211884 0.13712920248508453 0.17369750142097473 -9999
-9999 0.14301015436649323 0.11280019581317902 0.07615416496992111 0.04405111074447632 0.021831287071108818 0.010831618681550026 0.004636513534933329 0.0017325434600934386 0.0017414151225239038 0.0018081188900396228 0.001863535726442933 0.004091070033609867 0.011582542210817337 0.02769475430250168 0.05631977319717407 0.09763424843549728 0.1445223093032837 0.18293997645378113 -9999
-9999 0.14705607295036316 0.11613016575574875 0.0785711258649826 0.045574530959129333 0.022643256932497025 0.009633492678403854 0.0035331405233591795 0.0017449721926823258 0.0018317674985155463 0.0019071463029831648 0.0020808496046811342 0.0060270363464951515 0.014429202303290367 0.029162120074033737 0.05925329402089119 0.10264154523611069 0.15174126625061035 0.19177524745464325 -9999
-9999 0.15217913687229156 0.12032793462276459 0.0815916433930397 0.04741041734814644 0.023736663162708282 0.01012242678552866 0.0037230257876217365 0.0018204145599156618 0.001910586841404438 0.001992851495742798 0.0032525043934583664 0.009380380623042583 0.022431708872318268 0.045834001153707504 0.07929053157567978 0.11667884886264801 0.15851783752441406 0.19936253130435944 -9999
-9999 0.15824422240257263 0.1253681182861328 0.08552258461713791 0.049794867634773254 0.024787457659840584 0.010561560280621052 0.0038749859668314457 0.0018865158781409264 0.001975519582629204 0.00205875001847744 0.004262175876647234 0.012266048230230808 0.02952716313302517 0.06025978922843933 0.10451708734035492 0.15442393720149994 0.19391724467277527 0.20464369654655457 -9999
-9999 0.16488954424858093 0.1308397352695465 0.08938396722078323 0.05207423120737076 0.025916479527950287 0.012916346080601215 0.00554130831733346 0.002048396971076727 0.0020273576956242323 0.002108676126226783 0.004739062860608101 0.013580056838691235 0.03275921568274498 0.06706754118204117 0.11684688925743103 0.17296791076660156 0.219167560338974 -9999 -9999
-9999 0.17082466185092926 0.13644415140151978 0.10072949528694153 0.06899084150791168 0.040243640542030334 0.020086269825696945 0.00852523185312748 0.003392771352082491 0.0020658746361732483 0.0021461457945406437 0.004816760309040546 0.013817774131894112 0.033398035913705826 0.06854358315467834 0.11977362632751465 0.17843656241893768 0.22642923891544342 -9999 -9999
-9999 0.17498846352100372 0.16557030379772186 0.13256947696208954 0.0904894471168518 0.05269075557589531 0.02834385633468628 0.014055113308131695 0.0059959860518574715 0.002204231219366193 0.0021726000122725964 0.004481792449951172 0.012938106432557106 0.03132794052362442 0.06440562009811401 0.11272779107093811 0.16859912872314453 0.2161100059747696 0.23844140768051147 0.24029667675495148
-9999 -9999 0.18526431918144226 0.14775653183460236 0.10868115723133087 0.07403598725795746 0.04293915256857872 0.021336939185857773 0.009025389328598976 0.0033256334718316793 0.0021883309818804264 0.0035566077567636967 0.010304572060704231 0.025060173124074936 0.05144527554512024 0.09031186997890472 0.1351112574338913 0.17281682789325714 0.1887529343366623 0.1897013932466507
-9999 -9999 0.1887255609035492 0.17640502750873566 0.14027157425880432 0.09519222378730774 0.05515877529978752 0.027267325669527054 0.011534435674548149 0.004230624530464411 0.0021961939055472612 0.0023988347966223955 0.00697296392172575 0.016928404569625854 0.035001546144485474 0.06116093695163727 0.09186900407075882 0.11723139882087708 0.12740489840507507 0.12779678404331207
-9999 -9999 -9999 0.1935376673936844 0.15341827273368835 0.10392735153436661 0.06009026616811752 0.029665233567357063 0.01253399159759283 0.0046072895638644695 0.0021998314186930656 0.002279053209349513 0.004012172110378742 0.00971172470599413 0.02013687789440155 0.03518936410546303 0.05291250720620155 0.06718893349170685 0.0731363520026207 0.07328962534666061
