ncols         20
nrows         20
xllcorner     0
yllcorner     -3.5992928
cellsize      0.17996463
NODATA_value  -9999
-9999.0 -9999 -9999 -9999 -9999 -9999 -9999 -9999 -9999 -9999 -9999 -9999 -9999 -9999 -9999 -9999 -9999 -9999 -9999 -9999
-9999 -9999 -9999 -9999 -9999 -9999 -9999 -9999 -9999 -9999 -9999 0.16864892840385437 0.16888579726219177 -9999 -9999 0.1869155913591385 0.17678748071193695 -9999 -9999 -9999
-9999 -9999 -9999 -9999 0.14098116755485535 0.1502477079629898 0.16826096177101135 0.18523870408535004 0.20048129558563232 0.21588397026062012 0.20769810676574707 0.20513588190078735 0.21764615178108215 0.23631829023361206 0.22849801182746887 0.20861083269119263 0.19410279393196106 0.1873936653137207 -9999 -9999
-9999 -9999 -9999 0.14185824990272522 0.14928029477596283 0.1607293337583542 0.17907416820526123 0.19966182112693787 0.22669951617717743 0.2570893168449402 0.28811413049697876 0.30958840250968933 0.3291764259338379 0.3287876844406128 0.3095081150531769 0.27519115805625916 0.24498139321804047 0.22876669466495514 -9999 -9999
-9999 -9999 -9999 0.14948837459087372 0.15897536277770996 0.17963211238384247 0.20477673411369324 0.23637709021568298 0.28312069177627563 0.3571411073207855 0.45071911811828613 0.531714141368866 0.5737575888633728 0.5514973998069763 0.4977014362812042 0.4201657772064209 0.35722219944000244 0.3457828760147095 -9999 -9999
-9999 -9999 0.15014483034610748 0.16082148253917694 0.17821142077445984 0.2039576917886734 0.23166108131408691 0.26687005162239075 0.3359701335430145 0.45263388752937317 0.6229192614555359 0.790520191192627 0.9129433035850525 0.9101060032844543 0.8050262928009033 0.6718633770942688 0.5623438358306885 0.5260615944862366 0.5161558985710144 -9999
-9999 -9999 0.1665644645690918 0.18064671754837036 0.21146515011787415 0.24501779675483704 0.2667054533958435 0.28412002325057983 0.3427908718585968 0.46394166350364685 0.6627247929573059 0.925038754940033 1.2212071418762207 1.3448811769485474 1.275871992111206 1.0855333805084229 0.9053951501846313 0.7804431319236755 0.734838604927063 -9999
-9999 -9999 0.2115570604801178 0.23838962614536285 0.2876102328300476 0.32754507660865784 0.3313232660293579 0.2638658285140991 0.265563428401947 0.32259318232536316 0.4414050579071045 0.6916273236274719 1.3874095678329468 1.7643425464630127 1.8296587467193604 1.6672272682189941 1.4410545825958252 1.2386622428894043 1.1537501811981201 -9999
-9999 0.27391770482063293 0.2992803454399109 0.355378657579422 0.4469759166240692 0.5173327922821045 0.49595391750335693 0.3382212519645691 0.29351454973220825 0.31964874267578125 0.42636018991470337 0.7185636162757874 1.6254842281341553 2.234959125518799 2.505915641784668 2.446117401123047 2.1845808029174805 1.9200652837753296 1.7955231666564941 -9999
-9999 0.3686281144618988 0.42994099855422974 0.5711122155189514 0.7501828670501709 0.8770121932029724 0.8302021026611328 0.5108317136764526 0.4108699858188629 0.413315087556839 0.5161392092704773 0.8513692617416382 1.9675002098083496 2.7966227531433105 3.2653086185455322 3.367697238922119 3.1494596004486084 2.8596506118774414 2.7143144607543945 -9999
-9999 0.5798032879829407 0.6895235180854797 0.9295742511749268 1.213620662689209 1.419934868812561 1.360339879989624 0.8005903959274292 0.64802485704422 0.6306736469268799 0.7246428728103638 1.0866289138793945 2.4627466201782227 3.4558308124542236 4.0865020751953125 4.344316482543945 4.278737545013428 4.026576995849609 3.884817361831665 -9999
-9999 0.9734333753585815 1.1394073963165283 1.5097111463546753 1.9200164079666138 2.216841697692871 2.180593490600586 1.3620414733886719 1.1840705871582031 1.1431149244308472 1.2029715776443481 1.5334465503692627 3.0535309314727783 4.0544753074646 4.745123386383057 5.163804054260254 5.285549640655518 5.179827690124512 5.088676452636719 -9999
-9999 1.6306012868881226 1.8912482261657715 2.4342007637023926 2.949946403503418 3.341376781463623 3.463313579559326 3.201279401779175 2.9331088066101074 2.7410366535186768 2.7366130352020264 3.0114810466766357 3.6826815605163574 4.311826705932617 4.8665080070495605 5.3408966064453125 5.704283237457275 5.850116729736328 5.833969593048096 -9999
-9999 2.5427463054656982 2.900252103805542 3.6151955127716064 4.2371625900268555 4.627099990844727 4.7217326164245605 4.4976043701171875 4.1311187744140625 3.820009708404541 3.6662957668304443 3.696596384048462 3.8846240043640137 4.118222713470459 4.3701701164245605 4.723893642425537 5.190396308898926 5.707545280456543 5.850203037261963 -9999
-9999 3.479229688644409 3.9065170288085938 4.750392913818359 5.390558242797852 5.646318435668945 5.563904762268066 5.221951961517334 4.781642436981201 4.384823322296143 4.10429048538208 3.9086203575134277 3.7805089950561523 3.696981906890869 3.636103391647339 3.71832537651062 3.9629340171813965 4.549589157104492 -9999 -9999
-9999 4.162973403930664 4.649989128112793 5.530770301818848 6.069843769073486 6.131242275238037 5.871619701385498 5.435275554656982 4.97913932800293 4.5583391189575195 4.211197376251221 3.8788199424743652 3.549938201904297 3.2332804203033447 2.9701921939849854 2.78416109085083 2.704709529876709 2.4242537021636963 -9999 -9999
-9999 4.666637897491455 5.214493751525879 6.002076148986816 6.3988447189331055 6.245447158813477 5.80634069442749 5.277094841003418 4.801025867462158 4.375436782836914 3.999660015106201 3.602571964263916 3.1844096183776855 2.7967138290405273 2.440891742706299 2.1427528858184814 1.906129240989685 1.6657497882843018 1.4645824432373047 1.2690150737762451
-9999 -9999 5.775742053985596 6.320957183837891 6.545536041259766 6.187302589416504 5.552558422088623 4.919139385223389 4.405357360839844 3.982382297515869 3.612276315689087 3.2190914154052734 2.8101468086242676 2.371180534362793 2.007736921310425 1.7339386940002441 1.486738681793213 1.3046283721923828 1.164153814315796 1.1898443698883057
-9999 -9999 6.307451248168945 6.565559387207031 6.576908588409424 6.014402389526367 5.201385974884033 4.460710048675537 3.9009854793548584 3.5024027824401855 3.213881731033325 2.849193572998047 2.449105739593506 2.0315473079681396 1.7146884202957153 1.4825388193130493 1.288934588432312 1.1630221605300903 1.191291093826294 1.2076884508132935
-9999 -9999 -9999 6.664624214172363 6.572967052459717 5.920557022094727 5.011341571807861 4.225159645080566 3.663770914077759 3.2957053184509277 3.0101168155670166 2.7022228240966797 2.308659076690674 1.9021791219711304 1.5776501893997192 1.3913772106170654 1.1887308359146118 1.185823678970337 1.2075386047363281 1.2199997901916504
