ncols         20
nrows         20
xllcorner     0
yllcorner     -3.5992928
cellsize      0.17996463
NODATA_value  -9999
-9999.0 -9999 -9999 -9999 -9999 -9999 -9999 -9999 -9999 -9999 -9999 -9999 -9999 -9999 -9999 -9999 -9999 -9999 -9999 -9999
-9999 -9999 -9999 -9999 -9999 -9999 -9999 -9999 -9999 -9999 -9999 0.03401478752493858 0.03258246183395386 -9999 -9999 0.025728564709424973 0.022578097879886627 -9999 -9999 -9999
-9999 -9999 -9999 -9999 0.04037895426154137 0.04601270705461502 0.056883689016103745 0.06592647731304169 0.07114341109991074 0.07346136122941971 0.05895908549427986 0.04931103438138962 0.04807379096746445 0.047322679311037064 0.03872175142168999 0.029908159747719765 0.02439078316092491 0.021139021962881088 -9999 -9999
-9999 -9999 -9999 0.03648800030350685 0.04235343635082245 0.050354450941085815 0.06266537308692932 0.07536591589450836 0.08954619616270065 0.10114410519599915 0.10730130970478058 0.10300195217132568 0.09696640074253082 0.08098246157169342 0.06185387074947357 0.04383234679698944 0.03212464228272438 0.026602594181895256 -9999 -9999
-9999 -9999 -9999 0.03613826259970665 0.04295819252729416 0.05782376974821091 0.07806806266307831 0.10406846553087234 0.13961800932884216 0.19255247712135315 0.2486143857240677 0.27269992232322693 0.2506830096244812 0.18539434671401978 0.12551087141036987 0.07780873030424118 0.05079527571797371 0.04453365504741669 -9999 -9999
-9999 -9999 0.024675460532307625 0.03290193900465965 0.044818468391895294 0.0653863325715065 0.09462995827198029 0.13786651194095612 0.21630193293094635 0.3381481468677521 0.4906959533691406 0.5666117072105408 0.5362281203269958 0.3932425379753113 0.24382011592388153 0.14216747879981995 0.0871853455901146 0.06818453222513199 0.055512942373752594 -9999
-9999 -9999 0.024155952036380768 0.031144270673394203 0.04845288023352623 0.0777154490351677 0.11934051662683487 0.18816621601581573 0.31042271852493286 0.5001728534698486 0.726218044757843 0.8620786666870117 0.8338033556938171 0.6520596146583557 0 0.25578272342681885 0.15430496633052826 0.10448315739631653 0.08646542578935623 -9999
-9999 -9999 0.02588668279349804 0.035956330597400665 0.06107574328780174 0.10277574509382248 0.1690434068441391 0.27230900526046753 0.42394059896469116 0.6305099725723267 0.8278431296348572 0.959407389163971 0.9538863897323608 0.814686119556427 0.6086838841438293 0.4035593569278717 0.26026007533073425 0.1765306144952774 0.1468229442834854 -9999
-9999 0.019577810540795326 0.02960388734936714 0.04771343246102333 0.08969122171401978 0.16205908358097076 0.26611149311065674 0.412576824426651 0.5817388892173767 0.7450814843177795 0.8620847463607788 0.9339712858200073 0.9480925798416138 0.8760757446289062 0.7465639114379883 0 0.3947121798992157 0.28092387318611145 0.23755618929862976 -9999
-9999 0.02555473893880844 0.03756308555603027 0.07200868427753448 0.14360809326171875 0.26110273599624634 0.4199959337711334 0.6025468707084656 0.7562621235847473 0.8460057377815247 0.8762900829315186 0.8947055339813232 0.8996787667274475 0.879758358001709 0.815268874168396 0 0.5358119010925293 0.4103200435638428 0.3598388731479645 -9999
-9999 0.04021527245640755 0.058290667831897736 0.11075180768966675 0.2096029371023178 0.36245012283325195 0.5595154762268066 0.7504448890686035 0.8562882542610168 0.87947678565979 0.8681054711341858 0.862291693687439 0.87150639295578 0.8689009547233582 0.8381872773170471 0.7731850743293762 0.6564455628395081 0.545258641242981 0.49625325202941895 -9999
-9999 0.0713973119854927 0.09774991124868393 0.17266157269477844 0.29369616508483887 0.4547540843486786 0.640872597694397 0.7846630811691284 0.8267433047294617 0.8064124584197998 0.780175507068634 0.7812724113464355 0 0 0.8124039173126221 0 0.71766597032547 0.6425366997718811 0.6056622862815857 -9999
-9999 0.13216714560985565 0.17379753291606903 0.2784295380115509 0.40530824661254883 0.5437179207801819 0.6704942584037781 0.7387107610702515 0.7205110788345337 0.6673088669776917 0.6296408772468567 0.6237842440605164 0 0 0 0.6618484258651733 0.657503604888916 0.6445034742355347 0.6252472996711731 -9999
-9999 0.22779464721679688 0.28475117683410645 0.4126147925853729 0.5328071713447571 0.619123637676239 0.6637504696846008 0.65312260389328 0.5956416726112366 0.5299997329711914 0.4846644103527069 0.46292969584465027 0 0 0 0.4429601728916168 0.4767530560493469 0.54219651222229 0.5582680106163025 -9999
-9999 0.32168594002723694 0.3816313147544861 0.5113034248352051 0.6017002463340759 0.6239344477653503 0.5999568700790405 0.5462877154350281 0.4793892204761505 0.42264029383659363 0.38403961062431335 0.3501875400543213 0.32046931982040405 0.29244086146354675 0 0 0.27284175157546997 0.34252968430519104 -9999 -9999
-9999 0.36797207593917847 0.419871062040329 0.5275639295578003 0.5748440623283386 0.5527065396308899 0.49906739592552185 0.43657755851745605 0.38637202978134155 0.35043367743492126 0 0 0 0.20310114324092865 0 0 0.13783606886863708 0 -9999 -9999
-9999 0.3983471095561981 0.4231342673301697 0.4931785464286804 0.5094218254089355 0.4630456268787384 0.3977659344673157 0.34177714586257935 0.30842703580856323 0 0 0 0 0.1492847055196762 0.11775167286396027 0.09392892569303513 0.0773947685956955 0.06412007659673691 0 0
-9999 -9999 0.40277525782585144 0.4453873038291931 0.4446600079536438 0.3863949477672577 0.3168942332267761 0.2678375840187073 0 0 0 0 0 0 0 0 0 0 0 0
-9999 -9999 0.4150919020175934 0.41370800137519836 0.3942872881889343 0.3268832266330719 0.25495871901512146 0.20762194693088531 0 0 0 0 0 0 0 0 0 0 0 0
-9999 -9999 -9999 0.3837226331233978 0.3670060932636261 0.29926973581314087 0.22688506543636322 0.18125604093074799 0 0 0 0 0 0 0 0 0 0 0 0
