ncols         20
nrows         20
xllcorner     0
yllcorner     -3.5992928
cellsize      0.17996463
NODATA_value  -9999
-9999.0 -9999 -9999 -9999 -9999 -9999 -9999 -9999 -9999 -9999 -9999 -9999 -9999 -9999 -9999 -9999 -9999 -9999 -9999 -9999
-9999 -9999 -9999 -9999 -9999 -9999 -9999 -9999 -9999 -9999 -9999 1.0914969444274902 1.0745983123779297 -9999 -9999 1.0283325910568237 0.9664817452430725 -9999 -9999 -9999
-9999 -9999 -9999 -9999 1.1147823333740234 1.1866389513015747 1.3141111135482788 1.4112619161605835 1.468825340270996 1.5049405097961426 1.37020742893219 1.2863867282867432 1.2945035696029663 1.308798909187317 1.2102642059326172 1.0897780656814575 0.9946513175964355 0.9278512001037598 -9999 -9999
-9999 -9999 -9999 1.0436440706253052 1.1261272430419922 1.2215981483459473 1.352291226387024 1.4735227823257446 1.604551076889038 1.7176966667175293 1.7974188327789307 1.801964521408081 1.7924473285675049 1.6804159879684448 1.5050407648086548 1.2949063777923584 1.1240670680999756 1.0289961099624634 -9999 -9999
-9999 -9999 -9999 1.0195566415786743 1.1052265167236328 1.2648996114730835 1.4432064294815063 1.6371173858642578 1.8788703680038452 2.2161126136779785 2.5672733783721924 2.7701575756073 2.7496774196624756 2.450385332107544 2.0801658630371094 1.6805075407028198 1.3816943168640137 1.3042991161346436 -9999 -9999
-9999 -9999 0.8104501962661743 0.9409930109977722 1.082810640335083 1.2709767818450928 1.4698798656463623 1.6992831230163574 2.070918083190918 2.589667558670044 3.2048184871673584 3.6099963188171387 3.7212040424346924 3.3673503398895264 2.769754409790039 2.190772533416748 1.7551747560501099 1.569575309753418 1.412889838218689 -9999
-9999 -9999 0.7835414409637451 0.8802443742752075 1.0633106231689453 1.2733235359191895 1.4516607522964478 1.6384055614471436 1.9738894701004028 2.4747447967529297 3.090743064880371 3.6511764526367188 4.067159175872803 3.9649996757507324 3.4650440216064453 2.7913215160369873 2.2431247234344482 1.8816559314727783 1.723483920097351 -9999
-9999 -9999 0.7836482524871826 0.9017057418823242 1.1126359701156616 1.3117897510528564 1.4288474321365356 1.3377405405044556 1.4353997707366943 1.6568280458450317 1.945587396621704 2.39597487449646 3.554450511932373 3.9460079669952393 3.7794370651245117 3.2834506034851074 2.7606489658355713 2.3363420963287354 2.1561622619628906 -9999
-9999 0.6630774736404419 0.8102272152900696 0.9911807179450989 1.2585463523864746 1.4831610918045044 1.517661213874817 1.240745186805725 1.1840109825134277 1.2442690134048462 1.3991535902023315 1.7897155284881592 2.9797754287719727 3.6200027465820312 3.796372652053833 3.582895040512085 3.1597402095794678 2.7684340476989746 2.587742328643799 -9999
-9999 0.7489427924156189 0.8911199569702148 1.1752712726593018 1.5166385173797607 1.7547061443328857 1.705950140953064 1.227850317955017 1.0501741170883179 1.0132012367248535 1.0949881076812744 1.426713466644287 2.499875545501709 3.212087631225586 3.5702273845672607 3.610485076904297 3.3758938312530518 3.089693307876587 2.951024293899536 -9999
-9999 0.9290167093276978 1.0934128761291504 1.4302620887756348 1.7915136814117432 2.007059335708618 1.878746747970581 1.223183035850525 0.9695687890052795 0.8830997943878174 0.9288223385810852 1.2065339088439941 2.1753880977630615 2.844855308532715 3.260066032409668 3.434797763824463 3.4029769897460938 3.247678756713867 3.1665189266204834 -9999
-9999 1.2275387048721313 1.4035346508026123 1.7720626592636108 2.11198091506958 2.2577104568481445 2.0575454235076904 1.2932167053222656 1.0152958631515503 0.9054718017578125 0.9197052121162415 1.133388638496399 1.9606400728225708 2.5171196460723877 2.9029226303100586 3.1456353664398193 3.238464117050171 3.215604543685913 3.1949355602264404 -9999
-9999 1.6527076959609985 1.8534528017044067 2.235225200653076 2.4858925342559814 2.5341057777404785 2.3292157649993896 1.8959167003631592 1.5626447200775146 1.3690041303634644 1.3358206748962402 1.4790635108947754 1.8301482200622559 2.159736156463623 2.4505226612091064 2.7017269134521484 2.8941965103149414 2.994290351867676 3.0217814445495605 -9999
-9999 2.129467010498047 2.3274171352386475 2.6736624240875244 2.8233890533447266 2.7430837154388428 2.482154369354248 2.1164698600769043 1.7882674932479858 1.5674740076065063 1.4795210361480713 1.511278748512268 1.6314362287521362 1.773294448852539 1.9180775880813599 2.101701498031616 2.3350229263305664 2.6046254634857178 2.7394301891326904 -9999
-9999 2.4566586017608643 2.609938144683838 2.8817169666290283 2.9247469902038574 2.7384872436523438 2.434832811355591 2.0990114212036133 1.7994204759597778 1.5909351110458374 1.4812337160110474 1.4387997388839722 1.4391759634017944 1.4583218097686768 1.4796671867370605 1.5497958660125732 1.6817052364349365 1.9516812562942505 -9999 -9999
-9999 2.5371081829071045 2.6284663677215576 2.8077280521392822 2.762185573577881 2.533583402633667 2.238844633102417 1.9400386810302734 1.7011722326278687 1.5308283567428589 1.4261378049850464 1.352209448814392 1.290231704711914 1.2303502559661865 1.1807392835617065 1.1499319076538086 1.153730869293213 1.061635971069336 -9999 -9999
-9999 2.564897060394287 2.5193684101104736 2.5935323238372803 2.5063986778259277 2.2689921855926514 1.9851181507110596 1.729731798171997 1.5416102409362793 1.4074316024780273 1.3153599500656128 1.231994867324829 1.1455501317977905 1.0638333559036255 0.9819828271865845 0.9095325469970703 0.8526854515075684 0.7901091575622559 0.753183901309967 0.6782349944114685
-9999 -9999 2.3035426139831543 2.349404811859131 2.26000714302063 2.023397922515869 1.7499184608459473 1.5235512256622314 1.365630030632019 1.257587194442749 1.1805248260498047 1.1037912368774414 1.0212419033050537 0.9192989468574524 0.831510603427887 0.7653300166130066 0.6978617310523987 0.6501320600509644 0.6131654977798462 0.6443899869918823
-9999 -9999 2.2507336139678955 2.1811866760253906 2.068863868713379 1.82512629032135 1.5528653860092163 1.3353163003921509 1.189200758934021 1.101913332939148 1.0555603504180908 0.9880662560462952 0.9052497744560242 0.8059679865837097 0.730952799320221 0.6769504547119141 0.627905547618866 0.5999062657356262 0.6407577395439148 0.6638345718383789
-9999 -9999 -9999 2.040332794189453 1.96208655834198 1.7272225618362427 1.4561923742294312 1.2447288036346436 1.1095346212387085 1.0371944904327393 0.9937480688095093 0.9445936679840088 0.8624155521392822 0.7647112011909485 0.6838222742080688 0.6471565961837769 0.5911754369735718 0.6220447421073914 0.6575136780738831 0.6771960854530334
