ncols         20
nrows         20
xllcorner     0
yllcorner     -3.5992928
cellsize      0.17996463
NODATA_value  -9999
-9999.0 -9999 -9999 -9999 -9999 -9999 -9999 -9999 -9999 -9999 -9999 -9999 -9999 -9999 -9999 -9999 -9999 -9999 -9999 -9999
-9999 -9999 -9999 -9999 -9999 -9999 -9999 -9999 -9999 -9999 -9999 0 0 -9999 -9999 0 0 -9999 -9999 -9999
-9999 -9999 -9999 -9999 0 0 0 0 0 0 0 0 0 0 0 0 0 0 -9999 -9999
-9999 -9999 -9999 0 0 0 0 0 0 0 0 0 0 0 0 0 0 0 -9999 -9999
-9999 -9999 -9999 0 0 0 0 0 0 0 0 0 0 0 0 0 0 0 -9999 -9999
-9999 -9999 0 0 0 0 8.87136459350586 8.0849609375 7.449906349182129 6.724343299865723 5.996127605438232 5.665243625640869 5.870929718017578 6.693540573120117 7.915544033050537 9.445731163024902 0 0 0 -9999
-9999 -9999 0 0 0 8.8504056930542 7.562931537628174 6.56038761138916 5.525236129760742 4.415639400482178 3.4813153743743896 3.0314877033233643 3.144716739654541 3.881695032119751 5.212011337280273 7.164435863494873 0 0 0 -9999
-9999 -9999 0 0 9.45447063446045 7.932589530944824 6.59058952331543 5.267099857330322 3.9696691036224365 2.829232931137085 2.0618090629577637 1.6882516145706177 1.7174171209335327 2.177644729614258 3.160027265548706 4.760023593902588 6.968801975250244 0 0 -9999
-9999 0 0 10.768792152404785 8.873732566833496 7.138452053070068 5.418993949890137 3.8178932666778564 2.542208671569824 1.6781378984451294 1.1960430145263672 0.9737292528152466 0.9602275490760803 1.1935535669326782 1.7440694570541382 2.771127223968506 4.349489212036133 6.279363632202148 0 -9999
-9999 0 0 10.771228790283203 8.264305114746094 5.939483165740967 3.8890199661254883 2.3277435302734375 1.3628586530685425 0.8597366809844971 0.6298314332962036 0.5275472402572632 0.5219179391860962 0.6186894774436951 0.8853386044502258 1.4236150979995728 2.3914599418640137 3.6836776733398438 0 -9999
-9999 0 0 10.435480117797852 7.216969966888428 4.5525031089782715 2.513373613357544 1.2420635223388672 0.6348391771316528 0.3809420168399811 0.27921247482299805 0.24105368554592133 0.23977190256118774 0.2790616452693939 0.387236624956131 0.6308861374855042 1.0958716869354248 0 0 -9999
-9999 0 0 9.224931716918945 5.720201015472412 3.202562093734741 1.5283927917480469 0.647497296333313 0.2924189269542694 0.15983594954013824 0.1119372621178627 0.09348826110363007 0.09182365238666534 0.10249893367290497 0.13557326793670654 0.21876369416713715 0.39824965596199036 0 0 -9999
-9999 0 0 6.953322410583496 3.887028694152832 1.9706965684890747 0.8637020587921143 0.3356027901172638 0.13810226321220398 0.07131276279687881 0.043142255395650864 0.03308616951107979 0.029728403314948082 0.031122934073209763 0.03966609388589859 0.060986511409282684 0.11694995313882828 0 0 -9999
-9999 0 0 4.352383613586426 2.139686346054077 0.9938834309577942 0.4212368428707123 0.1659272015094757 0.0664445012807846 0.03367751091718674 0.020350204780697823 0.014526279643177986 0.011826138012111187 0.011185434646904469 0.012349984608590603 0.016946975141763687 0.02875843085348606 0 0 -9999
-9999 0 0 2.455296039581299 1.0351349115371704 0.4405699074268341 0.18646389245986938 0.07604258507490158 0.03492264449596405 0.018599359318614006 0.01147819496691227 0.007859787903726101 0.006003381218761206 0.005187201779335737 0.004954904783517122 0.005643303971737623 0.0075780670158565044 0 -9999 -9999
-9999 0 0 1.4728361368179321 0.5482215881347656 0.20870216190814972 0.08563274890184402 0.03866582363843918 0.02001342922449112 0.011492878198623657 0.007390763144940138 0.0051057226955890656 0.004087338224053383 0.0045519061386585236 0.005182018503546715 0.005944381467998028 0.0068025048822164536 0.007559665944427252 -9999 -9999
-9999 0 0 0.9920762777328491 0.3399190604686737 0.11076981574296951 0.045641783624887466 0.021473225206136703 0.011766080744564533 0.007154247257858515 0.004825084004551172 0.004254216328263283 0.004601034335792065 0.005150442011654377 0.00585227832198143 0.0066729444079101086 0.007602090016007423 0.008626366965472698 0.009792637079954147 0.010350081138312817
-9999 -9999 0 0.6941797733306885 0.23313762247562408 0.07275351881980896 0.02812761813402176 0.013122931122779846 0.007273017428815365 0.004665141925215721 0.004543502815067768 0.004706008359789848 0.005114495288580656 0.005726983770728111 0.006480278447270393 0.007321562152355909 0.008213786408305168 0.009106938727200031 0.009880579076707363 0.010265647433698177
-9999 -9999 0 0 0.16845951974391937 0.05110206454992294 0.018857108429074287 0.008478058502078056 0.00531955249607563 0.004948694724589586 0.004878419451415539 0.005084667820483446 0.005536842159926891 0.0061885458417236805 0.006965653970837593 0.007799073122441769 0.008627821691334248 0.009360603988170624 0.009895021095871925 0.0101678017526865
-9999 -9999 -9999 0 0.13490326702594757 0.042949359863996506 0.015511209145188332 0.006845318712294102 0.005449923221021891 0.005113490391522646 0.00506881158798933 0.005294591188430786 0.0057680075988173485 0.006438484415411949 0.007226445246487856 0.008046790026128292 0.008836519904434681 0.009473536163568497 0.009915020316839218 0.010138865560293198
