ncols         20
nrows         20
xllcorner     0
yllcorner     -3.5992928
cellsize      0.17996463
NODATA_value  -9999
-9999.0 -9999 -9999 -9999 -9999 -9999 -9999 -9999 -9999 -9999 -9999 -9999 -9999 -9999 -9999 -9999 -9999 -9999 -9999 -9999
-9999 -9999 -9999 -9999 -9999 -9999 -9999 -9999 -9999 -9999 -9999 19.014589309692383 19.02553939819336 -9999 -9999 19.006427764892578 19.012081146240234 -9999 -9999 -9999
-9999 -9999 -9999 -9999 18.99003791809082 18.99761390686035 18.994874954223633 19.000356674194336 19.006134033203125 18.992958068847656 19.03425407409668 19.023895263671875 19.02297592163086 19.055509567260742 19.070993423461914 19.049819946289062 19.04334831237793 19.058921813964844 -9999 -9999
-9999 -9999 -9999 19.008962631225586 18.988004684448242 18.98384666442871 18.973024368286133 18.962400436401367 18.935771942138672 18.913618087768555 18.88804817199707 18.89247703552246 18.9121036529541 18.96757698059082 19.011898040771484 19.04703140258789 19.080326080322266 19.1134033203125 -9999 -9999
-9999 -9999 -9999 19.028919219970703 19.006120681762695 18.95310401916504 18.89781379699707 18.83001136779785 18.755903244018555 18.661102294921875 18.575138092041016 18.545787811279297 18.584924697875977 18.698665618896484 18.823314666748047 18.960113525390625 19.082120895385742 19.127281188964844 -9999 -9999
-9999 -9999 19.113998413085938 19.06006622314453 18.997356414794922 18.905366897583008 18.855283737182617 18.721689224243164 18.557554244995117 18.38081169128418 18.219890594482422 18.156200408935547 18.193758010864258 18.351303100585938 18.57520294189453 18.81431770324707 18.963502883911133 19.106616973876953 19.231870651245117 -9999
-9999 -9999 19.160263061523438 19.097148895263672 18.9780330657959 18.888137817382812 18.71149253845215 18.51255989074707 18.288997650146484 18.061750411987305 17.866186141967773 17.769371032714844 17.79918098449707 17.9569091796875 18.18461036682129 18.489919662475586 18.71697235107422 18.950347900390625 19.078540802001953 -9999
-9999 -9999 19.23607635498047 19.113767623901367 18.996519088745117 18.77907371520996 18.53515625 18.284189224243164 18.0396671295166 17.81076431274414 17.63939666748047 17.54436492919922 17.556154251098633 17.676177978515625 17.881820678710938 18.15333366394043 18.441591262817383 18.64727020263672 18.794536590576172 -9999
-9999 19.54703140258789 19.34213638305664 19.193424224853516 18.909833908081055 18.608049392700195 18.3128719329834 18.030073165893555 17.788516998291016 17.600555419921875 17.479379653930664 17.415761947631836 17.41269874572754 17.485618591308594 17.625694274902344 17.82158851623535 18.09041976928711 18.328664779663086 18.4254207611084 -9999
-9999 19.623165130615234 19.426454544067383 19.1563663482666 18.770355224609375 18.399015426635742 18.057504653930664 17.767871856689453 17.553619384765625 17.417945861816406 17.348674774169922 17.315185546875 17.313722610473633 17.34952735900879 17.434370040893555 17.55961036682129 17.770355224609375 17.95939826965332 18.04290008544922 -9999
-9999 19.64118766784668 19.426340103149414 19.054641723632812 18.59843635559082 18.18343734741211 17.826324462890625 17.550823211669922 17.374799728393555 17.281906127929688 17.239940643310547 17.221580505371094 17.216196060180664 17.233999252319336 17.284513473510742 17.371217727661133 17.503660202026367 17.62445831298828 17.70463752746582 -9999
-9999 19.561763763427734 19.278255462646484 18.842805862426758 18.363718032836914 17.959970474243164 17.634809494018555 17.402652740478516 17.271808624267578 17.21272850036621 17.183727264404297 17.163166046142578 17.12346076965332 17.125612258911133 17.171573638916016 17.19949722290039 17.297964096069336 17.382308959960938 17.44216537475586 -9999
-9999 19.26482391357422 18.93733787536621 18.51041030883789 18.07518196105957 17.732309341430664 17.474138259887695 17.30465316772461 17.22452163696289 17.195343017578125 17.18268585205078 17.167001724243164 17.128448486328125 17.122915267944336 17.128206253051758 17.163843154907227 17.18890380859375 17.228097915649414 17.279399871826172 -9999
-9999 18.79629135131836 18.50870132446289 18.142881393432617 17.784364700317383 17.522382736206055 17.344205856323242 17.2421817779541 17.205333709716797 17.19876480102539 17.199214935302734 17.196916580200195 17.180213928222656 17.185258865356445 17.196929931640625 17.21373748779297 17.201427459716797 17.166902542114258 17.251731872558594 -9999
-9999 18.377946853637695 18.141109466552734 17.844045639038086 17.56402015686035 17.37698745727539 17.267507553100586 17.216764450073242 17.20375633239746 17.20685386657715 17.209335327148438 17.220979690551758 17.2366943359375 17.255525588989258 17.270288467407227 17.280086517333984 17.28741455078125 17.191987991333008 -9999 -9999
-9999 18.090843200683594 17.88816261291504 17.650218963623047 17.434303283691406 17.306169509887695 17.2402400970459 17.217241287231445 17.208528518676758 17.206493377685547 17.19422149658203 17.211000442504883 17.242704391479492 17.28844451904297 17.312013626098633 17.339502334594727 17.359092712402344 17.432498931884766 -9999 -9999
-9999 17.936250686645508 17.720983505249023 17.5291690826416 17.363597869873047 17.282161712646484 17.2431640625 17.234203338623047 17.225120544433594 17.21151351928711 17.2148494720459 17.23590850830078 17.270402908325195 17.310333251953125 17.343135833740234 17.37335205078125 17.397329330444336 17.42219352722168 17.388811111450195 17.41633415222168
-9999 -9999 17.54237174987793 17.435651779174805 17.32284927368164 17.27046775817871 17.257320404052734 17.255826950073242 17.24063491821289 17.241973876953125 17.248680114746094 17.267942428588867 17.293243408203125 17.333179473876953 17.363819122314453 17.384082794189453 17.408180236816406 17.424190521240234 17.437856674194336 17.415067672729492
-9999 -9999 17.47796630859375 17.37439727783203 17.301326751708984 17.278467178344727 17.28497314453125 17.294445037841797 17.288780212402344 17.289886474609375 17.28460121154785 17.302446365356445 17.327308654785156 17.361249923706055 17.381532669067383 17.395811080932617 17.4112606048584 17.424419403076172 17.403717041015625 17.39706802368164
-9999 -9999 -9999 17.318979263305664 17.284645080566406 17.276317596435547 17.295209884643555 17.30891990661621 17.302780151367188 17.300777435302734 17.300241470336914 17.306859970092773 17.33264923095703 17.364849090576172 17.390213012695312 17.394412994384766 17.41923713684082 17.403423309326172 17.394636154174805 17.391571044921875
