ncols         20
nrows         20
xllcorner     0
yllcorner     -3.5992928
cellsize      0.17996463
NODATA_value  -9999
-9999.0 -9999 -9999 -9999 -9999 -9999 -9999 -9999 -9999 -9999 -9999 -9999 -9999 -9999 -9999 -9999 -9999 -9999 -9999 -9999
-9999 -9999 -9999 -9999 -9999 -9999 -9999 -9999 -9999 -9999 -9999 0.1632813811302185 0.16351670026779175 -9999 -9999 0.18178978562355042 0.17202018201351166 -9999 -9999 -9999
-9999 -9999 -9999 -9999 0.13662868738174438 0.1456715613603592 0.163254976272583 0.17985957860946655 0.19473415613174438 0.2096662074327469 0.20160211622714996 0.1989280730485916 0.21105876564979553 0.2293679267168045 0.22199442982673645 0.20290659368038177 0.18899136781692505 0.18263201415538788 -9999 -9999
-9999 -9999 -9999 0.13759231567382812 0.14479710161685944 0.15600182116031647 0.17397895455360413 0.19418969750404358 0.220615953207016 0.2501768171787262 0.2802301347255707 0.3008996844291687 0.31986525654792786 0.3196011185646057 0.30109384655952454 0.2679927945137024 0.2388342320919037 0.2232036590576172 -9999 -9999
-9999 -9999 -9999 0.14518095552921295 0.1544666290283203 0.17473043501377106 0.1994820386171341 0.23049645125865936 0.27621209621429443 0.3484122157096863 0.4395557641983032 0.5183295607566833 0.5590387582778931 0.5374304056167603 0.48532551527023315 0.410104364156723 0.34905365109443665 0.3381608724594116 -9999 -9999
-9999 -9999 0.14620769023895264 0.1565457135438919 0.17362000048160553 0.1990237832069397 0.22635917365550995 0.26100069284439087 0.3287047743797302 0.4427284896373749 0.6089693307876587 0.7726488709449768 0.8922119736671448 0.889598548412323 0.7873188257217407 0.6576704382896423 0.5511385798454285 0.5162091851234436 0.5072686672210693 -9999
-9999 -9999 0.16250461339950562 0.17631956934928894 0.2067282497882843 0.23992101848125458 0.2615267038345337 0.2789191007614136 0.33666515350341797 0.45554545521736145 0.6505289673805237 0.9077150821685791 1.197724461555481 1.3190022706985474 1.251895546913147 1.0659929513931274 0.8900633454322815 0.7680111527442932 0.7236947417259216 -9999
-9999 -9999 0.206989586353302 0.23340582847595215 0.28212377429008484 0.3218701481819153 0.3262063264846802 0.2607421278953552 0.2628602087497711 0.31941139698028564 0.43691515922546387 0.6836447715759277 1.3661295175552368 1.7360594272613525 1.8009262084960938 1.6424835920333862 1.4212404489517212 1.2228862047195435 1.1397863626480103 -9999
-9999 0.26901453733444214 0.29373443126678467 0.349016010761261 0.4397636950016022 0.5099427103996277 0.48997268080711365 0.33583328127861023 0.29240962862968445 0.3187282085418701 0.4246358275413513 0.7133098840713501 1.6055505275726318 2.205284595489502 2.473356008529663 2.41672420501709 2.161159038543701 1.9017770290374756 1.7796789407730103 -9999
-9999 0.3627234101295471 0.42307910323143005 0.562385082244873 0.7397713661193848 0.8664631247520447 0.8222242593765259 0.5087259411811829 0.4107649624347687 0.4136615991592407 0.5157814025878906 0.8473657369613647 1.9478291273117065 2.7655012607574463 3.2299530506134033 3.334892749786377 3.1234774589538574 2.8401601314544678 2.6981849670410156 -9999
-9999 0.5720000267028809 0.680327296257019 0.9176600575447083 1.1992390155792236 1.4051529169082642 1.3493298292160034 0.7984651327133179 0.6483426094055176 0.6314713954925537 0.7248055338859558 1.0831431150436401 2.4417998790740967 3.4226298332214355 4.048758506774902 4.3093156814575195 4.251055717468262 4.006669044494629 3.8692879676818848 -9999
-9999 0.9628323912620544 1.1270878314971924 1.4938000440597534 1.9008352756500244 2.1968040466308594 2.164531946182251 1.3577039241790771 1.181937336921692 1.1412672996520996 1.2006056308746338 1.5279169082641602 3.0294394493103027 4.019195556640625 4.706273078918457 5.128056526184082 5.257397651672363 5.159952163696289 5.073883533477783 -9999
-9999 1.6165851354599 1.8750438690185547 2.4133052825927734 2.925293445587158 3.3146989345550537 3.437868118286133 3.1806280612945557 2.9151415824890137 2.724055051803589 2.718782901763916 2.98992919921875 3.652738571166992 4.27628231048584 4.829891204833984 5.307684898376465 5.677609920501709 5.8307952880859375 5.820018768310547 -9999
-9999 2.524827480316162 2.8802106380462646 3.5891170501708984 4.2071309089660645 4.594653129577637 4.688960552215576 4.466689109802246 4.102313995361328 3.792405366897583 3.63869571685791 3.667598247528076 3.853337287902832 4.086160659790039 4.339722633361816 4.6968302726745605 5.167687892913818 5.689226150512695 5.837373733520508 -9999
-9999 3.451772689819336 3.8762972354888916 4.71473503112793 5.352604389190674 5.61082649230957 5.52913761138916 5.188390731811523 4.749622821807861 4.354033946990967 4.074322700500488 3.8793609142303467 3.752232074737549 3.670659303665161 3.6129636764526367 3.698394536972046 3.9455342292785645 4.532378196716309 -9999 -9999
-9999 4.1284708976745605 4.612462520599365 5.4884843826293945 6.027602672576904 6.095612525939941 5.8392534255981445 5.404933929443359 4.950112819671631 4.530381202697754 4.184336185455322 3.8535492420196533 3.526926040649414 3.2132489681243896 2.9533965587615967 2.7702372074127197 2.692476511001587 2.413588285446167 -9999 -9999
-9999 4.627261638641357 5.1717529296875 5.9556169509887695 6.353631973266602 6.206993103027344 5.776731491088867 5.252230167388916 4.778385162353516 4.354094982147217 3.9794702529907227 3.583941698074341 3.167849063873291 2.782452344894409 2.428987979888916 2.132695198059082 1.8967432975769043 1.6555359363555908 1.4531779289245605 1.2582026720046997
-9999 -9999 5.728672504425049 6.271857261657715 6.498742580413818 6.148134231567383 5.522982120513916 4.898666858673096 4.389079570770264 3.9681169986724854 3.5991997718811035 3.207058906555176 2.7992045879364014 2.36151385307312 1.999062418937683 1.7256996631622314 1.4779354333877563 1.2954069375991821 1.1546621322631836 1.1795090436935425
-9999 -9999 6.256306171417236 6.514698505401611 6.5296502113342285 5.975928783416748 5.173366546630859 4.442195415496826 3.88913631439209 3.4934208393096924 3.2060043811798096 2.841815710067749 2.4418749809265137 2.024240732192993 1.7068344354629517 1.4743382930755615 1.280418038368225 1.1541261672973633 1.1812115907669067 1.196974754333496
-9999 -9999 -9999 6.61392879486084 6.525915145874023 5.882656574249268 4.984186172485352 4.207129001617432 3.6530752182006836 3.2887682914733887 3.0044498443603516 2.696444511413574 2.3021609783172607 1.8949294090270996 1.5700231790542603 1.383236289024353 1.1804969310760498 1.1764724254608154 1.197151780128479 1.2090580463409424
