ncols         20
nrows         20
xllcorner     0
yllcorner     -3.5992928
cellsize      0.17996463
NODATA_value  -9999
-9999.0 -9999 -9999 -9999 -9999 -9999 -9999 -9999 -9999 -9999 -9999 -9999 -9999 -9999 -9999 -9999 -9999 -9999 -9999 -9999
-9999 -9999 -9999 -9999 -9999 -9999 -9999 -9999 -9999 -9999 -9999 0.05066320672631264 0.04851868748664856 -9999 -9999 0.03892160952091217 0.03421151638031006 -9999 -9999 -9999
-9999 -9999 -9999 -9999 0.06259502470493317 0.07093805819749832 0.08689846098423004 0.09968382120132446 0.1065073162317276 0.10907509177923203 0.08710680156946182 0.07281756401062012 0.07093449681997299 0.06975781917572021 0.05735476687550545 0.04474193975329399 0.03664584457874298 0.0317344069480896 -9999 -9999
-9999 -9999 -9999 0.05654425546526909 0.06546194106340408 0.07731185853481293 0.09526904672384262 0.11329569667577744 0.1330711990594864 0.14874540269374847 0.1565880924463272 0.1497349739074707 0.14082592725753784 0.1178586408495903 0.0905354917049408 0.06464018672704697 0.04762537404894829 0.03950483724474907 -9999 -9999
-9999 -9999 -9999 0.055688370019197464 0.06593035906553268 0.08800189942121506 0.1174841970205307 0.15460775792598724 0.20448680222034454 0.2777944803237915 0.3548682630062103 0.3870859146118164 0.35562384128570557 0.26423150300979614 0.1804932951927185 0.1127200648188591 0.07398951798677444 0.06498556584119797 -9999 -9999
-9999 -9999 0.03762070834636688 0.050196629017591476 0.06799595803022385 0.09821946918964386 0.1404048204421997 0.2015816569328308 0.3107607364654541 0.47873353958129883 0.6875277757644653 0.7897856831550598 0.7471137642860413 0.5506604313850403 0.34489789605140686 0.20232954621315002 0.12469413876533508 0.09761137515306473 0.07913001626729965 -9999
-9999 -9999 0.03648123890161514 0.04689068719744682 0.07234245538711548 0.11467985063791275 0.17370977997779846 0.26931965351104736 0.43761563301086426 0.6968891620635986 1.004166841506958 1.1876747608184814 1.149009346961975 0.9040704965591431 0 0.3593767285346985 0.21691960096359253 0.14705334603786469 0.12163354456424713 -9999
-9999 -9999 0.038478318601846695 0.053135402500629425 0.08926716446876526 0.14822928607463837 0.23992528021335602 0.3810054063796997 0.5868313908576965 0.8667947053909302 1.133782148361206 1.3118598461151123 1.3051306009292603 1.1188753843307495 0.8424909114837646 0.5611460208892822 0.3608636260032654 0.24426300823688507 0.20297019183635712 -9999
-9999 0.02852877788245678 0.043177228420972824 0.06895530223846436 0.12776078283786774 0.2273472547531128 0.3681555688381195 0.565154492855072 0.7927164435386658 1.0134235620498657 1.1726739406585693 1.2719852924346924 1.294151782989502 1.2005943059921265 1.0311611890792847 0 0.5448294878005981 0.38407111167907715 0.3233162462711334 -9999
-9999 0.03680193051695824 0.05380382016301155 0.10165941715240479 0.19946901500225067 0.3572257459163666 0.5687279105186462 0.8122044205665588 1.0192418098449707 1.1430981159210205 1.1890748739242554 1.220714807510376 1.2349697351455688 1.2136290073394775 1.1315642595291138 0 0.7381238341331482 0.5578463077545166 0.4859566390514374 -9999
-9999 0.05689588561654091 0.0818357765674591 0.1529570370912552 0.2847367525100708 0.48661017417907715 0.7471398115158081 1.002531886100769 1.1487723588943481 1.1879643201828003 1.1837990283966064 1.1908231973648071 1.2218389511108398 1.2257802486419678 1.1794277429580688 1.086064338684082 0.9064957499504089 0.7427225708961487 0.6710025668144226 -9999
-9999 0.09890241175889969 0.1343180537223816 0.23339034616947174 0.39183974266052246 0.6029590964317322 0.8500823974609375 1.0463929176330566 1.1119589805603027 1.0971509218215942 1.078393816947937 1.105751395225525 0 0 1.1836364269256592 0 1.0068632364273071 0.8851068019866943 0.8267104029655457 -9999
-9999 0.17898757755756378 0.2334054559469223 0.3693774342536926 0.5345050096511841 0.7171972393989563 0.8897883296012878 0.9901956915855408 0.9782957434654236 0.9206939339637756 0.8873007297515869 0.9056919813156128 0 0 0 0.9712710380554199 0.9371929168701172 0.9017901420593262 0.8645904660224915 -9999
-9999 0.3020092248916626 0.37543556094169617 0.541562557220459 0.6999607086181641 0.8186354041099548 0.8873436450958252 0.8857674598693848 0.8220357298851013 0.7473729252815247 0.7011027336120605 0.6904191374778748 0 0 0 0.6693682670593262 0.6980464458465576 0.776832640171051 0.7813671231269836 -9999
-9999 0.4210394322872162 0.49904823303222656 0.6701947450637817 0.793958842754364 0.8325647115707397 0.8127169013023376 0.7541970610618591 0.6782413125038147 0.6157629489898682 0.5777150392532349 0.5408666133880615 0.5057494640350342 0.4662812650203705 0 0 0.4196350872516632 0.5177854299545288 -9999 -9999
-9999 0.4803297519683838 0.5496447086334229 0.6954089999198914 0.7661269307136536 0.7475509643554688 0.6880356073379517 0.6178759932518005 0.5658748149871826 0.5355508327484131 0 0 0 0.3356330096721649 0 0 0.2275257259607315 0 -9999 -9999
-9999 0.5210964679718018 0.5576384663581848 0.6568517088890076 0.6879746317863464 0.6362277269363403 0.5602630376815796 0.49852651357650757 0.47192317247390747 0 0 0 0 0.2580138146877289 0.20474687218666077 0.16486215591430664 0.13787630200386047 0.11901433765888214 0 0
-9999 -9999 0.5388548970222473 0.6016353368759155 0.6094013452529907 0.5399565100669861 0.4561734199523926 0.40310168266296387 0 0 0 0 0 0 0 0 0 0 0 0
-9999 -9999 0.5618875622749329 0.5663284063339233 0.5473922491073608 0.46327629685401917 0.37330517172813416 0.31947076320648193 0 0 0 0 0 0 0 0 0 0 0 0
-9999 -9999 -9999 0.5315483808517456 0.5136078596115112 0.4275965690612793 0.33528584241867065 0.2820770740509033 0 0 0 0 0 0 0 0 0 0 0 0
