ncols         20
nrows         20
xllcorner     0
yllcorner     -3.5992928
cellsize      0.17996463
NODATA_value  -9999
-9999.0 -9999 -9999 -9999 -9999 -9999 -9999 -9999 -9999 -9999 -9999 -9999 -9999 -9999 -9999 -9999 -9999 -9999 -9999 -9999
-9999 -9999 -9999 -9999 -9999 -9999 -9999 -9999 -9999 -9999 -9999 0.01808861270546913 0.018092971295118332 -9999 -9999 0.01823931559920311 0.018247053027153015 -9999 -9999 -9999
-9999 -9999 -9999 -9999 0.018185880035161972 0.018147535622119904 0.018091270700097084 0.018023967742919922 0.01796007715165615 0.017915640026330948 0.017905281856656075 0.03801874816417694 0.038045577704906464 0.017960619181394577 0.01800479181110859 0.038323596119880676 0.03837240859866142 0.018109560012817383 -9999 -9999
-9999 -9999 -9999 0.018100664019584656 0.0383048877120018 0.0796516016125679 0.07937725633382797 0.07902258634567261 0.07867679744958878 0.07842287421226501 0.07832314819097519 0.09441257268190384 0.09452342987060547 0.07859817892313004 0.0787954181432724 0.0951988473534584 0.07922311127185822 0.017966032028198242 -9999 -9999
-9999 -9999 -9999 0.01797730289399624 0.07924053072929382 0.11441650986671448 0.11391934752464294 0.1132722944021225 0.11264460533857346 0.11218054592609406 0.1119793951511383 0.11207437515258789 0.11226767301559448 0.11249402165412903 0.11281650513410568 0.1131521686911583 0.07831981778144836 0.017723439261317253 -9999 -9999
-9999 -9999 0.017746785655617714 0.03763193637132645 0.09445061534643173 0.11318361759185791 0.11249484866857529 0.11161242425441742 0.11077779531478882 0.11017481982707977 0.10990680754184723 0.1099761426448822 0.11026967316865921 0.11066329479217529 0.11106932163238525 0.11136850714683533 0.09266246110200882 0.03675566613674164 0.01725831627845764 -9999
-9999 -9999 0.017590221017599106 0.0775080993771553 0.11200639605522156 0.11145121604204178 0.11042293906211853 0.10912943631410599 0.10797707736492157 0.10718344897031784 0.10686257481575012 0.10700021684169769 0.10747101902961731 0.10807003080844879 0.10863356292247772 0.10902847349643707 0.10909293591976166 0.07519841194152832 0.01703748106956482 -9999
-9999 -9999 0.01734716072678566 0.07648944109678268 0.11025554686784744 0.10934843122959137 0.1078747808933258 0.10603277385234833 0.10463745892047882 0.10373606532812119 0.10335404425859451 0.10348620265722275 0.10409523546695709 0.10492929816246033 0.10569332540035248 0.10628032684326172 0.10661491006612778 0.07374761253595352 0.016714749857783318 -9999
-9999 0.016974708065390587 0.036037422716617584 0.09048134833574295 0.10822007060050964 0.10702195018529892 0.10518334060907364 0.10307702422142029 0.10149917006492615 0.10047927498817444 0.10001500695943832 0.10009405016899109 0.10067735612392426 0.10154210031032562 0.10243642330169678 0.10318370163440704 0.10369504243135452 0.0718672126531601 0.01630651392042637 -9999
-9999 0.01680457405745983 0.07396160811185837 0.10682070255279541 0.1060815304517746 0.10460598766803741 0.1024896427989006 0.10028579831123352 0.09860292077064514 0.09748487174510956 0.09692785143852234 0.09691410511732101 0.09739767014980316 0.09817039966583252 0.09907162189483643 0.0998992919921875 0.10052428394556046 0.06976519525051117 0.01584797166287899 -9999
-9999 0.016570651903748512 0.07288148999214172 0.10490988194942474 0.10388074070215225 0.1021808460354805 0.09989805519580841 0.09769300371408463 0.09596587717533112 0.09477496892213821 0.09412277489900589 0.09399176388978958 0.09433818608522415 0.0949791818857193 0.09577864408493042 0.09661321341991425 0.09730885177850723 0.0676201730966568 0.015378767624497414 -9999
-9999 0.016286129131913185 0.07155006378889084 0.10280512273311615 0.10161716490983963 0.0998038575053215 0.09751224517822266 0.09534811228513718 0.09361520409584045 0.09237000346183777 0.09162137657403946 0.09135424345731735 0.09153055399656296 0.0920008048415184 0.0926610603928566 0.09344329684972763 0.09422162175178528 0.06561398506164551 0.014941413886845112 -9999
-9999 0.015973815694451332 0.07010571658611298 0.10061203688383102 0.09934765845537186 0.09751871228218079 0.09532491862773895 0.09327085316181183 0.0915612131357193 0.09027344733476639 0.08942732214927673 0.08900914341211319 0.08897508680820465 0.08923210948705673 0.08971001952886581 0.09038544446229935 0.0913374274969101 0.06393872946500778 0.01457115076482296 -9999
-9999 0.015659144148230553 0.06866302341222763 0.0984475240111351 0.09714756906032562 0.09535842388868332 0.09330226480960846 0.09136474877595901 0.08970129489898682 0.08839212357997894 0.08746033161878586 0.0868910402059555 0.08664651215076447 0.0866660475730896 0.08689790964126587 0.0873156264424324 0.07295211404561996 0.02967626042664051 0.014289634302258492 -9999
-9999 0.015370412729680538 0.0673430860042572 0.0964219868183136 0.09508141130208969 0.09335078299045563 0.09142745286226273 0.08960641920566559 0.08800876140594482 0.08669570833444595 0.08569302409887314 0.08498699218034744 0.08454705774784088 0.08432784676551819 0.08428292721509933 0.08436925709247589 0.05842853710055351 0.013288338668644428 -9999 -9999
-9999 0.015134640038013458 0.06590759754180908 0.0946265459060669 0.09318254888057709 0.09151551872491837 0.0897163525223732 0.08801620453596115 0.08649027347564697 0.08518810570240021 0.08413402736186981 0.0833156555891037 0.08270734548568726 0.08227156102657318 0.08196592330932617 0.08175057172775269 0.05600549653172493 0.012685316614806652 -9999 -9999
-9999 0.014969689771533012 0.031247567385435104 0.07685019820928574 0.09137048572301865 0.089856818318367 0.08820918947458267 0.0866285040974617 0.08517637848854065 0.0838959738612175 0.0828101709485054 0.08190729469060898 0.08116518706083298 0.08054963499307632 0.08001429587602615 0.07949778437614441 0.06527683138847351 0.02561662532389164 0.011762039735913277 0.011626489460468292
-9999 -9999 0.014428501017391682 0.06263746321201324 0.08984274417161942 0.08845046907663345 0.0869574174284935 0.0854935571551323 0.08411358296871185 0.08286164700984955 0.08176115155220032 0.08080164343118668 0.07996423542499542 0.07921701669692993 0.07851357012987137 0.07777512818574905 0.07684344053268433 0.06283845007419586 0.05143000930547714 0.051075566560029984
-9999 -9999 0.014072849415242672 0.029786081984639168 0.0733332708477974 0.08730977028608322 0.08602190762758255 0.08467256277799606 0.08335749804973602 0.08213441073894501 0.08103115856647491 0.08003918826580048 0.07914350181818008 0.07831843942403793 0.07752878218889236 0.0767236277461052 0.07584439963102341 0.07488745450973511 0.07413125783205032 0.07374445348978043
-9999 -9999 -9999 0.013709134422242641 0.06024011969566345 0.08666440844535828 0.0855204313993454 0.08424492180347443 0.0829697996377945 0.08176526427268982 0.08066156506538391 0.07965532690286636 0.07873263210058212 0.07787284255027771 0.07704947888851166 0.07623226940631866 0.07540261745452881 0.07460659742355347 0.07398411631584167 0.07365121692419052
