ncols         20
nrows         20
xllcorner     0
yllcorner     -3.5992928
cellsize      0.17996463
NODATA_value  -9999
-9999.0 -9999 -9999 -9999 -9999 -9999 -9999 -9999 -9999 -9999 -9999 -9999 -9999 -9999 -9999 -9999 -9999 -9999 -9999 -9999
-9999 -9999 -9999 -9999 -9999 -9999 -9999 -9999 -9999 -9999 -9999 0 0 -9999 -9999 0 0 -9999 -9999 -9999
-9999 -9999 -9999 -9999 0 0 0 0 0 0 0 0 0 0 0 0 0 0 -9999 -9999
-9999 -9999 -9999 0 0 0 0 0 0 0 0 0 0 0 0 0 0 0 -9999 -9999
-9999 -9999 -9999 0 0 0 0 0 0 0 0 0 0 0 0 0 0 0 -9999 -9999
-9999 -9999 0 0 0 0 8.417109489440918 7.3968658447265625 6.582415580749512 5.768874168395996 5.043885231018066 4.748924255371094 4.987175464630127 5.841547966003418 7.138031959533691 8.781557083129883 0 0 0 -9999
-9999 -9999 0 0 0 8.462934494018555 6.931930065155029 5.756131649017334 4.644232749938965 3.5680603981018066 2.7339959144592285 2.361433506011963 2.4850401878356934 3.170271873474121 4.436868667602539 6.341246604919434 0 0 0 -9999
-9999 -9999 0 0 9.163850784301758 7.369477272033691 5.8433837890625 4.447360992431641 3.1887969970703125 2.1703779697418213 1.5309492349624634 1.2410905361175537 1.2806917428970337 1.6804442405700684 2.5498006343841553 4.0102128982543945 6.074710845947266 0 0 -9999
-9999 0 0 10.622715950012207 8.411384582519531 6.466370582580566 4.670343399047852 3.1201624870300293 1.97053861618042 1.2425271272659302 0.8589906692504883 0.693215548992157 0.6929039359092712 0.8881236910820007 1.3515162467956543 2.237406015396118 3.628516435623169 5.354504585266113 0 -9999
-9999 0 0 10.475804328918457 7.7015533447265625 5.274910926818848 3.2798328399658203 1.860641360282898 1.0371425151824951 0.6292476058006287 0.4497542679309845 0.3743487298488617 0.3747214078903198 0.4554789066314697 0.6727684140205383 1.1169140338897705 1.925402045249939 3.0175139904022217 0 -9999
-9999 0 0 10.029114723205566 6.63883113861084 3.9919867515563965 2.0960137844085693 0.9877603054046631 0.4857579469680786 0.2833147644996643 0.20399710536003113 0.17534233629703522 0.1760634034872055 0.20869387686252594 0.2957454323768616 0.49103349447250366 0.8650464415550232 0 0 -9999
-9999 0 0 8.760263442993164 5.2087249755859375 2.7907989025115967 1.2751408815383911 0.5212002992630005 0.22951456904411316 0.12322813272476196 0.08521419018507004 0.07098830491304398 0.07027716189622879 0.07949348539113998 0.10644562542438507 0.17310380935668945 0.31564828753471375 0 0 -9999
-9999 0 0 6.518741607666016 3.511744499206543 1.7159199714660645 0.7278685569763184 0.2764783799648285 0.11213572323322296 0.057217519730329514 0.03422129526734352 0.02619163878262043 0.023721711710095406 0.025085702538490295 0.0321776457130909 0.04952460154891014 0.09478669613599777 0 0 -9999
-9999 0 0 4.032151222229004 1.9256898164749146 0.8706800937652588 0.36150407791137695 0.14056290686130524 0.05566475912928581 0.02798628993332386 0.016799861565232277 0.011975028552114964 0.009802542626857758 0.009331488981842995 0.010335510596632957 0.014149883762001991 0.02388881705701351 0 0 -9999
-9999 0 0 2.2587766647338867 0.9342086911201477 0.3914753496646881 0.16388526558876038 0.0662364587187767 0.03024737909436226 0.016029255464673042 0.009860646910965443 0.006750214379280806 0.005168075207620859 0.004481651354581118 0.0042887418530881405 0.004871927667409182 0.006508351769298315 0 -9999 -9999
-9999 0 0 1.3559015989303589 0.4998339116573334 0.1890113651752472 0.07708920538425446 0.034695230424404144 0.017907075583934784 0.01026095263659954 0.006594534497708082 0.004556277301162481 0.003645834280177951 0.0040473006665706635 0.004594759084284306 0.005254119634628296 0.005998201668262482 0.006667041685432196 -9999 -9999
-9999 0 0 0.9190313816070557 0.3142235577106476 0.10226321220397949 0.042148321866989136 0.019828064367175102 0.010860823094844818 0.006602638866752386 0.004450436681509018 0.003909656777977943 0.004202560056000948 0.004672117531299591 0.005281001329421997 0.006001045927405357 0.0068311006762087345 0.007778289262205362 0.008921817876398563 0.009466687217354774
-9999 -9999 0 0.6495022773742676 0.2187257707118988 0.0685034841299057 0.02657262422144413 0.012423555366694927 0.0068947928957641125 0.004417558666318655 0.004283127374947071 0.004405379761010408 0.00474740331992507 0.005271168425679207 0.005925752688199282 0.006668048445135355 0.007470493204891682 0.008295334875583649 0.009033393114805222 0.00940612517297268
-9999 -9999 0 0 0.1601627618074417 0.04888753592967987 0.018123885616660118 0.0081730205565691 0.005128050688654184 0.004753136541694403 0.004655941855162382 0.0048116957768797874 0.005189030431210995 0.005746962036937475 0.006423030514270067 0.007159093860536814 0.00790339708328247 0.008574900217354298 0.009076308459043503 0.009336466901004314
-9999 -9999 -9999 0 0.1293451488018036 0.04145023599267006 0.015049226582050323 0.006657112389802933 0.005294112488627434 0.00494484044611454 0.00486639654263854 0.005036584567278624 0.005431222263723612 0.006005503702908754 0.006691226735711098 0.007415373809635639 0.008122761733829975 0.008703134022653103 0.009112667292356491 0.0093233622610569
