ncols         20
nrows         20
xllcorner     0
yllcorner     -3.5992928
cellsize      0.17996463
NODATA_value  -9999
-9999.0 -9999 -9999 -9999 -9999 -9999 -9999 -9999 -9999 -9999 -9999 -9999 -9999 -9999 -9999 -9999 -9999 -9999 -9999 -9999
-9999 -9999 -9999 -9999 -9999 -9999 -9999 -9999 -9999 -9999 -9999 19.103458404541016 19.111513137817383 -9999 -9999 19.05061912536621 19.050989151000977 -9999 -9999 -9999
-9999 -9999 -9999 -9999 19.047643661499023 19.066757202148438 19.083663940429688 19.109411239624023 19.132230758666992 19.130325317382812 19.164127349853516 19.13971519470215 19.133222579956055 19.16168975830078 19.15937042236328 19.114513397216797 19.096004486083984 19.10835075378418 -9999 -9999
-9999 -9999 -9999 19.062925338745117 19.051231384277344 19.06316566467285 19.07415008544922 19.087383270263672 19.086557388305664 19.082231521606445 19.06281852722168 19.06092643737793 19.0717830657959 19.110559463500977 19.13169288635254 19.14352035522461 19.160383224487305 19.185163497924805 -9999 -9999
-9999 -9999 -9999 19.09046173095703 19.080820083618164 19.050233840942383 19.022268295288086 18.98945426940918 18.945833206176758 18.87169647216797 18.798215866088867 18.76982307434082 18.800432205200195 18.894432067871094 18.99747085571289 19.102954864501953 19.204668045043945 19.245697021484375 -9999 -9999
-9999 -9999 19.1763973236084 19.13230323791504 19.088804244995117 19.022951126098633 19.01032829284668 18.909936904907227 18.7716007232666 18.6163387298584 18.47589111328125 18.415817260742188 18.44719123840332 18.581933975219727 18.782142639160156 19.005781173706055 19.13849639892578 19.282726287841797 19.421234130859375 -9999
-9999 -9999 19.2348575592041 19.185142517089844 19.08946418762207 19.034015655517578 18.890750885009766 18.712566375732422 18.507360458374023 18.29892349243164 18.124744415283203 18.037128448486328 18.061115264892578 18.19803810119629 18.403242111206055 18.701318740844727 18.928157806396484 19.172657012939453 19.307966232299805 -9999
-9999 -9999 19.331565856933594 19.22429656982422 19.133987426757812 18.951942443847656 18.727619171142578 18.48835563659668 18.25123405456543 18.034502029418945 17.87236785888672 17.7857723236084 17.795589447021484 17.905437469482422 18.098852157592773 18.364389419555664 18.664175033569336 18.8812313079834 19.047346115112305 -9999
-9999 19.585346221923828 19.456539154052734 19.331295013427734 19.07723045349121 18.798721313476562 18.511009216308594 18.23227310180664 17.992834091186523 17.806724548339844 17.683204650878906 17.619657516479492 17.62009048461914 17.69141960144043 17.830814361572266 18.02118682861328 18.297929763793945 18.552677154541016 18.66224479675293 -9999
-9999 19.61880111694336 19.562644958496094 19.322893142700195 18.96255874633789 18.5994815826416 18.259519577026367 17.971229553222656 17.75619888305664 17.613685607910156 17.53162956237793 17.49308204650879 17.4918212890625 17.533344268798828 17.622041702270508 17.747974395751953 17.961090087890625 18.157472610473633 18.249631881713867 -9999
-9999 19.630340576171875 19.59316062927246 19.25075912475586 18.794301986694336 18.377248764038086 18.022388458251953 17.753379821777344 17.574237823486328 17.469989776611328 17.416004180908203 17.390579223632812 17.3844051361084 17.406274795532227 17.46355438232422 17.55367088317871 17.688440322875977 17.803512573242188 17.888765335083008 -9999
-9999 19.56553077697754 19.47530174255371 19.04462242126465 18.55109214782715 18.14006233215332 17.81945037841797 17.593631744384766 17.456066131591797 17.3852596282959 17.34619140625 17.32196807861328 17.280765533447266 17.287059783935547 17.343782424926758 17.379858016967773 17.483118057250977 17.56209373474121 17.62210464477539 -9999
-9999 19.38835334777832 19.148073196411133 18.707136154174805 18.252721786499023 17.9034481048584 17.648380279541016 17.481250762939453 17.389217376708984 17.34376335144043 17.320919036865234 17.301403045654297 17.260868072509766 17.257505416870117 17.272470474243164 17.32477378845215 17.365875244140625 17.408096313476562 17.452930450439453 -9999
-9999 19.01788902282715 18.71418571472168 18.33555793762207 17.96535873413086 17.69693374633789 17.51522445678711 17.404130935668945 17.34943962097168 17.326099395751953 17.315380096435547 17.30653190612793 17.283069610595703 17.28531265258789 17.298507690429688 17.329456329345703 17.33984375 17.33125877380371 17.402297973632812 -9999
-9999 18.585107803344727 18.330137252807617 18.03399658203125 17.748868942260742 17.55085563659668 17.428264617919922 17.360990524291992 17.330156326293945 17.318696975708008 17.311275482177734 17.31365966796875 17.320587158203125 17.332778930664062 17.338289260864258 17.350772857666016 17.37091064453125 17.317113876342773 -9999 -9999
-9999 18.274932861328125 18.059062957763672 17.830764770507812 17.608495712280273 17.465164184570312 17.38191032409668 17.342458724975586 17.320951461791992 17.307886123657227 17.285581588745117 17.29148292541504 17.312036514282227 17.348739624023438 17.36100196838379 17.382278442382812 17.40260887145996 17.45237922668457 -9999 -9999
-9999 18.115995407104492 17.877460479736328 17.69603729248047 17.525354385375977 17.424705505371094 17.366308212280273 17.341413497924805 17.321781158447266 17.29743766784668 17.291400909423828 17.301382064819336 17.32461929321289 17.358749389648438 17.38257598876953 17.405038833618164 17.423185348510742 17.440813064575195 17.412641525268555 17.43642234802246
-9999 -9999 17.676631927490234 17.588809967041016 17.475696563720703 17.401477813720703 17.365385055541992 17.347259521484375 17.320554733276367 17.31184196472168 17.30950927734375 17.31936264038086 17.33627700805664 17.366121292114258 17.389680862426758 17.405996322631836 17.425331115722656 17.438846588134766 17.451923370361328 17.433719635009766
-9999 -9999 17.628355026245117 17.52147102355957 17.4458065032959 17.39812469482422 17.377269744873047 17.36758804321289 17.34842872619629 17.34100914001465 17.332439422607422 17.34222412109375 17.35901641845703 17.384382247924805 17.400440216064453 17.412433624267578 17.425748825073242 17.437725067138672 17.421293258666992 17.416061401367188
-9999 -9999 -9999 17.45501708984375 17.422908782958984 17.391277313232422 17.380949020385742 17.374902725219727 17.355941772460938 17.347684860229492 17.342863082885742 17.344648361206055 17.36214828491211 17.38621711730957 17.406335830688477 17.410348892211914 17.431720733642578 17.419429779052734 17.41254234313965 17.410137176513672
