ncols         20
nrows         20
xllcorner     0
yllcorner     -3.5992928
cellsize      0.17996463
NODATA_value  -9999
-9999.0 -9999 -9999 -9999 -9999 -9999 -9999 -9999 -9999 -9999 -9999 -9999 -9999 -9999 -9999 -9999 -9999 -9999 -9999 -9999
-9999 -9999 -9999 -9999 -9999 -9999 -9999 -9999 -9999 -9999 -9999 11.785449981689453 11.758790016174316 -9999 -9999 11.77349853515625 11.619775772094727 -9999 -9999 -9999
-9999 -9999 -9999 -9999 11.689275741577148 11.83810806274414 12.07657241821289 12.201088905334473 12.236421585083008 12.256210327148438 12.075420379638672 12.041804313659668 12.116202354431152 12.185566902160645 12.110552787780762 11.94762897491455 11.78083324432373 11.680861473083496 -9999 -9999
-9999 -9999 -9999 11.743300437927246 11.854339599609375 11.988579750061035 12.153220176696777 12.224806785583496 12.26002025604248 12.258476257324219 12.27419376373291 12.309466361999512 12.39460563659668 12.444756507873535 12.456908226013184 12.34193229675293 12.162707328796387 12.048196792602539 -9999 -9999
-9999 -9999 -9999 11.904296875 12.01605224609375 12.216379165649414 12.286041259765625 12.195869445800781 12.035165786743164 11.843657493591309 11.658417701721191 11.606100082397461 11.777457237243652 12.11561393737793 12.454534530639648 12.609270095825195 12.583083152770996 12.665433883666992 -9999 -9999
-9999 -9999 11.954129219055176 12.113638877868652 12.289327621459961 12.371082305908203 12.116809844970703 11.543672561645508 10.945969581604004 10.284748077392578 9.618234634399414 9.345328330993652 9.636760711669922 10.472387313842773 11.454547882080078 12.19021224975586 12.579808235168457 12.780976295471191 12.714855194091797 -9999
-9999 -9999 12.198127746582031 12.366722106933594 12.595060348510742 12.406915664672852 11.466628074645996 9.830009460449219 8.615507125854492 7.553846836090088 6.670659065246582 6.342708587646484 6.826538562774658 7.939477443695068 9.410605430603027 10.838173866271973 11.812572479248047 12.330045700073242 12.522480010986328 -9999
-9999 -9999 12.732451438903809 12.942414283752441 13.009186744689941 12.272358894348145 10.22833251953125 6.185757160186768 4.793784141540527 3.9965739250183105 3.5077784061431885 3.453010320663452 4.482656002044678 5.583719253540039 7.048795223236084 8.709855079650879 10.13218879699707 11.108129501342773 11.54346752166748 -9999
-9999 13.187016487121582 13.409180641174316 13.579839706420898 13.31445598602295 11.963303565979004 9.186601638793945 4.881378650665283 3.3403728008270264 2.617734670639038 2.2895097732543945 2.315596580505371 3.0180790424346924 3.78432559967041 4.848460674285889 6.272163391113281 7.80525016784668 9.01724624633789 9.6136474609375 -9999
-9999 13.729538917541504 13.9203462600708 13.942293167114258 13.098983764648438 11.038095474243164 7.840385437011719 3.8962948322296143 2.4388010501861572 1.813940167427063 1.5831191539764404 1.6060210466384888 2.023933172225952 2.4450902938842773 3.0950891971588135 4.056886196136475 5.312865257263184 6.4422926902771 7.030263900756836 -9999
-9999 14.255041122436523 14.209453582763672 13.680501937866211 12.15243911743164 9.590431213378906 6.3193440437316895 2.9660542011260986 1.7181854248046875 1.2038023471832275 1.013365387916565 1.0074849128723145 1.2064288854599 1.4127477407455444 1.7446367740631104 2.31119704246521 3.094250202178955 3.931825876235962 4.386641025543213 -9999
-9999 14.158811569213867 13.748062133789062 12.539413452148438 10.470409393310547 7.781585216522217 4.833402633666992 2.2144463062286377 1.1952354907989502 0.7605000138282776 0.5910609364509583 0.5436216592788696 0.6068553328514099 0.672056257724762 0.7984215617179871 1.0638786554336548 1.497129201889038 1.990420937538147 2.26499080657959 -9999
-9999 12.93504810333252 12.128376007080078 10.3143310546875 8.082332611083984 5.693154811859131 3.4514641761779785 1.7428227663040161 0.8810367584228516 0.5147700309753418 0.3422755002975464 0.2739352881908417 0.2510559558868408 0.25054892897605896 0.2848447263240814 0.3707955479621887 0.5740134716033936 0.8265929222106934 0.9947693347930908 -9999
-9999 10.62767219543457 9.559415817260742 7.46319055557251 5.365257740020752 3.561272621154785 2.1113526821136475 1.1003223657608032 0.5419787764549255 0.30517882108688354 0.19433990120887756 0.14004388451576233 0.1112656220793724 0.09808602929115295 0.09709634631872177 0.11549809575080872 0.16520904004573822 0.2734106481075287 0.37601497769355774 -9999
-9999 8.170467376708984 7.056253433227539 4.98164176940918 3.188662052154541 1.9560750722885132 1.126617431640625 0.5849860906600952 0.3135615885257721 0.18171730637550354 0.11605129390954971 0.07891722768545151 0.05760961398482323 0.04603651165962219 0.039920151233673096 0.04077910631895065 0.04838568717241287 0.07405179738998413 -9999 -9999
-9999 6.433744430541992 5.321944236755371 3.419236421585083 1.9575077295303345 1.0687437057495117 0.5722173452377319 0.31193289160728455 0.18215037882328033 0.11224423348903656 0.07410255819559097 0.050296850502491 0.03811941668391228 0.0395166352391243 0.041734930127859116 0.044320911169052124 0.0469190776348114 0.049180351197719574 -9999 -9999
-9999 5.313033580780029 4.125523567199707 2.5276522636413574 1.3214446306228638 0.6067533493041992 0.31320101022720337 0.17220774292945862 0.10459084063768387 0.06761255115270615 0.046375494450330734 0.04004068672657013 0.041452981531620026 0.04401356726884842 0.04740564152598381 0.051331568509340286 0.055754709988832474 0.06130227446556091 0.07061934471130371 0.07499364763498306
-9999 -9999 2.985525131225586 1.923142433166504 0.9568142294883728 0.4059215188026428 0.19163179397583008 0.10237767547369003 0.06222887709736824 0.042086876928806305 0.04157847911119461 0.04260534793138504 0.04503165930509567 0.04862461984157562 0.05299689993262291 0.05781738832592964 0.06294752657413483 0.06831519305706024 0.07374654710292816 0.07657279819250107
-9999 -9999 2.046217918395996 1.4163371324539185 0.7145425081253052 0.2872680127620697 0.12666243314743042 0.06440407037734985 0.04396121948957443 0.04286929592490196 0.04317014664411545 0.04493650421500206 0.04809262603521347 0.05240052565932274 0.05739500746130943 0.06265740096569061 0.06787280738353729 0.07255057245492935 0.07614746689796448 0.0780450776219368
-9999 -9999 -9999 1.1170047521591187 0.5820849537849426 0.24050216376781464 0.1029021218419075 0.05120320990681648 0.04405331611633301 0.04344412311911583 0.044151030480861664 0.046269454061985016 0.049795810133218765 0.054466612637043 0.05977599695324898 0.06518576294183731 0.0703558698296547 0.0744914710521698 0.0774042010307312 0.07890771329402924
