ncols         20
nrows         20
xllcorner     0
yllcorner     -3.5992928
cellsize      0.17996463
NODATA_value  -9999
-9999.0 -9999 -9999 -9999 -9999 -9999 -9999 -9999 -9999 -9999 -9999 -9999 -9999 -9999 -9999 -9999 -9999 -9999 -9999 -9999
-9999 -9999 -9999 -9999 -9999 -9999 -9999 -9999 -9999 -9999 -9999 12.414878845214844 12.38618278503418 -9999 -9999 12.331270217895508 12.168140411376953 -9999 -9999 -9999
-9999 -9999 -9999 -9999 12.250990867614746 12.396347045898438 12.646126747131348 12.79771900177002 12.867377281188965 12.917661666870117 12.739548683166504 12.70036506652832 12.778181076049805 12.850953102111816 12.752704620361328 12.555105209350586 12.388843536376953 12.314866065979004 -9999 -9999
-9999 -9999 -9999 12.358623504638672 12.425980567932129 12.51087760925293 12.642620086669922 12.73259449005127 12.81273078918457 12.855108261108398 12.902403831481934 12.949745178222656 13.033832550048828 13.070110321044922 13.069873809814453 12.969956398010254 12.853939056396484 12.79022216796875 -9999 -9999
-9999 -9999 -9999 12.542034149169922 12.548060417175293 12.595316886901855 12.50762939453125 12.439852714538574 12.353347778320312 12.22283935546875 12.075578689575195 12.027994155883789 12.170095443725586 12.46512222290039 12.799850463867188 13.072112083435059 13.336321830749512 13.609336853027344 -9999 -9999
-9999 -9999 12.806477546691895 12.782609939575195 12.680511474609375 12.375293731689453 11.604857444763184 11.208700180053711 10.800032615661621 10.224069595336914 9.568400382995605 9.235989570617676 9.392605781555176 10.076543807983398 10.987102508544922 11.936256408691406 13.27902603149414 13.978018760681152 14.233274459838867 -9999
-9999 -9999 13.063929557800293 12.924753189086914 12.619523048400879 11.748580932617188 11.049982070922852 10.36629581451416 9.48543930053711 8.367912292480469 7.2815752029418945 6.690242290496826 6.805424690246582 7.6530609130859375 8.9829683303833 10.574640274047852 12.478864669799805 13.64030647277832 14.180455207824707 -9999
-9999 -9999 13.6248779296875 13.19119930267334 12.254304885864258 11.449421882629395 10.544066429138184 9.422776222229004 8.086080551147461 6.669754981994629 5.531838417053223 4.889072895050049 4.913059711456299 5.624047756195068 6.929237365722656 8.637117385864258 10.477696418762207 12.347530364990234 13.275532722473145 -9999
-9999 14.919938087463379 14.45589542388916 13.145687103271484 12.189261436462402 11.062494277954102 9.648045539855957 8.009438514709473 6.386373519897461 5.019513130187988 4.092230319976807 3.5934970378875732 3.5403528213500977 4.015995979309082 4.997230529785156 6.475195407867432 8.249113082885742 9.950754165649414 11.293845176696777 -9999
-9999 15.643017768859863 15.11415958404541 13.413287162780762 11.927999496459961 10.136443138122559 8.111358642578125 6.108903408050537 4.486978530883789 3.4013538360595703 2.7994284629821777 2.4910831451416016 2.4580259323120117 2.7168185710906982 3.3667688369750977 4.4411540031433105 5.947211742401123 7.490699768066406 8.663501739501953 -9999
-9999 16.43944549560547 15.6373291015625 13.336243629455566 11.176889419555664 8.812576293945312 6.373636245727539 4.251535892486572 2.83003306388855 2.0413906574249268 1.6580175161361694 1.4944630861282349 1.478832483291626 1.624880075454712 2.000492811203003 2.7082877159118652 3.7560524940490723 5.039870262145996 5.807344436645508 -9999
-9999 16.625558853149414 15.459064483642578 12.54457950592041 9.873740196228027 7.257082462310791 4.787863731384277 2.860217332839966 1.7109370231628418 1.1238702535629272 0.8646470904350281 0.7515465617179871 0.7355937361717224 0.7898568511009216 0.9581429958343506 1.329431176185608 1.963740587234497 2.7637901306152344 3.2273294925689697 -9999
-9999 15.605962753295898 14.081313133239746 10.7539701461792 7.957284450531006 5.489572525024414 3.395211935043335 1.8679667711257935 1.0069303512573242 0.6098839640617371 0.4047335386276245 0.32207709550857544 0.29089000821113586 0.2976886034011841 0.3581492006778717 0.497981995344162 0.8089747428894043 1.2320163249969482 1.5198204517364502 -9999
-9999 13.327054977416992 11.608752250671387 8.255683898925781 5.626197338104248 3.6316254138946533 2.142308473587036 1.1406174898147583 0.572198748588562 0.32792866230010986 0.21154016256332397 0.155544713139534 0.12749150395393372 0.11896974593400955 0.12697789072990417 0.16375888884067535 0.2509900629520416 0.44252049922943115 0.6253436803817749 -9999
-9999 10.749353408813477 9.057111740112305 5.920130729675293 3.6151986122131348 2.1482677459716797 1.214268445968628 0.6272796392440796 0.3351621925830841 0.19483809173107147 0.1260463148355484 0.08833567053079605 0.06784643232822418 0.058072105050086975 0.054196547716856 0.05924970284104347 0.07469495385885239 0.12022548913955688 -9999 -9999
-9999 8.877982139587402 7.223108291625977 4.36883020401001 2.4069583415985107 1.2762048244476318 0.6706627607345581 0.3582829236984253 0.20565998554229736 0.12576718628406525 0.08379778265953064 0.058947525918483734 0.04733975976705551 0.052032485604286194 0.05793742462992668 0.06436015665531158 0.07050032913684845 0.07520964741706848 -9999 -9999
-9999 7.5813446044921875 5.870935916900635 3.442356586456299 1.751177191734314 0.7936461567878723 0.400325208902359 0.21398426592350006 0.1266200691461563 0.08071005344390869 0.05593668296933174 0.04978965222835541 0.05369100347161293 0.059473853558301926 0.06641280651092529 0.07392165064811707 0.08165854215621948 0.09004340320825577 0.1022399365901947 0.1079174280166626
-9999 -9999 4.430975914001465 2.7682764530181885 1.3512855768203735 0.5708296298980713 0.2639051079750061 0.13667629659175873 0.08059670776128769 0.053665488958358765 0.05305081978440285 0.05526379495859146 0.05994509160518646 0.06656523048877716 0.07430500537157059 0.08247552067041397 0.0906549021601677 0.09855746477842331 0.10594424605369568 0.10970264673233032
-9999 -9999 3.1372435092926025 2.157076358795166 1.0662884712219238 0.42706209421157837 0.18461567163467407 0.09078911691904068 0.05983474478125572 0.05704684555530548 0.0570441409945488 0.0597991906106472 0.06503605842590332 0.07219432294368744 0.0803728774189949 0.08876879513263702 0.09677594900131226 0.10364940762519836 0.10871221125125885 0.1113196313381195
-9999 -9999 -9999 1.7518200874328613 0.9045711159706116 0.36949899792671204 0.1546276956796646 0.07413408905267715 0.0613994300365448 0.05899493023753166 0.05929910019040108 0.062300704419612885 0.06781075149774551 0.07523249834775925 0.08362355828285217 0.09203299880027771 0.09984956681728363 0.10596068203449249 0.1101497933268547 0.11226917803287506
