ncols         20
nrows         20
xllcorner     0
yllcorner     -3.5992928
cellsize      0.17996463
NODATA_value  -9999
-9999.0 -9999 -9999 -9999 -9999 -9999 -9999 -9999 -9999 -9999 -9999 -9999 -9999 -9999 -9999 -9999 -9999 -9999 -9999 -9999
-9999 -9999 -9999 -9999 -9999 -9999 -9999 -9999 -9999 -9999 -9999 0.007227590307593346 0.006973722483962774 -9999 -9999 0.005516275763511658 0.004828881938010454 -9999 -9999 -9999
-9999 -9999 -9999 -9999 0.006444302853196859 0.007580554112792015 0.009913667105138302 0.012297513894736767 0.014230159111320972 0.01563466526567936 0.013141855597496033 0.01119524147361517 0.01117443386465311 0.011425330303609371 0.009365525096654892 0.0069740829057991505 0.005648093763738871 0.0050215874798595905 -9999 -9999
-9999 -9999 -9999 0.006094351410865784 0.007095796521753073 0.008763614110648632 0.011608805507421494 0.015051804482936859 0.019350899383425713 0.02352498099207878 0.026543591171503067 0.026567500084638596 0.02571413479745388 0.021846359595656395 0.01669985242187977 0.011664782650768757 0.00847821868956089 0.007049025036394596 -9999 -9999
-9999 -9999 -9999 0.006528652738779783 0.007921973243355751 0.011239808984100819 0.016352644190192223 0.02380821481347084 0.03509749099612236 0.052992500364780426 0.07372181117534637 0.0851229578256607 0.08056405186653137 0.0603121854364872 0.04075907915830612 0.02501940168440342 0.01623169519007206 0.014303619973361492 -9999 -9999
-9999 -9999 0.0053739994764328 0.006869657896459103 0.009604169055819511 0.014943270944058895 0.023583583533763885 0.03804417699575424 0.06655395030975342 0.11508844047784805 0.18127615749835968 0.2212064415216446 0.21592573821544647 0.16029179096221924 0.09906791895627975 0.05729304626584053 0.03508049622178078 0.02801666595041752 0.02475563995540142 -9999
-9999 -9999 0.0059578134678304195 0.007731782738119364 0.012633096426725388 0.02194635197520256 0.03721090033650398 0.06562056392431259 0.1213245689868927 0.21689912676811218 0.34250178933143616 0.4311898648738861 0.430788516998291 0.34116679430007935 0 0.13225261867046356 0.079173743724823 0.05365711823105812 0.04522010311484337 -9999
-9999 -9999 0.00787593238055706 0.011225668713450432 0.020361635833978653 0.03755410388112068 0.06888675689697266 0.12462974339723587 0.2169937789440155 0.35677075386047363 0.5077623724937439 0.6244910955429077 0.6430846452713013 0.5574931502342224 0.4157312214374542 0.27295705676078796 0.17374534904956818 0.11672628670930862 0.09696051478385925 -9999
-9999 0.008501934818923473 0.011820548214018345 0.01947067119181156 0.03945450484752655 0.07894449681043625 0.14540094137191772 0.2538178265094757 0.3997611403465271 0.5632501244544983 0.7034404873847961 0.8070259094238281 0.8501004576683044 0.7990704774856567 0.6804986596107483 0 0.348834753036499 0.24439525604248047 0.2049233317375183 -9999
-9999 0.013038400560617447 0.019113412126898766 0.03847207874059677 0.08356243371963501 0.16938330233097076 0.30786216259002686 0.49980440735816956 0.7021358013153076 0.8630735278129578 0.9624800086021423 1.038679838180542 1.0832335948944092 1.0783495903015137 0.9983328580856323 0 0.6344159245491028 0.47664687037467957 0.4130554497241974 -9999
-9999 0.025748135522007942 0.03815387934446335 0.07684875279664993 0.15894141793251038 0.307804137468338 0.5406213402748108 0.8256826996803284 1.0572911500930786 1.193637728691101 1.2677597999572754 1.3287901878356934 1.3912018537521362 1.4112460613250732 1.3627885580062866 1.24178946018219 1.0368597507476807 0.844066321849823 0.7578110694885254 -9999
-9999 0.05823404714465141 0.0821061059832573 0.15456454455852509 0.28808483481407166 0.5003330111503601 0.8030061721801758 1.1180944442749023 1.3171894550323486 1.4055030345916748 1.4542981386184692 1.5273611545562744 0 0 1.6702343225479126 0 1.4562792778015137 1.2841655015945435 1.1949349641799927 -9999
-9999 0.13601534068584442 0.18539191782474518 0.3187982439994812 0.5105293393135071 0.7680810689926147 1.0721957683563232 1.3295572996139526 1.4315627813339233 1.432173252105713 1.4295130968093872 1.4709765911102295 0 0 0 1.61188542842865 1.6024696826934814 1.5580120086669922 1.492409348487854 -9999
-9999 0.28914397954940796 0.3773840069770813 0.5934922099113464 0.8498626947402954 1.1055808067321777 1.325951099395752 1.441815733909607 1.4252946376800537 1.355309247970581 1.2968171834945679 1.269432544708252 0 0 0 1.21864914894104 1.307082176208496 1.4684269428253174 1.4734373092651367 -9999
-9999 0.48936179280281067 0.6126070022583008 0.9027241468429565 1.185701608657837 1.3692554235458374 1.4497894048690796 1.4305145740509033 1.3447703123092651 1.2464667558670044 1.1646438837051392 1.070988416671753 0.9737362265586853 0.876968502998352 0 0 0.7900546789169312 0.9839898347854614 -9999 -9999
-9999 0.6499261260032654 0.7979640960693359 1.1165566444396973 1.3596487045288086 1.441239595413208 1.4097365140914917 1.3203072547912598 1.2287098169326782 1.1462268829345703 0 0 0 0.6313378214836121 0 0 0.39334744215011597 0 -9999 -9999
-9999 0.7793952822685242 0.9397887587547302 1.2290763854980469 1.4103200435638428 1.3917535543441772 1.2807222604751587 1.1565996408462524 1.07246994972229 0 0 0 0 0.4637672007083893 0.349239706993103 0.2655487656593323 0.20777666568756104 0.1610639989376068 0 0
-9999 -9999 1.0827364921569824 1.2943968772888184 1.4079101085662842 1.3082427978515625 1.129320502281189 0.9817067384719849 0 0 0 0 0 0 0 0 0 0 0 0
-9999 -9999 1.2486587762832642 1.3510292768478394 1.3803437948226929 1.206669569015503 0.9740105867385864 0.8006669282913208 0 0 0 0 0 0 0 0 0 0 0 0
-9999 -9999 -9999 1.3686898946762085 1.3586443662643433 1.1560698747634888 0.8975053429603577 0.7160421013832092 0 0 0 0 0 0 0 0 0 0 0 0
