ncols         20
nrows         20
xllcorner     0
yllcorner     -3.5992928
cellsize      0.17996463
NODATA_value  -9999
-9999.0 -9999 -9999 -9999 -9999 -9999 -9999 -9999 -9999 -9999 -9999 -9999 -9999 -9999 -9999 -9999 -9999 -9999 -9999 -9999
-9999 -9999 -9999 -9999 -9999 -9999 -9999 -9999 -9999 -9999 -9999 0.8839234113693237 0.863835334777832 -9999 -9999 0.766423761844635 0.7182756662368774 -9999 -9999 -9999
-9999 -9999 -9999 -9999 1.0148385763168335 1.0774667263031006 1.1865344047546387 1.2623913288116455 1.29509699344635 1.3009628057479858 1.1551443338394165 1.0521711111068726 1.0338952541351318 1.018135905265808 0.9204351305961609 0.8142423629760742 0.7361648678779602 0.6820587515830994 -9999 -9999
-9999 -9999 -9999 0.9592001438140869 1.0323817729949951 1.1183077096939087 1.234171986579895 1.3355333805084229 1.434644341468811 1.5032709836959839 1.529295802116394 1.4853103160858154 1.4325077533721924 1.3042163848876953 1.1395530700683594 0.9619094133377075 0.8247190713882446 0.7497713565826416 -9999 -9999
-9999 -9999 -9999 0.9437519311904907 1.025242805480957 1.178687572479248 1.3514209985733032 1.534947395324707 1.745384693145752 2.0114855766296387 2.248945474624634 2.3283231258392334 2.2171621322631836 1.90108323097229 1.564805269241333 1.2342873811721802 0.9983247518539429 0.9334750771522522 -9999 -9999
-9999 -9999 0.7576118111610413 0.8806651830673218 1.022924780845642 1.2211776971817017 1.4453120231628418 1.7098509073257446 2.0933899879455566 2.5603177547454834 3.0267419815063477 3.2093937397003174 3.097074508666992 2.642524242401123 2.0815072059631348 1.5901585817337036 1.244270920753479 1.0941009521484375 0.967797040939331 -9999
-9999 -9999 0.733817458152771 0.8321462273597717 1.0283808708190918 1.2823810577392578 1.5578330755233765 1.9103491306304932 2.3928489685058594 2.9659056663513184 3.502354860305786 3.7586913108825684 3.661893367767334 3.223649501800537 2.6555280685424805 2.016157388687134 1.5641944408416748 1.2844624519348145 1.1619433164596558 -9999
-9999 -9999 0.7304065227508545 0.8564131259918213 1.1013526916503906 1.4015175104141235 1.7553460597991943 2.1704537868499756 2.6389894485473633 3.141789436340332 3.5264673233032227 3.7335753440856934 3.6802690029144287 3.3780205249786377 2.913318634033203 2.369586229324341 1.9016793966293335 1.5656840801239014 1.4262272119522095 -9999
-9999 0.5882882475852966 0.7376571893692017 0.9321990609169006 1.257049322128296 1.6511880159378052 2.0603280067443848 2.4943923950195312 2.8831963539123535 3.1840438842773438 3.352382183074951 3.427133083343506 3.406252861022949 3.2463295459747314 2.987433433532715 2.644085168838501 2.172957181930542 1.8335678577423096 1.6867743730545044 -9999
-9999 0.6468068361282349 0.7851290702819824 1.074894905090332 1.4875949621200562 1.954085350036621 2.4053378105163574 2.7935051918029785 3.0388200283050537 3.129889726638794 3.1125411987304688 3.0837974548339844 3.045888662338257 2.9828221797943115 2.862478256225586 2.6959547996520996 2.324906826019287 2.0374221801757812 1.9109688997268677 -9999
-9999 0.7656707167625427 0.9172393083572388 1.246658444404602 1.6777194738388062 2.144037961959839 2.57698130607605 2.882852792739868 2.9798200130462646 2.9318645000457764 2.8389575481414795 2.7698252201080322 2.7407615184783936 2.708606719970703 2.6480607986450195 2.546351671218872 2.348039388656616 2.1473848819732666 2.054966688156128 -9999
-9999 0.955050528049469 1.1097626686096191 1.4519116878509521 1.8496754169464111 2.232973575592041 2.558884382247925 2.72860050201416 2.7045555114746094 2.5889697074890137 2.480422258377075 2.4318439960479736 2.4770400524139404 2.4718618392944336 2.4053800106048584 2.391005754470825 2.2541351318359375 2.1399221420288086 2.0866143703460693 -9999
-9999 1.2166883945465088 1.383069634437561 1.7187801599502563 2.0214314460754395 2.2679522037506104 2.4292845726013184 2.4568886756896973 2.344383716583252 2.188910484313965 2.0736207962036133 2.0261473655700684 2.0722763538360596 2.077706813812256 2.066053867340088 2.0267021656036377 2.0122697353363037 1.9980486631393433 1.9813261032104492 -9999
-9999 1.5051363706588745 1.6635080575942993 1.9575440883636475 2.1599974632263184 2.2518062591552734 2.2498726844787598 2.154850721359253 1.9927607774734497 1.8237907886505127 1.7024977207183838 1.6380866765975952 1.6379823684692383 1.6155122518539429 1.5908817052841187 1.5687057971954346 1.6250083446502686 1.7441997528076172 1.8002269268035889 -9999
-9999 1.698601245880127 1.821702480316162 2.0505895614624023 2.1517467498779297 2.116499185562134 2.005472421646118 1.8520925045013428 1.6798945665359497 1.53390634059906 1.4330086708068848 1.3517875671386719 1.2871507406234741 1.2278029918670654 1.1925181150436401 1.171410322189331 1.18532395362854 1.332383155822754 -9999 -9999
-9999 1.7402825355529785 1.81845223903656 1.9718773365020752 1.9858802556991577 1.8811537027359009 1.729966640472412 1.5659645795822144 1.430675745010376 1.3331042528152466 1.279645323753357 1.2006077766418457 1.1052144765853882 0.9935324192047119 0.928612470626831 0.8685458898544312 0.8318590521812439 0.7610810399055481 -9999 -9999
-9999 1.7576003074645996 1.7425347566604614 1.813086748123169 1.7769438028335571 1.6396299600601196 1.4709161520004272 1.3234658241271973 1.2287522554397583 1.1793049573898315 1.126672387123108 1.0507432222366333 0.9518725275993347 0.8411601781845093 0.7543274164199829 0.6817716956138611 0.6278287172317505 0.5839269757270813 0.5739138126373291 0.5227555632591248
-9999 -9999 1.6046029329299927 1.6425304412841797 1.588783860206604 1.436429738998413 1.262730360031128 1.1328260898590088 1.0736747980117798 1.0268043279647827 0.9814592599868774 0.9176335334777832 0.8366129994392395 0.734483540058136 0.6504279971122742 0.588936448097229 0.5318819284439087 0.49604150652885437 0.4725950360298157 0.49947938323020935
-9999 -9999 1.5742042064666748 1.5257055759429932 1.4471551179885864 1.2811880111694336 1.1022515296936035 0.9754458665847778 0.9205419421195984 0.8835576772689819 0.8613194227218628 0.8087990283966064 0.7353403568267822 0.6453303098678589 0.5768600702285767 0.5282430648803711 0.48681730031967163 0.46495378017425537 0.49830615520477295 0.517573893070221
-9999 -9999 -9999 1.4267979860305786 1.3699952363967896 1.2060385942459106 1.0255614519119263 0.9015984535217285 0.8516280651092529 0.8242121934890747 0.8037739992141724 0.7677204608917236 0.6977754831314087 0.6124674677848816 0.5415528416633606 0.507964015007019 0.46157002449035645 0.4852104187011719 0.5136412382125854 0.5297607779502869
