ncols         20
nrows         20
xllcorner     0
yllcorner     -3.5992928
cellsize      0.17996463
NODATA_value  -9999
-9999.0 -9999 -9999 -9999 -9999 -9999 -9999 -9999 -9999 -9999 -9999 -9999 -9999 -9999 -9999 -9999 -9999 -9999 -9999 -9999
-9999 -9999 -9999 -9999 -9999 -9999 -9999 -9999 -9999 -9999 -9999 2.9731481075286865 2.9887216091156006 -9999 -9999 3.3326330184936523 3.3557467460632324 -9999 -9999 -9999
-9999 -9999 -9999 -9999 3.1279172897338867 3.048780918121338 2.9393248558044434 2.832460403442383 2.7506699562072754 2.7083075046539307 2.7163987159729004 2.8011672496795654 2.849677085876465 2.883845567703247 2.988102436065674 3.1541857719421387 3.2385780811309814 3.257981777191162 -9999 -9999
-9999 -9999 -9999 3.0980281829833984 3.03426194190979 2.901179075241089 2.7493679523468018 2.61920166015625 2.5264058113098145 2.4756996631622314 2.4696688652038574 2.5059611797332764 2.5592565536499023 2.6334497928619385 2.748674154281616 2.897709846496582 3.0360679626464844 3.1197869777679443 -9999 -9999
-9999 -9999 -9999 2.9624295234680176 2.825657606124878 2.612048625946045 2.3792855739593506 2.21380877494812 2.108262777328491 2.050081253051758 2.032651424407959 2.051159620285034 2.0998077392578125 2.1823458671569824 2.3106157779693604 2.4930214881896973 2.722015380859375 2.868954658508301 -9999 -9999
-9999 -9999 2.822044849395752 2.7460522651672363 2.5152432918548584 2.1902499198913574 1.805828332901001 1.6222803592681885 1.5247037410736084 1.4747183322906494 1.4573572874069214 1.4666118621826172 1.5017794370651245 1.569031000137329 1.685295820236206 1.8911890983581543 2.300762176513672 2.5271544456481934 2.53786301612854 -9999
-9999 -9999 2.64711856842041 2.4583446979522705 2.120427131652832 1.6872843503952026 1.4177440404891968 1.265274167060852 1.1815149784088135 1.1386456489562988 1.1228872537612915 1.1286664009094238 1.1566075086593628 1.2138398885726929 1.318161129951477 1.5107804536819458 1.8920912742614746 2.1713035106658936 2.2999725341796875 -9999
-9999 -9999 2.406752109527588 2.111290693283081 1.6606839895248413 1.3563098907470703 1.159294843673706 1.0401782989501953 0.9728584289550781 0.9379531145095825 0.924758791923523 0.9289387464523315 0.9512553215026855 0.9973207116127014 1.079421043395996 1.220564842224121 1.4520111083984375 1.775973916053772 1.9589194059371948 -9999
-9999 2.397576332092285 2.2062911987304688 1.7211936712265015 1.3762294054031372 1.1430833339691162 0.9913249015808105 0.8982239961624146 0.8440977334976196 0.8152825832366943 0.804072916507721 0.8071683049201965 0.8249109983444214 0.861011266708374 0.922966480255127 1.0224125385284424 1.1725178956985474 1.3759098052978516 1.6075294017791748 -9999
-9999 2.3021042346954346 2.047598123550415 1.5269880294799805 1.2110064029693604 1.0115292072296143 0.8861764073371887 0.8095847964286804 0.764175534248352 0.7393389344215393 0.7292224168777466 0.7311379909515381 0.7450472116470337 0.7733078598976135 0.8207157254219055 0.8945693969726562 1.0040544271469116 1.1580406427383423 1.3430966138839722 -9999
-9999 2.1789133548736572 1.9151785373687744 1.4081404209136963 1.1112704277038574 0.9307860732078552 0.821083128452301 0.7542716860771179 0.7142433524131775 0.6919205784797668 0.6823281049728394 0.6830382347106934 0.6937854290008545 0.7162083387374878 0.7538455724716187 0.8128131031990051 0.9040188193321228 1.0506064891815186 1.1623305082321167 -9999
-9999 2.04577898979187 1.793292760848999 1.3214372396469116 1.0454137325286865 0.8796061277389526 0.7798210382461548 0.7191128134727478 0.6826270818710327 0.6620100140571594 0.6527025699615479 0.6523222923278809 0.6604787111282349 0.6784637570381165 0.709010660648346 0.7569708824157715 0.8312556147575378 0.9480193257331848 1.0290637016296387 -9999
-9999 1.904877781867981 1.671569585800171 1.2475980520248413 0.9953184127807617 0.8437468409538269 0.7519276738166809 0.6959398984909058 0.6622249484062195 0.6428848505020142 0.6339086294174194 0.6326109766960144 0.6387287974357605 0.6532624363899231 0.6783578395843506 0.7179108262062073 0.7783597111701965 0.8714742064476013 0.9391420483589172 -9999
-9999 1.7559752464294434 1.5451236963272095 1.175749659538269 0.9510654211044312 0.8147351145744324 0.7311433553695679 0.6798316240310669 0.6488276124000549 0.6303342580795288 0.62107253074646 0.6189914345741272 0.6235004663467407 0.6352092027664185 0.6557822227478027 0.6886240243911743 0.740475594997406 0.8192304372787476 0.8911572694778442 -9999
-9999 1.6084887981414795 1.4193569421768188 1.1036094427108765 0.9088977575302124 0.7888918519020081 0.7143309116363525 0.6680312156677246 0.6388307809829712 0.6212177872657776 0.6119845509529114 0.6093130111694336 0.612489640712738 0.6217119097709656 0.6380457282066345 0.6638647317886353 0.7035273313522339 0.7520216703414917 -9999 -9999
-9999 1.4829641580581665 1.3067855834960938 1.0372575521469116 0.8702500462532043 0.7661318182945251 0.7005933523178101 0.6582284569740295 0.631142795085907 0.6144816279411316 0.6053890585899353 0.6022383570671082 0.6042278409004211 0.6112146973609924 0.6236299276351929 0.6427373886108398 0.6706015467643738 0.6981849074363708 -9999 -9999
-9999 1.4005640745162964 1.2084330320358276 0.9806747436523438 0.8372103571891785 0.7474184632301331 0.6887670755386353 0.6503098607063293 0.6252948641777039 0.6095913648605347 0.6007396578788757 0.5972121953964233 0.5981444120407104 0.6031370759010315 0.612135112285614 0.6254659295082092 0.6435900330543518 0.6607407331466675 0.6573764085769653 0.6567487716674805
-9999 -9999 1.072295904159546 0.9272269606590271 0.8102710247039795 0.7321022152900696 0.6794849634170532 0.6443445086479187 0.6210999488830566 0.6062677502632141 0.5976530909538269 0.5938224196434021 0.5938771367073059 0.5972530841827393 0.6035471558570862 0.6124427318572998 0.6232861280441284 0.6339877843856812 0.6381381750106812 0.6393676996231079
-9999 -9999 1.016305923461914 0.911207377910614 0.7970707416534424 0.7225159406661987 0.6733601689338684 0.640449047088623 0.6184773445129395 0.6042746305465698 0.595815896987915 0.5917643308639526 0.5912055969238281 0.5934668183326721 0.5979617834091187 0.6041194200515747 0.6111160516738892 0.6174677014350891 0.6211384534835815 0.6226940155029297
-9999 -9999 -9999 0.8695439696311951 0.7852053642272949 0.71668940782547 0.6701052784919739 0.6384981870651245 0.6172201633453369 0.6033487915992737 0.5949711799621582 0.5907951593399048 0.5899220705032349 0.5916261076927185 0.5952502489089966 0.600139319896698 0.605524480342865 0.6102805733680725 0.6134451031684875 0.6149569749832153
