ncols         20
nrows         20
xllcorner     0
yllcorner     -3.5992928
cellsize      0.17996463
NODATA_value  -9999
-9999.0 -9999 -9999 -9999 -9999 -9999 -9999 -9999 -9999 -9999 -9999 -9999 -9999 -9999 -9999 -9999 -9999 -9999 -9999 -9999
-9999 -9999 -9999 -9999 -9999 -9999 -9999 -9999 -9999 -9999 -9999 12.012948036193848 11.999128341674805 -9999 -9999 12.170381546020508 12.027325630187988 -9999 -9999 -9999
-9999 -9999 -9999 -9999 12.01926040649414 12.10411548614502 12.257258415222168 12.304311752319336 12.283912658691406 12.278604507446289 12.11328125 12.151334762573242 12.270256042480469 12.374031066894531 12.366910934448242 12.292959213256836 12.1876220703125 12.130602836608887 -9999 -9999
-9999 -9999 -9999 12.161911010742188 12.176633834838867 12.17121410369873 12.183835983276367 12.147208213806152 12.111366271972656 12.07151985168457 12.087850570678711 12.161842346191406 12.29915714263916 12.418094635009766 12.532108306884766 12.557042121887207 12.53207778930664 12.513673782348633 -9999 -9999
-9999 -9999 -9999 12.317137718200684 12.24416446685791 12.161031723022461 11.919563293457031 11.692855834960938 11.462187767028809 11.223668098449707 11.027732849121094 10.989482879638672 11.183683395385742 11.570050239562988 12.030731201171875 12.441511154174805 12.817533493041992 13.147039413452148 -9999 -9999
-9999 -9999 12.616345405578613 12.522297859191895 12.292057037353516 11.819260597229004 10.883759498596191 10.325807571411133 9.782230377197266 9.128790855407715 8.461039543151855 8.152837753295898 8.347105979919434 9.078102111816406 10.063826560974121 11.10763168334961 12.524229049682617 13.275124549865723 13.495803833007812 -9999
-9999 -9999 12.828089714050293 12.592031478881836 12.119343757629395 11.06371021270752 10.187073707580566 9.352960586547852 8.378418922424316 7.245871543884277 6.211501121520996 5.680734157562256 5.823298454284668 6.666897773742676 7.999373435974121 9.612329483032227 11.52963924407959 12.72589111328125 13.277684211730957 -9999
-9999 -9999 13.318623542785645 12.755118370056152 11.629826545715332 10.634021759033203 9.567761421203613 8.344515800476074 6.982108116149902 5.620386123657227 4.575656890869141 4.016907215118408 4.068859100341797 4.752249240875244 6.005602836608887 7.665918827056885 9.4732666015625 11.294414520263672 12.20692253112793 -9999
-9999 14.670134544372559 14.094071388244629 12.602168083190918 11.448716163635254 10.15680980682373 8.6406831741333 6.982317924499512 5.413280010223389 4.144399166107178 3.314079761505127 2.8896167278289795 2.868368148803711 3.318129301071167 4.23479700088501 5.622880935668945 7.299488067626953 8.913795471191406 10.171327590942383 -9999
-9999 15.332563400268555 14.67088508605957 12.774837493896484 11.120074272155762 9.227771759033203 7.193796634674072 5.265511989593506 3.7577970027923584 2.7763922214508057 2.2442679405212402 1.9844245910644531 1.9715254306793213 2.217283248901367 2.810655355453491 3.7900772094726562 5.163035869598389 6.574845790863037 7.641475677490234 -9999
-9999 16.031301498413086 15.099433898925781 12.636329650878906 10.365874290466309 7.98198938369751 5.624101638793945 3.6484696865081787 2.3633713722229004 1.6647709608078003 1.3300879001617432 1.192064881324768 1.186601996421814 1.3228508234024048 1.6589936017990112 2.286005735397339 3.213184356689453 4.347153186798096 5.029759883880615 -9999
-9999 16.113359451293945 14.843365669250488 11.83073616027832 9.124361038208008 6.559563159942627 4.224762916564941 2.462165117263794 1.4379229545593262 0.9244857430458069 0.7002028822898865 0.6051600575447083 0.5952991247177124 0.6466269493103027 0.7952589988708496 1.1177430152893066 1.6659396886825562 2.3569881916046143 2.7592313289642334 -9999
-9999 15.014963150024414 13.434306144714355 10.096741676330566 7.336258411407471 4.96312141418457 3.0078134536743164 1.6215277910232544 0.8564049601554871 0.5089307427406311 0.3322601318359375 0.26283684372901917 0.23842094838619232 0.24611032009124756 0.2986734211444855 0.4181489944458008 0.6838021278381348 1.044352412223816 1.2894450426101685 -9999
-9999 12.71799087524414 11.004180908203125 7.723273754119873 5.184144973754883 3.2928004264831543 1.91135835647583 1.0011138916015625 0.49310925602912903 0.2783356308937073 0.17753811180591583 0.1299213021993637 0.10675792396068573 0.10011842846870422 0.10724135488271713 0.13839328289031982 0.21211542189121246 0.37356364727020264 0.5266918540000916 -9999
-9999 10.190710067749023 8.544492721557617 5.529782295227051 3.3383688926696777 1.9599609375 1.0941367149353027 0.5574548840522766 0.2942187488079071 0.16929396986961365 0.10880400240421295 0.07604099810123444 0.05841543897986412 0.05009803920984268 0.04679661989212036 0.05105393007397652 0.06412937492132187 0.10290031880140305 -9999 -9999
-9999 8.385038375854492 6.800317764282227 4.085818290710449 2.2343268394470215 1.1748625040054321 0.6115204691886902 0.3238106369972229 0.18444332480430603 0.1121382862329483 0.07447883486747742 0.05228400230407715 0.04188957065343857 0.045862264931201935 0.05089230462908745 0.05633531138300896 0.06153421103954315 0.06559379398822784 -9999 -9999
-9999 7.151170253753662 5.528858661651611 3.229811906814575 1.6369255781173706 0.7383105754852295 0.3705490231513977 0.19707924127578735 0.11614840477705002 0.07382190227508545 0.051022011786699295 0.045181095600128174 0.048377107828855515 0.053183067589998245 0.05903139337897301 0.06542225927114487 0.07211053371429443 0.07958834618330002 0.09086906164884567 0.09612121433019638
-9999 -9999 4.181138515472412 2.609102487564087 1.2725400924682617 0.5371350646018982 0.2479107826948166 0.1281471997499466 0.07545337826013565 0.050078149884939194 0.04921896383166313 0.05085205286741257 0.05464168265461922 0.06012146919965744 0.06662491708993912 0.07358404248952866 0.08066920191049576 0.0876777321100235 0.09439948201179504 0.09786121547222137
-9999 -9999 2.9695539474487305 2.0443289279937744 1.0111677646636963 0.4057418406009674 0.17547915875911713 0.08628645539283752 0.05674557760357857 0.053828638046979904 0.053419504314661026 0.05545944347977638 0.05968156084418297 0.06559985131025314 0.07246466726064682 0.0796084925532341 0.08652447909116745 0.09256923943758011 0.09711278975009918 0.09948884695768356
-9999 -9999 -9999 1.6677837371826172 0.8623337149620056 0.35308825969696045 0.14797179400920868 0.07093048095703125 0.05858207494020462 0.055959731340408325 0.055776018649339676 0.058000147342681885 0.06243708357214928 0.06857100874185562 0.07561099529266357 0.08275874704122543 0.08949153125286102 0.09483405947685242 0.09855350106954575 0.10046157240867615
