ncols         20
nrows         20
xllcorner     0
yllcorner     -3.5992928
cellsize      0.17996463
NODATA_value  -9999
-9999.0 -9999 -9999 -9999 -9999 -9999 -9999 -9999 -9999 -9999 -9999 -9999 -9999 -9999 -9999 -9999 -9999 -9999 -9999 -9999
-9999 -9999 -9999 -9999 -9999 -9999 -9999 -9999 -9999 -9999 -9999 26.13187599182129 26.12990951538086 -9999 -9999 26.268951416015625 26.3497371673584 -9999 -9999 -9999
-9999 -9999 -9999 -9999 26.27654266357422 26.15859031677246 25.98464012145996 25.849140167236328 25.76882553100586 25.73971939086914 25.80707550048828 25.896753311157227 25.858367919921875 25.744386672973633 25.80878257751465 26.024911880493164 26.160181045532227 26.185314178466797 -9999 -9999
-9999 -9999 -9999 26.26436424255371 26.21036148071289 26.10631561279297 25.979515075683594 25.892047882080078 25.833515167236328 25.79625701904297 25.7757625579834 25.746543884277344 25.660709381103516 25.579090118408203 25.590545654296875 25.707218170166016 25.821941375732422 25.86602210998535 -9999 -9999
-9999 -9999 -9999 26.158437728881836 26.109481811523438 26.048002243041992 26.041248321533203 26.106292724609375 26.179088592529297 26.219524383544922 26.21442413330078 26.125011444091797 25.926748275756836 25.699464797973633 25.5313720703125 25.471647262573242 25.457138061523438 25.418376922607422 -9999 -9999
-9999 -9999 26.026166915893555 26.00757598876953 25.9837703704834 26.072004318237305 26.37196159362793 26.83577537536621 27.2443790435791 27.529836654663086 27.671981811523438 27.544649124145508 27.106077194213867 26.547603607177734 26.021018981933594 25.621286392211914 25.36581039428711 25.19487190246582 25.076934814453125 -9999
-9999 -9999 25.812898635864258 25.801231384277344 25.86911392211914 26.246658325195312 27.117263793945312 28.433963775634766 29.485031127929688 30.123077392578125 30.34728240966797 30.05391502380371 29.21483039855957 28.19547462463379 27.178810119628906 26.355249404907227 25.771982192993164 25.41225814819336 25.234390258789062 -9999
-9999 -9999 25.422313690185547 25.469127655029297 25.74180030822754 26.5791015625 28.309871673583984 31.090839385986328 32.67329788208008 33.390018463134766 33.48668670654297 32.91367721557617 31.519975662231445 30.13431167602539 28.835407257080078 27.666942596435547 26.74042320251465 26.132225036621094 25.831066131591797 -9999
-9999 24.849430084228516 24.97313117980957 25.14546775817871 25.698244094848633 27.010122299194336 29.435739517211914 32.749664306640625 34.58538818359375 35.35177993774414 35.39760208129883 34.73726272583008 33.26922607421875 31.82746696472168 30.505170822143555 29.281272888183594 28.20730972290039 27.40848159790039 26.99242401123047 -9999
-9999 24.60678482055664 24.706401824951172 25.040328979492188 25.934715270996094 27.68032455444336 30.492937088012695 33.79383850097656 35.626949310302734 36.389278411865234 36.43260192871094 35.808040618896484 34.455482482910156 33.124149322509766 31.923315048217773 30.822649002075195 29.826826095581055 29.042396545410156 28.6114444732666 -9999
-9999 24.455297470092773 24.680213928222656 25.301677703857422 26.567577362060547 28.638391494750977 31.491796493530273 34.48539733886719 36.160789489746094 36.875648498535156 36.940025329589844 36.40522384643555 35.21760940551758 34.05091094970703 33.01393127441406 32.08350372314453 31.255334854125977 30.596195220947266 30.22306251525879 -9999
-9999 24.702495574951172 25.110776901245117 26.0452823638916 27.591411590576172 29.76390838623047 32.310646057128906 34.80495834350586 36.242652893066406 36.900062561035156 37.00991439819336 36.61172866821289 35.65385055541992 34.70632553100586 33.84956741333008 33.06665802001953 32.36687469482422 31.816829681396484 31.498016357421875 -9999
-9999 25.53365707397461 26.11627769470215 27.294309616088867 28.956018447875977 30.880382537841797 32.873226165771484 34.66069412231445 35.83561325073242 36.45234680175781 36.637596130371094 36.425933837890625 35.876625061035156 35.241600036621094 34.594635009765625 33.944793701171875 33.299652099609375 32.770545959472656 32.41703796386719 -9999
-9999 26.8696231842041 27.57061767578125 28.839618682861328 30.349695205688477 31.896696090698242 33.36650085449219 34.64331817626953 35.58007049560547 36.12596130371094 36.3573112487793 36.325164794921875 36.088382720947266 35.745018005371094 35.331703186035156 34.83782196044922 34.282142639160156 33.716651916503906 33.0793342590332 -9999
-9999 28.35342025756836 29.05425453186035 30.2213077545166 31.49651336669922 32.71330642700195 33.823978424072266 34.794185638427734 35.51467514038086 35.99372863769531 36.2622184753418 36.36798858642578 36.34990310668945 36.24202346801758 36.05548858642578 35.768035888671875 35.405487060546875 35.04603958129883 -9999 -9999
-9999 29.522708892822266 30.22076416015625 31.24942970275879 32.32210159301758 33.340675354003906 34.26566696166992 35.027976989746094 35.615623474121094 36.039329528808594 36.322296142578125 36.51144027709961 36.63014602661133 36.68441390991211 36.66758346557617 36.574684143066406 36.44125747680664 36.381935119628906 -9999 -9999
-9999 30.23150062561035 31.09432601928711 31.98792266845703 32.91980743408203 33.854976654052734 34.660221099853516 35.33045196533203 35.84870529174805 36.233638763427734 36.51430892944336 36.738433837890625 36.92354965209961 37.06367111206055 37.147239685058594 37.170616149902344 37.16801071166992 37.227481842041016 37.49809265136719 37.61310958862305
-9999 -9999 32.01472854614258 32.59346389770508 33.37102127075195 34.23250961303711 35.010826110839844 35.65876007080078 36.150596618652344 36.50749969482422 36.76951217651367 36.99603271484375 37.203651428222656 37.38994598388672 37.52027893066406 37.58818435668945 37.62700271606445 37.66689682006836 37.73851776123047 37.75681686401367
-9999 -9999 32.490020751953125 33.01634979248047 33.69578552246094 34.517051696777344 35.303680419921875 35.96121597290039 36.4438591003418 36.7741584777832 37.00722885131836 37.22269821166992 37.43675994873047 37.63820266723633 37.7830696105957 37.865421295166016 37.91020965576172 37.919979095458984 37.90140151977539 37.88689422607422
-9999 -9999 -9999 33.374755859375 33.9161491394043 34.67576217651367 35.46385955810547 36.12582015991211 36.599937438964844 36.9141960144043 37.13543701171875 37.33613967895508 37.55160903930664 37.760231018066406 37.91800308227539 38.00511932373047 38.058433532714844 38.03824234008789 38.001033782958984 37.978973388671875
