ncols         20
nrows         20
xllcorner     0
yllcorner     -3.5992928
cellsize      0.17996463
NODATA_value  -9999
-9999.0 -9999 -9999 -9999 -9999 -9999 -9999 -9999 -9999 -9999 -9999 -9999 -9999 -9999 -9999 -9999 -9999 -9999 -9999 -9999
-9999 -9999 -9999 -9999 -9999 -9999 -9999 -9999 -9999 -9999 -9999 12.47336196899414 12.447805404663086 -9999 -9999 12.36970043182373 12.195879936218262 -9999 -9999 -9999
-9999 -9999 -9999 -9999 12.333189010620117 12.503861427307129 12.784098625183105 12.951057434082031 13.024054527282715 13.07393741607666 12.890836715698242 12.835883140563965 12.926816940307617 13.035821914672852 12.929339408874512 12.674552917480469 12.468135833740234 12.380236625671387 -9999 -9999
-9999 -9999 -9999 12.486112594604492 12.576358795166016 12.71910285949707 12.912355422973633 13.019383430480957 13.09604263305664 13.136631965637207 13.192240715026855 13.259822845458984 13.382026672363281 13.454545974731445 13.449201583862305 13.279829978942871 13.057726860046387 12.930323600769043 -9999 -9999
-9999 -9999 -9999 12.769198417663574 12.86176872253418 13.059179306030273 13.133590698242188 13.059460639953613 12.929126739501953 12.782466888427734 12.652923583984375 12.66793155670166 12.917118072509766 13.322550773620605 13.693756103515625 13.841625213623047 13.802345275878906 13.905248641967773 -9999 -9999
-9999 -9999 13.144124984741211 13.199674606323242 13.31464672088623 13.347007751464844 13.044516563415527 12.438170433044434 11.831657409667969 11.177774429321289 10.54025936126709 10.340798377990723 10.756322860717773 11.75051498413086 12.878175735473633 13.712705612182617 14.177091598510742 14.476698875427246 14.59511661529541 -9999
-9999 -9999 13.579312324523926 13.67615795135498 13.816903114318848 13.51527214050293 12.448436737060547 10.676041603088379 9.38331413269043 8.273006439208984 7.376514434814453 7.110025882720947 7.766458034515381 9.1268949508667 10.87338924407959 12.548169136047363 13.714499473571777 14.374772071838379 14.675886154174805 -9999
-9999 -9999 14.450109481811523 14.54811954498291 14.447893142700195 13.497802734375 11.197015762329102 6.76444149017334 5.235689640045166 4.375446796417236 3.8734657764434814 3.88071346282959 5.178310871124268 6.569930553436279 8.388407707214355 10.4244966506958 12.169116973876953 13.386550903320312 13.953690528869629 -9999
-9999 15.631662368774414 15.597146034240723 15.515859603881836 14.960658073425293 13.26355266571045 10.11187744140625 5.363585948944092 3.6543426513671875 2.863115072250366 2.5263445377349854 2.6119191646575928 3.5202932357788086 4.535895824432373 5.933283805847168 7.776614189147949 9.743207931518555 11.301911354064941 12.082993507385254 -9999
-9999 16.426855087280273 16.450551986694336 16.151355743408203 14.87617301940918 12.313770294189453 8.645251274108887 4.2794108390808105 2.657047986984253 1.9715341329574585 1.7378567457199097 1.8090156316757202 2.3671021461486816 2.9642751216888428 3.873659133911133 5.197378158569336 6.9016571044921875 8.432683944702148 9.237947463989258 -9999
-9999 17.250577926635742 17.019933700561523 16.05986976623535 13.953275680541992 10.769539833068848 6.971139907836914 3.243339776992798 1.8532805442810059 1.2916030883789062 1.0993739366531372 1.1259469985961914 1.4056798219680786 1.7206441164016724 2.2174880504608154 3.040980100631714 4.1669602394104 5.365660667419434 6.022670269012451 -9999
-9999 17.359102249145508 16.701814651489258 14.942395210266113 12.183506965637207 8.820813179016113 5.344328880310059 2.407258987426758 1.2716751098632812 0.8007266521453857 0.6284141540527344 0.5979559421539307 0.7003880739212036 0.8182365894317627 1.025222659111023 1.429123044013977 2.0761423110961914 2.8139352798461914 3.23044753074646 -9999
-9999 16.144540786743164 15.009541511535645 12.537149429321289 9.58283805847168 6.549755096435547 3.8431754112243652 1.879488229751587 0.921464204788208 0.5290623903274536 0.3512546420097351 0.2913883626461029 0.28384825587272644 0.3037412166595459 0.3699575662612915 0.5100882053375244 0.8178795576095581 1.2052202224731445 1.466620922088623 -9999
-9999 13.611040115356445 12.154218673706055 9.32848072052002 6.530564785003662 4.189102649688721 2.3896334171295166 1.1962624788284302 0.5640623569488525 0.31011658906936646 0.19807426631450653 0.14815713465213776 0.125708669424057 0.11992036551237106 0.12816879153251648 0.1625993847846985 0.24318751692771912 0.4142809212207794 0.5769364237785339 -9999
-9999 10.820117950439453 9.28762149810791 6.450009346008301 4.0165934562683105 2.3747403621673584 1.3114469051361084 0.649543046951294 0.3340874910354614 0.1894734650850296 0.12183479219675064 0.08618088811635971 0.0673312395811081 0.05834012106060982 0.05456045642495155 0.05902226269245148 0.07289465516805649 0.11415690928697586 -9999 -9999
-9999 8.815208435058594 7.2646002769470215 4.60386848449707 2.5687108039855957 1.3529696464538574 0.6941155195236206 0.3617951273918152 0.20380458235740662 0.12359596788883209 0.08262643218040466 0.05871637165546417 0.0477043017745018 0.05275609344244003 0.05891493335366249 0.06527455896139145 0.07106856256723404 0.07551667839288712 -9999 -9999
-9999 7.456826210021973 5.817248344421387 3.533942222595215 1.8101661205291748 0.8075487613677979 0.4012153446674347 0.21221087872982025 0.1251632273197174 0.0801752582192421 0.056137051433324814 0.05048762261867523 0.054838743060827255 0.060976654291152954 0.0682973638176918 0.0761408731341362 0.08423078060150146 0.09333408623933792 0.1073717400431633 0.11386209726333618
-9999 -9999 4.341521739959717 2.779425621032715 1.3629860877990723 0.5665188431739807 0.2597329020500183 0.13454505801200867 0.08001620322465897 0.05396302789449692 0.05395979806780815 0.05670608580112457 0.06187041848897934 0.06895714998245239 0.077208012342453 0.08591698110103607 0.09468979388475418 0.10332723706960678 0.1116248369216919 0.11586949974298477
-9999 -9999 3.0332882404327393 2.099184513092041 1.0506842136383057 0.4166124165058136 0.1799428015947342 0.08925236761569977 0.05977315455675125 0.05783195048570633 0.05848514288663864 0.0617973692715168 0.0675615519285202 0.07526933401823044 0.08403916656970978 0.09305138885974884 0.1016877219080925 0.1091751754283905 0.11476951092481613 0.11767227202653885
-9999 -9999 -9999 1.6831881999969482 0.8742854595184326 0.35670188069343567 0.15003187954425812 0.07294019311666489 0.06153835728764534 0.06004316359758377 0.061023976653814316 0.06459413468837738 0.07065696269273758 0.07866761088371277 0.08768648654222488 0.09673111885786057 0.10516797751188278 0.11180278658866882 0.11638908088207245 0.1187240332365036
