ncols         20
nrows         20
xllcorner     0
yllcorner     -3.5992928
cellsize      0.17996463
NODATA_value  -9999
-9999.0 -9999 -9999 -9999 -9999 -9999 -9999 -9999 -9999 -9999 -9999 -9999 -9999 -9999 -9999 -9999 -9999 -9999 -9999 -9999
-9999 -9999 -9999 -9999 -9999 -9999 -9999 -9999 -9999 -9999 -9999 0.2184789627790451 0.21505281329154968 -9999 -9999 0.19262027740478516 0.1801903247833252 -9999 -9999 -9999
-9999 -9999 -9999 -9999 0.19190669059753418 0.20987647771835327 0.2434118092060089 0.2755960524082184 0.3014434576034546 0.32068002223968506 0.2973550260066986 0.2758946418762207 0.27740776538848877 0.28333890438079834 0.2571565508842468 0.22061364352703094 0.19851316511631012 0.1884312927722931 -9999 -9999
-9999 -9999 -9999 0.18926289677619934 0.20422431826591492 0.22905409336090088 0.267581045627594 0.31010371446609497 0.3580784499645233 0.40148231387138367 0.43253248929977417 0.4370574355125427 0.4330734312534332 0.4013177752494812 0.3516605496406555 0.29363545775413513 0.2502995729446411 0.22862574458122253 -9999 -9999
-9999 -9999 -9999 0.20012633502483368 0.2214125394821167 0.2668851315975189 0.32740840315818787 0.4028926193714142 0.49923163652420044 0.6250662207603455 0.7488489747047424 0.8136522769927979 0.7972038984298706 0.6928575038909912 0.5709078311920166 0.44734588265419006 0.36038634181022644 0.33886897563934326 -9999 -9999
-9999 -9999 0.19065052270889282 0.21306520700454712 0.25313401222229004 0.3200702667236328 0.40957877039909363 0.531241238117218 0.7177374958992004 0.9622555375099182 1.2267085313796997 1.369956612586975 1.3629661798477173 1.1795521974563599 0.9295040369033813 0.7071352601051331 0.5539049506187439 0.49710237979888916 0.474139004945755 -9999
-9999 -9999 0.206568643450737 0.2354259341955185 0.3037627935409546 0.40671855211257935 0.5397995710372925 0.7316495180130005 1.0152270793914795 1.382163166999817 1.762253999710083 1.998148798942566 2.0106093883514404 1.7973805665969849 1.4803234338760376 1.1223037242889404 0.8677295446395874 0.7145215272903442 0.6578272581100464 -9999
-9999 -9999 0.24831809103488922 0.2978026866912842 0.4058089852333069 0.5601115822792053 0.7725900411605835 1.0590012073516846 1.4223295450210571 1.8523530960083008 2.2377259731292725 2.5054893493652344 2.5589141845703125 2.392580986022949 2.0712475776672363 1.6796690225601196 1.3378914594650269 1.0946807861328125 0.9971525073051453 -9999
-9999 0.27565690875053406 0.32023343443870544 0.412360280752182 0.5939077734947205 0.8533363342285156 1.1777873039245605 1.5825378894805908 2.0166807174682617 2.425156831741333 2.7391457557678223 2.958524465560913 3.0550670623779297 2.973984479904175 2.7514400482177734 2.4153504371643066 1.9665894508361816 1.640918493270874 1.4999064207077026 -9999
-9999 0.350115567445755 0.4236528277397156 0.6052950024604797 0.90273118019104 1.3039830923080444 1.785469889640808 2.3096368312835693 2.774564266204834 3.1109046936035156 3.3156614303588867 3.4705379009246826 3.5647993087768555 3.569939136505127 3.4413866996765137 3.2053656578063965 2.7358171939849854 2.3629097938537598 2.1949210166931152 -9999
-9999 0.5079157948493958 0.6201392412185669 0.8869354128837585 1.2895327806472778 1.8182265758514404 2.444112539291382 3.0621652603149414 3.5066261291503906 3.763195514678955 3.9113545417785645 4.034053802490234 4.153703212738037 4.197295665740967 4.12637996673584 3.9363956451416016 3.5848498344421387 3.2233312129974365 3.047492504119873 -9999
-9999 0.7867555618286133 0.9376327991485596 1.2961843013763428 1.7872258424758911 2.3828182220458984 3.0564889907836914 3.649571180343628 4.002019882202148 4.170424461364746 4.275506973266602 4.415225982666016 4.648858070373535 4.7368974685668945 4.663318157196045 4.618237495422363 4.329243183135986 4.050385475158691 3.898123025894165 -9999
-9999 1.2322170734405518 1.4442038536071777 1.90792977809906 2.436570644378662 3.0192675590515137 3.6049282550811768 4.054039001464844 4.24300479888916 4.2763566970825195 4.303091049194336 4.397156238555908 4.607975006103516 4.6907172203063965 4.70361852645874 4.6293253898620605 4.597010612487793 4.5174665451049805 4.409426689147949 -9999
-9999 1.8311243057250977 2.100686550140381 2.6543614864349365 3.2041921615600586 3.687549352645874 4.073890686035156 4.282749176025391 4.28978967666626 4.213825225830078 4.150283336639404 4.1328349113464355 4.189654350280762 4.160935401916504 4.109515190124512 4.066572189331055 4.191882133483887 4.424569129943848 4.409857273101807 -9999
-9999 2.416912317276001 2.716625928878784 3.3233797550201416 3.840548276901245 4.159998416900635 4.31265115737915 4.314638137817383 4.214733600616455 4.087844371795654 3.978487014770508 3.8349685668945312 3.6704163551330566 3.4890265464782715 3.352123498916626 3.2708957195281982 3.2904300689697266 3.659868001937866 -9999 -9999
-9999 2.8152496814727783 3.136691093444824 3.73956561088562 4.158558368682861 4.311829566955566 4.293529510498047 4.185975074768066 4.070145606994629 3.963365316390991 3.885268449783325 3.667086124420166 3.354832172393799 2.981050968170166 2.7206151485443115 2.4918618202209473 2.3418333530426025 2.0882022380828857 -9999 -9999
-9999 3.1037216186523438 3.4367237091064453 3.9600181579589844 4.271669864654541 4.270358562469482 4.125125408172607 3.9509947299957275 3.8383848667144775 3.769012451171875 3.6210720539093018 3.3484597206115723 2.976731300354004 2.5706980228424072 2.2284348011016846 1.940010666847229 1.7124922275543213 1.506564974784851 1.3690900802612305 1.2019294500350952
-9999 -9999 3.727628707885742 4.095519065856934 4.29616117477417 4.165944576263428 3.897940158843994 3.665191411972046 3.5620691776275635 3.4321484565734863 3.253941059112549 2.9781370162963867 2.630702495574951 2.220125198364258 1.877050518989563 1.6172523498535156 1.3844923973083496 1.219952940940857 1.101671576499939 1.1335201263427734
-9999 -9999 4.024896621704102 4.206586837768555 4.273073673248291 4.017966270446777 3.635359764099121 3.324892997741699 3.1685357093811035 3.025512218475342 2.8952224254608154 2.6363377571105957 2.300109624862671 1.919915795326233 1.623539686203003 1.403818964958191 1.220851182937622 1.105035662651062 1.1377114057540894 1.1571773290634155
-9999 -9999 -9999 4.251311779022217 4.249733924865723 3.941460371017456 3.4971578121185303 3.151205539703369 2.9808201789855957 2.8506734371185303 2.71378231048584 2.502011299133301 2.171645402908325 1.803786277770996 1.5011159181594849 1.3255133628845215 1.133937120437622 1.1339943408966064 1.1583760976791382 1.1727283000946045
