ncols         20
nrows         20
xllcorner     0
yllcorner     -3.5992928
cellsize      0.17996463
NODATA_value  -9999
-9999.0 -9999 -9999 -9999 -9999 -9999 -9999 -9999 -9999 -9999 -9999 -9999 -9999 -9999 -9999 -9999 -9999 -9999 -9999 -9999
-9999 -9999 -9999 -9999 -9999 -9999 -9999 -9999 -9999 -9999 -9999 0.011374917812645435 0.010973375290632248 -9999 -9999 0.00906478799879551 0.007967655546963215 -9999 -9999 -9999
-9999 -9999 -9999 -9999 0.011135914362967014 0.01291956938803196 0.016500456258654594 0.019926564767956734 0.0224811602383852 0.024206193163990974 0.020110806450247765 0.017147446051239967 0.017096219584345818 0.017427437007427216 0.014458640478551388 0.011060710065066814 0.009057445451617241 0.008021106943488121 -9999 -9999
-9999 -9999 -9999 0.010426738299429417 0.012083574198186398 0.014667872339487076 0.018928539007902145 0.023834552615880966 0.029783999547362328 0.03532565385103226 0.039155375212430954 0.03886844962835312 0.03756820783019066 0.03207666054368019 0.024833641946315765 0.017661109566688538 0.012999369762837887 0.010848458856344223 -9999 -9999
-9999 -9999 -9999 0.010893359780311584 0.013078565709292889 0.018132658675312996 0.0256031546741724 0.0360695943236351 0.051358893513679504 0.07502298057079315 0.1020299419760704 0.11650197207927704 0.11021604388952255 0.08330851048231125 0.0573069304227829 0.035759393125772476 0.023472072556614876 0.02074798196554184 -9999 -9999
-9999 -9999 0.00850142166018486 0.010959165170788765 0.015110327862203121 0.022890470921993256 0.034976422786712646 0.054338980466127396 0.09126969426870346 0.15264330804347992 0.2350216507911682 0.2838382124900818 0.27726101875305176 0.20823806524276733 0.13133491575717926 0.07714221626520157 0.04774241894483566 0.03808891400694847 0.03306388482451439 -9999
-9999 -9999 0.009055931121110916 0.011683897115290165 0.018691590055823326 0.03150094673037529 0.05151566118001938 0.08718869835138321 0.15525709092617035 0.26940953731536865 0.4173089265823364 0.521091639995575 0.5219926238059998 0.41935300827026367 0 0.16865377128124237 0.10173572599887848 0.06914510577917099 0.058102939277887344 -9999
-9999 -9999 0.011211824603378773 0.015806319192051888 0.027956657111644745 0.0499056801199913 0.0880412608385086 0.15346375107765198 0.2590389549732208 0.4162599742412567 0.5846506357192993 0.715939998626709 0.7405076026916504 0.6503547430038452 0.4950524568557739 0.3310479521751404 0.21200484037399292 0.14263765513896942 0.11838887631893158 -9999
-9999 0.010953654535114765 0.015540828928351402 0.025338616222143173 0.04993691295385361 0.09656950831413269 0.17170757055282593 0.29047274589538574 0.4467649757862091 0.6201837062835693 0.7699070572853088 0.8846238255500793 0.9392890334129333 0.8951506614685059 0.7780525088310242 0 0.40766358375549316 0.28431692719459534 0.23772287368774414 -9999
-9999 0.01605043187737465 0.02347579039633274 0.046397384256124496 0.09803497046232224 0.19249403476715088 0.3391338884830475 0.5367664098739624 0.741606593132019 0.9051110148429871 1.0114896297454834 1.1020382642745972 1.1660763025283813 1.1781846284866333 1.1089222431182861 0 0.7118915915489197 0.5300828218460083 0.45710399746894836 -9999
-9999 0.029854217544198036 0.04382210224866867 0.08663724362850189 0.1747530996799469 0.32913944125175476 0.5633112192153931 0.8440254926681519 1.070610523223877 1.2097619771957397 1.2996327877044678 1.390984058380127 1.4962650537490845 1.5424764156341553 1.4956481456756592 1.3683017492294312 1.1264594793319702 0.9059625267982483 0.8076509237289429 -9999
-9999 0.06359986215829849 0.08869551122188568 0.16403010487556458 0.29942694306373596 0.5088146924972534 0.8015753626823425 1.103837251663208 1.2992579936981201 1.4005420207977295 1.481859564781189 1.6140086650848389 0 0 1.8718528747558594 0 1.5682737827301025 1.3535964488983154 1.2449308633804321 -9999
-9999 0.14017599821090698 0.18910221755504608 0.3207343518733978 0.505828857421875 0.7501305937767029 1.0373417139053345 1.285011887550354 1.3967496156692505 1.4262666702270508 1.4705182313919067 1.5844736099243164 0 0 0 1.8072266578674316 1.7341115474700928 1.6433279514312744 1.545182466506958 -9999
-9999 0.2832065522670746 0.3672146499156952 0.5718518495559692 0.8106164336204529 1.0478994846343994 1.2580056190490723 1.3826593160629272 1.396809458732605 1.3726799488067627 1.370278239250183 1.4099608659744263 0 0 0 1.4194198846817017 1.4633266925811768 1.5914233922958374 1.5360441207885742 -9999
-9999 0.46209630370140076 0.575592041015625 0.8423518538475037 1.10109281539917 1.2741672992706299 1.3654531240463257 1.3800535202026367 1.346785545349121 1.3110880851745605 1.294662356376648 1.2501680850982666 1.1844524145126343 1.0936548709869385 0 0 0.9550800919532776 1.159588098526001 -9999 -9999
-9999 0.5985063314437866 0.7310569286346436 1.0186350345611572 1.2415761947631836 1.3302903175354004 1.3328346014022827 1.2995367050170898 1.2801513671875 1.2820823192596436 0 0 0 0.8377286195755005 0 0 0.5307144522666931 0 -9999 -9999
-9999 0.7072710394859314 0.8449377417564392 1.1034231185913086 1.275138020515442 1.2834482192993164 1.226292371749878 1.1744177341461182 1.1798837184906006 0 0 0 0 0.6614701747894287 0.5081171989440918 0.3935316801071167 0.3141627311706543 0.2552092969417572 0 0
-9999 -9999 0.9570170640945435 1.1485569477081299 1.2658854722976685 1.2104383707046509 1.0993164777755737 1.0326639413833618 0 0 0 0 0 0 0 0 0 0 0 0
-9999 -9999 1.094382643699646 1.1911128759384155 1.2378551959991455 1.121116042137146 0.9613075852394104 0.8642284870147705 0 0 0 0 0 0 0 0 0 0 0 0
-9999 -9999 -9999 1.2058943510055542 1.2181241512298584 1.0772672891616821 0.8927015662193298 0.7833488583564758 0 0 0 0 0 0 0 0 0 0 0 0
