ncols         20
nrows         20
xllcorner     0
yllcorner     -3.5992928
cellsize      0.17996463
NODATA_value  -9999
-9999.0 -9999 -9999 -9999 -9999 -9999 -9999 -9999 -9999 -9999 -9999 -9999 -9999 -9999 -9999 -9999 -9999 -9999 -9999 -9999
-9999 -9999 -9999 -9999 -9999 -9999 -9999 -9999 -9999 -9999 -9999 26.55684471130371 26.557613372802734 -9999 -9999 26.677356719970703 26.75765037536621 -9999 -9999 -9999
-9999 -9999 -9999 -9999 26.6563777923584 26.540660858154297 26.37335777282715 26.2493953704834 26.18388557434082 26.170259475708008 26.249008178710938 26.342037200927734 26.313085556030273 26.2166748046875 26.280799865722656 26.47750473022461 26.612071990966797 26.65365219116211 -9999 -9999
-9999 -9999 -9999 26.686391830444336 26.618642807006836 26.51003646850586 26.385343551635742 26.305728912353516 26.25959014892578 26.237838745117188 26.23164939880371 26.21587371826172 26.145872116088867 26.080738067626953 26.100589752197266 26.217788696289062 26.337453842163086 26.38968849182129 -9999 -9999
-9999 -9999 -9999 26.627004623413086 26.56519317626953 26.49205207824707 26.47854995727539 26.542638778686523 26.620956420898438 26.674638748168945 26.685306549072266 26.614120483398438 26.439064025878906 26.234745025634766 26.09122085571289 26.05149269104004 26.0552921295166 26.031665802001953 -9999 -9999
-9999 -9999 26.62711524963379 26.562644958496094 26.5095272064209 26.572994232177734 26.85069465637207 27.298019409179688 27.69833755493164 27.99990463256836 28.167001724243164 28.061309814453125 27.651918411254883 27.101165771484375 26.615623474121094 26.257099151611328 26.04334259033203 25.91572380065918 25.864749908447266 -9999
-9999 -9999 26.48348045349121 26.444786071777344 26.477354049682617 26.81463050842285 27.642044067382812 28.92816925048828 29.945039749145508 30.558181762695312 30.764780044555664 30.47499656677246 29.67177963256836 28.717044830322266 27.78677749633789 27.000083923339844 26.481082916259766 26.1754093170166 26.037677764892578 -9999
-9999 -9999 26.206117630004883 26.219276428222656 26.44233512878418 27.216726303100586 28.883079528808594 31.547319412231445 33.04222869873047 33.706478118896484 33.77588653564453 33.20074462890625 31.835277557373047 30.513160705566406 29.317169189453125 28.263643264770508 27.424001693725586 26.865631103515625 26.60472869873047 -9999
-9999 25.85856056213379 25.90140724182129 26.009138107299805 26.485395431518555 27.69985008239746 30.02155303955078 33.15728759765625 34.87724304199219 35.58137130737305 35.59562301635742 34.918365478515625 33.436397552490234 32.01350021362305 30.764196395874023 29.664512634277344 28.731952667236328 28.04633140563965 27.686368942260742 -9999
-9999 25.67586898803711 25.72918701171875 25.986045837402344 26.770883560180664 28.376327514648438 31.033300399780273 34.13506317138672 35.849609375 36.55009460449219 36.557395935058594 35.893959045410156 34.471839904785156 33.096435546875 31.910348892211914 30.8939208984375 30.03376579284668 29.380756378173828 29.021533966064453 -9999
-9999 25.576475143432617 25.750816345214844 26.266393661499023 27.379865646362305 29.274860382080078 31.901241302490234 34.71769714355469 36.2920036315918 36.95235824584961 36.977455139160156 36.38301086425781 35.0735969543457 33.808448791503906 32.72748947143555 31.821374893188477 31.07723617553711 30.522720336914062 30.21351432800293 -9999
-9999 25.806344985961914 26.136804580688477 26.912700653076172 28.25238037109375 30.16715431213379 32.49028778076172 34.85376739501953 36.21836853027344 36.83558654785156 36.910194396972656 36.44635772705078 35.346519470214844 34.278465270996094 33.34267807006836 32.531375885009766 31.854503631591797 31.35546112060547 31.07273292541504 -9999
-9999 26.495418548583984 26.95511817932129 27.914016723632812 29.284393310546875 30.937002182006836 32.725074768066406 34.404850006103516 35.538604736328125 36.143611907958984 36.31080627441406 36.05364990234375 35.415184020996094 34.689109802246094 33.96560287475586 33.26145553588867 32.5947151184082 32.063079833984375 31.711374282836914 -9999
-9999 27.585697174072266 28.111597061157227 29.06572151184082 30.25591278076172 31.5523681640625 32.869232177734375 34.08747863769531 35.02400207519531 35.59646224975586 35.84627151489258 35.809288024902344 35.54163360595703 35.15657043457031 34.698097229003906 34.15559768676758 33.55325698852539 32.94363021850586 32.25643539428711 -9999
-9999 28.739089965820312 29.227115631103516 30.042299270629883 31.00031089782715 32.015628814697266 33.03923416137695 34.00484848022461 34.77489471435547 35.316165924072266 35.637603759765625 35.779598236083984 35.77915573120117 35.676429748535156 35.48569869995117 35.18165969848633 34.79191970825195 34.400638580322266 -9999 -9999
-9999 29.62286949157715 30.073501586914062 30.74030303955078 31.52545738220215 32.396114349365234 33.28955078125 34.10309600830078 34.77482604980469 35.28634262084961 35.64735412597656 35.9012336730957 36.07298278808594 36.1701545715332 36.185142517089844 36.11235809326172 35.990020751953125 35.945098876953125 -9999 -9999
-9999 30.127981185913086 30.666141510009766 31.226346969604492 31.918575286865234 32.75497055053711 33.59027862548828 34.35247802734375 34.979583740234375 35.46792221069336 35.840179443359375 36.146751403808594 36.40595245361328 36.610008239746094 36.746543884277344 36.812156677246094 36.84508514404297 36.94467544555664 37.286285400390625 37.43104934692383
-9999 -9999 31.246313095092773 31.618301391601562 32.230674743652344 33.05418395996094 33.911922454833984 34.68506622314453 35.30186080932617 35.770042419433594 36.12989807128906 36.44557189941406 36.734886169433594 36.99480438232422 37.18547821044922 37.300968170166016 37.3796272277832 37.45341491699219 37.55613327026367 37.586978912353516
-9999 -9999 31.513837814331055 31.88332748413086 32.46448516845703 33.30453872680664 34.21248245239258 35.0181770324707 35.638084411621094 36.08298873901367 36.41162872314453 36.71551513671875 37.01228713989258 37.28826904296875 37.49294662475586 37.621150970458984 37.702064514160156 37.736854553222656 37.7315788269043 37.72279357910156
-9999 -9999 -9999 32.126670837402344 32.62604522705078 33.44877243041992 34.382850646972656 35.20564651489258 35.82262420654297 36.25127410888672 36.566429138183594 36.852394104003906 37.149559020996094 37.43232727050781 37.64982986450195 37.78013610839844 37.86715316772461 37.864158630371094 37.83518981933594 37.81672668457031
