ncols         20
nrows         20
xllcorner     0
yllcorner     -3.5992928
cellsize      0.17996463
NODATA_value  -9999
-9999.0 -9999 -9999 -9999 -9999 -9999 -9999 -9999 -9999 -9999 -9999 -9999 -9999 -9999 -9999 -9999 -9999 -9999 -9999 -9999
-9999 -9999 -9999 -9999 -9999 -9999 -9999 -9999 -9999 -9999 -9999 27.078397750854492 27.078968048095703 -9999 -9999 27.126203536987305 27.189044952392578 -9999 -9999 -9999
-9999 -9999 -9999 -9999 27.178590774536133 27.090320587158203 26.952699661254883 26.84514045715332 26.785799026489258 26.774011611938477 26.850296020507812 26.926130294799805 26.900205612182617 26.81940269470215 26.85784149169922 26.98828887939453 27.071916580200195 27.083221435546875 -9999 -9999
-9999 -9999 -9999 27.204179763793945 27.166845321655273 27.102968215942383 27.010822296142578 26.935604095458984 26.888893127441406 26.87599754333496 26.894319534301758 26.902130126953125 26.85498809814453 26.801837921142578 26.792518615722656 26.835922241210938 26.86435890197754 26.854419708251953 -9999 -9999
-9999 -9999 -9999 27.18317413330078 27.178754806518555 27.16826820373535 27.173585891723633 27.1894588470459 27.249143600463867 27.326595306396484 27.39662742614746 27.417285919189453 27.344532012939453 27.196636199951172 27.016767501831055 26.859973907470703 26.693355560302734 26.549577713012695 -9999 -9999
-9999 -9999 27.16986083984375 27.174501419067383 27.221548080444336 27.34183692932129 27.54922866821289 27.767786026000977 28.012115478515625 28.275602340698242 28.49710464477539 28.595584869384766 28.507688522338867 28.23174476623535 27.818281173706055 27.339908599853516 26.827917098999023 26.470653533935547 26.28140640258789 -9999
-9999 -9999 27.08194351196289 27.16015625 27.31439208984375 27.60175323486328 27.991554260253906 28.44237518310547 28.93280792236328 29.418001174926758 29.794269561767578 29.967634201049805 29.88686752319336 29.53290557861328 28.92463493347168 28.208253860473633 27.43413734436035 26.8381290435791 26.520292282104492 -9999
-9999 -9999 26.863893508911133 27.07077407836914 27.412578582763672 27.88460350036621 28.504589080810547 29.213390350341797 29.938440322875977 30.58054542541504 31.0354061126709 31.242841720581055 31.183822631835938 30.843442916870117 30.218463897705078 29.393667221069336 28.49955940246582 27.711143493652344 27.25851821899414 -9999
-9999 26.213476181030273 26.52176284790039 26.9808406829834 27.526805877685547 28.278390884399414 29.18136978149414 30.131179809570312 31.000123977661133 31.683181762695312 32.12885284423828 32.32681655883789 32.28294372558594 31.99262237548828 31.44159698486328 30.659826278686523 29.812223434448242 29.01409149169922 28.495004653930664 -9999
-9999 25.96106719970703 26.294281005859375 26.967527389526367 27.83608627319336 28.91171646118164 30.07625389099121 31.16901397705078 32.05342102050781 32.678470611572266 33.05678176879883 33.213260650634766 33.169464111328125 32.939125061035156 32.51077651977539 31.884164810180664 31.181873321533203 30.481721878051758 30.011363983154297 -9999
-9999 25.736570358276367 26.20994758605957 27.186845779418945 28.41632843017578 29.76645851135254 31.08147430419922 32.191646575927734 33.004241943359375 33.534366607666016 33.83104705810547 33.93049621582031 33.865821838378906 33.687156677246094 33.39358139038086 32.957916259765625 32.43877029418945 31.89646339416504 31.540714263916016 -9999
-9999 25.850107192993164 26.506519317626953 27.794404983520508 29.276657104492188 30.754518508911133 32.07173538208008 33.10101318359375 33.815799713134766 34.265193939208984 34.4995002746582 34.545204162597656 34.43555450439453 34.29041290283203 34.1142578125 33.826114654541016 33.48329162597656 33.106101989746094 32.854270935058594 -9999
-9999 26.549560546875 27.366485595703125 28.826889038085938 30.38743019104004 31.816247940063477 32.99952697753906 33.89060592651367 34.51055908203125 34.900386810302734 35.11495590209961 35.1489372253418 35.04783630371094 34.93684768676758 34.81502151489258 34.64823532104492 34.37412643432617 34.07038116455078 33.84162521362305 -9999
-9999 27.776277542114258 28.643264770507812 30.123796463012695 31.60892105102539 32.86519241333008 33.84781265258789 34.582115173339844 35.112548828125 35.436153411865234 35.61602020263672 35.6785774230957 35.650108337402344 35.61133575439453 35.54844665527344 35.43557357788086 35.211448669433594 34.89954376220703 34.50299835205078 -9999
-9999 29.115909576416016 29.97687530517578 31.379188537597656 32.71711730957031 33.784759521484375 34.58723831176758 35.18556213378906 35.58298110961914 35.83367156982422 35.98817825317383 36.09983444213867 36.182403564453125 36.24380111694336 36.2475700378418 36.1918830871582 36.061729431152344 35.8620491027832 -9999 -9999
-9999 30.21673583984375 31.08759307861328 32.379188537597656 33.57087707519531 34.509605407714844 35.200130462646484 35.66161346435547 35.95053482055664 36.12371063232422 36.23987579345703 36.38152313232422 36.55000686645508 36.7169075012207 36.806884765625 36.8389778137207 36.825138092041016 36.82110595703125 -9999 -9999
-9999 30.925500869750977 31.9807186126709 33.13215637207031 34.19697189331055 35.06926727294922 35.66410446166992 36.046875 36.26176452636719 36.37999725341797 36.49089431762695 36.65070724487305 36.85860061645508 37.076663970947266 37.23234176635742 37.32331085205078 37.37126541137695 37.432579040527344 37.615562438964844 37.702491760253906
-9999 -9999 33.016571044921875 33.777713775634766 34.663997650146484 35.45232391357422 36.01197052001953 36.3643684387207 36.542015075683594 36.649017333984375 36.75468444824219 36.914329528808594 37.126163482666016 37.359291076660156 37.54113006591797 37.654266357421875 37.724342346191406 37.77085494995117 37.82237243652344 37.82951354980469
-9999 -9999 33.60439682006836 34.252716064453125 34.9969596862793 35.721832275390625 36.273841857910156 36.62916564941406 36.8022346496582 36.899600982666016 36.9897346496582 37.140541076660156 37.35025405883789 37.582576751708984 37.76688766479492 37.88475036621094 37.95576858520508 37.97736740112305 37.957611083984375 37.94116973876953
-9999 -9999 -9999 34.66121292114258 35.222198486328125 35.87008285522461 36.41313934326172 36.7711296081543 36.94082260131836 37.03192901611328 37.116783142089844 37.25395965576172 37.46144485473633 37.69483947753906 37.88724136352539 38.00553894042969 38.08367156982422 38.07588195800781 38.042945861816406 38.022315979003906
