ncols         20
nrows         20
xllcorner     0
yllcorner     -3.5992928
cellsize      0.17996463
NODATA_value  -9999
-9999.0 -9999 -9999 -9999 -9999 -9999 -9999 -9999 -9999 -9999 -9999 -9999 -9999 -9999 -9999 -9999 -9999 -9999 -9999 -9999
-9999 -9999 -9999 -9999 -9999 -9999 -9999 -9999 -9999 -9999 -9999 19.027381896972656 19.03810691833496 -9999 -9999 19.014732360839844 19.0198917388916 -9999 -9999 -9999
-9999 -9999 -9999 -9999 19.000268936157227 19.008630752563477 19.007347106933594 19.014434814453125 19.021726608276367 19.009965896606445 19.050201416015625 19.038827896118164 19.037612915039062 19.069875717163086 19.08367919921875 19.060317993164062 19.052820205688477 19.068340301513672 -9999 -9999
-9999 -9999 -9999 19.019563674926758 18.99890899658203 18.99574089050293 18.986360549926758 18.977619171142578 18.953699111938477 18.932832717895508 18.907596588134766 18.911718368530273 18.931089401245117 18.985689163208008 19.0274600982666 19.060840606689453 19.092960357666016 19.125484466552734 -9999 -9999
-9999 -9999 -9999 19.04047966003418 19.018266677856445 18.966386795043945 18.912946701049805 18.847705841064453 18.775531768798828 18.6823673248291 18.597633361816406 18.568675994873047 18.60746955871582 18.719934463500977 18.843334197998047 18.978954315185547 19.099271774291992 19.144691467285156 -9999 -9999
-9999 -9999 19.127405166625977 19.073259353637695 19.011075973510742 18.920194625854492 18.872713088989258 18.74066925048828 18.578325271606445 18.403532028198242 18.24497413635254 18.1821231842041 18.21953773498535 18.37527847290039 18.59760093688965 18.836563110351562 18.986116409301758 19.13109016418457 19.25815773010254 -9999
-9999 -9999 19.17508888244629 19.1121883392334 18.993614196777344 18.905832290649414 18.730058670043945 18.5319766998291 18.309799194335938 18.08460807800293 17.8919677734375 17.796823501586914 17.82648277282715 17.98223876953125 18.20773696899414 18.513662338256836 18.742273330688477 18.978519439697266 19.10897445678711 -9999
-9999 -9999 19.253477096557617 19.131084442138672 19.014480590820312 18.79829216003418 18.554609298706055 18.303909301757812 18.05998992919922 17.832843780517578 17.663326263427734 17.569990158081055 17.5820255279541 17.701143264770508 17.9056396484375 18.177183151245117 18.467885971069336 18.675901412963867 18.82610321044922 -9999
-9999 19.566505432128906 19.3627872467041 19.21401596069336 18.93096160888672 18.62894058227539 18.33315658569336 18.050291061401367 17.809221267700195 17.622028350830078 17.501319885253906 17.438316345214844 17.436086654663086 17.50904655456543 17.6491641998291 17.84425926208496 18.11522674560547 18.356143951416016 18.45477294921875 -9999
-9999 19.624526977539062 19.4484806060791 19.180805206298828 18.793790817260742 18.421428680419922 18.079265594482422 17.789880752563477 17.576030731201172 17.44000244140625 17.36967658996582 17.3359317779541 17.334768295288086 17.371477127075195 17.45690155029297 17.58180809020996 17.793928146362305 17.984359741210938 18.069141387939453 -9999
-9999 19.638444900512695 19.45090103149414 19.081235885620117 18.622596740722656 18.206043243408203 17.848947525024414 17.5747013092041 17.398754119873047 17.304698944091797 17.261489868164062 17.24233627319336 17.236780166625977 17.2552547454834 17.30702018737793 17.39436149597168 17.527700424194336 17.6480712890625 17.729206085205078 -9999
-9999 19.56196403503418 19.30596923828125 18.87000274658203 18.38751983642578 17.982036590576172 17.65756607055664 17.42667007446289 17.29521369934082 17.234580993652344 17.20433807373047 17.183073043823242 17.14179039001465 17.14449119567871 17.193286895751953 17.2221622467041 17.322895050048828 17.40711212158203 17.467424392700195 -9999
-9999 19.29637908935547 18.968069076538086 18.537792205810547 18.09880256652832 17.754514694213867 17.49681854248047 17.327850341796875 17.24610137939453 17.214523315429688 17.200422286987305 17.18385887145996 17.143531799316406 17.138145446777344 17.145366668701172 17.18501853942871 17.21332550048828 17.253650665283203 17.304590225219727 -9999
-9999 18.82975959777832 18.538597106933594 18.170623779296875 17.809579849243164 17.546247482299805 17.367395401000977 17.263988494873047 17.224437713623047 17.215213775634766 17.21396827697754 17.210430145263672 17.191652297973633 17.196266174316406 17.20857810974121 17.22886848449707 17.220603942871094 17.1904239654541 17.27419090270996 -9999
-9999 18.409452438354492 18.16947364807129 17.872270584106445 17.590755462646484 17.40157699584961 17.289783477783203 17.236337661743164 17.220417022705078 17.22100830078125 17.221786499023438 17.231956481933594 17.246414184570312 17.264530181884766 17.277910232543945 17.288663864135742 17.298782348632812 17.20941734313965 -9999 -9999
-9999 18.119422912597656 17.914379119873047 17.677579879760742 17.459997177124023 17.3289852142334 17.25995445251465 17.234098434448242 17.22301483154297 17.218690872192383 17.2041015625 17.21933364868164 17.249868392944336 17.295257568359375 17.317445755004883 17.344663619995117 17.365032196044922 17.43568229675293 -9999 -9999
-9999 17.964706420898438 17.745317459106445 17.55473518371582 17.38772964477539 17.30276107788086 17.260225296020508 17.248348236083984 17.23697280883789 17.220666885375977 17.22246742248535 17.242164611816406 17.275609970092773 17.315597534179688 17.347692489624023 17.37740135192871 17.40109634399414 17.425413131713867 17.393089294433594 17.42057228088379
-9999 -9999 17.563304901123047 17.459259033203125 17.345813751220703 17.28942108154297 17.272151947021484 17.267486572265625 17.249420166015625 17.248857498168945 17.254318237304688 17.272571563720703 17.297138214111328 17.33633041381836 17.366573333740234 17.38680648803711 17.410791397094727 17.426950454711914 17.441104888916016 17.4189510345459
-9999 -9999 17.501998901367188 17.397241592407227 17.323150634765625 17.295814514160156 17.29751968383789 17.303504943847656 17.294952392578125 17.29456901550293 17.288814544677734 17.305849075317383 17.330007553100586 17.363330841064453 17.38348960876465 17.39787483215332 17.413597106933594 17.427169799804688 17.407093048095703 17.400646209716797
-9999 -9999 -9999 17.340206146240234 17.305849075317383 17.293258666992188 17.30703353881836 17.31718635559082 17.30830955505371 17.30517578125 17.30406951904297 17.310144424438477 17.335172653198242 17.366775512695312 17.391925811767578 17.396495819091797 17.421546936035156 17.40636444091797 17.39786720275879 17.394899368286133
