ncols         20
nrows         20
xllcorner     0
yllcorner     -3.5992928
cellsize      0.17996463
NODATA_value  -9999
-9999.0 -9999 -9999 -9999 -9999 -9999 -9999 -9999 -9999 -9999 -9999 -9999 -9999 -9999 -9999 -9999 -9999 -9999 -9999 -9999
-9999 -9999 -9999 -9999 -9999 -9999 -9999 -9999 -9999 -9999 -9999 13.341434478759766 13.352555274963379 -9999 -9999 13.22641658782959 13.30899715423584 -9999 -9999 -9999
-9999 -9999 -9999 -9999 13.21494197845459 13.15239143371582 13.051651000976562 13.01903247833252 13.033417701721191 13.052248001098633 13.177310943603516 13.195049285888672 13.148266792297363 13.104316711425781 13.131908416748047 13.180863380432129 13.268407821655273 13.346972465515137 -9999 -9999
-9999 -9999 -9999 13.180319786071777 13.127119064331055 13.06302261352539 13.000094413757324 12.989487648010254 12.988388061523438 12.989100456237793 12.978558540344238 12.950041770935059 12.901764869689941 12.894439697265625 12.907747268676758 12.979351043701172 13.095852851867676 13.181011199951172 -9999 -9999
-9999 -9999 -9999 13.118366241455078 13.050676345825195 12.951096534729004 12.9278564453125 12.980804443359375 13.036866188049316 13.063798904418945 13.06640338897705 13.036344528198242 12.956989288330078 12.868610382080078 12.7883939743042 12.800403594970703 12.881199836730957 12.876564025878906 -9999 -9999
-9999 -9999 13.156295776367188 13.051112174987793 12.941882133483887 12.898832321166992 13.035839080810547 13.308832168579102 13.511754989624023 13.67414665222168 13.800249099731445 13.813651084899902 13.652594566345215 13.381505966186523 13.095962524414062 12.905805587768555 12.839557647705078 12.818520545959473 12.9337739944458 -9999
-9999 -9999 13.064714431762695 12.952768325805664 12.818863868713379 12.911590576171875 13.39129638671875 14.173637390136719 14.586816787719727 14.877583503723145 15.088088035583496 15.086416244506836 14.732203483581543 14.277502059936523 13.789345741271973 13.368415832519531 13.089550971984863 12.968871116638184 12.954357147216797 -9999
-9999 -9999 12.82660961151123 12.687493324279785 12.621185302734375 12.981740951538086 14.008445739746094 15.900498390197754 16.41105079650879 16.61377716064453 16.736183166503906 16.64223861694336 15.804553031921387 15.200178146362305 14.644670486450195 14.107576370239258 13.670008659362793 13.394411087036133 13.273241996765137 -9999
-9999 12.686063766479492 12.515583992004395 12.358752250671387 12.42920970916748 13.049920082092285 14.358543395996094 16.378782272338867 16.95134735107422 17.14348030090332 17.228744506835938 17.131784439086914 16.424829483032227 15.914061546325684 15.454146385192871 14.963983535766602 14.48400592803955 14.122336387634277 13.945255279541016 -9999
-9999 12.40794849395752 12.242881774902344 12.134333610534668 12.441750526428223 13.341203689575195 14.783907890319824 16.659320831298828 17.21037483215332 17.381256103515625 17.441226959228516 17.365453720092773 16.816421508789062 16.438194274902344 16.111679077148438 15.756355285644531 15.361150741577148 15.024980545043945 14.850276947021484 -9999
-9999 12.1138916015625 12.061654090881348 12.191691398620605 12.784076690673828 13.849157333374023 15.293453216552734 16.95815658569336 17.440460205078125 17.578670501708984 17.62649154663086 17.570693969726562 17.111074447631836 16.82234764099121 16.60544776916504 16.37832260131836 16.125343322753906 15.889810562133789 15.765530586242676 -9999
-9999 12.092096328735352 12.212669372558594 12.633048057556152 13.426652908325195 14.491865158081055 15.77247142791748 17.15941619873047 17.564393997192383 17.683671951293945 17.728282928466797 17.69434928894043 17.300498962402344 17.089109420776367 16.953319549560547 16.81639862060547 16.663780212402344 16.532485961914062 16.47575569152832 -9999
-9999 12.554533958435059 12.83590316772461 13.475147247314453 14.299018859863281 15.20427417755127 16.11513328552246 16.907474517822266 17.28174591064453 17.432600021362305 17.488801956176758 17.472251892089844 17.351436614990234 17.26717185974121 17.197919845581055 17.118755340576172 17.00801658630371 16.92230224609375 16.917726516723633 -9999
-9999 13.424053192138672 13.78791618347168 14.500933647155762 15.254223823547363 15.92601203918457 16.50046157836914 16.94864273071289 17.21501922607422 17.340347290039062 17.394412994384766 17.408327102661133 17.397846221923828 17.39337921142578 17.39196014404297 17.35884666442871 17.277616500854492 17.164621353149414 17.20329475402832 -9999
-9999 14.299891471862793 14.678627014160156 15.371671676635742 16.014799118041992 16.492130279541016 16.837997436523438 17.090431213378906 17.244192123413086 17.33074188232422 17.375598907470703 17.40804100036621 17.43832778930664 17.473464965820312 17.517051696777344 17.53209686279297 17.50216293334961 17.371103286743164 -9999 -9999
-9999 14.925591468811035 15.304832458496094 15.934528350830078 16.473644256591797 16.847064971923828 17.07558822631836 17.21795654296875 17.297607421875 17.34749984741211 17.378047943115234 17.41332244873047 17.457897186279297 17.509342193603516 17.56456184387207 17.613323211669922 17.646507263183594 17.720928192138672 -9999 -9999
-9999 15.31075382232666 15.746077537536621 16.275432586669922 16.729633331298828 17.057554244995117 17.231714248657227 17.327024459838867 17.369770050048828 17.395050048828125 17.412874221801758 17.440555572509766 17.480478286743164 17.526107788085938 17.578350067138672 17.628938674926758 17.66947364807129 17.696393966674805 17.631858825683594 17.63959312438965
-9999 -9999 16.18800163269043 16.522369384765625 16.887226104736328 17.172130584716797 17.336212158203125 17.41842269897461 17.44741439819336 17.457406997680664 17.458755493164062 17.47511100769043 17.503610610961914 17.54941749572754 17.59023094177246 17.621896743774414 17.654176712036133 17.670495986938477 17.660463333129883 17.63150405883789
-9999 -9999 16.502561569213867 16.726303100585938 17.00510025024414 17.262821197509766 17.426849365234375 17.508371353149414 17.532325744628906 17.524425506591797 17.504972457885742 17.51247787475586 17.535873413085938 17.572084426879883 17.596033096313477 17.61197280883789 17.631206512451172 17.637928009033203 17.60893440246582 17.59164047241211
-9999 -9999 -9999 16.855724334716797 17.067378997802734 17.299606323242188 17.465492248535156 17.54485321044922 17.559246063232422 17.54300880432129 17.522531509399414 17.517148971557617 17.538209915161133 17.57080078125 17.594789505004883 17.59899139404297 17.62053871154785 17.60039520263672 17.579397201538086 17.569189071655273
