ncols         20
nrows         20
xllcorner     0
yllcorner     -3.5992928
cellsize      0.17996463
NODATA_value  -9999
-9999.0 -9999 -9999 -9999 -9999 -9999 -9999 -9999 -9999 -9999 -9999 -9999 -9999 -9999 -9999 -9999 -9999 -9999 -9999 -9999
-9999 -9999 -9999 -9999 -9999 -9999 -9999 -9999 -9999 -9999 -9999 0 0 -9999 -9999 0 0 -9999 -9999 -9999
-9999 -9999 -9999 -9999 0 0 0 0 0 0 0 0 0 0 0 0 0 0 -9999 -9999
-9999 -9999 -9999 0 0 0 0 0 0 0 0 0 0 0 0 0 0 0 -9999 -9999
-9999 -9999 -9999 0 0 0 0 0 0 0 0 0 0 0 0 0 0 0 -9999 -9999
-9999 -9999 0 0 0 0 8.839445114135742 8.0374174118042 7.390456676483154 6.6593828201293945 5.932304859161377 5.6051716804504395 5.814892292022705 6.642212390899658 7.872236728668213 9.41332721710205 0 0 0 -9999
-9999 -9999 0 0 0 8.826194763183594 7.52186393737793 6.506998062133789 5.466198921203613 4.358665943145752 3.431441307067871 2.987628221511841 3.1030125617980957 3.839104175567627 5.169004440307617 7.123424053192139 0 0 0 -9999
-9999 -9999 0 0 9.441858291625977 7.900490760803223 6.544283390045166 5.214372158050537 3.918705463409424 2.7858352661132812 2.026980400085449 1.6594876050949097 1.6903741359710693 2.148610830307007 3.1270008087158203 4.723311424255371 6.929827690124512 0 0 -9999
-9999 0 0 10.773385047912598 8.854947090148926 7.102659225463867 5.375059127807617 3.775176763534546 2.506291389465332 1.6504206657409668 1.1747163534164429 0.9564043879508972 0.944418728351593 1.1766064167022705 1.72401762008667 2.7464284896850586 4.319295883178711 6.24407958984375 0 -9999
-9999 0 0 10.773073196411133 8.243795394897461 5.907182216644287 3.8562073707580566 2.3011012077331543 1.343641996383667 0.8459582328796387 0.6191723942756653 0.5187541246414185 0.5138891935348511 0.6103936433792114 0.8754588961601257 1.4107401371002197 2.3737499713897705 3.660254955291748 0 -9999
-9999 0 0 10.437226295471191 7.199509620666504 4.52895975112915 2.4935967922210693 1.2291274070739746 0.6269475221633911 0.37570786476135254 0.2752389907836914 0.23771236836910248 0.23672330379486084 0.2759571671485901 0.383581280708313 0.6258743405342102 1.0883833169937134 0 0 -9999
-9999 0 0 9.228014945983887 5.708892345428467 3.1890931129455566 1.5186738967895508 0.6422062516212463 0.28966084122657776 0.15821294486522675 0.11077878624200821 0.09255994856357574 0.09100104123353958 0.1017041876912117 0.13467608392238617 0.2175121307373047 0.39618709683418274 0 0 -9999
-9999 0 0 6.958529949188232 3.882875442504883 1.9653743505477905 0.8601306080818176 0.33386701345443726 0.13730669021606445 0.0708845928311348 0.04289478436112404 0.03291424363851547 0.029599856585264206 0.031014684587717056 0.039551008492708206 0.060821883380413055 0.11661647260189056 0 0 -9999
-9999 0 0 4.359255313873291 2.140536308288574 0.993262529373169 0.4206550121307373 0.16563481092453003 0.06633583456277847 0.033631227910518646 0.020332254469394684 0.014521905221045017 0.011829988099634647 0.011193528771400452 0.012359218671917915 0.016954274848103523 0.028758766129612923 0 0 -9999
-9999 0 0 2.4627697467803955 1.0376540422439575 0.4414384067058563 0.1867961287498474 0.07620225846767426 0.035015080124139786 0.018659986555576324 0.011523555964231491 0.007896178402006626 0.0060331858694553375 0.0052129290997982025 0.004977432545274496 0.005665000528097153 0.00760171702131629 0 -9999 -9999
-9999 0 0 1.4804121255874634 0.5509440898895264 0.20973147451877594 0.08609471470117569 0.0388980396091938 0.02014908939599991 0.011579948477447033 0.007452324498444796 0.005150699056684971 0.004122158978134394 0.004586739931255579 0.005216251593083143 0.0059773726388812065 0.006834287662059069 0.007591152563691139 -9999 -9999
-9999 0 0 0.9995699524879456 0.3425321578979492 0.1116797924041748 0.04604610800743103 0.021679874509572983 0.011889898218214512 0.007235496770590544 0.004882678855210543 0.004303617402911186 0.004649368580430746 0.005196756683290005 0.005896105896681547 0.006714100018143654 0.007641120348125696 0.008664839901030064 0.009833402000367641 0.010391844436526299
-9999 -9999 0 0.7012699246406555 0.23553960025310516 0.07355597615242004 0.028458204120397568 0.013288745656609535 0.007372455671429634 0.0047317985445261 0.004607881419360638 0.004767847713083029 0.005173213314265013 0.005782039370387793 0.006531279534101486 0.007368491031229496 0.008257242850959301 0.009148331359028816 0.009921572171151638 0.01030689850449562
-9999 -9999 0 0 0.1705782115459442 0.05177593231201172 0.019118884578347206 0.008604002185165882 0.005403191316872835 0.0050276098772883415 0.004953145049512386 0.005155159160494804 0.005602917168289423 0.006249750964343548 0.0070216478779911995 0.007849913090467453 0.008674148470163345 0.009403716772794724 0.009936507791280746 0.010208934545516968
-9999 -9999 -9999 0 0.1368618607521057 0.04357670247554779 0.015745369717478752 0.006954916752874851 0.005541171878576279 0.005198965780436993 0.005149140488356352 0.005369881168007851 0.005838203709572554 0.0065031941048800945 0.007285344880074263 0.008099998347461224 0.008884689770638943 0.009518020786345005 0.009957355447113514 0.010180443525314331
