ncols         20
nrows         20
xllcorner     0
yllcorner     -3.5992928
cellsize      0.17996463
NODATA_value  -9999
-9999.0 -9999 -9999 -9999 -9999 -9999 -9999 -9999 -9999 -9999 -9999 -9999 -9999 -9999 -9999 -9999 -9999 -9999 -9999 -9999
-9999 -9999 -9999 -9999 -9999 -9999 -9999 -9999 -9999 -9999 -9999 26.522127151489258 26.521390914916992 -9999 -9999 26.61776351928711 26.697519302368164 -9999 -9999 -9999
-9999 -9999 -9999 -9999 26.58528709411621 26.473949432373047 26.313581466674805 26.197839736938477 26.13981819152832 26.131237030029297 26.212121963500977 26.303194046020508 26.268354415893555 26.16150665283203 26.218181610107422 26.411235809326172 26.54277801513672 26.580053329467773 -9999 -9999
-9999 -9999 -9999 26.593992233276367 26.53472328186035 26.434043884277344 26.31875228881836 26.248966217041016 26.211198806762695 26.194595336914062 26.18877601623535 26.167516708374023 26.08730125427246 26.0103816986084 26.02100944519043 26.132844924926758 26.24912452697754 26.29889678955078 -9999 -9999
-9999 -9999 -9999 26.515819549560547 26.461484909057617 26.398778915405273 26.397075653076172 26.472875595092773 26.560884475708008 26.620023727416992 26.627290725708008 26.543996810913086 26.35104751586914 26.13078498840332 25.975181579589844 25.930038452148438 25.93109703063965 25.904077529907227 -9999 -9999
-9999 -9999 26.461639404296875 26.415151596069336 26.37481117248535 26.451488494873047 26.744308471679688 27.208980560302734 27.623640060424805 27.938465118408203 28.09481430053711 27.95923614501953 27.51818084716797 26.94475746154785 26.439308166503906 26.076248168945312 25.861623764038086 25.728382110595703 25.657344818115234 -9999
-9999 -9999 26.284648895263672 26.254741668701172 26.299549102783203 26.6514892578125 27.50067901611328 28.81723976135254 29.856182098388672 30.474510192871094 30.667692184448242 30.341218948364258 29.481985092163086 28.482358932495117 27.5290470123291 26.735591888427734 26.22037124633789 25.918088912963867 25.77806854248047 -9999
-9999 -9999 25.94713592529297 25.96831703186035 26.203350067138672 26.99565887451172 28.69153594970703 31.402206420898438 32.94005584716797 33.62637710571289 33.69258117675781 33.0760498046875 31.61307716369629 30.207645416259766 28.96310043334961 27.89488983154297 27.06123924255371 26.51401710510254 26.25837516784668 -9999
-9999 25.47532844543457 25.551685333251953 25.67331886291504 26.162954330444336 27.40133285522461 29.764842987060547 32.98808670043945 34.77567672729492 35.5130729675293 35.526336669921875 34.798274993896484 33.18772506713867 31.646024703979492 30.317359924316406 29.182363510131836 28.248027801513672 27.575103759765625 27.224504470825195 -9999
-9999 25.22249984741211 25.2801456451416 25.539941787719727 26.335594177246094 27.971593856811523 30.688142776489258 33.93350601196289 35.74212646484375 36.484439849853516 36.490234375 35.767269134521484 34.192935943603516 32.67296600341797 31.383703231811523 30.311872482299805 29.437177658081055 28.79132843017578 28.440704345703125 -9999
-9999 25.005403518676758 25.170352935791016 25.67214012145996 26.781749725341797 28.698131561279297 31.442758560180664 34.459354400634766 36.15240478515625 36.86375045776367 36.89004135131836 36.23273468017578 34.75489807128906 33.332977294921875 32.138858795166016 31.166757583618164 30.396869659423828 29.841569900512695 29.537683486938477 -9999
-9999 25.080398559570312 25.392169952392578 26.13657569885254 27.45155143737793 29.413129806518555 31.884872436523438 34.478790283203125 35.978755950927734 36.65920639038086 36.7450065612793 36.22822570800781 34.96841812133789 33.75806427001953 32.71978759765625 31.84498405456543 31.137434005737305 30.6295166015625 30.346288681030273 -9999
-9999 25.591394424438477 26.027252197265625 26.93590545654297 28.297508239746094 30.007431030273438 31.932788848876953 33.797855377197266 35.07120132446289 35.75814437866211 35.95588684082031 35.67460632324219 34.9532585144043 34.1419563293457 33.351318359375 32.60020065307617 31.903087615966797 31.35187530517578 30.985509872436523 -9999
-9999 26.495113372802734 27.007266998291016 27.946456909179688 29.140174865722656 30.496089935302734 31.9315128326416 33.29856872558594 34.36576843261719 35.031150817871094 35.334476470947266 35.313079833984375 35.029911041259766 34.6208381652832 34.14143753051758 33.580055236816406 32.95481872558594 32.313106536865234 31.56574249267578 -9999
-9999 27.57025146484375 28.060806274414062 28.88395881652832 29.85239601135254 30.912715911865234 32.035526275634766 33.12422180175781 34.01203155517578 34.648719787597656 35.04075241088867 35.23167419433594 35.26490020751953 35.18766403198242 35.01780700683594 34.72566223144531 34.33618927001953 33.93537139892578 -9999 -9999
-9999 28.425559997558594 28.89356231689453 29.591625213623047 30.40690040588379 31.319101333618164 32.296051025390625 33.21642303466797 33.992130279541016 34.59500503540039 35.03453826904297 35.35818099975586 35.59326934814453 35.74710464477539 35.81117248535156 35.777347564697266 35.68333435058594 35.66144561767578 -9999 -9999
-9999 28.92902374267578 29.502046585083008 30.111053466796875 30.856273651123047 31.754379272460938 32.66150665283203 33.519962310791016 34.240501403808594 34.81433868408203 35.26642608642578 35.64993667602539 35.98375701904297 36.257293701171875 36.455299377441406 36.57269287109375 36.649940490722656 36.79728698730469 37.2137451171875 37.38677978515625
-9999 -9999 30.126142501831055 30.548398971557617 31.230539321899414 32.13549041748047 33.074954986572266 33.933921813964844 34.637962341308594 35.18616485595703 35.62129211425781 36.01185989379883 36.3758544921875 36.70737075805664 36.96042251586914 37.12810134887695 37.25177001953125 37.36440658569336 37.50188446044922 37.54835510253906
-9999 -9999 30.438493728637695 30.865041732788086 31.522493362426758 32.45613098144531 33.455833435058594 34.349403381347656 35.0502815246582 35.568519592285156 35.965087890625 36.33847427368164 36.706268310546875 37.051170349121094 37.31475830078125 37.49024963378906 37.60930633544922 37.6728515625 37.68696594238281 37.6877555847168
-9999 -9999 -9999 31.156465530395508 31.72464370727539 32.64076614379883 33.67123031616211 34.584896087646484 35.28091812133789 35.77766036987305 36.156463623046875 36.507747650146484 36.87346649169922 37.22203826904297 37.494903564453125 37.66791915893555 37.78899383544922 37.808685302734375 37.794349670410156 37.78322982788086
