ncols         20
nrows         20
xllcorner     0
yllcorner     -3.5992928
cellsize      0.17996463
NODATA_value  -9999
-9999.0 -9999 -9999 -9999 -9999 -9999 -9999 -9999 -9999 -9999 -9999 -9999 -9999 -9999 -9999 -9999 -9999 -9999 -9999 -9999
-9999 -9999 -9999 -9999 -9999 -9999 -9999 -9999 -9999 -9999 -9999 26.94394302368164 26.94769287109375 -9999 -9999 27.05267333984375 27.117904663085938 -9999 -9999 -9999
-9999 -9999 -9999 -9999 27.09394645690918 26.996034622192383 26.843446731567383 26.718231201171875 26.64236831665039 26.620067596435547 26.692569732666016 26.778459548950195 26.762710571289062 26.692001342773438 26.745595932006836 26.89640235900879 26.987850189208984 26.998085021972656 -9999 -9999
-9999 -9999 -9999 27.125713348388672 27.08132553100586 27.004806518554688 26.895370483398438 26.799665451049805 26.732437133789062 26.708471298217773 26.7198486328125 26.736547470092773 26.70659637451172 26.66545295715332 26.669191360473633 26.727468490600586 26.763568878173828 26.755474090576172 -9999 -9999
-9999 -9999 -9999 27.100078582763672 27.08686065673828 27.06163787841797 27.046907424926758 27.03516387939453 27.055063247680664 27.129764556884766 27.21348762512207 27.25150489807129 27.189552307128906 27.043533325195312 26.872617721557617 26.734962463378906 26.57352066040039 26.42986488342285 -9999 -9999
-9999 -9999 27.084869384765625 27.08494758605957 27.12041473388672 27.223575592041016 27.40653419494629 27.582962036132812 27.822439193725586 28.11354637145996 28.38070297241211 28.514850616455078 28.43581199645996 28.140214920043945 27.69886016845703 27.201059341430664 26.69193458557129 26.325023651123047 26.121328353881836 -9999
-9999 -9999 26.99086570739746 27.06220054626465 27.203514099121094 27.47015953063965 27.82002830505371 28.26421356201172 28.78398895263672 29.33308219909668 29.78763198852539 30.017465591430664 29.947105407714844 29.55682945251465 28.888946533203125 28.11465835571289 27.295454025268555 26.67523193359375 26.357139587402344 -9999
-9999 -9999 26.76583480834961 26.966371536254883 27.29660987854004 27.73944854736328 28.352054595947266 29.08879280090332 29.876155853271484 30.608230590820312 31.154821395874023 31.42738914489746 31.383953094482422 31.007139205932617 30.31101417541504 29.403676986694336 28.4346923828125 27.587820053100586 27.106231689453125 -9999
-9999 26.110599517822266 26.418594360351562 26.87574577331543 27.418498992919922 28.162635803222656 29.101741790771484 30.120092391967773 31.0797176361084 31.859479904174805 32.3879280090332 32.642826080322266 32.61838150024414 32.303192138671875 31.689834594726562 30.820186614990234 29.879175186157227 29.003271102905273 28.439876556396484 -9999
-9999 25.856590270996094 26.189926147460938 26.869338989257812 27.74469757080078 28.87394142150879 30.12388038635254 31.323320388793945 32.31326675415039 33.024810791015625 33.46427536010742 33.66167449951172 33.635765075683594 33.39427947998047 32.921424865722656 32.21978759765625 31.421770095825195 30.634836196899414 30.11371421813965 -9999
-9999 25.638263702392578 26.115285873413086 27.108619689941406 28.394527435302734 29.84207534790039 31.28064727783203 32.51936340332031 33.43526077270508 34.03422546386719 34.373252868652344 34.50092315673828 34.453094482421875 34.272666931152344 33.95204162597656 33.46160125732422 32.86363220214844 32.24132537841797 31.838855743408203 -9999
-9999 25.76930809020996 26.437833786010742 27.779348373413086 29.36284065246582 30.96266746520996 32.415924072265625 33.56864547729492 34.368377685546875 34.866458892822266 35.128639221191406 35.19554138183594 35.10394287109375 34.9635009765625 34.773738861083984 34.45417022705078 34.05828857421875 33.624717712402344 33.33928680419922 -9999
-9999 26.497970581054688 27.359682083129883 28.932235717773438 30.613529205322266 32.166046142578125 33.468833923339844 34.4549560546875 35.13057327270508 35.54558563232422 35.77412033081055 35.818931579589844 35.72977066040039 35.62206268310547 35.49382019042969 35.31142807006836 35.01369857788086 34.68670654296875 34.44569778442383 -9999
-9999 27.82151222229004 28.767404556274414 30.379390716552734 31.987518310546875 33.34901428222656 34.41508483886719 35.204071044921875 35.75939178466797 36.0853385925293 36.26030731201172 36.31734085083008 36.2844123840332 36.236305236816406 36.161399841308594 36.03895568847656 35.813499450683594 35.51142883300781 35.14488220214844 -9999
-9999 29.30331802368164 30.245237350463867 31.77287483215332 33.2210693359375 34.36449432373047 35.21146774291992 35.82948684692383 36.22480392456055 36.462127685546875 36.59836196899414 36.68661117553711 36.74412155151367 36.778141021728516 36.75616455078125 36.68189239501953 36.54503631591797 36.353206634521484 -9999 -9999
-9999 30.51381492614746 31.460573196411133 32.865966796875 34.14718246459961 35.13336944580078 35.83926773071289 36.29450988769531 36.56746292114258 36.71979522705078 36.80992889404297 36.91664505004883 37.042964935302734 37.16425323486328 37.21223831176758 37.20872116088867 37.16758346557617 37.14003372192383 -9999 -9999
-9999 31.287303924560547 32.42607116699219 33.67257308959961 34.80434799194336 35.701080322265625 36.286991119384766 36.647918701171875 36.839385986328125 36.93204879760742 37.01099395751953 37.12798309326172 37.28422927856445 37.447853088378906 37.5521240234375 37.597267150878906 37.60419845581055 37.62189865112305 37.73590850830078 37.7943115234375
-9999 -9999 33.535579681396484 34.35316467285156 35.28076171875 36.07140350341797 36.60429382324219 36.923641204833984 37.072021484375 37.14958190917969 37.21971130371094 37.33364486694336 37.491477966308594 37.66693878173828 37.79561996459961 37.8626594543457 37.89182662963867 37.902137756347656 37.92055892944336 37.91267776489258
-9999 -9999 34.16830062866211 34.85042953491211 35.6136474609375 36.32252883911133 36.83369827270508 37.14594650268555 37.28517150878906 37.351009368896484 37.40646743774414 37.51226043701172 37.66838455200195 37.84429168701172 37.97818374633789 38.05377197265625 38.08894729614258 38.08295440673828 38.04495620727539 38.019351959228516
-9999 -9999 -9999 35.27284240722656 35.839080810546875 36.4593505859375 36.9538459777832 37.26396942138672 37.39748001098633 37.45682907104492 37.507415771484375 37.601585388183594 37.7564582824707 37.93467330932617 38.07810592651367 38.157318115234375 38.20256423950195 38.17338562011719 38.126609802246094 38.0987663269043
