ncols         20
nrows         20
xllcorner     0
yllcorner     -3.5992928
cellsize      0.17996463
NODATA_value  -9999
-9999.0 -9999 -9999 -9999 -9999 -9999 -9999 -9999 -9999 -9999 -9999 -9999 -9999 -9999 -9999 -9999 -9999 -9999 -9999 -9999
-9999 -9999 -9999 -9999 -9999 -9999 -9999 -9999 -9999 -9999 -9999 1.1329230070114136 1.1155130863189697 -9999 -9999 1.0740771293640137 1.00980806350708 -9999 -9999 -9999
-9999 -9999 -9999 -9999 1.1537692546844482 1.228259563446045 1.3600181341171265 1.459985375404358 1.5186975002288818 1.5553123950958252 1.4160665273666382 1.3309454917907715 1.3398387432098389 1.3546470403671265 1.2547454833984375 1.1335633993148804 1.0357474088668823 0.9654736518859863 -9999 -9999
-9999 -9999 -9999 1.0760295391082764 1.1626009941101074 1.2616608142852783 1.39646315574646 1.5208014249801636 1.6545747518539429 1.7695221900939941 1.8501118421554565 1.8543436527252197 1.8448913097381592 1.730919599533081 1.552844524383545 1.3390605449676514 1.164085865020752 1.0659968852996826 -9999 -9999
-9999 -9999 -9999 1.0472440719604492 1.1361284255981445 1.3005939722061157 1.4833602905273438 1.6809200048446655 1.926167607307434 2.267775058746338 2.622519016265869 2.826775074005127 2.8056066036224365 2.502556800842285 2.128251552581787 1.7231669425964355 1.419123888015747 1.3402864933013916 -9999 -9999
-9999 -9999 0.8223010897636414 0.9589893817901611 1.1051251888275146 1.2973787784576416 1.4990885257720947 1.7298448085784912 2.103142499923706 2.62274432182312 3.237319231033325 3.641057252883911 3.7541306018829346 3.4019477367401123 2.804551601409912 2.2235217094421387 1.7843563556671143 1.5955406427383423 1.4309881925582886 -9999
-9999 -9999 0.7894259095191956 0.8884783387184143 1.0740045309066772 1.2852565050125122 1.4619011878967285 1.642929196357727 1.9724395275115967 2.4642605781555176 3.068636894226074 3.621853828430176 4.047531604766846 3.9583258628845215 3.469292163848877 2.802253007888794 2.2565324306488037 1.8946679830551147 1.734405279159546 -9999
-9999 -9999 0.7793464064598083 0.897494912147522 1.1070375442504883 1.3020939826965332 1.4092367887496948 1.295088768005371 1.3802423477172852 1.5850685834884644 1.8515852689743042 2.2796225547790527 3.4713075160980225 3.886751413345337 3.740497589111328 3.2607996463775635 2.7485244274139404 2.3297009468078613 2.151125907897949 -9999
-9999 0.6413547992706299 0.7905746698379517 0.9687987565994263 1.2282609939575195 1.4408036470413208 1.459277868270874 1.160488486289978 1.0954328775405884 1.1452796459197998 1.283940315246582 1.6538071632385254 2.856476068496704 3.514000177383423 3.7108349800109863 3.5190224647521973 3.1143171787261963 2.734762191772461 2.558846950531006 -9999
-9999 0.7174616456031799 0.8556042909622192 1.1277486085891724 1.4505422115325928 1.6666244268417358 1.5967886447906494 1.1060858964920044 0.9294314980506897 0.891090452671051 0.9648844003677368 1.278993844985962 2.3470523357391357 3.0662994384765625 3.4410178661346436 3.503998279571533 3.2932064533233643 3.023980140686035 2.892674684524536 -9999
-9999 0.8798072934150696 1.0352123975753784 1.35132896900177 1.6846816539764404 1.87046480178833 1.7183929681777954 1.0611613988876343 0.8172953724861145 0.7365014553070068 0.7798289060592651 1.0428662300109863 1.9929488897323608 2.6626100540161133 3.0906710624694824 3.2881033420562744 3.2818779945373535 3.147636890411377 3.076171636581421 -9999
-9999 1.1527847051620483 1.316803216934204 1.6579667329788208 1.9652007818222046 2.07889986038208 1.8539156913757324 1.0930665731430054 0.8287341594696045 0.728191614151001 0.7442434430122375 0.9473157525062561 1.7522486448287964 2.3073196411132812 2.703665018081665 2.965825080871582 3.0830628871917725 3.0821847915649414 3.073047637939453 -9999
-9999 1.5484490394592285 1.7345858812332153 2.085758924484253 2.3055520057678223 2.3235249519348145 2.0928783416748047 1.6493221521377563 1.3222150802612305 1.1394765377044678 1.113308072090149 1.2576713562011719 1.6078407764434814 1.9429609775543213 2.2442641258239746 2.5100529193878174 2.7187538146972656 2.835911750793457 2.8765885829925537 -9999
-9999 2.002779722213745 2.186645746231079 2.50399112701416 2.6253581047058105 2.517512083053589 2.232250213623047 1.8546550273895264 1.5302941799163818 1.3194886445999146 1.241767406463623 1.2828177213668823 1.4134809970855713 1.568015694618225 1.7266401052474976 1.921397089958191 2.1623728275299072 2.436872959136963 2.587984323501587 -9999
-9999 2.327920436859131 2.470282554626465 2.716987371444702 2.733098268508911 2.520214796066284 2.193528413772583 1.8457366228103638 1.5458927154541016 1.3444703817367554 1.2450212240219116 1.2165837287902832 1.2340291738510132 1.271589756011963 1.3116626739501953 1.3940677642822266 1.5311415195465088 1.7921195030212402 -9999 -9999
-9999 2.4227488040924072 2.5063045024871826 2.6636664867401123 2.591935634613037 2.337599992752075 2.0207886695861816 1.7072018384933472 1.4630827903747559 1.2955764532089233 1.1991451978683472 1.1403180360794067 1.0989396572113037 1.0622544288635254 1.034132719039917 1.020430564880371 1.0344396829605103 0.9578546285629272 -9999 -9999
-9999 2.4619040489196777 2.4145140647888184 2.470064163208008 2.35738468170166 2.0968358516693115 1.79133939743042 1.5207955837249756 1.3255144357681274 1.1917988061904907 1.1064369678497314 1.0377402305603027 0.972181499004364 0.9128963351249695 0.8531140089035034 0.7994142770767212 0.7565405368804932 0.705090343952179 0.6722922325134277 0.6057683825492859
-9999 -9999 2.2116212844848633 2.239711284637451 2.12579083442688 1.867892861366272 1.5756630897521973 1.3368449211120605 1.1730817556381226 1.0650941133499146 0.9935528039932251 0.929537296295166 0.8651135563850403 0.7861173748970032 0.7188702821731567 0.6687524318695068 0.6154216527938843 0.5771007537841797 0.5461437106132507 0.5748615264892578
-9999 -9999 2.160778760910034 2.0759096145629883 1.942938208580017 1.6809436082839966 1.394162654876709 1.1690791845321655 1.0204694271087646 0.9332855343818665 0.8887681365013123 0.8321260213851929 0.7662121653556824 0.6879556775093079 0.630294144153595 0.5897243022918701 0.5520564317703247 0.5311795473098755 0.5698262453079224 0.5915624499320984
-9999 -9999 -9999 1.9327372312545776 1.8400741815567017 1.588057279586792 1.3048697710037231 1.0883184671401978 0.951557993888855 0.8784855604171753 0.8369144201278687 0.7955755591392517 0.7297248244285583 0.6522393226623535 0.5890467166900635 0.5630658864974976 0.5192022323608398 0.5502248406410217 0.5842840671539307 0.6031160950660706
