ncols         20
nrows         20
xllcorner     0
yllcorner     -3.5992928
cellsize      0.17996463
NODATA_value  -9999
-9999.0 -9999 -9999 -9999 -9999 -9999 -9999 -9999 -9999 -9999 -9999 -9999 -9999 -9999 -9999 -9999 -9999 -9999 -9999 -9999
-9999 -9999 -9999 -9999 -9999 -9999 -9999 -9999 -9999 -9999 -9999 3.1478352546691895 3.161878824234009 -9999 -9999 3.463639497756958 3.4839699268341064 -9999 -9999 -9999
-9999 -9999 -9999 -9999 3.2771120071411133 3.2031195163726807 3.1012377738952637 3.0017619132995605 2.92562198638916 2.886209487915039 2.893756866455078 2.975764274597168 3.0207040309906006 3.048407793045044 3.143437623977661 3.2970080375671387 3.3763413429260254 3.3968710899353027 -9999 -9999
-9999 -9999 -9999 3.2424674034118652 3.181306838989258 3.0520083904266357 2.9048757553100586 2.779656410217285 2.690999984741211 2.6426634788513184 2.636698007583618 2.6713032722473145 2.721773386001587 2.7917399406433105 2.901846408843994 3.0460736751556396 3.183284044265747 3.2680108547210693 -9999 -9999
-9999 -9999 -9999 3.1057581901550293 2.9684407711029053 2.7536377906799316 2.5187435150146484 2.353311538696289 2.248694658279419 2.1911258697509766 2.173264980316162 2.1906516551971436 2.2381062507629395 2.3198461532592773 2.448610544204712 2.6346137523651123 2.871974468231201 3.025418519973755 -9999 -9999
-9999 -9999 2.9646244049072266 2.8857831954956055 2.648956775665283 2.314173698425293 1.9151010513305664 1.7257369756698608 1.6254675388336182 1.5737452507019043 1.5548676252365112 1.5631611347198486 1.5985878705978394 1.668040156364441 1.789578914642334 2.00679349899292 2.4411964416503906 2.6838557720184326 2.7045679092407227 -9999
-9999 -9999 2.7860569953918457 2.5902113914489746 2.239330768585205 1.787395715713501 1.5055890083312988 1.345805287361145 1.2573474645614624 1.211226463317871 1.1931315660476685 1.1978517770767212 1.2267099618911743 1.2875996828079224 1.3994178771972656 1.606006383895874 2.014315128326416 2.31441068649292 2.4546713829040527 -9999
-9999 -9999 2.53944730758667 2.2309727668762207 1.7594386339187622 1.4396930932998657 1.2316372394561768 1.1045193672180176 1.0311121940612793 0.9923273921012878 0.9766772985458374 0.979888379573822 1.0031782388687134 1.0528253316879272 1.1422144174575806 1.2957500219345093 1.545777678489685 1.8943349123001099 2.09114408493042 -9999
-9999 2.5331544876098633 2.3328864574432373 1.8245925903320312 1.4614200592041016 1.2144227027893066 1.052017331123352 0.9504473805427551 0.89045250415802 0.857704758644104 0.8440868854522705 0.84626305103302 0.8647943735122681 0.9038165807723999 0.9714571833610535 1.0801479816436768 1.2439361810684204 1.4634671211242676 1.7119868993759155 -9999
-9999 2.433675527572632 2.1677966117858887 1.6212043762207031 1.2869759798049927 1.0739182233810425 0.9376411437988281 0.8531128168106079 0.802085816860199 0.7734700441360474 0.761084258556366 0.7621034979820251 0.7765348553657532 0.8069484233856201 0.858511745929718 0.9389926195144653 1.0580217838287354 1.2244656085968018 1.4225523471832275 -9999
-9999 2.304126024246216 2.0283453464508057 1.4951738119125366 1.1801156997680664 0.9860872626304626 0.8656585216522217 0.7912306785583496 0.7458930611610413 0.7200655341148376 0.7083909511566162 0.7082216739654541 0.7192236185073853 0.743105411529541 0.7836097478866577 0.8471830487251282 0.9452069997787476 1.1017560958862305 1.221006989479065 -9999
-9999 2.16251802444458 1.898140549659729 1.4014146327972412 1.107678771018982 0.9282565116882324 0.8185778856277466 0.7508190870285034 0.7095022201538086 0.6857463121414185 0.6745774149894714 0.6733437776565552 0.6815328598022461 0.7004126906394958 0.7328037023544312 0.7837482690811157 0.8624432682991028 0.9855177998542786 1.071028232574463 -9999
-9999 2.0111141204833984 1.766421914100647 1.3197156190872192 1.0506778955459595 0.8863183856010437 0.7855331897735596 0.723303496837616 0.6853907704353333 0.6633447408676147 0.6527616381645203 0.650653600692749 0.6566391587257385 0.67165607213974 0.6978692412376404 0.7392536997795105 0.8023733496665955 0.8992860317230225 0.970018208026886 -9999
-9999 1.850128412246704 1.6282880306243896 1.2386976480484009 0.9984444379806519 0.8511912822723389 0.7600305676460266 0.7035414576530457 0.6690946221351624 0.6483388543128967 0.6376830339431763 0.6348533630371094 0.6391268968582153 0.6510393023490906 0.6722418665885925 0.7061824202537537 0.7597528696060181 0.841118335723877 0.9167336225509644 -9999
-9999 1.6890466213226318 1.4897053241729736 1.156640648841858 0.9486186504364014 0.8196802735328674 0.7390908598899841 0.6887263655662537 0.6567701101303101 0.6373353004455566 0.6269456148147583 0.6236082315444946 0.6264965534210205 0.6357435584068298 0.6523884534835815 0.6788102984428406 0.7194117307662964 0.7689550518989563 -9999 -9999
-9999 1.5509635210037231 1.3648771047592163 1.0806728601455688 0.9032407999038696 0.7921615839004517 0.7219977378845215 0.6764844655990601 0.647263765335083 0.6291732788085938 0.6191464066505432 0.6154215931892395 0.6171101927757263 0.6240190863609314 0.6365499496459961 0.6559494733810425 0.6842809915542603 0.7123012542724609 -9999 -9999
-9999 1.4599435329437256 1.2557127475738525 1.0163377523422241 0.8648279905319214 0.7697363495826721 0.7075449824333191 0.6666861772537231 0.6400341987609863 0.6232194304466248 0.6136175990104675 0.6096049547195435 0.610251784324646 0.6151180267333984 0.6241207122802734 0.6375587582588196 0.6558536291122437 0.6730512380599976 0.6690373420715332 0.668167769908905
-9999 -9999 1.1071277856826782 0.9560365676879883 0.8336333632469177 0.751599907875061 0.696319580078125 0.659344494342804 0.6348342895507812 0.6191267371177673 0.6099064350128174 0.6056677103042603 0.6054630279541016 0.6086962819099426 0.6149420738220215 0.6238556504249573 0.6347410082817078 0.6454375982284546 0.6494116187095642 0.6505326628684998
-9999 -9999 1.0449532270431519 0.9354203343391418 0.8175177574157715 0.7400897741317749 0.6888887286186218 0.6545306444168091 0.6315426826477051 0.616625964641571 0.6076624989509583 0.6032600998878479 0.6024665832519531 0.6045851707458496 0.6090125441551208 0.6151539087295532 0.6221535205841064 0.6284931302070618 0.632110059261322 0.6336231827735901
-9999 -9999 -9999 0.8903194665908813 0.8039391040802002 0.7332298755645752 0.6849565505981445 0.65211021900177 0.629946231842041 0.6154428124427795 0.6066131591796875 0.6021182537078857 0.6010252833366394 0.60258948802948 0.60614013671875 0.611002504825592 0.6163809299468994 0.6211317777633667 0.6242778301239014 0.6257719397544861
