ncols         20
nrows         20
xllcorner     0
yllcorner     -3.5992928
cellsize      0.17996463
NODATA_value  -9999
-9999.0 -9999 -9999 -9999 -9999 -9999 -9999 -9999 -9999 -9999 -9999 -9999 -9999 -9999 -9999 -9999 -9999 -9999 -9999 -9999
-9999 -9999 -9999 -9999 -9999 -9999 -9999 -9999 -9999 -9999 -9999 19.021461486816406 19.032329559326172 -9999 -9999 19.011287689208984 19.016721725463867 -9999 -9999 -9999
-9999 -9999 -9999 -9999 18.995668411254883 19.003583908081055 19.001483917236328 19.00769805908203 19.01423454284668 19.00198745727539 19.042551040649414 19.03172492980957 19.030710220336914 19.063154220581055 19.077871322631836 19.055706024169922 19.048765182495117 19.06432342529297 -9999 -9999
-9999 -9999 -9999 19.014738082885742 18.993892669677734 18.990184783935547 18.980010986328125 18.970203399658203 18.94482421875 18.923330307006836 18.89789390563965 18.9022159576416 18.921777725219727 18.97690200805664 19.020090103149414 19.05446434020996 19.087238311767578 19.120075225830078 -9999 -9999
-9999 -9999 -9999 19.035091400146484 19.012523651123047 18.960002899169922 18.905681610107422 18.838825225830078 18.76556396484375 18.67154312133789 18.58616065979004 18.557044982910156 18.596078872680664 18.709300994873047 18.833444595336914 18.969810485839844 19.091100692749023 19.136476516723633 -9999 -9999
-9999 -9999 19.12095069885254 19.066904067993164 19.00436782836914 18.912799835205078 18.86387825012207 18.73092269897461 18.567583084106445 18.391788482666016 18.232011795043945 18.168758392333984 18.2063045501709 18.363052368164062 18.586305618286133 18.82547378540039 18.974979400634766 19.11923599243164 19.245168685913086 -9999
-9999 -9999 19.167762756347656 19.104724884033203 18.985769271850586 18.89674949645996 18.720407485961914 18.52182388305664 18.298913955688477 18.07271957397461 17.87859344482422 17.78264045715332 17.812400817871094 17.96922492980957 18.19591522216797 18.501630783081055 18.729541778564453 18.964414596557617 19.093650817871094 -9999
-9999 -9999 19.244611740112305 19.122249603271484 19.005233764648438 18.788244247436523 18.544374465942383 18.293514251708984 18.049327850341797 17.82138442993164 17.650951385498047 17.556800842285156 17.5687313079834 17.688331604003906 17.893444061279297 18.165027618408203 18.454524993896484 18.6613712310791 18.810020446777344 -9999
-9999 19.55632781982422 19.351978302001953 19.203292846679688 18.919876098632812 18.617904663085938 18.322439193725586 18.039653778076172 17.798429489135742 17.610994338989258 17.490070343017578 17.426788330078125 17.424148559570312 17.497095108032227 17.637197494506836 17.832693099975586 18.10261344909668 18.342159271240234 18.439762115478516 -9999
-9999 19.624521255493164 19.436847686767578 19.16790199279785 18.78140640258789 18.409595489501953 18.06783676147461 17.778427124023438 17.56450843811035 17.428823471069336 17.3590145111084 17.325414657592773 17.324121475219727 17.360366821289062 17.445497512817383 17.570547103881836 17.782005310058594 17.97171974182129 18.055736541748047 -9999
-9999 19.639894485473633 19.437728881835938 19.067129135131836 18.609838485717773 18.194196701049805 17.837209701538086 17.562448501586914 17.3865966796875 17.293296813964844 17.25067138671875 17.23189353942871 17.22642707824707 17.24456787109375 17.29570770263672 17.38273048400879 17.515626907348633 17.636226654052734 17.71672821044922 -9999
-9999 19.562095642089844 19.291133880615234 18.855621337890625 18.375041961669922 17.97058868408203 17.645910263061523 17.414493560791016 17.283464431762695 17.22376823425293 17.194053649902344 17.173095703125 17.132566452026367 17.134981155395508 17.18239974975586 17.210796356201172 17.31045913696289 17.394763946533203 17.454692840576172 -9999
-9999 19.27946662902832 18.951745986938477 18.523494720458984 18.08660125732422 17.743175506591797 17.4853515625 17.316204071044922 17.235340118408203 17.205101013183594 17.19160270690918 17.175418853759766 17.135944366455078 17.130468368530273 17.13673973083496 17.17442512512207 17.201175689697266 17.240966796875 17.29192543029785 -9999
-9999 18.81206703186035 18.52302360534668 18.15639305114746 17.796768188476562 17.534223556518555 17.355777740478516 17.253110885620117 17.214956283569336 17.2071533203125 17.20663833618164 17.20366668701172 17.185888290405273 17.19071388244629 17.202726364135742 17.22132682800293 17.21105194091797 17.17864990234375 17.262821197509766 -9999
-9999 18.3930606842041 18.15496826171875 17.85799217224121 17.577320098876953 17.389284133911133 17.2786865234375 17.22660255432129 17.212162017822266 17.21407699584961 17.215578079223633 17.226444244384766 17.241525650024414 17.259998321533203 17.274089813232422 17.28438377380371 17.29312515258789 17.200605392456055 -9999 -9999
-9999 18.10468101501465 17.901138305664062 17.66387939453125 17.447185516357422 17.317646026611328 17.250167846679688 17.22574234008789 17.215822219848633 17.212684631347656 17.19912338256836 17.215091705322266 17.246227264404297 17.29181480407715 17.314708709716797 17.34209442138672 17.36208152770996 17.434127807617188 -9999 -9999
-9999 17.95002555847168 17.733041763305664 17.542015075683594 17.375770568847656 17.292570114135742 17.25177764892578 17.2413272857666 17.231075286865234 17.216123580932617 17.218597412109375 17.238964080810547 17.2729434967041 17.31291961669922 17.34539031982422 17.375381469726562 17.39923667907715 17.4238338470459 17.39098358154297 17.418472290039062
-9999 -9999 17.552785873413086 17.44759750366211 17.334518432617188 17.280092239379883 17.26482582092285 17.261707305908203 17.245023727416992 17.24543571472168 17.251445770263672 17.270200729370117 17.295129776000977 17.334728240966797 17.365201950073242 17.38545036315918 17.409502029418945 17.425600051879883 17.439498901367188 17.41701889038086
-9999 -9999 17.48979949951172 17.385896682739258 17.312440872192383 17.287315368652344 17.2913761138916 17.299060821533203 17.29190444946289 17.292274475097656 17.28667640686035 17.304107666015625 17.328624725341797 17.362281799316406 17.382511138916016 17.396854400634766 17.412452697753906 17.425796508789062 17.405412673950195 17.39885139465332
-9999 -9999 -9999 17.329444885253906 17.295198440551758 17.284719467163086 17.301054000854492 17.312976837158203 17.305450439453125 17.302902221679688 17.302053451538086 17.308422088623047 17.333847045898438 17.36577796936035 17.391061782836914 17.39545440673828 17.420400619506836 17.40488624572754 17.396240234375 17.393207550048828
