ncols         20
nrows         20
xllcorner     0
yllcorner     -3.5992928
cellsize      0.17996463
NODATA_value  -9999
-9999.0 -9999 -9999 -9999 -9999 -9999 -9999 -9999 -9999 -9999 -9999 -9999 -9999 -9999 -9999 -9999 -9999 -9999 -9999 -9999
-9999 -9999 -9999 -9999 -9999 -9999 -9999 -9999 -9999 -9999 -9999 0.1344805806875229 0.13458563387393951 -9999 -9999 0.1369088590145111 0.13708803057670593 -9999 -9999 -9999
-9999 -9999 -9999 -9999 0.1339610517024994 0.13393330574035645 0.13393616676330566 0.13399049639701843 0.13411292433738708 0.13430115580558777 0.13451139628887177 0.12455041706562042 0.12487756460905075 0.13577452301979065 0.13639798760414124 0.1266942173242569 0.12722720205783844 0.13822714984416962 -9999 -9999
-9999 -9999 -9999 0.13423635065555573 0.12401139736175537 0.10552665591239929 0.10556136071681976 0.10566037148237228 0.10582595318555832 0.10604406893253326 0.10629203915596008 0.09848098456859589 0.09879601001739502 0.10737376660108566 0.1078929603099823 0.10031062364578247 0.10921978950500488 0.1393260657787323 -9999 -9999
-9999 -9999 -9999 0.13446122407913208 0.10580240190029144 0.07702326774597168 0.07108425348997116 0.07124321162700653 0.07145901024341583 0.07171113789081573 0.071973517537117 0.06682727485895157 0.0670899748802185 0.07287389039993286 0.07331271469593048 0.0739370733499527 0.1109669953584671 0.14159725606441498 -9999 -9999
-9999 -9999 0.13496708869934082 0.12468329071998596 0.09814408421516418 0.0660262405872345 0.040945928543806076 0.04111830145120621 0.04133947938680649 0.04157870635390282 0.04181571677327156 0.03877562656998634 0.038999199867248535 0.0425901934504509 0.042993512004613876 0.07017413526773453 0.10513357818126678 0.1346966177225113 0.14786268770694733 -9999
-9999 -9999 0.13537903130054474 0.1065966784954071 0.07773824781179428 0.05244382470846176 0.030020177364349365 0.0203365720808506 0.020508933812379837 0.02069023810327053 0.020869245752692223 0.019427191466093063 0.019621867686510086 0.02153775654733181 0.032460715621709824 0.05747317150235176 0.08589942753314972 0.11859838664531708 0.15143850445747375 -9999
-9999 -9999 0.136166512966156 0.10731995850801468 0.07228710502386093 0.04163035377860069 0.02050941251218319 0.010107841342687607 0.008736860938370228 0.00884951464831829 0.008965123444795609 0.008398403413593769 0.008561867289245129 0.01114386785775423 0.023182563483715057 0.04756277799606323 0.0829949676990509 0.12362980097532272 0.1571883112192154 -9999
-9999 0.13790787756443024 0.1271561086177826 0.10022389888763428 0.06770238280296326 0.03897757828235626 0.019281357526779175 0.008164234459400177 0.003214519936591387 0.0032824240624904633 0.0033523752354085445 0.003159451996907592 0.0035513914190232754 0.010219737887382507 0.024642491713166237 0.05031098052859306 0.08745347708463669 0.1297876536846161 0.16464672982692719 -9999
-9999 0.1395498812198639 0.10989365726709366 0.08029581606388092 0.05437400937080383 0.031493380665779114 0.015583619475364685 0.006615561433136463 0.002450808184221387 0.0016348341014236212 0.0016895305598154664 0.0017376142786815763 0.0038248514756560326 0.010890943929553032 0.026127705350518227 0.053222861140966415 0.09238065779209137 0.13691984117031097 0.17349334061145782 -9999
-9999 0.14246979355812073 0.11237780749797821 0.07587386667728424 0.043888576328754425 0.021749505773186684 0.010789940133690834 0.004618122708052397 0.0017254528356716037 0.001734113204292953 0.0018005032325163484 0.0018558365991339087 0.004075177945196629 0.01154189370572567 0.027612239122390747 0.056191202253103256 0.09748825430870056 0.1444120556116104 0.1828845888376236 -9999
-9999 0.14657485485076904 0.11575119197368622 0.07831484824419022 0.04542418569326401 0.02256665751338005 0.009599762968719006 0.0035201474092900753 0.0017381316283717752 0.0018242839723825455 0.0018992972327396274 0.002072565257549286 0.006005185190588236 0.014383281581103802 0.029086705297231674 0.05914599448442459 0.10254259407520294 0.15171457827091217 0.19183850288391113 -9999
-9999 0.15180042386054993 0.12003199011087418 0.08139097690582275 0.04729193449020386 0.02367405593395233 0.01009407639503479 0.003711728611961007 0.001814199727959931 0.0019035449950024486 0.0019853312987834215 0.003240733640268445 0.009349857456982136 0.022369682788848877 0.045736007392406464 0.07917957752943039 0.11660810559988022 0.15854208171367645 0.19950182735919952 -9999
-9999 0.15800130367279053 0.1251901537179947 0.08539845794439316 0.04972241073846817 0.024747470393776894 0.010542642325162888 0.0038670278154313564 0.001881653442978859 0.00196958240121603 0.0020521176047623158 0.0042487140744924545 0.012231340631842613 0.02945777401328087 0.06015335023403168 0.10440089553594589 0.15435604751110077 0.19395455718040466 0.20481686294078827 -9999
-9999 0.1645740568637848 0.13060559332370758 0.08924385160207748 0.052019111812114716 0.025899406522512436 0.012908406555652618 0.005537113640457392 0.002045531990006566 0.002023208187893033 0.0021034865640103817 0.004726795479655266 0.013548163697123528 0.03269580751657486 0.06697043776512146 0.11673662811517715 0.17288324236869812 0.2191256433725357 -9999 -9999
-9999 0.170477032661438 0.13619299232959747 0.10057821869850159 0.06892727315425873 0.04024507850408554 0.02009483054280281 0.008528918027877808 0.0033928751945495605 0.002064043190330267 0.0021428524050861597 0.004807477816939354 0.013792458921670914 0.033346861600875854 0.06846292316913605 0.11967352032661438 0.1783353090286255 0.22633232176303864 -9999 -9999
-9999 0.1746385395526886 0.16529147326946259 0.13239464163780212 0.09041835367679596 0.05269291251897812 0.028370115906000137 0.014072548598051071 0.006002797745168209 0.0022048181854188442 0.002171388827264309 0.004476394969969988 0.012921204790472984 0.03129173815250397 0.06434446573257446 0.11264105886220932 0.1684849113225937 0.21594484150409698 0.23819440603256226 0.24002613127231598
-9999 -9999 0.18501505255699158 0.14759892225265503 0.1086144670844078 0.07403802126646042 0.04297873005270958 0.02137048728764057 0.009041057899594307 0.0033298463094979525 0.002189044142141938 0.0035549092572182417 0.010296124964952469 0.025039097294211388 0.051404453814029694 0.09024181216955185 0.13499587774276733 0.17264717817306519 0.18854406476020813 0.1894809454679489
-9999 -9999 0.1885102093219757 0.17625732719898224 0.14020583033561707 0.09519625455141068 0.05520157516002655 0.02730949968099594 0.011557175777852535 0.00423815380781889 0.0021982803009450436 0.002399263670668006 0.0069699520245194435 0.016917379572987556 0.03497418761253357 0.06110607087612152 0.09177586436271667 0.11710164695978165 0.12725482881069183 0.12764209508895874
-9999 -9999 -9999 0.19341832399368286 0.1533605307340622 0.10393327474594116 0.06013183295726776 0.029708674177527428 0.012558826245367527 0.004616281017661095 0.002202544128522277 0.0022801475133746862 0.004011283162981272 0.009705808013677597 0.020120179280638695 0.035154636949300766 0.0528545007109642 0.06711022555828094 0.07304698973894119 0.07319841533899307
