ncols         20
nrows         20
xllcorner     0
yllcorner     -3.5992928
cellsize      0.17996463
NODATA_value  -9999
-9999.0 -9999 -9999 -9999 -9999 -9999 -9999 -9999 -9999 -9999 -9999 -9999 -9999 -9999 -9999 -9999 -9999 -9999 -9999 -9999
-9999 -9999 -9999 -9999 -9999 -9999 -9999 -9999 -9999 -9999 -9999 3.012310028076172 3.023756980895996 -9999 -9999 3.2436726093292236 3.2508137226104736 -9999 -9999 -9999
-9999 -9999 -9999 -9999 3.2629406452178955 3.2090554237365723 3.1285083293914795 3.034250020980835 2.9475345611572266 2.887979030609131 2.8676249980926514 2.9099647998809814 2.948504686355591 2.990138292312622 3.061837911605835 3.1513025760650635 3.189722776412964 3.195894241333008 -9999 -9999
-9999 -9999 -9999 3.304680109024048 3.2451837062835693 3.1462321281433105 3.026864767074585 2.899493932723999 2.7898385524749756 2.7160933017730713 2.688457489013672 2.7098543643951416 2.7648401260375977 2.8430700302124023 2.935865879058838 3.0251245498657227 3.0914344787597656 3.132380485534668 -9999 -9999
-9999 -9999 -9999 3.28554368019104 3.1845755577087402 3.027909517288208 2.8378725051879883 2.6430530548095703 2.487367630004883 2.388157844543457 2.3502089977264404 2.374722957611084 2.4545578956604004 2.5713562965393066 2.705099105834961 2.832075595855713 2.9367446899414062 3.0049870014190674 -9999 -9999
-9999 -9999 3.3578929901123047 3.2691779136657715 3.099346399307251 2.8548622131347656 2.5532824993133545 2.2479710578918457 2.0334410667419434 1.9116511344909668 1.8715720176696777 1.9133474826812744 2.034754514694214 2.1992602348327637 2.3812122344970703 2.5546813011169434 2.698176860809326 2.7872304916381836 2.764449119567871 -9999
-9999 -9999 3.353717565536499 3.2258992195129395 2.9850356578826904 2.6283130645751953 2.169497489929199 1.6776628494262695 1.4166146516799927 1.301129937171936 1.284236192703247 1.366722822189331 1.573454737663269 1.7901588678359985 2.0081276893615723 2.2163949012756348 2.3940248489379883 2.522535800933838 2.5795912742614746 -9999
-9999 -9999 3.361997604370117 3.1860029697418213 2.861602783203125 2.381605386734009 1.7304786443710327 0.8218234181404114 0.61268550157547 0.5656735897064209 0.5903986692428589 0.7107108235359192 1.14432954788208 1.4224566221237183 1.6530797481536865 1.8662407398223877 2.0561912059783936 2.207204818725586 2.2931270599365234 -9999
-9999 3.5113587379455566 3.380949020385742 3.1310489177703857 2.7336838245391846 2.1812946796417236 1.4814538955688477 0.6237629652023315 0.4066470265388489 0.36000800132751465 0.39081937074661255 0.5170746445655823 0.8930978178977966 1.1535495519638062 1.3641014099121094 1.552939534187317 1.7275511026382446 1.8756005764007568 1.966429352760315 -9999
-9999 3.4549121856689453 3.306851387023926 3.0158674716949463 2.5772860050201416 2.0054705142974854 1.3321261405944824 0.5732053518295288 0.3627694249153137 0.3120597302913666 0.33847576379776 0.4515313506126404 0.7540745735168457 0.9733401536941528 1.1493319272994995 1.3059332370758057 1.4492141008377075 1.5757924318313599 1.6582109928131104 -9999
-9999 3.305818557739258 3.139453887939453 2.8226826190948486 2.3753392696380615 1.8313922882080078 1.2288634777069092 0.5760791897773743 0.38527119159698486 0.3343266248703003 0.3529735207557678 0.44567328691482544 0.6858004927635193 0.8605625629425049 0.9993806481361389 1.12405264377594 1.2388629913330078 1.3431648015975952 1.4136797189712524 -9999
-9999 3.042893409729004 2.867596387863159 2.5477800369262695 2.128282070159912 1.6546075344085693 1.1594318151474 0.6300222277641296 0.466249018907547 0.4149297773838043 0.42217621207237244 0.48929303884506226 0.6695330142974854 0.7982378602027893 0.9019279479980469 0.9976502060890198 1.0890007019042969 1.175528883934021 1.2367100715637207 -9999
-9999 2.685011386871338 2.5130841732025146 2.215088129043579 1.857090711593628 1.4842897653579712 1.1296466588974 0.8266138434410095 0.6637740731239319 0.5913527011871338 0.5786490440368652 0.6143916845321655 0.6944692730903625 0.7722307443618774 0.8435587882995605 0.9144178032875061 0.9878139495849609 1.062403678894043 1.120082139968872 -9999
-9999 2.291468858718872 2.1352481842041016 1.8812276124954224 1.6034173965454102 1.3294742107391357 1.0806760787963867 0.8820085525512695 0.7568243741989136 0.6901258230209351 0.6678870916366577 0.6800512671470642 0.7171621918678284 0.7622761726379395 0.8098548054695129 0.8621149659156799 0.9231210947036743 0.9908668994903564 1.0582820177078247 -9999
-9999 1.943129062652588 1.8100519180297852 1.6123329401016235 1.403384804725647 1.2028437852859497 1.025558352470398 0.8861391544342041 0.7927696704864502 0.7384161353111267 0.7148535251617432 0.7150687575340271 0.7321767807006836 0.7584954500198364 0.7903230786323547 0.828131914138794 0.875400960445404 0.9189595580101013 -9999 -9999
-9999 1.6942914724349976 1.5765960216522217 1.416527509689331 1.2551993131637573 1.105099081993103 0.9748333096504211 0.8724368810653687 0.8022248148918152 0.7593960762023926 0.7380252480506897 0.7333317995071411 0.7408905625343323 0.7566217184066772 0.7781786918640137 0.8055557608604431 0.8413350582122803 0.8741015195846558 -9999 -9999
-9999 1.557663917541504 1.4178318977355957 1.2801464796066284 1.149169683456421 1.0326553583145142 0.9329178333282471 0.8548060655593872 0.8009582757949829 0.7671656012535095 0.7488545179367065 0.7426455616950989 0.745591402053833 0.7551678419113159 0.7697852849960327 0.7890719771385193 0.8140770792961121 0.8389774560928345 0.8421460390090942 0.84426349401474
-9999 -9999 1.264634132385254 1.1770846843719482 1.0739727020263672 0.9805126786231995 0.9010439515113831 0.8391362428665161 0.7965980768203735 0.7693189978599548 0.7537478804588318 0.7473253011703491 0.7479605674743652 0.753907322883606 0.7638062834739685 0.7768401503562927 0.7923863530158997 0.8085135221481323 0.8171241283416748 0.8203186392784119
-9999 -9999 1.192185640335083 1.1145930290222168 1.0278973579406738 0.9468926787376404 0.8795405030250549 0.8279258608818054 0.7926627993583679 0.76960289478302 0.755888819694519 0.7495971322059631 0.7490975856781006 0.7529686689376831 0.7599486112594604 0.7690528631210327 0.7792665958404541 0.7888244390487671 0.7949843406677246 0.7977777719497681
-9999 -9999 -9999 1.0634527206420898 1.0018917322158813 0.9296166896820068 0.8685439825057983 0.8221616744995117 0.7904434204101562 0.7694160342216492 0.7566469311714172 0.7504656910896301 0.7494944334030151 0.7524253726005554 0.7580462694168091 0.7653064131736755 0.773216187953949 0.7802727222442627 0.7851787805557251 0.7875969409942627
