ncols         20
nrows         20
xllcorner     0
yllcorner     -3.5992928
cellsize      0.17996463
NODATA_value  -9999
-9999.0 -9999 -9999 -9999 -9999 -9999 -9999 -9999 -9999 -9999 -9999 -9999 -9999 -9999 -9999 -9999 -9999 -9999 -9999 -9999
-9999 -9999 -9999 -9999 -9999 -9999 -9999 -9999 -9999 -9999 -9999 3.02675461769104 3.0383081436157227 -9999 -9999 3.2581639289855957 3.265399932861328 -9999 -9999 -9999
-9999 -9999 -9999 -9999 3.2802019119262695 3.2255325317382812 3.1439833641052246 3.0487852096557617 2.9613454341888428 2.9013662338256836 2.881047248840332 2.9237024784088135 2.962550640106201 3.0045199394226074 3.0765223503112793 3.166098117828369 3.2049059867858887 3.211822509765625 -9999 -9999
-9999 -9999 -9999 3.32131290435791 3.261256456375122 3.1611928939819336 3.0407559871673584 2.9124577045440674 2.8021304607391357 2.728055715560913 2.700559616088867 2.7223496437072754 2.7779507637023926 2.856940507888794 2.9504573345184326 3.040367841720581 3.1075639724731445 3.1495022773742676 -9999 -9999
-9999 -9999 -9999 3.3005573749542236 3.1985890865325928 3.040665626525879 2.8494834899902344 2.6536808013916016 2.4973323345184326 2.3978965282440186 2.3602781295776367 2.3855326175689697 2.4664647579193115 2.5845906734466553 2.719755172729492 2.848196029663086 2.954498529434204 3.0242416858673096 -9999 -9999
-9999 -9999 3.3704276084899902 3.281759262084961 3.110959529876709 2.865269899368286 2.5623998641967773 2.255861759185791 2.0405185222625732 1.918473243713379 1.8788081407546997 1.9216123819351196 2.044675588607788 2.2112560272216797 2.395507574081421 2.5713815689086914 2.7173895835876465 2.809002637863159 2.7887613773345947 -9999
-9999 -9999 3.3645682334899902 3.2361292839050293 2.9943766593933105 2.6364870071411133 2.1760663986206055 1.6826093196868896 1.4205474853515625 1.3047150373458862 1.2881540060043335 1.371726632118225 1.5805128812789917 1.7998790740966797 2.0209219455718994 2.232461452484131 2.41332745552063 2.544806480407715 2.6039700508117676 -9999
-9999 -9999 3.3707964420318604 3.1943869590759277 2.8693509101867676 2.388115406036377 1.7349716424942017 0.8246667981147766 0.6145744919776917 0.5672124624252319 0.5920670628547668 0.7130985856056213 1.1487406492233276 1.4294087886810303 1.6632506847381592 1.880191445350647 2.073920249938965 2.2282893657684326 2.316352128982544 -9999
-9999 3.5182111263275146 3.3884787559509277 3.138711452484131 2.7409653663635254 2.1871280670166016 1.484858751296997 0.6254353523254395 0.4074549973011017 0.3604944944381714 0.3913792073726654 0.5182179808616638 0.8960068821907043 1.1580864191055298 1.370987892150879 1.563603401184082 1.7421085834503174 1.8937225341796875 1.9867489337921143 -9999
-9999 3.463587760925293 3.3155674934387207 3.0246033668518066 2.585392475128174 2.011593818664551 1.3353008031845093 0.5743996500968933 0.36310094594955444 0.3120630085468292 0.338500440120697 0.4519951045513153 0.7558345794677734 0.9763590097427368 1.1536258459091187 1.3129277229309082 1.459532380104065 1.589681625366211 1.674178123474121 -9999
-9999 3.3181426525115967 3.151298761367798 2.8338353633880615 2.385024309158325 1.8382692337036133 1.23239266872406 0.5771932005882263 0.38546842336654663 0.3341711759567261 0.35278546810150146 0.445767879486084 0.6866476535797119 0.8621929287910461 1.0017322301864624 1.1283334493637085 1.2457252740859985 1.3526486158370972 1.424789547920227 -9999
-9999 3.0592949390411377 2.882883310317993 2.5612945556640625 2.1391618251800537 1.6618807315826416 1.1633408069610596 0.6312326788902283 0.46649685502052307 0.41477975249290466 0.4219186007976532 0.48915883898735046 0.6696504354476929 0.798803448677063 0.9031041860580444 1.000002145767212 1.0932834148406982 1.1818218231201172 1.2442930936813354 -9999
-9999 2.7042019367218018 2.530418634414673 2.2293953895568848 1.8676782846450806 1.4908604621887207 1.1328486204147339 0.828001856803894 0.6640902757644653 0.5910801887512207 0.5780923366546631 0.6137555837631226 0.6939153075218201 0.7719300985336304 0.8436902165412903 0.9153438210487366 0.9901975989341736 1.0664124488830566 1.1252638101577759 -9999
-9999 2.3109006881713867 2.152088165283203 1.8939576148986816 1.6117897033691406 1.3343403339385986 1.0828170776367188 0.8829687833786011 0.7568976879119873 0.6895831823348999 0.6669566631317139 0.6789281964302063 0.7160136699676514 0.7612700462341309 0.8091767430305481 0.8620297908782959 0.9241029024124146 0.9932188391685486 1.062111735343933 -9999
-9999 1.9602118730545044 1.8239256143569946 1.621565818786621 1.4092824459075928 1.2065627574920654 1.0272003412246704 0.8866130113601685 0.7924388647079468 0.7375022768974304 0.7135339975357056 0.7135143280029297 0.7305423617362976 0.7569319009780884 0.7889829277992249 0.8271844387054443 0.8751717805862427 0.9194948673248291 -9999 -9999
-9999 1.70803964138031 1.5870888233184814 1.4231235980987549 1.2590054273605347 1.1076209545135498 0.9760510921478271 0.8724413514137268 0.8014609813690186 0.7581009864807129 0.7363485097885132 0.7314199209213257 0.7388788461685181 0.754640519618988 0.7763494849205017 0.8040050268173218 0.8402200937271118 0.8734685182571411 -9999 -9999
-9999 1.5693031549453735 1.4261996746063232 1.2849899530410767 1.1513184309005737 1.03338623046875 0.9332766532897949 0.8541862964630127 0.7997251749038696 0.765501856803894 0.7468666434288025 0.7404520511627197 0.7433013319969177 0.7528809309005737 0.7675937414169312 0.7870639562606812 0.8123452663421631 0.8375029563903809 0.8404945731163025 0.8425559997558594
-9999 -9999 1.2705360651016235 1.180519461631775 1.0748786926269531 0.9798691272735596 0.8999417424201965 0.8377218246459961 0.7948744297027588 0.7673176527023315 0.7515079379081726 0.7449204921722412 0.7454676032066345 0.751400351524353 0.7613539099693298 0.7745012044906616 0.7902036309242249 0.8064950704574585 0.8151496648788452 0.8183513879776001
-9999 -9999 1.1969144344329834 1.1172137260437012 1.0280766487121582 0.9452980756759644 0.8772411346435547 0.8258205056190491 0.7905244827270508 0.7673364281654358 0.7534610629081726 0.7470409870147705 0.7464635968208313 0.7503120303153992 0.7573234438896179 0.7665045857429504 0.7768229246139526 0.7864844799041748 0.7927055954933167 0.7955250144004822
-9999 -9999 -9999 1.0650807619094849 1.0015869140625 0.9274864792823792 0.8656423687934875 0.8196564316749573 0.7880464792251587 0.7669771909713745 0.7541004419326782 0.7478172183036804 0.7467776536941528 0.7496857047080994 0.7553310394287109 0.7626563906669617 0.7706539034843445 0.7777975797653198 0.7827659249305725 0.7852141857147217
