ncols         20
nrows         20
xllcorner     0
yllcorner     -3.5992928
cellsize      0.17996463
NODATA_value  -9999
-9999.0 -9999 -9999 -9999 -9999 -9999 -9999 -9999 -9999 -9999 -9999 -9999 -9999 -9999 -9999 -9999 -9999 -9999 -9999 -9999
-9999 -9999 -9999 -9999 -9999 -9999 -9999 -9999 -9999 -9999 -9999 12.065330505371094 12.034761428833008 -9999 -9999 11.912593841552734 11.745220184326172 -9999 -9999 -9999
-9999 -9999 -9999 -9999 11.786998748779297 11.969239234924316 12.263134002685547 12.452619552612305 12.551264762878418 12.621651649475098 12.457579612731934 12.404132843017578 12.472015380859375 12.537666320800781 12.411306381225586 12.16600513458252 11.959403991699219 11.852367401123047 -9999 -9999
-9999 -9999 -9999 11.829153060913086 11.964797973632812 12.145685195922852 12.37576961517334 12.52259349822998 12.634740829467773 12.700870513916016 12.764119148254395 12.818193435668945 12.903066635131836 12.926152229309082 12.878534317016602 12.686233520507812 12.448408126831055 12.305828094482422 -9999 -9999
-9999 -9999 -9999 12.017736434936523 12.16497802734375 12.428606986999512 12.579010009765625 12.57787799835205 12.508305549621582 12.403587341308594 12.287693977355957 12.282047271728516 12.475290298461914 12.799152374267578 13.082429885864258 13.15528678894043 13.055828094482422 13.105792999267578 -9999 -9999
-9999 -9999 12.100273132324219 12.275702476501465 12.503490447998047 12.66378116607666 12.49692153930664 12.00661849975586 11.490394592285156 10.903341293334961 10.297436714172363 10.082684516906738 10.434003829956055 11.310662269592285 12.290424346923828 12.978337287902832 13.307604789733887 13.48702621459961 13.485986709594727 -9999
-9999 -9999 12.405475616455078 12.605698585510254 12.901955604553223 12.79870319366455 11.924783706665039 10.311089515686035 9.125035285949707 8.0895414352417 7.230703830718994 6.955611228942871 7.551641464233398 8.790807723999023 10.358860969543457 11.821846008300781 12.78746223449707 13.28929328918457 13.4891357421875 -9999
-9999 -9999 13.052364349365234 13.29761791229248 13.434690475463867 12.765365600585938 10.719900131225586 6.534516334533691 5.107081890106201 4.297523021697998 3.8135242462158203 3.8062076568603516 5.0348944664001465 6.312705039978027 7.9502177238464355 9.75253963470459 11.256287574768066 12.270942687988281 12.722135543823242 -9999
-9999 13.6937894821167 13.881062507629395 14.076118469238281 13.863938331604004 12.536358833312988 9.687334060668945 5.177638053894043 3.568333625793457 2.8209340572357178 2.496640205383301 2.567685842514038 3.420316457748413 4.3366851806640625 5.571509838104248 7.184669494628906 8.892850875854492 10.227099418640137 10.877620697021484 -9999
-9999 14.332561492919922 14.523414611816406 14.56474494934082 13.733983039855957 11.629128456115723 8.29318618774414 4.132235050201416 2.598870277404785 1.949149250984192 1.7238070964813232 1.7818933725357056 2.2960574626922607 2.8139820098876953 3.5904078483581543 4.716004371643066 6.168578147888184 7.467704772949219 8.140145301818848 -9999
-9999 14.971128463745117 14.923013687133789 14.38214111328125 12.805768013000488 10.128887176513672 6.675406455993652 3.1288671493530273 1.814867615699768 1.2806031703948975 1.093526005744934 1.109710693359375 1.3585200309753418 1.618018388748169 2.0221900939941406 2.697540760040283 3.6241235733032227 4.612438201904297 5.148297309875488 -9999
-9999 14.947708129882812 14.515779495239258 13.246777534484863 11.059690475463867 8.20496940612793 5.072293281555176 2.309361457824707 1.2418608665466309 0.7932109236717224 0.6248630881309509 0.5878733992576599 0.6720826625823975 0.7594398260116577 0.9163440465927124 1.2341203689575195 1.749144434928894 2.3350436687469482 2.661586046218872 -9999
-9999 13.73449420928955 12.875802993774414 10.925212860107422 8.524442672729492 5.963559627532959 3.578869342803955 1.7839399576187134 0.8919536471366882 0.5198606848716736 0.3471861183643341 0.28439265489578247 0.2687402069568634 0.27556219696998596 0.31999722123146057 0.4231948256492615 0.6645503044128418 0.9616906642913818 1.1588362455368042 -9999
-9999 11.35583209991455 10.185566902160645 7.896515369415283 5.6187543869018555 3.6840548515319824 2.152052164077759 1.101582646369934 0.5304117798805237 0.2968164086341858 0.19082319736480713 0.1412629634141922 0.11643814295530319 0.10636111348867416 0.10824738442897797 0.13113124668598175 0.18938294053077698 0.3138793706893921 0.4300376772880554 -9999
-9999 8.758810997009277 7.522488117218018 5.2444353103637695 3.3017563819885254 1.988974928855896 1.1227420568466187 0.5665849447250366 0.2982931137084961 0.17272762954235077 0.11231035739183426 0.07920968532562256 0.0607619434595108 0.05111094191670418 0.04625300318002701 0.048522502183914185 0.058232538402080536 0.08886930346488953 -9999 -9999
-9999 6.904248237609863 5.664850234985352 3.5791127681732178 2.00362229347229 1.0664361715316772 0.5523514747619629 0.2943401634693146 0.17050255835056305 0.10626357048749924 0.07249400019645691 0.051984332501888275 0.0421430729329586 0.04620014503598213 0.05097925290465355 0.05586013197898865 0.060389675199985504 0.06414102762937546 -9999 -9999
-9999 5.695144176483154 4.375303745269775 2.630981206893921 1.3400547504425049 0.5907344818115234 0.29615601897239685 0.16069474816322327 0.09818491339683533 0.06535021960735321 0.047328315675258636 0.043660908937454224 0.048142846673727036 0.05390898138284683 0.06054149195551872 0.06764965504407883 0.07528381794691086 0.0846313089132309 0.10032446682453156 0.10763485729694366
-9999 -9999 3.132330894470215 1.9870610237121582 0.963813066482544 0.3912777006626129 0.18025556206703186 0.09614281356334686 0.059842098504304886 0.04254549741744995 0.044580649584531784 0.048612456768751144 0.05442538857460022 0.06168558448553085 0.06983223557472229 0.0783875435590744 0.08720184117555618 0.09627234190702438 0.10541859269142151 0.11018453538417816
-9999 -9999 2.1257801055908203 1.4497652053833008 0.7137693166732788 0.27556997537612915 0.11957596987485886 0.06159700080752373 0.043713055551052094 0.04491817206144333 0.0479426234960556 0.05290057510137558 0.05970107391476631 0.06799869984388351 0.07708530128002167 0.08632704615592957 0.0952727347612381 0.10322177410125732 0.10934828221797943 0.11258506029844284
-9999 -9999 -9999 1.1279841661453247 0.5705775022506714 0.22924451529979706 0.09745055437088013 0.04964306950569153 0.04459656774997711 0.04638214781880379 0.049908705055713654 0.05531282722949982 0.06262386590242386 0.07144375890493393 0.08099550008773804 0.09045352786779404 0.09931513667106628 0.10639875382184982 0.11140571534633636 0.11399651318788528
