ncols         20
nrows         20
xllcorner     0
yllcorner     -3.5992928
cellsize      0.17996463
NODATA_value  -9999
-9999.0 -9999 -9999 -9999 -9999 -9999 -9999 -9999 -9999 -9999 -9999 -9999 -9999 -9999 -9999 -9999 -9999 -9999 -9999 -9999
-9999 -9999 -9999 -9999 -9999 -9999 -9999 -9999 -9999 -9999 -9999 2.439255714416504 2.435474395751953 -9999 -9999 2.52760648727417 2.499854326248169 -9999 -9999 -9999
-9999 -9999 -9999 -9999 2.522909164428711 2.5378127098083496 2.5583887100219727 2.548759698867798 2.5227720737457275 2.5030150413513184 2.4591660499572754 2.4649009704589844 2.4850637912750244 2.502366065979004 2.5140461921691895 2.524782419204712 2.504873037338257 2.476195812225342 -9999 -9999
-9999 -9999 -9999 2.551788568496704 2.56679105758667 2.5788862705230713 2.582904815673828 2.5601212978363037 2.5291762351989746 2.495311975479126 2.4761550426483154 2.4764139652252197 2.493962287902832 2.5158910751342773 2.547877550125122 2.560211420059204 2.539397716522217 2.512681722640991 -9999 -9999
-9999 -9999 -9999 2.5831000804901123 2.603271961212158 2.6304664611816406 2.614349365234375 2.5553722381591797 2.4776859283447266 2.3891148567199707 2.307178020477295 2.2661657333374023 2.2885329723358154 2.3694334030151367 2.470648765563965 2.538238525390625 2.549668550491333 2.563105821609497 -9999 -9999
-9999 -9999 2.5794944763183594 2.6165406703948975 2.6504225730895996 2.6517386436462402 2.5692849159240723 2.408970594406128 2.2452564239501953 2.0578088760375977 1.8760781288146973 1.7785255908966064 1.8031195402145386 1.9626559019088745 2.181114912033081 2.3579392433166504 2.452526092529297 2.4825663566589355 2.4273223876953125 -9999
-9999 -9999 2.605149984359741 2.6434245109558105 2.6856729984283447 2.627943754196167 2.39801287651062 1.994053602218628 1.7358019351959229 1.494103193283081 1.2781398296356201 1.179803729057312 1.2613399028778076 1.4617944955825806 1.7311336994171143 2.0113255977630615 2.211519956588745 2.3107213973999023 2.332180976867676 -9999
-9999 -9999 2.6626715660095215 2.7072906494140625 2.711529016494751 2.5377206802368164 2.0538899898529053 0.9137740731239319 0.6750562787055969 0.5695433020591736 0.5072033405303955 0.5184499025344849 0.7937572598457336 1.011129379272461 1.2772077322006226 1.5751423835754395 1.8236693143844604 2.0029397010803223 2.0756068229675293 -9999
-9999 2.6431257724761963 2.714933156967163 2.7487263679504395 2.6790013313293457 2.3934319019317627 1.8100937604904175 0.681451141834259 0.42023152112960815 0.33269795775413513 0.30472150444984436 0.33544808626174927 0.5217943787574768 0.670383095741272 0.85604327917099 1.1064926385879517 1.3767032623291016 1.584096908569336 1.676916480064392 -9999
-9999 2.6754016876220703 2.714329719543457 2.7000138759613037 2.509166717529297 2.1026196479797363 1.4922451972961426 0.549561619758606 0.31250494718551636 0.23594197630882263 0.21816831827163696 0.24092529714107513 0.3459281325340271 0.4209514856338501 0.524448037147522 0.6836864352226257 0.9014104008674622 1.098482370376587 1.19669508934021 -9999
-9999 2.647634744644165 2.6290199756622314 2.5015175342559814 2.189359426498413 1.7347084283828735 1.1441092491149902 0.42757895588874817 0.23537051677703857 0.17096064984798431 0.1529480367898941 0.161489337682724 0.20506548881530762 0.2352769374847412 0.2803730070590973 0.3645481467247009 0.4892793297767639 0.6272206902503967 0.7012993097305298 -9999
-9999 2.4693143367767334 2.3820621967315674 2.1355955600738525 1.7563735246658325 1.3255327939987183 0.8213924169540405 0.32594871520996094 0.17576292157173157 0.11841271072626114 0.09747793525457382 0.09283383190631866 0.10242889821529388 0.10799745470285416 0.12113654613494873 0.15543843805789948 0.21696767210960388 0.2888365387916565 0.32827359437942505 -9999
-9999 2.0919084548950195 1.9429726600646973 1.621936559677124 1.2685497999191284 0.8982248306274414 0.5431525111198425 0.265068918466568 0.13436174392700195 0.08151565492153168 0.05479101836681366 0.04429318755865097 0.03937467187643051 0.036802276968955994 0.03876924142241478 0.04807998239994049 0.07677481323480606 0.10925684124231339 0.1294761598110199 -9999
-9999 1.5940570831298828 1.425597906112671 1.091103196144104 0.7702507376670837 0.507080614566803 0.3001480996608734 0.15511013567447662 0.07465004920959473 0.044094666838645935 0.029900413006544113 0.022694988176226616 0.01828198879957199 0.015675904229283333 0.014608131721615791 0.01606626808643341 0.021395426243543625 0.03271013870835304 0.04127160459756851 -9999
-9999 1.1655900478363037 0.9905001521110535 0.670295238494873 0.4121343195438385 0.24820148944854736 0.1420966237783432 0.07107825577259064 0.03927404433488846 0.025147397071123123 0.018322117626667023 0.01423442829400301 0.0116275018081069 0.010109673254191875 0.009138340130448341 0.009192097932100296 0.010177376680076122 0.01400790549814701 -9999 -9999
-9999 0.8776609301567078 0.7064921855926514 0.4275495409965515 0.23127524554729462 0.1214994341135025 0.06145262345671654 0.03416111320257187 0.022111380472779274 0.016233084723353386 0.01322801224887371 0.011156488209962845 0.010179182514548302 0.011763843707740307 0.01314883679151535 0.014204769395291805 0.014931395649909973 0.01557927019894123 -9999 -9999
-9999 0.6990708708763123 0.5206444263458252 0.29908668994903564 0.1462762951850891 0.06033094599843025 0.030665520578622818 0.018518036231398582 0.01362767443060875 0.011406647972762585 0.010343224741518497 0.011225026100873947 0.013606127351522446 0.015938159078359604 0.018097054213285446 0.019992325454950333 0.021750744432210922 0.023970825597643852 0.028423968702554703 0.030271396040916443
-9999 -9999 0.35334673523902893 0.2172735184431076 0.10172310471534729 0.03841076046228409 0.0186137817800045 0.011890625581145287 0.009613153524696827 0.00898172240704298 0.011397868394851685 0.014098374173045158 0.0169689804315567 0.01987171545624733 0.022540859878063202 0.024827171117067337 0.026830753311514854 0.02867514081299305 0.0305508840829134 0.03131125494837761
-9999 -9999 0.22991369664669037 0.15306609869003296 0.07299189269542694 0.02673868089914322 0.012834160588681698 0.00856215599924326 0.00825654435902834 0.0107557512819767 0.013503005728125572 0.016511203721165657 0.019714854657649994 0.02294302172958851 0.02582387439906597 0.028151804581284523 0.029973242431879044 0.031202681362628937 0.03183213248848915 0.03206135332584381
-9999 -9999 -9999 0.1152493953704834 0.054609231650829315 0.021895434707403183 0.010789868421852589 0.007503249682486057 0.009087267331779003 0.011788016185164452 0.014705605804920197 0.017838645726442337 0.021189745515584946 0.024554137140512466 0.027515022084116936 0.029765386134386063 0.031438060104846954 0.032170962542295456 0.03239588066935539 0.032436251640319824
