ncols         20
nrows         20
xllcorner     0
yllcorner     -3.5992928
cellsize      0.17996463
NODATA_value  -9999
-9999.0 -9999 -9999 -9999 -9999 -9999 -9999 -9999 -9999 -9999 -9999 -9999 -9999 -9999 -9999 -9999 -9999 -9999 -9999 -9999
-9999 -9999 -9999 -9999 -9999 -9999 -9999 -9999 -9999 -9999 -9999 0.018335511907935143 0.018340324983000755 -9999 -9999 0.018501389771699905 0.018509723246097565 -9999 -9999 -9999
-9999 -9999 -9999 -9999 0.01846339739859104 0.018421595916152 0.018360523506999016 0.01828768476843834 0.018218426033854485 0.018169617280364037 0.01815655641257763 0.038548290729522705 0.03857739642262459 0.018216198310256004 0.018264643847942352 0.03888196498155594 0.03893414884805679 0.018376685678958893 -9999 -9999
-9999 -9999 -9999 0.01839243806898594 0.03890959545969963 0.08088914304971695 0.08059071749448776 0.0802072063088417 0.07983358204364777 0.07955754548311234 0.07944542169570923 0.09576018154621124 0.09588000178337097 0.07974237203598022 0.07995819300413132 0.09661770612001419 0.08041150867938995 0.018236951902508736 -9999 -9999
-9999 -9999 -9999 0.018279749900102615 0.08054853975772858 0.11626352369785309 0.11571992933750153 0.11502087116241455 0.11434414982795715 0.11384180933237076 0.11362014710903168 0.11371194571256638 0.11391936987638474 0.11417292058467865 0.11452572047710419 0.11488699913024902 0.07953290641307831 0.018001999706029892 -9999 -9999
-9999 -9999 0.018083756789565086 0.038318607956171036 0.096106618642807 0.11511248350143433 0.11436112225055695 0.1134113073348999 0.11251383274793625 0.11186262965202332 0.11156966537237167 0.11163725703954697 0.11194886267185211 0.11237473785877228 0.11281833052635193 0.11315324902534485 0.09417621791362762 0.03737447410821915 0.017557837069034576 -9999
-9999 -9999 0.017944268882274628 0.07903493940830231 0.11413543671369553 0.1135026291012764 0.11239069700241089 0.11100739985704422 0.10977134108543396 0.10891364514827728 0.1085604578256607 0.10869687050580978 0.10919035971164703 0.10983073711395264 0.11044251918792725 0.11088470369577408 0.11099324375391006 0.0765421912074089 0.017345642670989037 -9999
-9999 -9999 0.01773091033101082 0.07812701165676117 0.11254871636629105 0.11155793815851212 0.1099831759929657 0.10803116858005524 0.10653911530971527 0.10556286573410034 0.10513587296009064 0.10525285452604294 0.10587187111377716 0.10675735771656036 0.10758160799741745 0.10822565853595734 0.10860607773065567 0.07514917105436325 0.017036693170666695 -9999
-9999 0.017426684498786926 0.036949675530195236 0.09265540540218353 0.11073365807533264 0.10943487286567688 0.10747695714235306 0.10523579269647598 0.10354068130254745 0.10242918878793716 0.1019059494137764 0.10195982456207275 0.1025528758764267 0.10346067696809769 0.10442489385604858 0.10523999482393265 0.10580365359783173 0.07335085421800613 0.01664750650525093 -9999
-9999 0.01728093810379505 0.07602937519550323 0.1097022071480751 0.10885629802942276 0.10726478695869446 0.10501127690076828 0.10264219343662262 0.10081695020198822 0.09958639740943909 0.09895353764295578 0.09890224039554596 0.09938914328813553 0.10020308941602707 0.10117709636688232 0.10208484530448914 0.1027720645070076 0.0713486522436142 0.016212303191423416 -9999
-9999 0.017082469537854195 0.0751081258058548 0.1080615222454071 0.1069439947605133 0.10512274503707886 0.10267729312181473 0.1002814918756485 0.09838519245386124 0.09705725312232971 0.0963083803653717 0.09612338244915009 0.09646165370941162 0.09713748842477798 0.09800934791564941 0.09893437474966049 0.09970257431268692 0.06931013613939285 0.015768326818943024 -9999
-9999 0.016843080520629883 0.0739840716123581 0.10627614706754684 0.10501030832529068 0.10307170450687408 0.10058961808681488 0.09820716083049774 0.09627421200275421 0.09486281871795654 0.09399200975894928 0.0936494767665863 0.09380041062831879 0.094292052090168 0.09501497447490692 0.09589200466871262 0.0967477336525917 0.06739845126867294 0.01535362284630537 -9999
-9999 0.01658221147954464 0.072776660323143 0.10444124042987823 0.10310977697372437 0.10115483403205872 0.0987529382109642 0.09644250571727753 0.09449474513530731 0.09300609678030014 0.09200726449489594 0.09148716181516647 0.09140338003635406 0.09165970236063004 0.09218055754899979 0.0929366797208786 0.09396305680274963 0.06578975170850754 0.0150002995505929 -9999
-9999 0.016320548951625824 0.07157892733812332 0.10264959931373596 0.10129651427268982 0.09938465058803558 0.09711066633462906 0.0948735773563385 0.09293144196271896 0.09138432890176773 0.09026627242565155 0.08956406265497208 0.08923951536417007 0.08922775089740753 0.0894700214266777 0.08992990851402283 0.07517537474632263 0.03058641590178013 0.014729205518960953 -9999
-9999 0.01607949659228325 0.07047777622938156 0.10096466541290283 0.09959885478019714 0.09776201099157333 0.0956142246723175 0.09345272183418274 0.09153962880373001 0.08995305001735687 0.08872994780540466 0.08785760402679443 0.08730333298444748 0.08701695501804352 0.08694450557231903 0.08703260123729706 0.06028281897306442 0.013713236898183823 -9999 -9999
-9999 0.015880974009633064 0.06918888539075851 0.09944994747638702 0.09801211953163147 0.09626488387584686 0.09424545615911484 0.09217418730258942 0.09030352532863617 0.08869753032922745 0.08739163726568222 0.0863739550113678 0.08561643213033676 0.0850767195224762 0.08470582216978073 0.08445625007152557 0.057853102684020996 0.013103939592838287 -9999 -9999
-9999 0.015740595757961273 0.032905448228120804 0.08104816824197769 0.09644660353660583 0.0948621854186058 0.09300355613231659 0.09104230999946594 0.08922933042049408 0.08762404322624207 0.08626100420951843 0.08512995392084122 0.08420693874359131 0.08345366269350052 0.08281835168600082 0.08223377913236618 0.06750331819057465 0.026486588642001152 0.01215959433466196 0.012017665430903435
-9999 -9999 0.015246760100126266 0.06623881310224533 0.09508667886257172 0.09362242370843887 0.09191863238811493 0.09008767455816269 0.08834541589021683 0.0867580994963646 0.0853632465004921 0.08415377885103226 0.08311005681753159 0.08219721168279648 0.08136426657438278 0.08052614331245422 0.07951433211565018 0.06499451398849487 0.053174421191215515 0.05279728025197983
-9999 -9999 0.01489859540015459 0.031563274562358856 0.0777636393904686 0.09257005900144577 0.09106157720088959 0.0893707126379013 0.08770196884870529 0.08614137768745422 0.0847349464893341 0.08347927033901215 0.08235978335142136 0.08134917914867401 0.08040827512741089 0.0794815644621849 0.07850378006696701 0.07746509462594986 0.0766490250825882 0.07623236626386642
-9999 -9999 -9999 0.01454813964664936 0.06394433975219727 0.09195774793624878 0.09058711677789688 0.08898644149303436 0.08736657351255417 0.08582654595375061 0.08441657572984695 0.08314018696546555 0.08198409527540207 0.08092749118804932 0.0799420028924942 0.07899357378482819 0.07805807888507843 0.07717932015657425 0.07649899274110794 0.07613718509674072
