ncols         20
nrows         20
xllcorner     0
yllcorner     -3.5992928
cellsize      0.17996463
NODATA_value  -9999
-9999.0 -9999 -9999 -9999 -9999 -9999 -9999 -9999 -9999 -9999 -9999 -9999 -9999 -9999 -9999 -9999 -9999 -9999 -9999 -9999
-9999 -9999 -9999 -9999 -9999 -9999 -9999 -9999 -9999 -9999 -9999 11.960183143615723 11.948040962219238 -9999 -9999 12.150413513183594 12.009828567504883 -9999 -9999 -9999
-9999 -9999 -9999 -9999 11.992201805114746 12.069665908813477 12.210694313049316 12.244243621826172 12.211798667907715 12.198643684387207 12.033781051635742 12.080392837524414 12.203778266906738 12.311028480529785 12.315526008605957 12.257950782775879 12.160120010375977 12.104206085205078 -9999 -9999
-9999 -9999 -9999 12.135863304138184 12.145320892333984 12.129362106323242 12.127522468566895 12.0750732421875 12.024245262145996 11.973541259765625 11.984992980957031 12.061025619506836 12.20369815826416 12.331863403320312 12.459601402282715 12.4996337890625 12.4854154586792 12.472020149230957 -9999 -9999
-9999 -9999 -9999 12.283905029296875 12.202425956726074 12.104439735412598 11.844942092895508 11.599233627319336 11.351175308227539 11.099096298217773 10.896212577819824 10.857627868652344 11.056377410888672 11.451920509338379 11.926076889038086 12.351814270019531 12.73987865447998 13.074715614318848 -9999 -9999
-9999 -9999 12.57585620880127 12.47731876373291 12.23401165008545 11.742803573608398 10.788446426391602 10.212383270263672 9.653449058532715 8.991031646728516 8.321410179138184 8.01488971710205 8.211593627929688 8.945268630981445 9.9365816116333 10.987971305847168 12.409018516540527 13.161728858947754 13.371512413024902 -9999
-9999 -9999 12.775907516479492 12.530473709106445 12.040353775024414 10.965217590332031 10.070062637329102 9.220415115356445 8.236846923828125 7.103914737701416 6.076259613037109 5.552003860473633 5.695635795593262 6.534825325012207 7.862433433532715 9.47177791595459 11.383509635925293 12.577770233154297 13.126326560974121 -9999
-9999 -9999 13.247312545776367 12.671172142028809 11.5275297164917 10.512969970703125 9.431690216064453 8.200275421142578 6.838249206542969 5.485818386077881 4.453561782836914 3.9046339988708496 3.9579172134399414 4.6338677406311035 5.874871730804443 7.521897792816162 9.316981315612793 11.123311042785645 12.02854061126709 -9999
-9999 14.584314346313477 14.001457214355469 12.494725227355957 11.323092460632324 10.017477035522461 8.49549674987793 6.840620994567871 5.2831902503967285 4.02968692779541 3.2126638889312744 2.7971181869506836 2.7781124114990234 3.2211709022521973 4.124298095703125 5.493618011474609 7.149072170257568 8.743572235107422 9.982867240905762 -9999
-9999 15.233280181884766 14.556730270385742 12.645059585571289 10.97758674621582 9.081732749938965 7.055395126342773 5.1442718505859375 3.6566410064697266 2.691612482070923 2.16947340965271 1.915601134300232 1.9039548635482788 2.1455037593841553 2.7273333072662354 3.6881778240203857 5.035274505615234 6.421137809753418 7.466863632202148 -9999
-9999 15.908163070678711 14.96115493774414 12.489206314086914 10.215913772583008 7.84101676940918 5.504388809204102 3.5567591190338135 2.295039415359497 1.6109813451766968 1.2836740016937256 1.1489839553833008 1.1440759897232056 1.2774150371551514 1.6054928302764893 2.2170803546905518 3.1213908195495605 4.227043628692627 4.893229007720947 -9999
-9999 15.96399974822998 14.683929443359375 11.674592971801758 8.977731704711914 6.432916641235352 4.128195285797119 2.3969907760620117 1.3948529958724976 0.8938512206077576 0.675237238407135 0.5828609466552734 0.5735299587249756 0.6237034201622009 0.7681891322135925 1.0812751054763794 1.6131902933120728 2.283552646636963 2.6739590167999268 -9999
-9999 14.843486785888672 13.263618469238281 9.94548225402832 7.206101417541504 4.8597588539123535 2.9354782104492188 1.5772994756698608 0.8302387595176697 0.4917927384376526 0.3200175166130066 0.25279420614242554 0.22937089204788208 0.23696841299533844 0.28782251477241516 0.40326306223869324 0.6602867841720581 1.0087107419967651 1.2454736232757568 -9999
-9999 12.541121482849121 10.839016914367676 7.59199333190918 5.082995414733887 3.2195534706115723 1.8634964227676392 0.9730587601661682 0.47745195031166077 0.2686642110347748 0.17093177139759064 0.12491843104362488 0.1026407927274704 0.09629654884338379 0.10318535566329956 0.13317649066448212 0.2041667252779007 0.3594929277896881 0.5067521929740906 -9999
-9999 10.022960662841797 8.396059036254883 5.424535751342773 3.267674207687378 1.913939118385315 1.065673828125 0.5411151647567749 0.28472086787223816 0.16340593993663788 0.10481156408786774 0.07316311448812485 0.05618966370820999 0.048202816396951675 0.04504406079649925 0.04914381727576256 0.061713218688964844 0.09897718578577042 -9999 -9999
-9999 8.229186058044434 6.668408393859863 4.000957489013672 2.1840293407440186 1.1459852457046509 0.5947830677032471 0.3141191005706787 0.17850163578987122 0.10831549018621445 0.07183946669101715 0.050394438207149506 0.04037249833345413 0.04420630261301994 0.049070943146944046 0.054333798587322235 0.05936146900057793 0.06330029666423798 -9999 -9999
-9999 7.008744716644287 5.412881374359131 3.158348321914673 1.5983775854110718 0.7192087173461914 0.3601757884025574 0.19117876887321472 0.11247710883617401 0.07139047235250473 0.04929916933178902 0.043638136237859726 0.046720437705516815 0.051365919411182404 0.0570334792137146 0.06323830783367157 0.06974902004003525 0.07706321775913239 0.0881519764661789 0.09331242740154266
-9999 -9999 4.086479663848877 2.5483510494232178 1.2415649890899658 0.5229852199554443 0.2409558892250061 0.12436364591121674 0.07313127815723419 0.048489511013031006 0.0476294606924057 0.04919888824224472 0.052866287529468536 0.05817620828747749 0.06449134647846222 0.07126393914222717 0.07817728817462921 0.08503793179988861 0.09163739532232285 0.09503979980945587
-9999 -9999 2.899627447128296 1.9949524402618408 0.9858559966087341 0.39494597911834717 0.1705738604068756 0.08376918733119965 0.05503325164318085 0.05216570198535919 0.05174761265516281 0.05371924117207527 0.05781126022338867 0.06355594098567963 0.07023189961910248 0.07719363272190094 0.08394826948642731 0.08986618369817734 0.09432614594697952 0.09666166454553604
-9999 -9999 -9999 1.626227617263794 0.8400005102157593 0.3435917794704437 0.14385057985782623 0.06887376308441162 0.05683262273669243 0.05425449088215828 0.05405917391180992 0.056211430579423904 0.06051512062549591 0.06647398322820663 0.07332508265972137 0.08029459416866302 0.08687193691730499 0.09210304170846939 0.09575437009334564 0.09763019531965256
