ncols         20
nrows         20
xllcorner     0
yllcorner     -3.5992928
cellsize      0.17996463
NODATA_value  -9999
-9999.0 -9999 -9999 -9999 -9999 -9999 -9999 -9999 -9999 -9999 -9999 -9999 -9999 -9999 -9999 -9999 -9999 -9999 -9999 -9999
-9999 -9999 -9999 -9999 -9999 -9999 -9999 -9999 -9999 -9999 -9999 0 0 -9999 -9999 0 0 -9999 -9999 -9999
-9999 -9999 -9999 -9999 0 0 0 0 0 0 0 0 0 0 0 0 0 0 -9999 -9999
-9999 -9999 -9999 0 0 0 0 0 0 0 0 0 0 0 0 0 0 0 -9999 -9999
-9999 -9999 -9999 0 0 0 0 0 0 0 0 0 0 0 0 0 0 0 -9999 -9999
-9999 -9999 0 0 0 0 3.9134914875030518 3.6595382690429688 3.47739577293396 3.305102586746216 3.1497862339019775 3.089540481567383 3.156909227371216 3.3648204803466797 3.664806842803955 4.049583911895752 0 0 0 -9999
-9999 -9999 0 0 0 3.849997043609619 3.4578869342803955 3.1693217754364014 2.9017281532287598 2.625650644302368 2.3858401775360107 2.2708632946014404 2.3223602771759033 2.5520739555358887 0.32499417662620544 3.4293153285980225 0 0 0 -9999
-9999 -9999 0 0 3.943812608718872 3.4984538555145264 3.123967409133911 2.774278163909912 2.4296529293060303 2.1030991077423096 1.8583225011825562 1.7332117557525635 1.76051926612854 1.949424147605896 2.293344020843506 2.773160934448242 3.3579933643341064 0 0 -9999
-9999 0 0 4.195555686950684 3.6832687854766846 3.2306246757507324 2.7907087802886963 2.360231399536133 1.972975492477417 1.666151523590088 1.4682570695877075 1.3719285726547241 1.3791680335998535 1.5094799995422363 1.7660518884658813 0.4795439541339874 2.6548097133636475 3.1814427375793457 0 -9999
-9999 0 0 4.083916187286377 3.4850730895996094 2.924593448638916 2.385251998901367 1.8996093273162842 1.5254428386688232 1.2824372053146362 1.1521493196487427 1.0928218364715576 1.0998197793960571 1.1782338619232178 1.3524324893951416 0.36358821392059326 2.038682699203491 2.486340045928955 0 -9999
-9999 0 0 3.9649860858917236 3.243319272994995 2.5839600563049316 1.9776250123977661 1.4810824394226074 1.1560258865356445 0.9769925475120544 0.891609251499176 0.8597994446754456 0.8666821122169495 0.9161680936813354 1.024915099143982 1.2190133333206177 1.5093897581100464 0 0 -9999
-9999 0 0 3.7246463298797607 2.9180266857147217 2.2236337661743164 1.62356436252594 1.1748647689819336 0.9094886183738708 0.7731768488883972 0.7131029963493347 0.690274178981781 0.3085913360118866 0.40048107504844666 0.7808948159217834 0.1992184966802597 1.0872496366500854 0 0 -9999
-9999 0 0 3.287696599960327 2.4804880619049072 1.8333696126937866 1.3199806213378906 0.9581096172332764 0.7536771893501282 0.6566989421844482 0.6077656745910645 0.5901179909706116 0.39275258779525757 0.5358324646949768 0.4240594804286957 0.6974173188209534 0.8107441067695618 0 0 -9999
-9999 0 0 2.7064831256866455 1.9624862670898438 1.4295169115066528 1.0492258071899414 0.79903644323349 0.6561920046806335 0.5906919240951538 0.5592284798622131 0.5461280345916748 0.2418806254863739 0.42955654859542847 0.38070255517959595 0.605846643447876 0.6666907668113708 0 0 -9999
-9999 0 0 2.160287380218506 1.5119314193725586 1.1037391424179077 0.8462416529655457 0.685448408126831 0.600462794303894 0.5567120313644409 0.5348097681999207 0.5248190760612488 0.5232388377189636 0.5288941860198975 0.3611123263835907 0.31342023611068726 0.6002832055091858 0 -9999 -9999
-9999 0 0 1.7830617427825928 1.2301018238067627 0.9052382111549377 0.7233902215957642 0.622493326663971 0.5679029226303101 0.5372757911682129 0.3472801148891449 0.3990686535835266 0.056921426206827164 0.5190526843070984 0.23580895364284515 0.24344567954540253 0.5721591114997864 0.08515006303787231 -9999 -9999
-9999 0 0 1.5442594289779663 1.0671350955963135 0.7899004817008972 0.657742977142334 0.5861927270889282 0.5468299388885498 0.3493451774120331 0.4545639455318451 0.5071176290512085 0.3956320583820343 0.5139755010604858 0.5228471755981445 0.5354399681091309 0.552074134349823 0.5680531859397888 0.4055704176425934 0.5684601664543152
-9999 -9999 0 1.3603308200836182 0.9619534015655518 0.7309536337852478 0.6216101050376892 0.5651204586029053 0.2965341806411743 0.45833730697631836 0.5083090662956238 0.5055426359176636 0.4502286911010742 0.3971538841724396 0.34493473172187805 0.3509562015533447 0.358066201210022 0.4259171485900879 0.49118494987487793 0.55438631772995
-9999 -9999 0 0 0.8916367292404175 0.6928618550300598 0.5998068451881409 0.5521822571754456 0.35147422552108765 0.5147795081138611 0.5076982975006104 0.5048452019691467 0.5054028034210205 0.508696436882019 0.5140582323074341 0.5208540558815002 0.5282794237136841 0.5349520444869995 0.5390393137931824 0.5408708453178406
-9999 -9999 -9999 0 0.8481668829917908 0.6759800314903259 0.5907618403434753 0.5470183491706848 0.35103780031204224 0.514470636844635 0.5075114369392395 0.5045986175537109 0.5049453377723694 0.5078252553939819 0.5125027298927307 0.5182433724403381 0.5242865085601807 0.5294727683067322 0.5329545140266418 0.5346455574035645
