ncols         20
nrows         20
xllcorner     0
yllcorner     -3.5992928
cellsize      0.17996463
NODATA_value  -9999
-9999.0 -9999 -9999 -9999 -9999 -9999 -9999 -9999 -9999 -9999 -9999 -9999 -9999 -9999 -9999 -9999 -9999 -9999 -9999 -9999
-9999 -9999 -9999 -9999 -9999 -9999 -9999 -9999 -9999 -9999 -9999 19.062795639038086 19.072397232055664 -9999 -9999 19.031726837158203 19.0347843170166 -9999 -9999 -9999
-9999 -9999 -9999 -9999 19.021638870239258 19.03468894958496 19.0415096282959 19.05712890625 19.07179069519043 19.064876556396484 19.10239028930664 19.08544921875 19.082096099853516 19.112634658813477 19.119050979614258 19.0859375 19.0736026763916 19.08793067932129 -9999 -9999
-9999 -9999 -9999 19.03977394104004 19.02277374267578 19.026222229003906 19.025949478149414 19.027530670166016 19.015653610229492 19.003337860107422 18.980127334594727 18.981821060180664 18.99834632873535 19.045106887817383 19.076162338256836 19.099950790405273 19.12539291381836 19.15456199645996 -9999 -9999
-9999 -9999 -9999 19.064271926879883 19.047367095947266 19.00478172302246 18.963186264038086 18.914466857910156 18.852930068969727 18.768699645996094 18.689727783203125 18.661653518676758 18.697093963623047 18.801015853881836 18.91564178466797 19.038719177246094 19.150196075439453 19.193723678588867 -9999 -9999
-9999 -9999 19.153278350830078 19.10252571105957 19.047950744628906 18.968229293823242 18.93877410888672 18.818208694458008 18.666545867919922 18.501785278320312 18.35342788696289 18.293094635009766 18.3281307220459 18.47344398498535 18.68495750427246 18.917312622070312 19.062124252319336 19.20513916015625 19.3383846282959 -9999
-9999 -9999 19.207019805908203 19.14912223815918 19.039878845214844 18.967273712158203 18.804370880126953 18.614791870117188 18.40111541748047 18.18571662902832 18.00436019897461 17.914627075195312 17.9420223236084 18.087757110595703 18.301685333251953 18.604127883911133 18.832435607910156 19.073373794555664 19.209043502807617 -9999
-9999 -9999 19.295848846435547 19.178781509399414 19.072860717773438 18.870990753173828 18.635107040405273 18.3897705078125 18.150033950805664 17.930137634277344 17.76650619506836 17.67828369140625 17.689870834350586 17.803909301757812 18.001781463623047 18.269500732421875 18.564476013183594 18.776687622070312 18.93477439880371 -9999
-9999 19.588212966918945 19.41556167602539 19.274845123291016 19.00516700744629 18.710575103759766 18.41792869567871 18.13756561279297 17.89885711669922 17.714176177978516 17.593610763549805 17.53153419494629 17.531354904174805 17.603403091430664 17.742403030395508 17.93311309814453 18.20735740661621 18.454692840576172 18.558231353759766 -9999
-9999 19.621074676513672 19.5113525390625 19.254535675048828 18.8780460357666 18.509214401245117 18.168506622314453 17.881179809570312 17.668489456176758 17.530513763427734 17.45480728149414 17.419151306152344 17.41830825805664 17.457687377929688 17.544416427612305 17.667884826660156 17.881132125854492 18.073965072631836 18.161876678466797 -9999
-9999 19.631988525390625 19.529008865356445 19.17017364501953 18.710466384887695 18.293441772460938 17.93863868713379 17.669090270996094 17.492965698242188 17.394325256347656 17.345577239990234 17.32311248779297 17.317031860351562 17.337438583374023 17.392457962036133 17.48090934753418 17.61501693725586 17.731935501098633 17.814743041992188 -9999
-9999 19.563304901123047 19.39984130859375 18.96316146850586 18.47374725341797 18.065567016601562 17.744640350341797 17.51812171936035 17.384267807006836 17.31841468811035 17.283151626586914 17.259689331054688 17.21573829650879 17.220226287841797 17.275821685791016 17.307785034179688 17.412229537963867 17.493783950805664 17.55369758605957 -9999
-9999 19.367780685424805 19.06913185119629 18.63125228881836 18.183008193969727 17.836299896240234 17.581079483032227 17.414003372192383 17.326784133911133 17.287372589111328 17.267906188964844 17.24886703491211 17.205379486083984 17.200593948364258 17.212995529174805 17.262754440307617 17.299598693847656 17.34162139892578 17.38918685913086 -9999
-9999 18.93766975402832 18.638216018676758 18.264480590820312 17.897907257080078 17.63178253173828 17.451576232910156 17.343883514404297 17.29550552368164 17.277877807617188 17.270587921142578 17.263219833374023 17.23942756652832 17.2423038482666 17.25551986694336 17.284400939941406 17.28786277770996 17.270689010620117 17.347997665405273 -9999
-9999 18.512048721313477 18.26317596435547 17.966745376586914 17.682710647583008 17.48806381225586 17.369659423828125 17.307817459106445 17.28273582458496 17.27577018737793 17.270957946777344 17.275985717773438 17.285812377929688 17.300640106201172 17.308734893798828 17.321094512939453 17.338516235351562 17.26939582824707 -9999 -9999
-9999 18.211679458618164 18.00025177001953 17.768512725830078 17.5476016998291 17.40867042541504 17.33060073852539 17.296064376831055 17.27804946899414 17.26755714416504 17.246112823486328 17.255573272705078 17.28086280822754 17.322917938232422 17.339237213134766 17.363739013671875 17.385013580322266 17.44435691833496 -9999 -9999
-9999 18.05532455444336 17.824459075927734 17.639389038085938 17.469507217407227 17.374420166015625 17.321552276611328 17.30105209350586 17.283565521240234 17.260244369506836 17.25655746459961 17.270715713500977 17.29907989501953 17.33730125427246 17.365367889404297 17.391613006591797 17.412734985351562 17.433732986450195 17.403854370117188 17.430198669433594
-9999 -9999 17.631359100341797 17.537189483642578 17.423267364501953 17.355281829833984 17.325780868530273 17.312026977539062 17.28647232055664 17.280216217041016 17.280717849731445 17.294361114501953 17.3151912689209 17.35017204284668 17.377492904663086 17.39615249633789 17.418241500854492 17.433502197265625 17.44782066345215 17.428117752075195
-9999 -9999 17.578388214111328 17.471923828125 17.39636993408203 17.35590934753418 17.34314727783203 17.3387393951416 17.32205581665039 17.31700897216797 17.30916976928711 17.322372436523438 17.342975616455078 17.372732162475586 17.391237258911133 17.40483283996582 17.419816970825195 17.433198928833008 17.415576934814453 17.410114288330078
-9999 -9999 -9999 17.408723831176758 17.375476837158203 17.350570678710938 17.349079132080078 17.348569869995117 17.332042694091797 17.325420379638672 17.32191276550293 17.325647354125977 17.34708023071289 17.375335693359375 17.398435592651367 17.403051376342773 17.42693328857422 17.413740158081055 17.4066162109375 17.404220581054688
