ncols         20
nrows         20
xllcorner     0
yllcorner     -3.5992928
cellsize      0.17996463
NODATA_value  -9999
-9999.0 -9999 -9999 -9999 -9999 -9999 -9999 -9999 -9999 -9999 -9999 -9999 -9999 -9999 -9999 -9999 -9999 -9999 -9999 -9999
-9999 -9999 -9999 -9999 -9999 -9999 -9999 -9999 -9999 -9999 -9999 0.964530885219574 0.9425482749938965 -9999 -9999 0.8347741961479187 0.7822153568267822 -9999 -9999 -9999
-9999 -9999 -9999 -9999 1.1063205003738403 1.174878716468811 1.2942750453948975 1.3774396181106567 1.4133957624435425 1.4198694229125977 1.2605738639831543 1.1479867696762085 1.1277728080749512 1.1100425720214844 1.002917766571045 0.886721134185791 0.8013741374015808 0.7422142028808594 -9999 -9999
-9999 -9999 -9999 1.0446014404296875 1.1247477531433105 1.2187509536743164 1.345463514328003 1.456346869468689 1.5647196769714355 1.6397202014923096 1.6679795980453491 1.6196818351745605 1.5616440773010254 1.421067714691162 1.2407952547073364 1.046728491783142 0.8970475196838379 0.8153424263000488 -9999 -9999
-9999 -9999 -9999 1.0269142389297485 1.1158456802368164 1.2831621170043945 1.4714713096618652 1.6714487075805664 1.9007620811462402 2.1910650730133057 2.4495036602020264 2.535268783569336 2.413233518600464 2.067784070968628 1.700390100479126 1.3405983448028564 1.0839978456497192 1.0134642124176025 -9999 -9999
-9999 -9999 0.8222736716270447 0.9566699266433716 1.111532211303711 1.3270424604415894 1.5703684091567993 1.857255458831787 2.273517608642578 2.779259443283081 3.283371686935425 3.4793524742126465 3.355897903442383 2.861562728881836 2.252094030380249 1.7207459211349487 1.3466600179672241 1.1841157674789429 1.0463272333145142 -9999
-9999 -9999 0.7954607009887695 0.9022523760795593 1.1149799823760986 1.3898639678955078 1.6872422695159912 2.0674850940704346 2.5864524841308594 3.2007901668548584 3.773704767227173 4.045116901397705 3.9383890628814697 3.4647738933563232 2.848391056060791 2.1679537296295166 1.6845264434814453 1.3845367431640625 1.2526917457580566 -9999
-9999 -9999 0.7900742292404175 0.9262218475341797 1.1904908418655396 1.5133976936340332 1.892980694770813 2.3361504077911377 2.8332886695861816 3.363754987716675 3.76645827293396 3.9810519218444824 3.921349048614502 3.59885573387146 3.1039657592773438 2.5273945331573486 2.033228874206543 1.6772876977920532 1.5293552875518799 -9999
-9999 0.6337537169456482 0.7954612970352173 1.0048530101776123 1.3535336256027222 1.774514079093933 2.2083728313446045 2.6644513607025146 3.067662000656128 3.3751401901245117 3.5429954528808594 3.6149396896362305 3.589660167694092 3.420844554901123 3.1484007835388184 2.7838730812072754 2.299931287765503 1.947411060333252 1.7945997714996338 -9999
-9999 0.6954644918441772 0.8439887762069702 1.154051423072815 1.5937105417251587 2.0869200229644775 2.558150053024292 2.9558656215667725 3.1989123821258545 3.280334949493408 3.251271963119507 3.213984966278076 3.170600652694702 3.104452133178711 2.9802348613739014 2.804500102996826 2.433483123779297 2.1412880420684814 2.0126404762268066 -9999
-9999 0.8206689357757568 0.9821692109107971 1.3317700624465942 1.7863627672195435 2.2727034091949463 2.7159769535064697 3.018846035003662 3.102036476135254 3.0376572608947754 2.930567979812622 2.850973606109619 2.8145499229431152 2.7809040546417236 2.7231686115264893 2.623295783996582 2.4301130771636963 2.2309505939483643 2.1392509937286377 -9999
-9999 1.018941879272461 1.1820276975631714 1.5410209894180298 1.954498052597046 2.346282482147217 2.6703271865844727 2.8275251388549805 2.7859182357788086 2.6544454097747803 2.533412218093872 2.4739348888397217 2.504699945449829 2.4978299140930176 2.4417638778686523 2.4312565326690674 2.307281494140625 2.1987550258636475 2.1477487087249756 -9999
-9999 1.2895684242248535 1.462353229522705 1.8092758655548096 2.116300344467163 2.3590595722198486 2.5088160037994385 2.5203857421875 2.3922500610351562 2.2246832847595215 2.100156307220459 2.0436501502990723 2.0759823322296143 2.0792102813720703 2.0746302604675293 2.050062656402588 2.0460994243621826 2.037538766860962 2.0227298736572266 -9999
-9999 1.5813089609146118 1.7427982091903687 2.0405044555664062 2.2375612258911133 2.3167970180511475 2.2995119094848633 2.1901984214782715 2.0171289443969727 1.840108871459961 1.713018536567688 1.6432114839553833 1.6342682838439941 1.611011266708374 1.5909875631332397 1.58138108253479 1.6471455097198486 1.7726773023605347 1.8307843208312988 -9999
-9999 1.7679517269134521 1.8900679349899292 2.1151530742645264 2.204615354537964 2.1544928550720215 2.0303900241851807 1.8674306869506836 1.688247799873352 1.5376344919204712 1.4334650039672852 1.3509821891784668 1.2859889268875122 1.2283998727798462 1.1931134462356567 1.1777658462524414 1.2006312608718872 1.3533681631088257 -9999 -9999
-9999 1.795906662940979 1.8686598539352417 2.0130908489227295 2.0137078762054443 1.8968604803085327 1.737312912940979 1.5675026178359985 1.4282218217849731 1.3271101713180542 1.269078254699707 1.1910516023635864 1.0996665954589844 0.9948799014091492 0.9310846328735352 0.8746646642684937 0.843146800994873 0.7717850208282471 -9999 -9999
-9999 1.8024463653564453 1.7737407684326172 1.8325656652450562 1.7848910093307495 1.639953374862671 1.466498851776123 1.3161870241165161 1.2184206247329712 1.1643736362457275 1.1111602783203125 1.0382921695709229 0.9450328350067139 0.8422282934188843 0.7589927315711975 0.6890386343002319 0.6370729804039001 0.593354344367981 0.5823058485984802 0.5301976203918457
-9999 -9999 1.6130048036575317 1.6435447931289673 1.5823349952697754 1.4263817071914673 1.2513319253921509 1.1202644109725952 1.0569335222244263 1.0088582038879395 0.9648985862731934 0.9047888517379761 0.8288729786872864 0.7322515845298767 0.6519744992256165 0.5930564403533936 0.5375692248344421 0.5023956894874573 0.4789271652698517 0.5062599778175354
-9999 -9999 1.5698275566101074 1.514463186264038 1.4317048788070679 1.2652790546417236 1.0875669717788696 0.9611106514930725 0.9030792713165283 0.8660221695899963 0.8454946279525757 0.796629786491394 0.7277289032936096 0.6422315239906311 0.577159583568573 0.5309417843818665 0.49109357595443726 0.4701616168022156 0.504491925239563 0.5242447257041931
-9999 -9999 -9999 1.4078768491744995 1.350251317024231 1.1874456405639648 1.0095365047454834 0.8867219686508179 0.8342330455780029 0.807013750076294 0.7884997129440308 0.7558134198188782 0.6902118921279907 0.6090988516807556 0.5414245128631592 0.5101453065872192 0.46527528762817383 0.4903041124343872 0.5197467803955078 0.5363733172416687
