ncols         20
nrows         20
xllcorner     0
yllcorner     -3.5992928
cellsize      0.17996463
NODATA_value  -9999
-9999.0 -9999 -9999 -9999 -9999 -9999 -9999 -9999 -9999 -9999 -9999 -9999 -9999 -9999 -9999 -9999 -9999 -9999 -9999 -9999
-9999 -9999 -9999 -9999 -9999 -9999 -9999 -9999 -9999 -9999 -9999 3.0761301517486572 3.0866639614105225 -9999 -9999 3.296733856201172 3.303032875061035 -9999 -9999 -9999
-9999 -9999 -9999 -9999 3.3578569889068604 3.301020860671997 3.215649127960205 3.1154699325561523 3.0226876735687256 2.9576616287231445 2.932790756225586 2.9721808433532715 3.008213758468628 3.046191692352295 3.1152024269104004 3.202820062637329 3.2393434047698975 3.2432730197906494 -9999 -9999
-9999 -9999 -9999 3.4000566005706787 3.3383288383483887 3.234978199005127 3.109628200531006 2.9755823612213135 2.859548330307007 2.780313491821289 2.748337507247925 2.766570568084717 2.8190317153930664 2.894739866256714 2.985293388366699 3.072472095489502 3.136701822280884 3.175971269607544 -9999 -9999
-9999 -9999 -9999 3.3765664100646973 3.2719454765319824 3.1090517044067383 2.9113106727600098 2.7086341381073 2.5461370944976807 2.4415056705474854 2.3995120525360107 2.4211959838867188 2.4991085529327393 2.6143856048583984 2.746661901473999 2.8719258308410645 2.9745774269104004 3.0410304069519043 -9999 -9999
-9999 -9999 3.4414641857147217 3.351576328277588 3.17614483833313 2.9233458042144775 2.6122779846191406 2.2979557514190674 2.0766541957855225 1.9500093460083008 1.9065567255020142 1.946207046508789 2.0666043758392334 2.230602979660034 2.4119856357574463 2.584315776824951 2.725836753845215 2.811818838119507 2.7832090854644775 -9999
-9999 -9999 3.4260475635528564 3.2943246364593506 3.045987129211426 2.6796257495880127 2.210270881652832 1.7084496021270752 1.4418771266937256 1.3231548070907593 1.30428946018219 1.38582181930542 1.5928384065628052 1.8097403049468994 2.027616500854492 2.235196590423584 2.4113526344299316 2.5377023220062256 2.5924038887023926 -9999
-9999 -9999 3.413438558578491 3.2333381175994873 2.90179181098938 2.4131176471710205 1.7519780397415161 0.8304089307785034 0.6193531155586243 0.5718995928764343 0.5964826345443726 0.7171024084091187 1.1539477109909058 1.432811975479126 1.6632499694824219 1.8756145238876343 2.064293384552002 2.2138149738311768 2.2985780239105225 -9999
-9999 3.526944160461426 3.403515338897705 3.1521689891815186 2.7507283687591553 2.193666696548462 1.4886219501495361 0.625566840171814 0.4081037640571594 0.36179184913635254 0.3929803669452667 0.519729733467102 0.8972342014312744 1.1579538583755493 1.3679767847061157 1.5555230379104614 1.7286856174468994 1.8754537105560303 1.965567708015442 -9999
-9999 3.449220657348633 3.3019683361053467 3.0108377933502197 2.5724353790283203 2.0012409687042236 1.3284366130828857 0.5711009502410889 0.3617970049381256 0.3119337260723114 0.3389933407306671 0.45248472690582275 0.7552161812782288 0.9741913676261902 1.1492996215820312 1.3044061660766602 1.4460800886154175 1.5713750123977661 1.6532987356185913 -9999
-9999 3.273452043533325 3.1084656715393066 2.7950878143310547 2.35269832611084 1.8142321109771729 1.2171659469604492 0.5710139274597168 0.38253241777420044 0.33288541436195374 0.35240840911865234 0.44553881883621216 0.6852491497993469 0.8594845533370972 0.9972407817840576 1.1202913522720337 1.2334636449813843 1.3367125988006592 1.4069900512695312 -9999
-9999 2.9893319606781006 2.8174185752868652 2.504537343978882 2.0934925079345703 1.6283825635910034 1.1418335437774658 0.6218296885490417 0.46128544211387634 0.41181790828704834 0.4203260838985443 0.48809316754341125 0.667933464050293 0.7962327599525452 0.8989956378936768 0.9930610656738281 1.0828269720077515 1.1684309244155884 1.2294762134552002 -9999
-9999 2.6203699111938477 2.4532530307769775 2.1640055179595947 1.815290927886963 1.4518520832061768 1.1063618659973145 0.8114995956420898 0.6538133025169373 0.5847874283790588 0.5743579268455505 0.6114647388458252 0.6920835971832275 0.7698596119880676 0.840561032295227 0.910015344619751 0.9819517135620117 1.0556933879852295 1.1131116151809692 -9999
-9999 2.2249081134796143 2.0736465454101562 1.827571988105774 1.5564860105514526 1.291642189025879 1.0526546239852905 0.8634259104728699 0.744345486164093 0.6817919015884399 0.6623919606208801 0.6763714551925659 0.7144832015037537 0.7599667310714722 0.8073348999023438 0.8587710857391357 0.9184605479240417 0.9854339957237244 1.051879644393921 -9999
-9999 1.8793460130691528 1.7504140138626099 1.5575575828552246 1.3550596237182617 1.1630833148956299 0.9953978061676025 0.865625262260437 0.7792768478393555 0.7294740080833435 0.7089893817901611 0.7112183570861816 0.7295405864715576 0.7564588189125061 0.7883886098861694 0.8258714079856873 0.8725497126579285 0.9156461954116821 -9999 -9999
-9999 1.6335029602050781 1.5190078020095825 1.364125370979309 1.2085922956466675 1.065853238105774 0.944445013999939 0.851715087890625 0.7887072563171387 0.7505157589912415 0.7322564721107483 0.7296186089515686 0.7384706735610962 0.7549306750297546 0.7767995595932007 0.80418461561203 0.8397759795188904 0.8723688125610352 -9999 -9999
-9999 1.4988799095153809 1.3642710447311401 1.2318189144134521 1.1060208082199097 0.9954931139945984 0.903719425201416 0.8348932862281799 0.7879902124404907 0.7586937546730042 0.7433978915214539 0.7391954660415649 0.7434402108192444 0.7538126707077026 0.7688723206520081 0.788368821144104 0.8134656548500061 0.8385383486747742 0.8423691987991333 0.8447597026824951
-9999 -9999 1.2174866199493408 1.133603811264038 1.0349230766296387 0.9465084671974182 0.8739182949066162 0.8205991387367249 0.7844563126564026 0.7613820433616638 0.7486550807952881 0.7441521883010864 0.7460622787475586 0.7528313994407654 0.763244092464447 0.7765969038009644 0.7923646569252014 0.8087108135223389 0.8176220655441284 0.8209825754165649
-9999 -9999 1.1488937139511108 1.0751142501831055 0.9924262762069702 0.915898323059082 0.854765772819519 0.8110251426696777 0.7813673615455627 0.7621527910232544 0.7511064410209656 0.7466474771499634 0.7473899126052856 0.752088189125061 0.7596160769462585 0.7690909504890442 0.7795765995979309 0.7893614172935486 0.7957196235656738 0.7986215949058533
-9999 -9999 -9999 1.0274461507797241 0.9687861204147339 0.9005482196807861 0.8454468250274658 0.8063053488731384 0.7796873450279236 0.7622685432434082 0.7520477175712585 0.747641384601593 0.7478872537612915 0.7516428232192993 0.7578234672546387 0.7654744386672974 0.7736718654632568 0.7809521555900574 0.7860245108604431 0.7885298728942871
