ncols         20
nrows         20
xllcorner     0
yllcorner     -3.5992928
cellsize      0.17996463
NODATA_value  -9999
-9999.0 -9999 -9999 -9999 -9999 -9999 -9999 -9999 -9999 -9999 -9999 -9999 -9999 -9999 -9999 -9999 -9999 -9999 -9999 -9999
-9999 -9999 -9999 -9999 -9999 -9999 -9999 -9999 -9999 -9999 -9999 0.0093415267765522 0.009013201110064983 -9999 -9999 0.007263396866619587 0.006369089242070913 -9999 -9999 -9999
-9999 -9999 -9999 -9999 0.008659090846776962 0.010131705552339554 0.013120973482728004 0.016088558360934258 0.01841246895492077 0.020053256303071976 0.016771184280514717 0.014293783344328403 0.014260913245379925 0.014562167227268219 0.012000524438917637 0.009042846038937569 0.007360334973782301 0.006534849759191275 -9999 -9999
-9999 -9999 -9999 0.00816409196704626 0.0094843078404665 0.011627770960330963 0.015229159034788609 0.01949395425617695 0.02475343644618988 0.02976849302649498 0.033331625163555145 0.033244743943214417 0.032160352915525436 0.027385758236050606 0.021048977971076965 0.014819519594311714 0.01083189994096756 0.009022355079650879 -9999 -9999
-9999 -9999 -9999 0.008659861981868744 0.01045618113130331 0.01468175183981657 0.02107832580804825 0.03024466708302498 0.043915171176195145 0.06535763293504715 0.09004676342010498 0.1034860834479332 0.09793861955404282 0.0736330896615982 0.05014735460281372 0.031002411618828773 0.020210254937410355 0.01783173531293869 -9999 -9999
-9999 -9999 0.006978322751820087 0.00894386600703001 0.012418895959854126 0.019087031483650208 0.029690539464354515 0.04710780084133148 0.08095277100801468 0.13796886801719666 0.2152249813079834 0.261516273021698 0.25541046261787415 0.1906002014875412 0.11884606629610062 0.0691889151930809 0.04254695773124695 0.03395436331629753 0.029766710475087166 -9999
-9999 -9999 0.007599942851811647 0.009831204079091549 0.015903430059552193 0.02724979631602764 0.04545832797884941 0.07871463894844055 0.1431465595960617 0.25261178612709045 0.3956686854362488 0.4964936673641205 0.4967588186264038 0.39597952365875244 0 0.1560131460428238 0.09367542713880539 0.06353562325239182 0.0534670427441597 -9999
-9999 -9999 0.009753272868692875 0.01383137796074152 0.02480045147240162 0.045073121786117554 0.0812445729970932 0.1445688009262085 0.24827837944030762 0.4041381776332855 0.5720430016517639 0.7024795413017273 0.7250714898109436 0.6323874592781067 0.47597190737724304 0.31507614254951477 0.20104537904262543 0.13508830964565277 0.11214539408683777 -9999
-9999 0.010060062631964684 0.014117881655693054 0.02315889485180378 0.046353232115507126 0.0913538709282875 0.1656257063150406 0.2850787341594696 0.4442576766014099 0.6218518018722534 0.774850070476532 0.889933168888092 0.9411425590515137 0.8903831839561462 0.7653339505195618 0 0.39612680673599243 0.27687129378318787 0.23180951178073883 -9999
-9999 0.0150973591953516 0.022125858813524246 0.044221919029951096 0.0949334129691124 0.18976810574531555 0.3401356339454651 0.54588782787323 0.7610951066017151 0.9325523376464844 1.0412813425064087 1.1289719343185425 1.1855134963989258 1.1884092092514038 1.1085659265518188 0 0.7076020836830139 0.5293598175048828 0.457659512758255 -9999
-9999 0.028972601518034935 0.042820967733860016 0.08570034801959991 0.17546899616718292 0.3357399106025696 0.5828607082366943 0.8824172616004944 1.1249432563781738 1.2703877687454224 1.3565120697021484 1.4356478452682495 1.5219147205352783 1.5554695129394531 1.5050771236419678 1.373844861984253 1.139718770980835 0.9225568175315857 0.8256001472473145 -9999
-9999 0.06372050195932388 0.0896315649151802 0.16782981157302856 0.31027933955192566 0.5338091850280762 0.8494991660118103 1.176639199256897 1.3852074146270752 1.4845080375671387 1.5516726970672607 1.6567751169204712 0 0 1.8611762523651123 0 1.5935239791870117 1.3915044069290161 1.2881441116333008 -9999
-9999 0.14531953632831573 0.19758020341396332 0.338303804397583 0.5384867787361145 0.804969310760498 1.1186003684997559 1.3858565092086792 1.4978783130645752 1.511806845664978 1.5310547351837158 1.6084712743759155 0 0 0 1.7943845987319946 1.755313754081726 1.6869369745254517 1.6031644344329834 -9999
-9999 0.3029015064239502 0.39450332522392273 0.6183151006698608 0.8816515207290649 1.143371820449829 1.3711386919021606 1.4972033500671387 1.4935927391052246 1.4405877590179443 1.404582142829895 1.4059644937515259 0 0 0 1.3771953582763672 1.4506216049194336 1.6062105894088745 1.5863969326019287 -9999
-9999 0.5051407217979431 0.6311202645301819 0.9275315999984741 1.2155523300170898 1.404281735420227 1.493833303451538 1.4886988401412964 1.421921730041504 1.3462053537368774 1.288834810256958 1.2111376523971558 1.1214767694473267 1.0208964347839355 0 0 0.9040374159812927 1.1125946044921875 -9999 -9999
-9999 0.6638709306716919 0.8131816387176514 1.1358119249343872 1.3832021951675415 1.472269058227539 1.4543416500091553 1.385421872138977 1.3211311101913452 1.2709249258041382 0 0 0 0.7535529732704163 0 0 0.470013827085495 0 -9999 -9999
-9999 0.7911578416824341 0.9496938586235046 1.2410035133361816 1.4278831481933594 1.4204825162887573 1.3279495239257812 1.2296760082244873 1.1803758144378662 0 0 0 0 0.5699290633201599 0.4319309890270233 0.3300122916698456 0.2593836784362793 0.20398996770381927 0 0
-9999 -9999 1.0855355262756348 1.2996366024017334 1.421319603919983 1.3366202116012573 1.1789575815200806 1.0595591068267822 0 0 0 0 0 0 0 0 0 0 0 0
-9999 -9999 1.2470794916152954 1.3522592782974243 1.3914496898651123 1.2347683906555176 1.0227243900299072 0.873748242855072 0 0 0 0 0 0 0 0 0 0 0 0
-9999 -9999 -9999 1.3693714141845703 1.3694214820861816 1.1845982074737549 0.9456823468208313 0.786054790019989 0 0 0 0 0 0 0 0 0 0 0 0
