ncols         20
nrows         20
xllcorner     0
yllcorner     -3.5992928
cellsize      0.17996463
NODATA_value  -9999
-9999.0 -9999 -9999 -9999 -9999 -9999 -9999 -9999 -9999 -9999 -9999 -9999 -9999 -9999 -9999 -9999 -9999 -9999 -9999 -9999
-9999 -9999 -9999 -9999 -9999 -9999 -9999 -9999 -9999 -9999 -9999 0.018734293058514595 0.0187341570854187 -9999 -9999 0.01884060725569725 0.018848055973649025 -9999 -9999 -9999
-9999 -9999 -9999 -9999 0.018855249509215355 0.018814286217093468 0.018754730001091957 0.018683716654777527 0.0186152383685112 0.01856394298374653 0.018542295321822166 0.039342038333415985 0.039342641830444336 0.018545715138316154 0.018575819209218025 0.03953320533037186 0.03958256542682648 0.018678011372685432 -9999 -9999
-9999 -9999 -9999 0.018748044967651367 0.0396757535636425 0.08249056339263916 0.08220359683036804 0.08183992654085159 0.08148413896560669 0.08120495080947876 0.08104760199785233 0.09759251773357391 0.09758362919092178 0.08101683855056763 0.08114102482795715 0.09800630062818527 0.0815652385354042 0.01850377954542637 -9999 -9999
-9999 -9999 -9999 0.01860073208808899 0.08196529000997543 0.11834602802991867 0.1178315058350563 0.11719297617673874 0.11658167839050293 0.11610131710767746 0.11581204831600189 0.11574723571538925 0.11572561413049698 0.11573099344968796 0.11591889709234238 0.11622446775436401 0.08046039938926697 0.01821129396557808 -9999 -9999
-9999 -9999 0.018329570069909096 0.038866620510816574 0.09754150360822678 0.11687487363815308 0.11617070436477661 0.11535397171974182 0.1146099865436554 0.11405041813850403 0.11369731277227402 0.11353817582130432 0.11350250244140625 0.1135728731751442 0.11377682536840439 0.11402465403079987 0.09489227086305618 0.03763575106859207 0.017664998769760132 -9999
-9999 -9999 0.018150029703974724 0.0799102857708931 0.11544236540794373 0.114854596555233 0.11389797925949097 0.11287371069192886 0.11202578246593475 0.11140348762273788 0.11099456995725632 0.11078394204378128 0.11071501672267914 0.1107717752456665 0.11097836494445801 0.11125945299863815 0.11135704815387726 0.07677958160638809 0.01741020940244198 -9999
-9999 -9999 0.017878469079732895 0.0787433311343193 0.11342015862464905 0.11251522600650787 0.1113266795873642 0.11024747788906097 0.10935409367084503 0.10867996513843536 0.10821203887462616 0.10793083906173706 0.10780107975006104 0.10780730843544006 0.10795199126005173 0.10821644961833954 0.1085277646780014 0.07512655854225159 0.01704498566687107 -9999
-9999 0.017497029155492783 0.0371018722653389 0.09301271289587021 0.1111578494310379 0.11003125458955765 0.10875634104013443 0.10762644559144974 0.1066923588514328 0.10597017407417297 0.10544323921203613 0.10509822517633438 0.10491181164979935 0.10486695170402527 0.10495448112487793 0.10515347868204117 0.10541217774152756 0.07305961847305298 0.016595035791397095 -9999
-9999 0.017316019162535667 0.07608989626169205 0.10972127318382263 0.10886837542057037 0.10752733051776886 0.10621187090873718 0.10505214333534241 0.10408708453178406 0.10332071781158447 0.1027379035949707 0.10233455151319504 0.1020955815911293 0.1020047664642334 0.10204615443944931 0.10219575464725494 0.10240218788385391 0.07092386484146118 0.01611384004354477 -9999
-9999 0.017067821696400642 0.07494183629751205 0.10769081115722656 0.10654478520154953 0.10507593303918839 0.10372527688741684 0.10254837572574615 0.10155853629112244 0.10075297951698303 0.1001218780875206 0.09966818988323212 0.09938288480043411 0.0992506891489029 0.09925730526447296 0.09938356280326843 0.09958342462778091 0.06897352635860443 0.015658268705010414 -9999
-9999 0.016764599829912186 0.07351857423782349 0.10543684661388397 0.10413413494825363 0.10265272855758667 0.10130612552165985 0.10012732446193695 0.09911935031414032 0.09828155487775803 0.09760968387126923 0.0971122607588768 0.09678447246551514 0.09661149233579636 0.09658876061439514 0.09671963006258011 0.09698018431663513 0.06725075840950012 0.015267699025571346 -9999
-9999 0.016427727416157722 0.07195251435041428 0.1030479371547699 0.10168252885341644 0.10028066486120224 0.09897632151842117 0.09781111776828766 0.09679432958364487 0.09593270719051361 0.09522421658039093 0.09468228369951248 0.09430301189422607 0.0940764918923378 0.09401258081197739 0.09414908289909363 0.09458866715431213 0.06585154682397842 0.01495225727558136 -9999
-9999 0.01608162932097912 0.07035824656486511 0.10065829008817673 0.0993514209985733 0.0980265662074089 0.09677483141422272 0.09563418477773666 0.094619981944561 0.09374776482582092 0.0930127501487732 0.0924227386713028 0.09197621792554855 0.09166867285966873 0.09151361882686615 0.09154615551233292 0.0761348232626915 0.030764982104301453 0.01471819169819355 -9999
-9999 0.015756675973534584 0.06887442618608475 0.09841826558113098 0.0971841812133789 0.09593257308006287 0.09473864734172821 0.09363524615764618 0.0926458016037941 0.09177622199058533 0.09102074801921844 0.09038165211677551 0.08985628187656403 0.08944423496723175 0.08915533125400543 0.0890021100640297 0.06146986037492752 0.013932591304183006 -9999 -9999
-9999 0.015487458556890488 0.06729619950056076 0.09647117555141449 0.09521313011646271 0.09402912110090256 0.09290434420108795 0.09186068177223206 0.0909096822142601 0.09005594253540039 0.08929009735584259 0.08860812336206436 0.08800500631332397 0.08748000115156174 0.08704042434692383 0.08669070899486542 0.05931594967842102 0.013421827927231789 -9999 -9999
-9999 0.015298216603696346 0.03185681626200676 0.07830071449279785 0.09337611496448517 0.09233830869197845 0.09131879359483719 0.09034904092550278 0.08944712579250336 0.08861759305000305 0.087847039103508 0.08713072538375854 0.08646106719970703 0.08583337068557739 0.08524317294359207 0.08466728031635284 0.06953617930412292 0.02733777090907097 0.012599265202879906 0.012471687979996204
-9999 -9999 0.014676139689981937 0.06381133943796158 0.0918678566813469 0.09094211459159851 0.09003332257270813 0.08914364874362946 0.08829423785209656 0.0874902755022049 0.08672104775905609 0.08598198741674423 0.08526432514190674 0.08455976843833923 0.08385488390922546 0.08310382813215256 0.08218240737915039 0.06732483208179474 0.05518932640552521 0.05484496057033539
-9999 -9999 0.014303477481007576 0.030353836715221405 0.07507207244634628 0.0898602306842804 0.08909822255373001 0.08828972280025482 0.08748716115951538 0.08670686185359955 0.08594341576099396 0.08519261330366135 0.08444630354642868 0.08369770646095276 0.08293788135051727 0.08214224129915237 0.08127406239509583 0.08034063875675201 0.07960332930088043 0.07922045141458511
-9999 -9999 -9999 0.013984128832817078 0.061722759157419205 0.08925632387399673 0.08859583735466003 0.08784022927284241 0.08706631511449814 0.08630003035068512 0.08554171025753021 0.08478735387325287 0.08402866125106812 0.08326134085655212 0.08248177915811539 0.08168236166238785 0.0808621346950531 0.08007694780826569 0.07946304231882095 0.07913178205490112
