ncols         20
nrows         20
xllcorner     0
yllcorner     -3.5992928
cellsize      0.17996463
NODATA_value  -9999
-9999.0 -9999 -9999 -9999 -9999 -9999 -9999 -9999 -9999 -9999 -9999 -9999 -9999 -9999 -9999 -9999 -9999 -9999 -9999 -9999
-9999 -9999 -9999 -9999 -9999 -9999 -9999 -9999 -9999 -9999 -9999 0.018060488626360893 0.01806465908885002 -9999 -9999 0.018205853179097176 0.01821342669427395 -9999 -9999 -9999
-9999 -9999 -9999 -9999 0.018157651647925377 0.018119577318429947 0.018063673749566078 0.017996735870838165 0.01793310046195984 0.017888709902763367 0.017878038808703423 0.03795963525772095 0.03798534348607063 0.017930882051587105 0.01797366701066494 0.03825454041361809 0.03830232098698616 0.018076086416840553 -9999 -9999
-9999 -9999 -9999 0.01807139813899994 0.038243893533945084 0.07952617108821869 0.07925347983837128 0.07890070229768753 0.07855649292469025 0.07830334454774857 0.07820286601781845 0.09426499158143997 0.09437201917171478 0.07846751064062119 0.07865945994853973 0.09502919763326645 0.07907920330762863 0.01793278194963932 -9999 -9999
-9999 -9999 -9999 0.017947249114513397 0.07910971343517303 0.11423033475875854 0.11373607069253922 0.11309226602315903 0.11246761679649353 0.11200560629367828 0.11180431395769119 0.11189676821231842 0.11208536475896835 0.11230506747961044 0.11262021958827972 0.1129494160413742 0.07817627489566803 0.017690204083919525 -9999 -9999
-9999 -9999 0.01771414279937744 0.03756474331021309 0.09428650885820389 0.11299003660678864 0.11230461299419403 0.11142618954181671 0.11059578508138657 0.10999637097120285 0.1097295954823494 0.10979743301868439 0.11008663475513458 0.11047366261482239 0.11087218672037125 0.11116448789834976 0.09248795360326767 0.03668421506881714 0.017223820090293884 -9999
-9999 -9999 0.017556212842464447 0.07736023515462875 0.11179742217063904 0.11124613136053085 0.11022159457206726 0.10893385857343674 0.10778817534446716 0.10700096189975739 0.10668367147445679 0.10682115703821182 0.10728773474693298 0.10787921398878098 0.10843400657176971 0.10882064700126648 0.10887835919857025 0.07504613697528839 0.01700233481824398 -9999
-9999 -9999 0.01731068454682827 0.07633212953805923 0.11003194749355316 0.10912805795669556 0.10765887051820755 0.1058327779173851 0.10445115715265274 0.10355918109416962 0.1031811311841011 0.10331197082996368 0.10391414165496826 0.10473736375570297 0.10548995435237885 0.1060665175318718 0.10639317333698273 0.0735902264714241 0.016678303480148315 -9999
-9999 0.016932368278503418 0.03595132380723953 0.09027367830276489 0.10797595232725143 0.10678168386220932 0.10494910925626755 0.10286898910999298 0.10131070017814636 0.1003030464053154 0.0998435914516449 0.09992102533578873 0.10049638152122498 0.10134846717119217 0.10222727805376053 0.10296078026294708 0.1034621074795723 0.07170121371746063 0.016267942264676094 -9999
-9999 0.01675949990749359 0.07376465201377869 0.10654395073652267 0.10581114888191223 0.10434149205684662 0.10223561525344849 0.10006613284349442 0.09840723127126694 0.09730365872383118 0.0967523530125618 0.09673713892698288 0.09721242636442184 0.09797132015228271 0.09885405749082565 0.09966395050287247 0.10027564316987991 0.06958712637424469 0.015806423500180244 -9999
-9999 0.01652107760310173 0.0726647898554802 0.10460105538368225 0.1035776436328888 0.10188788175582886 0.09962929785251617 0.09745855629444122 0.09575746208429337 0.0945827066898346 0.09393718838691711 0.0938052162528038 0.09414349496364594 0.09477023035287857 0.09554991126060486 0.09636331349611282 0.0970422551035881 0.06742757558822632 0.015333550050854683 -9999
-9999 0.016230059787631035 0.07130411267280579 0.10245276987552643 0.10127151757478714 0.0994734838604927 0.09721609205007553 0.0950903594493866 0.09338650107383728 0.09215958416461945 0.09141910076141357 0.09115199744701385 0.09132091701030731 0.09177755564451218 0.09241883456707001 0.09317828714847565 0.0939376950263977 0.06540785729885101 0.014892730861902237 -9999
-9999 0.015909329056739807 0.06982184946537018 0.10020436346530914 0.09894856810569763 0.09714088588953018 0.09498931467533112 0.09297911822795868 0.09130305796861649 0.09003686904907227 0.08920113742351532 0.08878473192453384 0.08874513953924179 0.08899063616991043 0.08945222944021225 0.0901084914803505 0.09104029834270477 0.06372261047363281 0.014519740827381611 -9999
-9999 0.015584802255034447 0.06833472847938538 0.09797462821006775 0.09668487310409546 0.09492243081331253 0.09291371703147888 0.09103012084960938 0.08940605819225311 0.08812245726585388 0.08720406889915466 0.08663921058177948 0.08639195561408997 0.08640334010124207 0.08662326633930206 0.08702734112739563 0.07270153611898422 0.029568908736109734 0.01423639990389347 -9999
-9999 0.015285796485841274 0.06696846336126328 0.09587928652763367 0.09455078095197678 0.09285268932580948 0.09098456799983978 0.08922473341226578 0.08767169713973999 0.08638837933540344 0.08540267497301102 0.08470453321933746 0.08426560461521149 0.08404245227575302 0.08399039506912231 0.08406835794448853 0.058214541524648666 0.01323800440877676 -9999 -9999
-9999 0.015040753409266472 0.06549472361803055 0.09401905536651611 0.09258605539798737 0.09095600247383118 0.08922426402568817 0.08758807182312012 0.0861106589436531 0.08484211564064026 0.08380883932113647 0.0830022394657135 0.08239906281232834 0.08196370303630829 0.08165543526411057 0.08143599331378937 0.05578581243753433 0.012634151615202427 -9999 -9999
-9999 0.014868947677314281 0.031027955934405327 0.07629499584436417 0.09071362763643265 0.08923923969268799 0.08767060935497284 0.08615779131650925 0.08475778996944427 0.08351448178291321 0.08245306462049484 0.08156565576791763 0.0808325707912445 0.08022141456604004 0.07968716323375702 0.07916950434446335 0.06500207632780075 0.02550453133881092 0.011707933619618416 0.011572020128369331
-9999 -9999 0.014314097352325916 0.062142036855220795 0.08913803845643997 0.08778779953718185 0.08638104796409607 0.0849885568022728 0.08366358280181885 0.08245153725147247 0.08137821406126022 0.08043716102838516 0.07961193472146988 0.07887228578329086 0.07817281782627106 0.07743541151285172 0.07650201767683029 0.0625511109828949 0.05118921026587486 0.050834525376558304
-9999 -9999 0.013953856192529202 0.02953335829079151 0.07272139191627502 0.08661960810422897 0.08542027324438095 0.08414437621831894 0.08288610726594925 0.08170458674430847 0.08063032478094101 0.07965883612632751 0.07877752184867859 0.07796225696802139 0.07717858999967575 0.07637626677751541 0.07549729198217392 0.07453880459070206 0.07378135621547699 0.07339520752429962
-9999 -9999 -9999 0.013587404042482376 0.05971965938806534 0.08596140146255493 0.08490530401468277 0.0837041512131691 0.08248677104711533 0.08132476359605789 0.08025123924016953 0.07926663011312485 0.07835954427719116 0.07751070708036423 0.07669441401958466 0.0758809894323349 0.07505267858505249 0.07425631582736969 0.07363377511501312 0.07330195605754852
