ncols         20
nrows         20
xllcorner     0
yllcorner     -3.5992928
cellsize      0.17996463
NODATA_value  -9999
-9999.0 -9999 -9999 -9999 -9999 -9999 -9999 -9999 -9999 -9999 -9999 -9999 -9999 -9999 -9999 -9999 -9999 -9999 -9999 -9999
-9999 -9999 -9999 -9999 -9999 -9999 -9999 -9999 -9999 -9999 -9999 0.12184666097164154 0.12199830263853073 -9999 -9999 0.1245599314570427 0.12474700063467026 -9999 -9999 -9999
-9999 -9999 -9999 -9999 0.12069308757781982 0.1206662580370903 0.12069113552570343 0.12079572677612305 0.120993971824646 0.12127979099750519 0.12162230908870697 0.11278840899467468 0.11324167251586914 0.12334568798542023 0.12406152486801147 0.11530883610248566 0.1158609390258789 0.1259738951921463 -9999 -9999
-9999 -9999 -9999 0.12103930860757828 0.11175979673862457 0.09506072849035263 0.09507624059915543 0.0951787680387497 0.09537233412265778 0.09564641118049622 0.09598403424024582 0.0890752375125885 0.08952581137418747 0.09749504178762436 0.09811542183160782 0.09132116287946701 0.099520742893219 0.12702570855617523 -9999 -9999
-9999 -9999 -9999 0.12132514268159866 0.09538678079843521 0.06935590505599976 0.06394132226705551 0.06404232978820801 0.06422694027423859 0.06448262184858322 0.06479031592607498 0.060269422829151154 0.06064852327108383 0.06604638695716858 0.06658511608839035 0.06726250797510147 0.10109471529722214 0.12905028462409973 -9999 -9999
-9999 -9999 0.12214739620685577 0.11266203969717026 0.0885242149233818 0.059411756694316864 0.03673531115055084 0.03681640326976776 0.03697036951780319 0.037180010229349136 0.03742813318967819 0.034778185188770294 0.035076528787612915 0.03842660412192345 0.03889240324497223 0.06366738677024841 0.09556661546230316 0.12242129445075989 0.13416223227977753 -9999
-9999 -9999 0.12262250483036041 0.09640992432832718 0.07012063264846802 0.047122806310653687 0.026842180639505386 0.018103482201695442 0.01820755936205387 0.01835016719996929 0.018520556390285492 0.017275217920541763 0.017497049644589424 0.019266916438937187 0.029144566506147385 0.051804013550281525 0.07762252539396286 0.10720772296190262 0.13683508336544037 -9999
-9999 -9999 0.12343095242977142 0.09709954261779785 0.0651639848947525 0.03732611984014511 0.0182589590549469 0.008932199329137802 0.007685385644435883 0.007767573464661837 0.00786866806447506 0.007381293922662735 0.007536192424595356 0.009824465028941631 0.020538466051220894 0.04237803816795349 0.07426182180643082 0.11082904040813446 0.14096856117248535 -9999
-9999 0.1251966804265976 0.1152762621641159 0.09060770273208618 0.0609293095767498 0.03484553098678589 0.0170888714492321 0.007166109047830105 0.0027944613248109818 0.0028406670317053795 0.002896057441830635 0.0027289623394608498 0.0030670901760458946 0.00886817928403616 0.02151910960674286 0.044209279119968414 0.07723232358694077 0.11498966068029404 0.1460467129945755 -9999
-9999 0.12631241977214813 0.0993582010269165 0.07236473262310028 0.04875335469841957 0.028027845546603203 0.013734211213886738 0.005765649024397135 0.002107467968016863 0.001391217578202486 0.001431807759217918 0.0014724265784025192 0.003250781213864684 0.009313015267252922 0.022487904876470566 0.0460813045501709 0.08036426454782486 0.11949947476387024 0.15165641903877258 -9999
-9999 0.12818565964698792 0.10100927948951721 0.067972332239151 0.039082497358322144 0.019198989495635033 0.009426932781934738 0.00398693373426795 0.0014646517811343074 0.0014563308795914054 0.0015049166977405548 0.001550930319353938 0.003417796455323696 0.009740178473293781 0.023444175720214844 0.04795902967453003 0.08354336768388748 0.12410400807857513 0.15738588571548462 -9999
-9999 0.13072507083415985 0.10311608761548996 0.06951235979795456 0.0400523915886879 0.019717298448085785 0.008296849206089973 0.003002621466293931 0.0014589622151106596 0.0015160988550633192 0.0015711485175415874 0.001713684992864728 0.004979899153113365 0.011994983069598675 0.024392666295170784 0.04982728138566017 0.08668530732393265 0.12858249247074127 0.1628330796957016 -9999
-9999 0.13381870090961456 0.10563291609287262 0.0712975263595581 0.041135273873806 0.020412033423781395 0.008614621125161648 0.0031284058932214975 0.0015075975097715855 0.001568330219015479 0.0016291714273393154 0.002657462377101183 0.00769172515720129 0.018480226397514343 0.03793621435761452 0.06592324376106262 0.0974029153585434 0.13281801342964172 0.1675563007593155 -9999
-9999 0.13725358247756958 0.10841605067253113 0.07354307919740677 0.04252484813332558 0.021003440022468567 0.008869464509189129 0.003219555364921689 0.0015493138926103711 0.001611262559890747 0.0016742584994062781 0.003466859459877014 0.010008667595684528 0.024179546162486076 0.04951683431863785 0.08615206182003021 0.127661794424057 0.1608746200799942 0.1708793342113495 -9999
-9999 0.14070646464824677 0.11126146465539932 0.0755612701177597 0.043731026351451874 0.021616201847791672 0.010691898874938488 0.004550429992377758 0.001669031218625605 0.0016445063520222902 0.00170788518153131 0.003842026460915804 0.011037618853151798 0.026694877073168755 0.054785385727882385 0.09564539045095444 0.1418105959892273 0.17987842857837677 -9999 -9999
-9999 0.14378133416175842 0.1143016666173935 0.08383095264434814 0.057026516646146774 0.03306334465742111 0.01641412079334259 0.006929626688361168 0.0027439622208476067 0.0016672610072419047 0.0017317490419372916 0.0038931407034397125 0.011191070079803467 0.027095722034573555 0.05569448322057724 0.09743619710206985 0.14525778591632843 0.18436381220817566 -9999 -9999
-9999 0.14595438539981842 0.13695986568927765 0.10896146297454834 0.0739586278796196 0.04285815358161926 0.022957801818847656 0.01133894082158804 0.004821364767849445 0.0017707451479509473 0.0017467036377638578 0.0036110118962824345 0.010442699305713177 0.025312630459666252 0.05207999795675278 0.09119242429733276 0.13635633885860443 0.1745082288980484 0.1916334629058838 0.1927836388349533
-9999 -9999 0.15148670971393585 0.12035960704088211 0.08814080059528351 0.05980420485138893 0.034571677446365356 0.017129821702837944 0.007228532340377569 0.002660940168425441 0.001753405318595469 0.002856406383216381 0.008290287107229233 0.020175587385892868 0.041429515928030014 0.07272590696811676 0.10874573141336441 0.13892307877540588 0.15143054723739624 0.15202416479587555
-9999 -9999 0.15343107283115387 0.1428433507680893 0.11320135742425919 0.07659383863210678 0.044266022741794586 0.021831370890140533 0.009216420352458954 0.0033770762383937836 0.0017551742494106293 0.0019207721343263984 0.005594372749328613 0.01358874049037695 0.028096260502934456 0.04908135533332825 0.07368603348731995 0.09395104646682739 0.10199921578168869 0.10225042700767517
-9999 -9999 -9999 0.15610510110855103 0.1235160306096077 0.0834772065281868 0.04815521091222763 0.023722507059574127 0.010004328563809395 0.0036736943293362856 0.0017556962557137012 0.0018218408804386854 0.0032126486767083406 0.007780700456351042 0.01613108068704605 0.02817872166633606 0.04235076904296875 0.0537431500852108 0.058463383466005325 0.05856394022703171
