ncols         20
nrows         20
xllcorner     0
yllcorner     -3.5992928
cellsize      0.17996463
NODATA_value  -9999
-9999.0 -9999 -9999 -9999 -9999 -9999 -9999 -9999 -9999 -9999 -9999 -9999 -9999 -9999 -9999 -9999 -9999 -9999 -9999 -9999
-9999 -9999 -9999 -9999 -9999 -9999 -9999 -9999 -9999 -9999 -9999 1.7223581075668335 1.720981478691101 -9999 -9999 1.7761919498443604 1.757706880569458 -9999 -9999 -9999
-9999 -9999 -9999 -9999 1.730324625968933 1.7402405738830566 1.756382703781128 1.7569568157196045 1.7505069971084595 1.7498570680618286 1.7313132286071777 1.7429277896881104 1.7607876062393188 1.774916172027588 1.7807865142822266 1.7833337783813477 1.7699788808822632 1.7543772459030151 -9999 -9999
-9999 -9999 -9999 1.7493870258331299 1.7584097385406494 1.766456127166748 1.7739109992980957 1.7706466913223267 1.766668438911438 1.7597087621688843 1.7594536542892456 1.7689265012741089 1.786559820175171 1.8017866611480713 1.8191922903060913 1.823960542678833 1.8093323707580566 1.792620062828064 -9999 -9999
-9999 -9999 -9999 1.7706958055496216 1.782210111618042 1.8021535873413086 1.8041019439697266 1.792497158050537 1.759368896484375 1.7063171863555908 1.6529759168624878 1.6321008205413818 1.6597912311553955 1.7274340391159058 1.801932692527771 1.842612862586975 1.8483916521072388 1.859207034111023 -9999 -9999
-9999 -9999 1.7768667936325073 1.7963460683822632 1.816556692123413 1.8274973630905151 1.8097953796386719 1.758345603942871 1.6549406051635742 1.5027023553848267 1.3447695970535278 1.2673906087875366 1.299232006072998 1.4429134130477905 1.629386305809021 1.7635515928268433 1.838440179824829 1.8636972904205322 1.8447870016098022 -9999
-9999 -9999 1.796339750289917 1.8171273469924927 1.8473446369171143 1.8439571857452393 1.7917413711547852 1.67188560962677 1.4720577001571655 1.2172578573226929 0.9861559867858887 0.8683626651763916 0.8918213248252869 1.0612802505493164 1.3445112705230713 1.5635699033737183 1.7328147888183594 1.815779209136963 1.8385647535324097 -9999
-9999 -9999 1.8406916856765747 1.8638797998428345 1.8757234811782837 1.835886001586914 1.714867353439331 1.5029922723770142 1.2229105234146118 0.9298555254936218 0.7072944045066833 0.5917602777481079 0.5982376337051392 0.7273132801055908 0.9659415483474731 1.247321367263794 1.490257740020752 1.6559959650039673 1.7246792316436768 -9999
-9999 1.859580636024475 1.8931828737258911 1.902079701423645 1.8732060194015503 1.7512552738189697 1.5243868827819824 1.221526861190796 0.9119740724563599 0.6571981906890869 0.49193015694618225 0.40938249230384827 0.40434378385543823 0.48497214913368225 0.6530120372772217 0.909561038017273 1.1557615995407104 1.3605518341064453 1.46288001537323 -9999
-9999 1.9053725004196167 1.9229286909103394 1.901693344116211 1.788856863975525 1.545149803161621 1.212219476699829 0.8669257164001465 0.591742992401123 0.41359084844589233 0.31705212593078613 0.27051717042922974 0.2677569091320038 0.30974051356315613 0.4114050567150116 0.5820006728172302 0.7883777022361755 0.982564389705658 1.0863797664642334 -9999
-9999 1.9389464855194092 1.9235633611679077 1.831835150718689 1.6145517826080322 1.2776105403900146 0.8911046981811523 0.5574175119400024 0.34485816955566406 0.23240052163600922 0.17900609970092773 0.1570005565881729 0.15621915459632874 0.1775692254304886 0.22960543632507324 0.32534059882164 0.45822736620903015 0.6031689047813416 0.683108389377594 -9999
-9999 1.9026288986206055 1.8456839323043823 1.6609691381454468 1.362060785293579 0.9948804974555969 0.6280195116996765 0.3517560362815857 0.1975259631872177 0.12317154556512833 0.0909872055053711 0.07784712314605713 0.07697793841362 0.08462238311767578 0.10544882714748383 0.1502416431903839 0.222866028547287 0.30663883686065674 0.35355618596076965 -9999
-9999 1.7462080717086792 1.6318575143814087 1.3605104684829712 1.0372918844223022 0.7078203558921814 0.4208329916000366 0.21985960006713867 0.11273323744535446 0.06570517271757126 0.040620796382427216 0.03198003023862839 0.029368504881858826 0.03059484250843525 0.037168316543102264 0.05217868834733963 0.08787868171930313 0.1298609972000122 0.15663397312164307 -9999
-9999 1.4552080631256104 1.3001115322113037 0.9881239533424377 0.6857797503471375 0.43877172470092773 0.2525096833705902 0.12963367998600006 0.06069394201040268 0.03450646996498108 0.022714979946613312 0.01759203150868416 0.015298726037144661 0.014796348288655281 0.015711180865764618 0.019415106624364853 0.02795591950416565 0.04509070888161659 0.05846671015024185 -9999
-9999 1.1458399295806885 0.9812592267990112 0.6715787649154663 0.414205402135849 0.24580582976341248 0.13742581009864807 0.0679057165980339 0.03646370396018028 0.02268342673778534 0.016431434080004692 0.013213303871452808 0.011561039835214615 0.01092580147087574 0.010619384236633778 0.011308803223073483 0.013143636286258698 0.018889442086219788 -9999 -9999
-9999 0.9307662844657898 0.7658687829971313 0.47924381494522095 0.2662549614906311 0.14138445258140564 0.07267377525568008 0.039842959493398666 0.02494622766971588 0.017686622217297554 0.014182056300342083 0.012105249799787998 0.01135081984102726 0.013448758982121944 0.01535777747631073 0.016870196908712387 0.017910229042172432 0.01868523471057415 -9999 -9999
-9999 0.7874320149421692 0.6171483993530273 0.3735474646091461 0.19219011068344116 0.08545669168233871 0.04454197734594345 0.026288025081157684 0.018313124775886536 0.01440680492669344 0.012493142858147621 0.013192510232329369 0.015770789235830307 0.018354766070842743 0.02076677791774273 0.02286181040108204 0.024707021191716194 0.026842884719371796 0.030989645048975945 0.032642364501953125
-9999 -9999 0.46934935450553894 0.30168989300727844 0.15019752085208893 0.063203826546669 0.03163766860961914 0.019316554069519043 0.014297254383563995 0.012177773751318455 0.014433749951422215 0.017017755657434464 0.019827350974082947 0.02270658127963543 0.025359496474266052 0.027608642354607582 0.02952122688293457 0.031201599165797234 0.03285953029990196 0.03349577635526657
-9999 -9999 0.3323437571525574 0.2338571846485138 0.11965993046760559 0.04909680411219597 0.024019628763198853 0.014788989908993244 0.012655256316065788 0.014906077645719051 0.017338000237941742 0.020038142800331116 0.022961866110563278 0.02593240700662136 0.028577733784914017 0.030696479603648186 0.032326001673936844 0.03338385373353958 0.03387703001499176 0.034030746668577194
-9999 -9999 -9999 0.19239452481269836 0.10016600787639618 0.043301694095134735 0.021131036803126335 0.013156545348465443 0.014045637100934982 0.01642870344221592 0.018938632681965828 0.021652724593877792 0.02459775097668171 0.027571264654397964 0.030180519446730614 0.0321425199508667 0.03358224406838417 0.034159716218709946 0.03428113833069801 0.034266725182533264
