ncols         20
nrows         20
xllcorner     0
yllcorner     -3.5992928
cellsize      0.17996463
NODATA_value  -9999
-9999.0 -9999 -9999 -9999 -9999 -9999 -9999 -9999 -9999 -9999 -9999 -9999 -9999 -9999 -9999 -9999 -9999 -9999 -9999 -9999
-9999 -9999 -9999 -9999 -9999 -9999 -9999 -9999 -9999 -9999 -9999 0 0 -9999 -9999 0 0 -9999 -9999 -9999
-9999 -9999 -9999 -9999 0 0 0 0 0 0 0 0 0 0 0 0 0 0 -9999 -9999
-9999 -9999 -9999 0 0 0 0 0 0 0 0 0 0 0 0 0 0 0 -9999 -9999
-9999 -9999 -9999 0 0 0 0 0 0 0 0 0 0 0 0 0 0 0 -9999 -9999
-9999 -9999 0 0 0 0 2.258046865463257 1.8811681270599365 1.6677781343460083 1.5248008966445923 1.4315364360809326 1.412866473197937 1.4819201231002808 1.6575273275375366 1.9492158889770508 2.4280686378479004 0 0 0 -9999
-9999 -9999 0 0 0 2.0792627334594727 1.5556745529174805 1.2626382112503052 1.072288155555725 0.9304338693618774 0.8311924338340759 0.7949694991111755 0.8346937298774719 0.9658868312835693 1.2070955038070679 1.6278891563415527 0 0 0 -9999
-9999 -9999 0 0 2.0988330841064453 1.5084501504898071 1.1428320407867432 0.9052349925041199 0.7372212409973145 0.6125490665435791 0.5324873924255371 0.4990316927433014 0.5198850035667419 0.6048579216003418 0.772102952003479 1.057553768157959 1.5255930423736572 0 0 -9999
-9999 0 0 2.3171699047088623 1.614313006401062 1.1679409742355347 0.8701152205467224 0.6635722517967224 0.519109845161438 0.4223948121070862 0.36695998907089233 0.34461709856987 0.3545933663845062 0.40544041991233826 0.5087960958480835 0.6888359189033508 0.9712581038475037 1.3657656908035278 0 -9999
-9999 0 0 1.9924936294555664 1.3386940956115723 0.9328148365020752 0.6639557480812073 0.48162928223609924 0.3646191656589508 0.2967658042907715 0.26337090134620667 0.25095176696777344 0.25770092010498047 0.2865605056285858 0.3486405611038208 0.4588412940502167 0.6401858329772949 0.8985459208488464 0 -9999
-9999 0 0 1.7789678573608398 1.140807032585144 0.7581151127815247 0.5107298493385315 0.35141420364379883 0.26048514246940613 0.21415038406848907 0.19340437650680542 0.18714798986911774 0.19182391464710236 0.2091766893863678 0.24563086032867432 0.31367141008377075 0.42997169494628906 0 0 -9999
-9999 0 0 1.5650757551193237 0.964927077293396 0.6174901723861694 0.3998315632343292 0.26783493161201477 0.19816601276397705 0.1645447164773941 0.15037894248962402 0.1459375023841858 0.14880479872226715 0.1585913598537445 0.17900514602661133 0.21827174723148346 0.2888694703578949 0 0 -9999
-9999 0 0 1.3023797273635864 0.7816206216812134 0.4900228679180145 0.31544867157936096 0.2134184092283249 0.16122658550739288 0.1374809592962265 0.12619958817958832 0.12272033095359802 0.12391708046197891 0.1296703815460205 0.1417875438928604 0.1638781875371933 0.20540811121463776 0 0 -9999
-9999 0 0 1.010156512260437 0.5928460955619812 0.3711261749267578 0.2459220439195633 0.17564576864242554 0.1389482319355011 0.12243878841400146 0.11481676250696182 0.11212305724620819 0.11275869607925415 0.11663953959941864 0.12443554401397705 0.13838540017604828 0.1632961928844452 0 0 -9999
-9999 0 0 0.7584010362625122 0.4388059079647064 0.2797083854675293 0.19568514823913574 0.14949940145015717 0.12624415755271912 0.11452328413724899 0.10884559899568558 0.10664625465869904 0.10706187039613724 0.10993900895118713 0.11557722836732864 0.12520740926265717 0.14111049473285675 0 -9999 -9999
-9999 0 0 0.5911528468132019 0.3442147970199585 0.22470957040786743 0.16552019119262695 0.13485942780971527 0.1187155619263649 0.1098707765340805 0.10530165582895279 0.10341639071702957 0.10374392569065094 0.10638660192489624 0.11098377406597137 0.11809997260570526 0.12873291969299316 0.1396743804216385 -9999 -9999
-9999 0 0 0.48701250553131104 0.28935888409614563 0.19275826215744019 0.1490575075149536 0.126242533326149 0.11379747092723846 0.10670118033885956 0.1028822511434555 0.10158857703208923 0.10215289890766144 0.10413564741611481 0.10754884034395218 0.1125670000910759 0.11947285383939743 0.12629608809947968 0.12577402591705322 0.12586422264575958
-9999 -9999 0 0.4086466133594513 0.25422459840774536 0.1758546233177185 0.13974642753601074 0.12112027406692505 0.11070725321769714 0.10468921065330505 0.10191521793603897 0.10083220154047012 0.10111334174871445 0.1025649830698967 0.10505352914333344 0.10848933458328247 0.11268091201782227 0.11691205948591232 0.11881594359874725 0.11946580559015274
-9999 -9999 0 0 0.23317381739616394 0.16532009840011597 0.13414528965950012 0.11797518283128738 0.10911451280117035 0.10431113094091415 0.10158459097146988 0.1004287376999855 0.10051225870847702 0.10159704089164734 0.10347218066453934 0.10593913495540619 0.10871431231498718 0.11125720292329788 0.11280010640621185 0.11348032206296921
-9999 -9999 -9999 0 0.21927541494369507 0.16040682792663574 0.1317353993654251 0.11667604744434357 0.10885065793991089 0.1041550487279892 0.10145271569490433 0.10025406628847122 0.10023576021194458 0.10113727301359177 0.10271724313497543 0.10473588854074478 0.10692140460014343 0.1088409274816513 0.11013704538345337 0.1107652485370636
