ncols         20
nrows         20
xllcorner     0
yllcorner     -3.5992928
cellsize      0.17996463
NODATA_value  -9999
-9999.0 -9999 -9999 -9999 -9999 -9999 -9999 -9999 -9999 -9999 -9999 -9999 -9999 -9999 -9999 -9999 -9999 -9999 -9999 -9999
-9999 -9999 -9999 -9999 -9999 -9999 -9999 -9999 -9999 -9999 -9999 0.9460386633872986 0.9244824051856995 -9999 -9999 0.8191008567810059 0.7675591707229614 -9999 -9999 -9999
-9999 -9999 -9999 -9999 1.0857384204864502 1.152911901473999 1.2698798179626465 1.3512648344039917 1.386350154876709 1.392570972442627 1.2362918853759766 1.1258984804153442 1.1061040163040161 1.088785171508789 0.9838574528694153 0.8700278401374817 0.7863751649856567 0.7283676266670227 -9999 -9999
-9999 -9999 -9999 1.0254024267196655 1.1039541959762573 1.1960670948028564 1.3202102184295654 1.4287772178649902 1.5348517894744873 1.6082137823104858 1.6357831954956055 1.588387370109558 1.5315278768539429 1.3938132524490356 1.217227578163147 1.0270453691482544 0.8803009390830994 0.800168514251709 -9999 -9999
-9999 -9999 -9999 1.0081942081451416 1.0954065322875977 1.2594890594482422 1.4441038370132446 1.6401008367538452 1.8647539615631104 2.1490700244903564 2.402225971221924 2.48624324798584 2.3667094707489014 2.028289794921875 1.668395757675171 1.315622091293335 1.0639389753341675 0.994753897190094 -9999 -9999
-9999 -9999 0.8076930642127991 0.9395179748535156 1.0914649963378906 1.3029247522354126 1.5416646003723145 1.82306706905365 2.231236696243286 2.727263927459717 3.2217941284179688 3.4141652584075928 3.293266534805298 2.808677911758423 2.2111597061157227 1.6895633935928345 1.3223134279251099 1.1627185344696045 1.0275572538375854 -9999
-9999 -9999 0.7815173864364624 0.886359691619873 1.0952401161193848 1.3651646375656128 1.6572004556655884 2.0305445194244385 2.5403025150299072 3.1440162658691406 3.7073237895965576 3.974492311477661 3.8700203895568848 3.4053235054016113 2.8014304637908936 2.130995750427246 1.6553360223770142 1.3603160381317139 1.2307143211364746 -9999
-9999 -9999 0.7764917016029358 0.9102687239646912 1.1699579954147339 1.4873465299606323 1.8605108261108398 2.2964823246002197 2.7860748767852783 3.3090035915374756 3.7064385414123535 3.918539524078369 3.8601744174957275 3.542882204055786 3.0559630393981934 2.4879419803619385 2.0004897117614746 1.6496045589447021 1.5037930011749268 -9999
-9999 0.6232936978340149 0.7821732759475708 0.9880462288856506 1.3309671878814697 1.745244026184082 2.1726529598236084 2.6227431297302246 3.021632432937622 3.3266332149505615 3.4938113689422607 3.565861225128174 3.541388750076294 3.3748881816864014 3.1062886714935303 2.7479512691497803 2.2672438621520996 1.9182078838348389 1.7669838666915894 -9999
-9999 0.684188187122345 0.8303045034408569 1.1354446411132812 1.5683753490447998 2.054621458053589 2.5202476978302 2.9147229194641113 3.157414197921753 3.2404494285583496 3.213674783706665 3.1780624389648438 3.135798454284668 3.070408821105957 2.9474902153015137 2.7749521732330322 2.4039840698242188 2.1132707595825195 1.9853123426437378 -9999
-9999 0.8077391386032104 0.9668402075767517 1.3113664388656616 1.759787917137146 2.2404861450195312 2.6802725791931152 2.982837200164795 3.068573236465454 3.007676124572754 2.903670072555542 2.8263823986053467 2.7916548252105713 2.758307933807373 2.699922561645508 2.5999531745910645 2.405750036239624 2.2065629959106445 2.1148366928100586 -9999
-9999 1.0035783052444458 1.164562463760376 1.5190616846084595 1.9280451536178589 2.3168604373931885 2.6403326988220215 2.799668550491333 2.7617733478546143 2.6338798999786377 2.515686511993408 2.458791971206665 2.493485689163208 2.486952781677246 2.4278342723846436 2.416628122329712 2.289185047149658 2.1793904304504395 2.1278932094573975 -9999
-9999 1.271484375 1.4425488710403442 1.7860989570617676 2.0912771224975586 2.3340952396392822 2.4858438968658447 2.5007078647613525 2.376112222671509 2.211432695388794 2.089111566543579 2.0348567962646484 2.071016311645508 2.074791193008423 2.0682215690612793 2.0394561290740967 2.0326015949249268 2.0225374698638916 2.0072317123413086 -9999
-9999 1.5616023540496826 1.7219523191452026 2.0180411338806152 2.2156765460968018 2.2973451614379883 2.2833259105682373 2.177250623703003 2.0068466663360596 1.831899881362915 1.7063231468200684 1.6379882097244263 1.631636142730713 1.6086844205856323 1.587476372718811 1.5743024349212646 1.6373035907745361 1.7607841491699219 1.8181145191192627 -9999
-9999 1.748855471611023 1.870872139930725 2.0961952209472656 2.1879470348358154 2.1411333084106445 2.0200893878936768 1.8594914674758911 1.6821668148040771 1.5328837633132935 1.4297008514404297 1.347740650177002 1.2830979824066162 1.2252906560897827 1.190302848815918 1.1734886169433594 1.1938107013702393 1.3446323871612549 -9999 -9999
-9999 1.7794554233551025 1.8532341718673706 1.9992862939834595 2.0028297901153564 1.8888788223266602 1.7314590215682983 1.5632507801055908 1.4251571893692017 1.3251699209213257 1.2686212062835693 1.1905953884124756 1.0984808206558228 0.992175281047821 0.9284460544586182 0.8712894916534424 0.8384906649589539 0.7675144076347351 -9999 -9999
-9999 1.788188099861145 1.7625727653503418 1.8238579034805298 1.7788383960723877 1.6358835697174072 1.4638371467590332 1.3145020008087158 1.2177557945251465 1.165205717086792 1.1123690605163574 1.038987636566162 0.9446099996566772 0.8400497436523438 0.7562127709388733 0.6858544945716858 0.6335791349411011 0.5900088548660278 0.5794160962104797 0.5276716947555542
-9999 -9999 1.607186198234558 1.6393017768859863 1.5798842906951904 1.4250682592391968 1.25072181224823 1.1202982664108276 1.058392882347107 1.010858178138733 0.9667457342147827 0.9059395790100098 0.8290162682533264 0.7313138246536255 0.6503564715385437 0.5909987092018127 0.5352966785430908 0.5000878572463989 0.47672760486602783 0.503945529460907
-9999 -9999 1.5668936967849731 1.513192057609558 1.4315626621246338 1.2656241655349731 1.0880815982818604 0.9619525671005249 0.9051035046577454 0.8682748079299927 0.8474578261375427 0.7978906631469727 0.7281053066253662 0.6417599320411682 0.5760619044303894 0.5294127464294434 0.4893079698085785 0.4682343602180481 0.5023210644721985 0.5219511985778809
-9999 -9999 -9999 1.408522367477417 1.3512060642242432 1.1885427236557007 1.0105276107788086 0.8878662586212158 0.8363978862762451 0.8093197345733643 0.7904630303382874 0.7571106553077698 0.6906729936599731 0.6087826490402222 0.5405226349830627 0.5088039636611938 0.46369317173957825 0.48839640617370605 0.5175882577896118 0.5340878963470459
