ncols         20
nrows         20
xllcorner     0
yllcorner     -3.5992928
cellsize      0.17996463
NODATA_value  -9999
-9999.0 -9999 -9999 -9999 -9999 -9999 -9999 -9999 -9999 -9999 -9999 -9999 -9999 -9999 -9999 -9999 -9999 -9999 -9999 -9999
-9999 -9999 -9999 -9999 -9999 -9999 -9999 -9999 -9999 -9999 -9999 0.49068039655685425 0.4808136820793152 -9999 -9999 0.4340410828590393 0.4070046544075012 -9999 -9999 -9999
-9999 -9999 -9999 -9999 0.5266329646110535 0.562382698059082 0.6260080337524414 0.6754058003425598 0.7038133144378662 0.7178456783294678 0.6457074284553528 0.5925679206848145 0.5873679518699646 0.5863813757896423 0.533001720905304 0.469705730676651 0.42530813813209534 0.39737004041671753 -9999 -9999
-9999 -9999 -9999 0.5030794143676758 0.5413182377815247 0.5904624462127686 0.6597156524658203 0.7254642248153687 0.7937176823616028 0.8472153544425964 0.8769104480743408 0.8632950782775879 0.8416181206703186 0.773253321647644 0.6793439388275146 0.5741958618164062 0.49312055110931396 0.4497433602809906 -9999 -9999
-9999 -9999 -9999 0.5034879446029663 0.548878014087677 0.6375607848167419 0.7427746057510376 0.8610929846763611 1.002176284790039 1.1825897693634033 1.3517513275146484 1.4242216348648071 1.3735285997390747 1.188946008682251 0.985159695148468 0.7792401313781738 0.6318431496620178 0.5930957794189453 -9999 -9999
-9999 -9999 0.4231173098087311 0.486026793718338 0.5671104192733765 0.6865535378456116 0.8295785188674927 1.0071406364440918 1.2693448066711426 1.5995819568634033 1.9432677030563354 2.1048240661621094 2.062425374984741 1.7798230648040771 1.4127824306488037 1.0836893320083618 0.8522146344184875 0.757355809211731 0.6922647953033447 -9999
-9999 -9999 0.42313915491104126 0.47995302081108093 0.5996515154838562 0.7627922296524048 0.9514368772506714 1.2038490772247314 1.5619480609893799 2.006030797958374 2.4462571144104004 2.69442081451416 2.674093723297119 2.3871877193450928 0 1.5142982006072998 1.1772781610488892 0.9701828360557556 0.8856253027915955 -9999
-9999 -9999 0.4470590054988861 0.5272446274757385 0.6897627115249634 0.9010224938392639 1.1658560037612915 1.4976372718811035 1.8961310386657715 2.349757671356201 2.734872817993164 2.9861197471618652 3.0118818283081055 2.8109495639801025 2.4510457515716553 2.006134033203125 1.6083940267562866 1.3214830160140991 1.2041429281234741 -9999
-9999 0.4071934223175049 0.49381089210510254 0.6263273358345032 0.8631275296211243 1.1719924211502075 1.5228544473648071 1.9302613735198975 2.3390092849731445 2.7028021812438965 2.9654734134674072 3.142343282699585 3.2135255336761475 3.1251919269561768 2.912611246109009 0 2.117039203643799 1.7717746496200562 1.6221994161605835 -9999
-9999 0.4767089784145355 0.575804591178894 0.7981765270233154 1.136574625968933 1.5548361539840698 2.0122902393341064 2.4713399410247803 2.844839572906494 3.090545177459717 3.225557804107666 3.3354721069335938 3.4104180335998535 3.4179470539093018 3.3165509700775146 0 2.6681835651397705 2.3069770336151123 2.1453487873077393 -9999
-9999 0.6212164759635925 0.7476997375488281 1.0333360433578491 1.4372724294662476 1.9274007081985474 2.4616832733154297 2.946676731109619 3.2577452659606934 3.413910150527954 3.5020577907562256 3.5983376502990723 3.7180535793304443 3.767955780029297 3.708770751953125 3.5524723529815674 3.2256505489349365 2.897270441055298 2.7388916015625 -9999
-9999 0.8645621538162231 1.013077974319458 1.353020191192627 1.7925715446472168 2.288130521774292 2.8114097118377686 3.2364206314086914 3.45810604095459 3.5508968830108643 3.6267521381378174 3.772075891494751 0 0 4.052465915679932 0 3.7017149925231934 3.4387669563293457 3.299354314804077 -9999
-9999 1.2277252674102783 1.4128239154815674 1.809659481048584 2.233067750930786 2.67041277885437 3.085953950881958 3.383788585662842 3.489290714263916 3.5008723735809326 3.5419094562530518 3.6753957271575928 0 0 0 3.9232072830200195 3.830989360809326 3.724149703979492 3.6089229583740234 -9999
-9999 1.6769012212753296 1.892236351966858 2.327420234680176 2.727938652038574 3.055446147918701 3.3041634559631348 3.429356575012207 3.4246671199798584 3.3827321529388428 3.3781020641326904 3.4343948364257812 0 0 0 3.460705280303955 3.5022716522216797 3.6450562477111816 3.57167387008667 -9999
-9999 2.075751304626465 2.2974655628204346 2.742042064666748 3.0919816493988037 3.287153959274292 3.3729445934295654 3.37231183052063 3.322686195373535 3.2803375720977783 3.2704508304595947 3.227219343185425 3.1556012630462646 3.043271064758301 0 0 2.849459648132324 3.135565757751465 -9999 -9999
-9999 2.310086250305176 2.528895854949951 2.94673228263855 3.2153031826019287 3.2999045848846436 3.2867565155029297 3.2398173809051514 3.221975088119507 3.24261212348938 0 0 0 2.6817374229431152 0 0 2.1634130477905273 0 -9999 -9999
-9999 2.4768524169921875 2.6673057079315186 3.011693239212036 3.2076408863067627 3.2012746334075928 3.1238462924957275 3.0649664402008057 3.0938961505889893 0 0 0 0 2.409428119659424 2.127289056777954 1.8879518508911133 1.7041987180709839 1.5614341497421265 0 0
-9999 -9999 2.781705141067505 3.0268471240997314 3.158552646636963 3.0813193321228027 2.9416086673736572 2.8707070350646973 0 0 0 0 0 0 0 0 0 0 0 0
-9999 -9999 2.943103075027466 3.0512747764587402 3.0988292694091797 2.948643445968628 2.7425625324249268 2.6262073516845703 0 0 0 0 0 0 0 0 0 0 0 0
-9999 -9999 -9999 3.049407482147217 3.061688184738159 2.882469654083252 2.6394660472869873 2.5008704662323 0 0 0 0 0 0 0 0 0 0 0 0
