ncols         20
nrows         20
xllcorner     0
yllcorner     -3.5992928
cellsize      0.17996463
NODATA_value  -9999
-9999.0 -9999 -9999 -9999 -9999 -9999 -9999 -9999 -9999 -9999 -9999 -9999 -9999 -9999 -9999 -9999 -9999 -9999 -9999 -9999
-9999 -9999 -9999 -9999 -9999 -9999 -9999 -9999 -9999 -9999 -9999 0 0 -9999 -9999 0 0 -9999 -9999 -9999
-9999 -9999 -9999 -9999 0 0 0 0 0 0 0 0 0 0 0 0 0 0 -9999 -9999
-9999 -9999 -9999 0 0 0 0 0 0 0 0 0 0 0 0 0 0 0 -9999 -9999
-9999 -9999 -9999 0 0 0 0 0 0 0 0 0 0 0 0 0 0 0 -9999 -9999
-9999 -9999 0 0 0 0 2.1920580863952637 1.8180965185165405 1.6054868698120117 1.4630866050720215 1.3705520629882812 1.3517017364501953 1.4186322689056396 1.5893160104751587 1.872814416885376 2.3367578983306885 0 0 0 -9999
-9999 -9999 0 0 0 2.0197198390960693 1.5040651559829712 1.2158647775650024 1.0292774438858032 0.890351414680481 0.7935618758201599 0.7582570910453796 0.7962570190429688 0.9221515655517578 1.1537398099899292 1.5571664571762085 0 0 0 -9999
-9999 -9999 0 0 2.0405685901641846 1.4598417282104492 1.1017065048217773 0.8700749278068542 0.7064148783683777 0.5853869915008545 0.5080094337463379 0.4758303761482239 0.4956507682800293 0.576633870601654 0.7361393570899963 1.0079466104507446 1.4532761573791504 0 0 -9999
-9999 0 0 2.257089376449585 1.5646969079971313 1.1275358200073242 0.8377241492271423 0.6371836066246033 0.49733874201774597 0.40410691499710083 0.35087546706199646 0.3295258581638336 0.33901113271713257 0.38726165890693665 0.4853765368461609 0.6562131643295288 0.9236795902252197 1.2973288297653198 0 -9999
-9999 0 0 1.937151312828064 1.2952015399932861 0.8993722200393677 0.6388607025146484 0.4627481698989868 0.3502051830291748 0.2852137088775635 0.25329679250717163 0.24148398637771606 0.2479112446308136 0.2752780616283417 0.33405542373657227 0.4383348524570465 0.6096883416175842 0.8536171317100525 0 -9999
-9999 0 0 1.7266747951507568 1.1023887395858765 0.730861246585846 0.4918130338191986 0.3386474549770355 0.25167518854141235 0.2075401097536087 0.18782061338424683 0.1819092035293579 0.18639779090881348 0.20288562774658203 0.2374137043952942 0.3017553687095642 0.4115983545780182 0 0 -9999
-9999 0 0 1.5156400203704834 0.931345522403717 0.5954010486602783 0.38584086298942566 0.25940966606140137 0.19300724565982819 0.1610998958349228 0.14769485592842102 0.14355291426181793 0.14636513590812683 0.15575061738491058 0.1752045750617981 0.21252082288265228 0.27951353788375854 0 0 -9999
-9999 0 0 1.2575792074203491 0.7537735104560852 0.4729960262775421 0.3054935336112976 0.2079993039369583 0.15832313895225525 0.13581103086471558 0.125152125954628 0.12194107472896576 0.12320037931203842 0.12881019711494446 0.140500009059906 0.16174697875976562 0.20164921879768372 0 0 -9999
-9999 0 0 0.9729095697402954 0.5718696117401123 0.35925567150115967 0.23944860696792603 0.17235569655895233 0.13740019500255585 0.12176425755023956 0.11458665132522583 0.11211483925580978 0.1128416508436203 0.11669906973838806 0.12436315417289734 0.13802748918533325 0.1624184399843216 0 0 -9999
-9999 0 0 0.7297837138175964 0.42419081926345825 0.2721174955368042 0.19181165099143982 0.14768385887145996 0.1255422979593277 0.11442253738641739 0.10906480252742767 0.10704410076141357 0.10754977911710739 0.11045366525650024 0.11608002334833145 0.12566211819648743 0.14151467382907867 0 -9999 -9999
-9999 0 0 0.5693409442901611 0.33395424485206604 0.2198595106601715 0.16325095295906067 0.13396158814430237 0.11855290085077286 0.11012862622737885 0.105796679854393 0.10405340045690536 0.10445478558540344 0.10710645467042923 0.11170363426208496 0.11882774531841278 0.12951387465000153 0.14055074751377106 -9999 -9999
-9999 0 0 0.4703437387943268 0.2819179594516754 0.189578115940094 0.14777648448944092 0.12593242526054382 0.11400730162858963 0.10721378028392792 0.1035696342587471 0.10236212611198425 0.10296107083559036 0.1049586683511734 0.10838343948125839 0.11342504620552063 0.1203930452466011 0.1273268461227417 0.12692458927631378 0.1270536631345749
-9999 -9999 0 0.396416038274765 0.2488137036561966 0.17371807992458344 0.13908572494983673 0.1211872398853302 0.11116492748260498 0.10537135601043701 0.1026957556605339 0.10167018324136734 0.10198239237070084 0.10344970226287842 0.1059495061635971 0.10940270870923996 0.11363007873296738 0.1179223507642746 0.11988390237092972 0.12055470049381256
-9999 -9999 0 0 0.22917574644088745 0.16390179097652435 0.13388466835021973 0.1182834804058075 0.10971301794052124 0.10505376756191254 0.10241031646728516 0.10130374133586884 0.10141430050134659 0.10251297056674957 0.10439557582139969 0.10687101632356644 0.10966155678033829 0.11222722381353378 0.11379069089889526 0.11447849124670029
-9999 -9999 -9999 0 0.21607309579849243 0.15932036936283112 0.13165102899074554 0.11708526313304901 0.10948596894741058 0.10492060333490372 0.10229478776454926 0.101141057908535 0.10114773362874985 0.10206151753664017 0.10364659875631332 0.10566844791173935 0.10785964876413345 0.10978765785694122 0.11109209805727005 0.11172334849834442
