ncols         20
nrows         20
xllcorner     0
yllcorner     -3.5992928
cellsize      0.17996463
NODATA_value  -9999
-9999.0 -9999 -9999 -9999 -9999 -9999 -9999 -9999 -9999 -9999 -9999 -9999 -9999 -9999 -9999 -9999 -9999 -9999 -9999 -9999
-9999 -9999 -9999 -9999 -9999 -9999 -9999 -9999 -9999 -9999 -9999 26.545785903930664 26.544891357421875 -9999 -9999 26.634708404541016 26.713884353637695 -9999 -9999 -9999
-9999 -9999 -9999 -9999 26.606040954589844 26.49552345275879 26.336435317993164 26.222091674804688 26.165422439575195 26.158010482788086 26.23934555053711 26.32975959777832 26.294727325439453 26.187721252441406 26.242374420166016 26.432052612304688 26.562055587768555 26.599302291870117 -9999 -9999
-9999 -9999 -9999 26.61507797241211 26.556255340576172 26.45659065246582 26.342548370361328 26.274009704589844 26.237548828125 26.222610473632812 26.21853256225586 26.19866371154785 26.119144439697266 26.041658401489258 26.050256729125977 26.15937614440918 26.273630142211914 26.322439193725586 -9999 -9999
-9999 -9999 -9999 26.538124084472656 26.484582901000977 26.42298126220703 26.422319412231445 26.49996566772461 26.5900936126709 26.651832580566406 26.661548614501953 26.580848693847656 26.390840530395508 26.170818328857422 26.013202667236328 25.965221405029297 25.963794708251953 25.935636520385742 -9999 -9999
-9999 -9999 26.486003875732422 26.439586639404297 26.400175094604492 26.477848052978516 26.77252960205078 27.239490509033203 27.656457901000977 27.976078033447266 28.136615753173828 28.00510025024414 27.568235397338867 26.996597290039062 26.48851776123047 26.12268829345703 25.905250549316406 25.771137237548828 25.703218460083008 -9999
-9999 -9999 26.31111717224121 26.282081604003906 26.327892303466797 26.68154525756836 27.53310203552246 28.852842330932617 29.892230987548828 30.511621475219727 30.70663833618164 30.38496208190918 29.534332275390625 28.541751861572266 27.5909366607666 26.795936584472656 26.276357650756836 25.971710205078125 25.831432342529297 -9999
-9999 -9999 25.97737693786621 25.99990463256836 26.23609161376953 27.030521392822266 28.72980499267578 31.436790466308594 32.969482421875 33.65259552001953 33.718658447265625 33.107723236083984 31.659914016723633 30.267751693725586 29.031368255615234 27.965824127197266 27.1307315826416 26.57919692993164 26.32221221923828 -9999
-9999 25.51113510131836 25.587316513061523 25.710779190063477 26.201570510864258 27.441234588623047 29.806303024291992 33.01930236816406 34.7982063293457 35.530975341796875 35.543888092041016 34.821922302246094 33.228118896484375 31.702373504638672 30.385452270507812 29.257308959960938 28.325349807739258 27.651945114135742 27.300458908081055 -9999
-9999 25.26319694519043 25.32245635986328 25.58495330810547 26.382122039794922 28.017168045043945 30.731325149536133 33.96144485473633 35.75954055786133 36.496978759765625 36.50258255004883 35.78545379638672 34.22709655761719 32.72287368774414 31.446245193481445 30.38323402404785 29.513641357421875 28.869853973388672 28.519453048706055 -9999
-9999 25.053977966308594 25.221004486083984 25.725814819335938 26.837326049804688 28.75322723388672 31.487693786621094 34.48505783081055 36.166507720947266 36.872745513916016 36.89847946166992 36.24604415893555 34.782554626464844 33.37487030029297 32.19227981567383 31.228654861450195 30.464384078979492 29.912147521972656 29.609119415283203 -9999
-9999 25.13848114013672 25.452110290527344 26.19936180114746 27.51690673828125 29.47420883178711 31.9320068359375 34.5051155090332 35.99290466308594 36.667633056640625 36.75202941894531 36.23857116699219 34.99067687988281 33.79179382324219 32.76254653930664 31.894298553466797 31.191259384155273 30.68604278564453 30.403791427612305 -9999
-9999 25.659250259399414 26.09619140625 27.00763702392578 28.369230270385742 30.07239532470703 31.98350715637207 33.83106994628906 35.09212112426758 35.77242660522461 35.96768569946289 35.68806457519531 34.97297668457031 34.16848373413086 33.38340759277344 32.636260986328125 31.94203758239746 31.39295196533203 31.028202056884766 -9999
-9999 26.571592330932617 27.08190155029297 28.016963958740234 29.211029052734375 30.56039810180664 31.982973098754883 33.335723876953125 34.39179611206055 35.05034637451172 35.3503303527832 35.32861328125 35.047515869140625 34.64113235473633 34.1638069152832 33.60387420654297 32.979827880859375 32.3399543762207 31.597652435302734 -9999
-9999 27.642711639404297 28.12946319580078 28.945140838623047 29.907562255859375 30.9705867767334 32.08421325683594 33.161407470703125 34.03961944580078 34.66973114013672 35.05776596069336 35.246925354003906 35.27952575683594 35.2021369934082 35.03203201293945 34.73957061767578 34.349788665771484 33.94868469238281 -9999 -9999
-9999 28.49653434753418 28.958911895751953 29.64686393737793 30.45306396484375 31.366008758544922 32.33897018432617 33.25023651123047 34.01767349243164 34.61433029174805 35.04949951171875 35.370460510253906 35.60356140136719 35.75603485107422 35.81892776489258 35.78402328491211 35.68891906738281 35.665931701660156 -9999 -9999
-9999 28.998567581176758 29.56410789489746 30.162025451660156 30.89563751220703 31.786144256591797 32.695106506347656 33.5474853515625 34.26110076904297 34.8292236328125 35.277015686035156 35.6575813293457 35.98923110961914 36.26121139526367 36.4581184387207 36.57452392578125 36.65036392211914 36.79425811767578 37.20787811279297 37.38056945800781
-9999 -9999 30.18247413635254 30.595531463623047 31.265586853027344 32.15961456298828 33.09267044067383 33.95270919799805 34.65226364135742 35.19569396972656 35.627197265625 36.01517105102539 36.377296447753906 36.70741271972656 36.959434509277344 37.125816345214844 37.24779510498047 37.35970687866211 37.49654769897461 37.54265594482422
-9999 -9999 30.490379333496094 30.90819549560547 31.554445266723633 32.4765625 33.467628479003906 34.357730865478516 35.05866241455078 35.57352828979492 35.96711730957031 36.33824920654297 36.704349517822266 37.04731369018555 37.30945587158203 37.48491668701172 37.604209899902344 37.66781234741211 37.68154525756836 37.68204116821289
-9999 -9999 -9999 31.19499397277832 31.754255294799805 32.659461975097656 33.68063735961914 34.5885124206543 35.283653259277344 35.77870559692383 36.15504455566406 36.50382995605469 36.8674430847168 37.214874267578125 37.48820877075195 37.66193389892578 37.78369140625 37.8033561706543 37.78867721557617 37.777305603027344
