ncols         20
nrows         20
xllcorner     0
yllcorner     -3.5992928
cellsize      0.17996463
NODATA_value  -9999
-9999.0 -9999 -9999 -9999 -9999 -9999 -9999 -9999 -9999 -9999 -9999 -9999 -9999 -9999 -9999 -9999 -9999 -9999 -9999 -9999
-9999 -9999 -9999 -9999 -9999 -9999 -9999 -9999 -9999 -9999 -9999 0.5081656575202942 0.4979225993156433 -9999 -9999 0.44970646500587463 0.4217163026332855 -9999 -9999 -9999
-9999 -9999 -9999 -9999 0.5470871925354004 0.5840266346931458 0.6497189998626709 0.7004983425140381 0.7294362187385559 0.7434971928596497 0.6684673428535461 0.6133460402488708 0.6078606843948364 0.6066958904266357 0.5515361428260803 0.4862734377384186 0.44037050008773804 0.41136080026626587 -9999 -9999
-9999 -9999 -9999 0.5224788784980774 0.5621468424797058 0.6129415035247803 0.6843975782394409 0.7520307302474976 0.8221099972724915 0.8768256902694702 0.9069644212722778 0.8925324082374573 0.8699578046798706 0.7992596626281738 0.7022992968559265 0.5937577486038208 0.5100010633468628 0.46513551473617554 -9999 -9999
-9999 -9999 -9999 0.5225953459739685 0.5695870518684387 0.6612734794616699 0.7698276042938232 0.8916562795639038 1.0367454290390015 1.2221142053604126 1.3958131074905396 1.4699018001556396 1.417265772819519 1.2268365621566772 1.0168055295944214 0.8044328689575195 0.6523621082305908 0.6123495101928711 -9999 -9999
-9999 -9999 0.4385876953601837 0.5039294362068176 0.5878233909606934 0.7111655473709106 0.8585667610168457 1.0412631034851074 1.31075119972229 1.6499502658843994 2.0027546882629395 2.1680850982666016 2.123870849609375 1.8328700065612793 1.4552603960037231 1.116455078125 0.8780562281608582 0.7802241444587708 0.7127013206481934 -9999
-9999 -9999 0.4382374882698059 0.49698778986930847 0.620568573474884 0.7887176871299744 0.9827585816383362 1.241925597190857 1.6093746423721313 2.064734935760498 2.515780210494995 2.7694790363311768 2.7478690147399902 2.453127145767212 0 1.5566859245300293 1.2102972269058228 0.9974783062934875 0.9106511473655701 -9999
-9999 -9999 0.4624032974243164 0.545024573802948 0.7123282551765442 0.9294658303260803 1.2010936737060547 1.5409138202667236 1.948646068572998 2.4125025272369385 2.805844306945801 3.0620203018188477 3.0875988006591797 2.881528615951538 2.5131096839904785 2.0573201179504395 1.64951491355896 1.355350136756897 1.2350616455078125 -9999
-9999 0.4209045171737671 0.5101439952850342 0.6462147235870361 0.8891197443008423 1.20551335811615 1.564186453819275 1.9800657033920288 2.3967649936676025 2.767183542251587 3.034198760986328 3.213775396347046 3.2858448028564453 3.195523262023926 2.978900909423828 0 2.165966510772705 1.8126227855682373 1.6595919132232666 -9999
-9999 0.49235832691192627 0.5942152142524719 0.8220974802970886 1.167818307876587 1.5946199893951416 2.06054949760437 2.52731990814209 2.906287670135498 3.1549041271209717 3.2910923957824707 3.4023120403289795 3.4785215854644775 3.486485481262207 3.3839731216430664 0 2.7232375144958496 2.3543660640716553 2.189345598220825 -9999
-9999 0.640571117401123 0.7702236175537109 1.0620778799057007 1.4728931188583374 1.9711507558822632 2.5134999752044678 3.004847526550293 3.3188867568969727 3.4758150577545166 3.5645134449005127 3.6625235080718994 3.785289764404297 3.836839437484741 3.7769927978515625 3.6185567378997803 3.2851815223693848 2.9504640102386475 2.7890331745147705 -9999
-9999 0.8893346190452576 1.0408142805099487 1.3861814737319946 1.8316688537597656 2.333617925643921 2.8630919456481934 3.292224168777466 3.5151102542877197 3.6081442832946777 3.6853811740875244 3.8347346782684326 0 0 4.124117851257324 0 3.7654049396514893 3.4969615936279297 3.3546085357666016 -9999
-9999 1.258961796760559 1.4465597867965698 1.8475276231765747 2.2750871181488037 2.7164385318756104 3.1354949474334717 3.435401678085327 3.5412099361419678 3.553130626678467 3.5964109897613525 3.7350151538848877 0 0 0 3.9919090270996094 3.8959248065948486 3.7856783866882324 3.666837453842163 -9999
-9999 1.712876558303833 1.9292380809783936 2.368433713912964 2.7717552185058594 3.1010172367095947 3.350986957550049 3.476895570755005 3.472661018371582 3.4319889545440674 3.4303548336029053 3.4915125370025635 0 0 0 3.5258021354675293 3.566094398498535 3.709190845489502 3.6293840408325195 -9999
-9999 2.1115283966064453 2.334789514541626 2.78298020362854 3.134679079055786 3.3301968574523926 3.416297674179077 3.4165613651275635 3.3687820434570312 3.3298027515411377 3.3246803283691406 3.285398483276367 3.2166833877563477 3.1054556369781494 0 0 2.9114532470703125 3.2031092643737793 -9999 -9999
-9999 2.3440372943878174 2.5639896392822266 2.9846150875091553 3.2541801929473877 3.338865041732788 3.32651686668396 3.281872510910034 3.268629550933838 3.2961535453796387 0 0 0 2.744267463684082 0 0 2.223280668258667 0 -9999 -9999
-9999 2.5097532272338867 2.699571132659912 3.0455985069274902 3.2423293590545654 3.23636531829834 3.1606290340423584 3.1059155464172363 3.142449378967285 0 0 0 0 2.473985195159912 2.188911199569702 1.9474666118621826 1.7632839679718018 1.6230989694595337 0 0
-9999 -9999 2.8104658126831055 3.0570406913757324 3.1897525787353516 3.113403558731079 2.9761810302734375 2.9109911918640137 0 0 0 0 0 0 0 0 0 0 0 0
-9999 -9999 2.970839500427246 3.079167366027832 3.1275575160980225 2.9784092903137207 2.775024175643921 2.6645452976226807 0 0 0 0 0 0 0 0 0 0 0 0
-9999 -9999 -9999 3.0758416652679443 3.089221239089966 2.9111807346343994 2.6709084510803223 2.538179874420166 0 0 0 0 0 0 0 0 0 0 0 0
