ncols         20
nrows         20
xllcorner     0
yllcorner     -3.5992928
cellsize      0.17996463
NODATA_value  -9999
-9999.0 -9999 -9999 -9999 -9999 -9999 -9999 -9999 -9999 -9999 -9999 -9999 -9999 -9999 -9999 -9999 -9999 -9999 -9999 -9999
-9999 -9999 -9999 -9999 -9999 -9999 -9999 -9999 -9999 -9999 -9999 13.298116683959961 13.309988021850586 -9999 -9999 13.194262504577637 13.277823448181152 -9999 -9999 -9999
-9999 -9999 -9999 -9999 13.157563209533691 13.09461784362793 12.993640899658203 12.961894989013672 12.978081703186035 12.999388694763184 13.127471923828125 13.1489839553833 13.10445785522461 13.062878608703613 13.094061851501465 13.14733600616455 13.237746238708496 13.318233489990234 -9999 -9999
-9999 -9999 -9999 13.120165824890137 13.067771911621094 13.00423812866211 12.942227363586426 12.933521270751953 12.935026168823242 12.938872337341309 12.931455612182617 12.90568733215332 12.859521865844727 12.854635238647461 12.871414184570312 12.947089195251465 13.06717300415039 13.154540061950684 -9999 -9999
-9999 -9999 -9999 13.055715560913086 12.989409446716309 12.891854286193848 12.871779441833496 12.929031372070312 12.990082740783691 13.022809982299805 13.030608177185059 13.004239082336426 12.92648983001709 12.838885307312012 12.760355949401855 12.775197982788086 12.85948371887207 12.85816764831543 -9999 -9999
-9999 -9999 13.087478637695312 12.985147476196289 12.879644393920898 12.841897964477539 12.986327171325684 13.268425941467285 13.479978561401367 13.651588439941406 13.784014701843262 13.801167488098145 13.642916679382324 13.37240982055664 13.085623741149902 12.896451950073242 12.833271980285645 12.817421913146973 12.940499305725098 -9999
-9999 -9999 12.99443244934082 12.886249542236328 12.759271621704102 12.862129211425781 13.355428695678711 14.15304183959961 14.575276374816895 14.8717622756958 15.086133003234863 15.087762832641602 14.740135192871094 14.289095878601074 13.801850318908691 13.38152027130127 13.104933738708496 12.988014221191406 12.977211952209473 -9999
-9999 -9999 12.75577163696289 12.623592376708984 12.569903373718262 12.946527481079102 13.991249084472656 15.901708602905273 16.41625213623047 16.618324279785156 16.737398147583008 16.640888214111328 15.82073974609375 15.226030349731445 14.675153732299805 14.14113998413086 13.707406044006348 13.436348915100098 13.318235397338867 -9999
-9999 12.614303588867188 12.449323654174805 12.305793762207031 12.3958101272583 13.035837173461914 14.357937812805176 16.383628845214844 16.95891761779785 17.151050567626953 17.23348045349121 17.134122848510742 16.446901321411133 15.947491645812988 15.49435043334961 15.009676933288574 14.53570556640625 14.179939270019531 14.006484031677246 -9999
-9999 12.351567268371582 12.195767402648926 12.105888366699219 12.43677043914795 13.35455322265625 14.80052661895752 16.664472579956055 17.216419219970703 17.38825035095215 17.44651222229004 17.368741989135742 16.839834213256836 16.472286224365234 16.15188217163086 15.802391052246094 15.414567947387695 15.085763931274414 14.915372848510742 -9999
-9999 12.093225479125977 12.051657676696777 12.199910163879395 12.811653137207031 13.887446403503418 15.325647354125977 16.961374282836914 17.441713333129883 17.580581665039062 17.626298904418945 17.567914962768555 17.12937355041504 16.85022735595703 16.637187957763672 16.414024353027344 16.167037963867188 15.93858528137207 15.8181791305542 -9999
-9999 12.125101089477539 12.253020286560059 12.68413257598877 13.486211776733398 14.553743362426758 15.817453384399414 17.161563873291016 17.5609073638916 17.679134368896484 17.72053337097168 17.682849884033203 17.310882568359375 17.10662841796875 16.971572875976562 16.83553123474121 16.686138153076172 16.559223175048828 16.504302978515625 -9999
-9999 12.645092964172363 12.926551818847656 13.561376571655273 14.381484985351562 15.278579711914062 16.17103385925293 16.937458038330078 17.298973083496094 17.44378089904785 17.495967864990234 17.47698211669922 17.359697341918945 17.274982452392578 17.203235626220703 17.122026443481445 17.012008666992188 16.927940368652344 16.922344207763672 -9999
-9999 13.560139656066895 13.915462493896484 14.609621047973633 15.34069538116455 15.992264747619629 16.547409057617188 16.978403091430664 17.233814239501953 17.353424072265625 17.403934478759766 17.414783477783203 17.40158462524414 17.393157958984375 17.387245178222656 17.35111427307129 17.269128799438477 17.15750503540039 17.190996170043945 -9999
-9999 14.480877876281738 14.842100143432617 15.496788024902344 16.095666885375977 16.538415908813477 16.864551544189453 17.105363845825195 17.253904342651367 17.33747100830078 17.380260467529297 17.40973472595215 17.4366455078125 17.467947006225586 17.50728416442871 17.519495010375977 17.488645553588867 17.361412048339844 -9999 -9999
-9999 15.136279106140137 15.491321563720703 16.06781768798828 16.549306869506836 16.877399444580078 17.083768844604492 17.2174129486084 17.295982360839844 17.34568214416504 17.375951766967773 17.409774780273438 17.452421188354492 17.502246856689453 17.55564308166504 17.603015899658203 17.635770797729492 17.709726333618164 -9999 -9999
-9999 15.531471252441406 15.941400527954102 16.41301155090332 16.804777145385742 17.08358383178711 17.22994041442871 17.315309524536133 17.35785484313965 17.384361267089844 17.40373420715332 17.432695388793945 17.473472595214844 17.51947593688965 17.571819305419922 17.622962951660156 17.665271759033203 17.696592330932617 17.642314910888672 17.654054641723633
-9999 -9999 16.37615394592285 16.659536361694336 16.96282196044922 17.199167251586914 17.333160400390625 17.401525497436523 17.428691864013672 17.440561294555664 17.445987701416016 17.46556282043457 17.4964599609375 17.54396629333496 17.586610794067383 17.62080192565918 17.656709671020508 17.67761993408203 17.67279052734375 17.646394729614258
-9999 -9999 16.668136596679688 16.853687286376953 17.078739166259766 17.290224075317383 17.424396514892578 17.49071502685547 17.511062622070312 17.506196975708008 17.491355895996094 17.502668380737305 17.529325485229492 17.568649291992188 17.595949172973633 17.615379333496094 17.638286590576172 17.648761749267578 17.62306785583496 17.607160568237305
-9999 -9999 -9999 16.97240447998047 17.139848709106445 17.328187942504883 17.464509963989258 17.528900146484375 17.540117263793945 17.5262508392334 17.509967803955078 17.50882339477539 17.533626556396484 17.56973648071289 17.597227096557617 17.60491371154785 17.62977409362793 17.61283302307129 17.5942440032959 17.584909439086914
