ncols         20
nrows         20
xllcorner     0
yllcorner     -3.5992928
cellsize      0.17996463
NODATA_value  -9999
-9999.0 -9999 -9999 -9999 -9999 -9999 -9999 -9999 -9999 -9999 -9999 -9999 -9999 -9999 -9999 -9999 -9999 -9999 -9999 -9999
-9999 -9999 -9999 -9999 -9999 -9999 -9999 -9999 -9999 -9999 -9999 18.973663330078125 18.982255935668945 -9999 -9999 18.91218376159668 18.916645050048828 -9999 -9999 -9999
-9999 -9999 -9999 -9999 18.91926383972168 18.94127082824707 18.95863151550293 18.984132766723633 19.00568389892578 19.000459671020508 19.03940773010254 19.011926651000977 19.000585556030273 19.025060653686523 19.022138595581055 18.975154876708984 18.95445442199707 18.963726043701172 -9999 -9999
-9999 -9999 -9999 18.921825408935547 18.91981315612793 18.944671630859375 18.965917587280273 18.98182487487793 18.977848052978516 18.969694137573242 18.94577407836914 18.941612243652344 18.949005126953125 18.986408233642578 19.002851486206055 19.006053924560547 19.008451461791992 19.023128509521484 -9999 -9999
-9999 -9999 -9999 18.946002960205078 18.959247589111328 18.95838165283203 18.95098876953125 18.920196533203125 18.872615814208984 18.796707153320312 18.717439651489258 18.683799743652344 18.714126586914062 18.811067581176758 18.90392303466797 18.988662719726562 19.04979133605957 19.046476364135742 -9999 -9999
-9999 -9999 18.99104881286621 18.984088897705078 18.994089126586914 18.97577667236328 18.911468505859375 18.7982234954834 18.659059524536133 18.50566291809082 18.357595443725586 18.291399002075195 18.32665252685547 18.477294921875 18.67957878112793 18.85944366455078 18.991186141967773 19.04771614074707 19.132463455200195 -9999
-9999 -9999 19.048559188842773 19.060104370117188 19.039989471435547 18.95993995666504 18.790313720703125 18.561389923095703 18.332136154174805 18.157333374023438 18.021923065185547 17.948116302490234 17.94668197631836 18.08160972595215 18.311752319335938 18.581785202026367 18.791797637939453 18.939746856689453 19.007875442504883 -9999
-9999 -9999 19.13882827758789 19.134334564208984 19.071533203125 18.904918670654297 18.612730026245117 18.62879753112793 18.294269561767578 18.117698669433594 18.042701721191406 18.042760848999023 17.733613967895508 17.777984619140625 17.95804786682129 18.213329315185547 18.46578598022461 18.66927146911621 18.765378952026367 -9999
-9999 19.27439308166504 19.222368240356445 19.197925567626953 19.065784454345703 18.791120529174805 18.405302047729492 18.319398880004883 17.99960708618164 17.855558395385742 17.81055450439453 17.823104858398438 17.573015213012695 17.5622615814209 17.660799026489258 17.849586486816406 18.080636978149414 18.286291122436523 18.397958755493164 -9999
-9999 19.332612991333008 19.303817749023438 19.197689056396484 18.97162437438965 18.62013053894043 18.215030670166016 18.124332427978516 17.84333038330078 17.721660614013672 17.68655776977539 17.696012496948242 17.461027145385742 17.404987335205078 17.433767318725586 17.542959213256836 17.715625762939453 17.886207580566406 17.98284149169922 -9999
-9999 19.36611557006836 19.292503356933594 19.099136352539062 18.786664962768555 18.383562088012695 18.020586013793945 17.99411964416504 17.759170532226562 17.65401840209961 17.624465942382812 17.628019332885742 17.366792678833008 17.275684356689453 17.255184173583984 17.299631118774414 17.402015686035156 17.52620506286621 17.60030746459961 -9999
-9999 19.262968063354492 19.130542755126953 18.85236930847168 18.492708206176758 18.098337173461914 17.81114959716797 17.89145851135254 17.701274871826172 17.610816955566406 17.584455490112305 17.585664749145508 17.28390121459961 17.17978286743164 17.13335609436035 17.12535858154297 17.16556167602539 17.240753173828125 17.294878005981445 -9999
-9999 18.961977005004883 18.78165626525879 18.460973739624023 18.10543441772461 17.782392501831055 17.546281814575195 17.437519073486328 17.36760711669922 17.337162017822266 17.316524505615234 17.28390884399414 17.204742431640625 17.150264739990234 17.104137420654297 17.06915855407715 17.046342849731445 17.066043853759766 17.113632202148438 -9999
-9999 18.53376579284668 18.335155487060547 18.01510238647461 17.712799072265625 17.475242614746094 17.31840705871582 17.243852615356445 17.223934173583984 17.222585678100586 17.220603942871094 17.210206985473633 17.194366455078125 17.18146324157715 17.172468185424805 17.142732620239258 17.09014892578125 17.017154693603516 17.101165771484375 -9999
-9999 18.117412567138672 17.931657791137695 17.641481399536133 17.4034423828125 17.25112533569336 17.170949935913086 17.14917755126953 17.157211303710938 17.174379348754883 17.185436248779297 17.197574615478516 17.21054458618164 17.224681854248047 17.2482852935791 17.249996185302734 17.230459213256836 17.094221115112305 -9999 -9999
-9999 17.833126068115234 17.658586502075195 17.406906127929688 17.225969314575195 17.141660690307617 17.112651824951172 17.120885848999023 17.136573791503906 17.156625747680664 17.171728134155273 17.194488525390625 17.22464370727539 17.26005744934082 17.29383659362793 17.323518753051758 17.337512969970703 17.428136825561523 -9999 -9999
-9999 17.666160583496094 17.48529052734375 17.27493667602539 17.138025283813477 17.10490608215332 17.111614227294922 17.137348175048828 17.15587615966797 17.175037384033203 17.192346572875977 17.219053268432617 17.254169464111328 17.286958694458008 17.32366180419922 17.35857391357422 17.3864803314209 17.415267944335938 17.378122329711914 17.408512115478516
-9999 -9999 17.32551383972168 17.18946647644043 17.09473419189453 17.093551635742188 17.132831573486328 17.171701431274414 17.194244384765625 17.21293830871582 17.228227615356445 17.252424240112305 17.27997589111328 17.321231842041016 17.35393714904785 17.37588882446289 17.40179443359375 17.41852378845215 17.432662963867188 17.408363342285156
-9999 -9999 17.228715896606445 17.13678741455078 17.078035354614258 17.111072540283203 17.17519760131836 17.2266845703125 17.25587272644043 17.268417358398438 17.26720428466797 17.289161682128906 17.31647491455078 17.352081298828125 17.372947692871094 17.38762092590332 17.40380859375 17.418048858642578 17.396156311035156 17.389286041259766
-9999 -9999 -9999 17.098064422607422 17.06830596923828 17.11395263671875 17.192790985107422 17.247495651245117 17.273067474365234 17.280471801757812 17.284015655517578 17.293338775634766 17.32146453857422 17.355144500732422 17.381338119506836 17.385408401489258 17.411848068237305 17.39531707763672 17.386259078979492 17.383182525634766
