ncols         20
nrows         20
xllcorner     0
yllcorner     -3.5992928
cellsize      0.17996463
NODATA_value  -9999
-9999.0 -9999 -9999 -9999 -9999 -9999 -9999 -9999 -9999 -9999 -9999 -9999 -9999 -9999 -9999 -9999 -9999 -9999 -9999 -9999
-9999 -9999 -9999 -9999 -9999 -9999 -9999 -9999 -9999 -9999 -9999 11.818493843078613 11.8087797164917 -9999 -9999 12.066193580627441 11.930051803588867 -9999 -9999 -9999
-9999 -9999 -9999 -9999 11.882661819458008 11.95137882232666 12.077491760253906 12.094524383544922 12.046895027160645 12.022768020629883 11.858644485473633 11.915291786193848 12.043853759765625 12.156489372253418 12.178912162780762 12.14754867553711 12.06103229522705 12.005149841308594 -9999 -9999
-9999 -9999 -9999 12.02330493927002 12.02843189239502 12.001808166503906 11.983945846557617 11.913246154785156 11.843971252441406 11.778743743896484 11.782325744628906 11.858962059020996 12.006770133972168 12.146227836608887 12.292119979858398 12.352961540222168 12.352787971496582 12.345181465148926 -9999 -9999
-9999 -9999 -9999 12.160273551940918 12.071890830993652 11.959973335266113 11.682914733886719 11.417113304138184 11.148852348327637 10.879484176635742 10.666178703308105 10.624490737915039 10.825624465942383 11.229242324829102 11.717204093933105 12.158583641052246 12.557524681091309 12.895082473754883 -9999 -9999
-9999 -9999 12.434577941894531 12.33586311340332 12.08358097076416 11.57844352722168 10.611103057861328 10.018133163452148 9.442790985107422 8.770329475402832 8.098432540893555 7.792247295379639 7.988077640533447 8.718729019165039 9.70942497253418 10.761137008666992 12.172287940979004 12.916725158691406 13.104083061218262 -9999
-9999 -9999 12.619993209838867 12.369261741638184 11.86760425567627 10.78178596496582 9.873738288879395 9.011200904846191 8.020284652709961 6.889599323272705 5.871762752532959 5.3549089431762695 5.495858669281006 6.321540832519531 7.63203763961792 9.222735404968262 11.1077241897583 12.285360336303711 12.821598052978516 -9999
-9999 -9999 13.06676959991455 12.4840669631958 11.332399368286133 10.307579040527344 9.217752456665039 7.983290195465088 6.626750946044922 5.289408206939697 4.274322032928467 3.7372829914093018 3.788750648498535 4.44783878326416 5.661819934844971 7.277317523956299 9.03952407836914 10.807374000549316 11.692554473876953 -9999
-9999 14.372943878173828 13.790481567382812 12.281975746154785 11.102960586547852 9.7938232421875 8.275334358215332 6.633050441741943 5.095806121826172 3.8649959564208984 3.0658302307128906 2.660928726196289 2.642098903656006 3.0708086490631104 3.9473185539245605 5.279500961303711 6.891838073730469 8.44447135925293 9.645853042602539 -9999
-9999 15.000483512878418 14.316726684570312 12.40505313873291 10.739067077636719 8.853910446166992 6.849040985107422 4.968451023101807 3.5118792057037354 2.5704755783081055 2.0616114139556885 1.814630389213562 1.8025000095367432 2.0347402095794678 2.594940185546875 3.521646022796631 4.821252822875977 6.15880012512207 7.16514253616333 -9999
-9999 15.643787384033203 14.68943977355957 12.228311538696289 9.970555305480957 7.6229119300842285 5.326102256774902 3.423398017883301 2.1968820095062256 1.5338711738586426 1.216568946838379 1.0856653451919556 1.080148458480835 1.2072839736938477 1.5206325054168701 2.105041027069092 2.969242572784424 4.025215148925781 4.6619977951049805 -9999
-9999 15.665335655212402 14.385295867919922 11.404242515563965 8.739566802978516 6.236276626586914 3.9830145835876465 2.3011016845703125 1.3322865962982178 0.849524974822998 0.6388695240020752 0.5498923659324646 0.5406476855278015 0.588180661201477 0.7251437306404114 1.022004246711731 1.526117205619812 2.161116600036621 2.531020164489746 -9999
-9999 14.519521713256836 12.954157829284668 9.686333656311035 6.993808746337891 4.697316646575928 2.824941396713257 1.5110576152801514 0.791557252407074 0.4666038453578949 0.30188632011413574 0.237730473279953 0.2155255526304245 0.22263993322849274 0.2704097628593445 0.37894389033317566 0.6214788556098938 0.9494379758834839 1.1720389127731323 -9999
-9999 12.217830657958984 10.544949531555176 7.367148399353027 4.915937423706055 3.102328300476074 1.7887903451919556 0.9300622940063477 0.4536835253238678 0.2540920078754425 0.16096621751785278 0.11731500178575516 0.09628405421972275 0.09027125686407089 0.0966622456908226 0.1246710866689682 0.19102860987186432 0.3360348343849182 0.47334468364715576 -9999
-9999 9.721624374389648 8.133838653564453 5.243279457092285 3.1490890979766846 1.838678240776062 1.0201095342636108 0.5153195858001709 0.26992127299308777 0.15432769060134888 0.09866592288017273 0.06873328983783722 0.05274394154548645 0.04523831605911255 0.04226838797330856 0.046080876141786575 0.05778808891773224 0.09253688901662827 -9999 -9999
-9999 7.951326370239258 6.435798645019531 3.8536441326141357 2.098299980163574 1.0976603031158447 0.5671756863594055 0.29839393496513367 0.16901881992816925 0.10229452699422836 0.06773121654987335 0.04748108983039856 0.038042593747377396 0.04165657237172127 0.0462484247982502 0.05120839178562164 0.05594600737094879 0.05968402698636055 -9999 -9999
-9999 6.755276679992676 5.208185195922852 3.0334882736206055 1.5317491292953491 0.6864438652992249 0.34262341260910034 0.18137137591838837 0.10648596286773682 0.06751532852649689 0.04661521315574646 0.04127706587314606 0.04420732706785202 0.048614613711833954 0.05400153249502182 0.059911612421274185 0.06614398956298828 0.07322290539741516 0.08407563716173172 0.0891217291355133
-9999 -9999 3.9194889068603516 2.44169282913208 1.1874520778656006 0.49829065799713135 0.22895419597625732 0.11794331669807434 0.06929841637611389 0.0459568165242672 0.045168887823820114 0.046698253601789474 0.050207726657390594 0.05527537316083908 0.061309099197387695 0.06779627501964569 0.07444724440574646 0.0810905322432518 0.08752327412366867 0.09084520488977432
-9999 -9999 2.775914192199707 1.9077473878860474 0.9412140250205994 0.37586313486099243 0.16198953986167908 0.07945843040943146 0.05220413953065872 0.04952133446931839 0.04917650297284126 0.051101505756378174 0.05503344535827637 0.06053752452135086 0.06693708896636963 0.07362372428178787 0.08013202250003815 0.08585969358682632 0.09019768238067627 0.09247245639562607
-9999 -9999 -9999 1.55247962474823 0.8001667261123657 0.3266443610191345 0.13655024766921997 0.06533500552177429 0.053936827927827835 0.051542140543460846 0.0514225997030735 0.053525425493717194 0.057668350636959076 0.06338775157928467 0.06996450573205948 0.0766654908657074 0.08300702273845673 0.08806923776865005 0.09161607176065445 0.09344084560871124
