ncols         20
nrows         20
xllcorner     0
yllcorner     -3.5992928
cellsize      0.17996463
NODATA_value  -9999
-9999.0 -9999 -9999 -9999 -9999 -9999 -9999 -9999 -9999 -9999 -9999 -9999 -9999 -9999 -9999 -9999 -9999 -9999 -9999 -9999
-9999 -9999 -9999 -9999 -9999 -9999 -9999 -9999 -9999 -9999 -9999 1.135866641998291 1.1183642148971558 -9999 -9999 1.0754194259643555 1.010999321937561 -9999 -9999 -9999
-9999 -9999 -9999 -9999 1.156835913658142 1.2315784692764282 1.3638521432876587 1.4643371105194092 1.523473858833313 1.5603824853897095 1.420687198638916 1.3350015878677368 1.3437224626541138 1.3583505153656006 1.2576892375946045 1.1355726718902588 1.0373363494873047 0.9669634699821472 -9999 -9999
-9999 -9999 -9999 1.079508662223816 1.166168212890625 1.2655620574951172 1.4009548425674438 1.525970220565796 1.6605300903320312 1.7761987447738647 1.8572719097137451 1.8614168167114258 1.851599931716919 1.736679196357727 1.5573397874832153 1.3422926664352417 1.1665066480636597 1.068068027496338 -9999 -9999
-9999 -9999 -9999 1.0512570142745972 1.140425682067871 1.305611252784729 1.4893367290496826 1.6881332397460938 1.935011625289917 2.2788262367248535 2.635674476623535 2.840834140777588 2.8189620971679688 2.513415813446045 2.1363091468811035 1.7287538051605225 1.423115849494934 1.3437832593917847 -9999 -9999
-9999 -9999 0.8269388675689697 0.9638134241104126 1.1105691194534302 1.303917407989502 1.50706148147583 1.7397441864013672 2.116095542907715 2.6397128105163574 3.258673667907715 3.6643872261047363 3.776547431945801 3.420302152633667 2.8178975582122803 2.2327191829681396 1.790809988975525 1.6009117364883423 1.4359830617904663 -9999
-9999 -9999 0.7946497797966003 0.8941983580589294 1.0809732675552368 1.293953537940979 1.4725619554519653 1.6561896800994873 1.9894651174545288 2.486344814300537 3.096076250076294 3.652416944503784 4.077356815338135 3.983621120452881 3.488631248474121 2.8159265518188477 2.2662837505340576 1.9021666049957275 1.7410649061203003 -9999
-9999 -9999 0.785824179649353 0.9049758911132812 1.116540789604187 1.3140009641647339 1.4237170219421387 1.311478853225708 1.3991104364395142 1.60751211643219 1.8779183626174927 2.3097126483917236 3.503518581390381 3.915626049041748 3.7639026641845703 3.278444766998291 2.761655807495117 2.339834213256836 2.1600303649902344 -9999
-9999 0.6487449407577515 0.798946738243103 0.9790599942207336 1.241823673248291 1.4579546451568604 1.478940725326538 1.1798813343048096 1.11551034450531 1.1669036149978638 1.3076831102371216 1.6805450916290283 2.8875696659088135 3.5437512397766113 3.7365546226501465 3.539599895477295 3.130070209503174 2.7471377849578857 2.5697379112243652 -9999
-9999 0.7263784408569336 0.8661261796951294 1.141970157623291 1.469788908958435 1.6905064582824707 1.6227235794067383 1.1284791231155396 0.9505317211151123 0.9120296239852905 0.9865423440933228 1.3029835224151611 2.3767213821411133 3.09614634513855 3.4681005477905273 3.5265893936157227 3.310917615890503 3.0380659103393555 2.9050965309143066 -9999
-9999 0.8914680480957031 1.0491178035736084 1.3701066970825195 1.7093762159347534 1.900101661682129 1.7493445873260498 1.0855567455291748 0.839069664478302 0.757218062877655 0.8006569147109985 1.065680980682373 2.0228424072265625 2.6936235427856445 3.1197304725646973 3.3129959106445312 3.301929235458374 3.163604736328125 3.0901238918304443 -9999
-9999 1.1683090925216675 1.3348655700683594 1.6815578937530518 1.9947046041488647 2.1127212047576904 1.888287901878357 1.1193795204162598 0.8522313833236694 0.7505001425743103 0.7664346098899841 0.9711707830429077 1.7836382389068604 2.3400609493255615 2.7348694801330566 2.993722677230835 3.106424570083618 3.101201057434082 3.0895376205444336 -9999
-9999 1.5683523416519165 1.7573268413543701 2.1141440868377686 2.3387670516967773 2.3600354194641113 2.130359649658203 1.6846216917037964 1.355310320854187 1.1710152626037598 1.1443649530410767 1.2894172668457031 1.6411936283111572 1.9762380123138428 2.276137113571167 2.539602756500244 2.745270013809204 2.858701467514038 2.896160840988159 -9999
-9999 2.025970458984375 2.212486505508423 2.5348048210144043 2.65989351272583 2.5542986392974854 2.2700376510620117 1.8917441368103027 1.5660430192947388 1.35416579246521 1.2758753299713135 1.3167129755020142 1.4469908475875854 1.600451946258545 1.7574067115783691 1.9506020545959473 2.190131425857544 2.4627554416656494 2.6090681552886963 -9999
-9999 2.351270914077759 2.495697021484375 2.746467351913452 2.7655186653137207 2.554222583770752 2.2286593914031982 1.8809787034988403 1.5809400081634521 1.3793071508407593 1.2796645164489746 1.250651240348816 1.2669298648834229 1.3027973175048828 1.3407533168792725 1.4217699766159058 1.5583082437515259 1.8207740783691406 -9999 -9999
-9999 2.4436752796173096 2.528614044189453 2.689253330230713 2.6201088428497314 2.3672053813934326 2.0516819953918457 1.7391836643218994 1.4960821866989136 1.3293431997299194 1.2333229780197144 1.1740318536758423 1.1311699151992798 1.092239260673523 1.0617817640304565 1.0461846590042114 1.0593128204345703 0.9803816676139832 -9999 -9999
-9999 2.4808881282806396 2.4333982467651367 2.4914731979370117 2.381465435028076 2.122588634490967 1.8183585405349731 1.5493781566619873 1.3557404279708862 1.223388433456421 1.1388591527938843 1.0698877573013306 1.0028913021087646 0.941579282283783 0.8794463276863098 0.8236765265464783 0.779485285282135 0.7273826599121094 0.6963438391685486 0.6284485459327698
-9999 -9999 2.227280378341675 2.2577755451202393 2.1467196941375732 1.8907305002212524 1.5999376773834229 1.3624491691589355 1.2003592252731323 1.093924641609192 1.0234414339065552 0.9594429135322571 0.8940005302429199 0.8128094673156738 0.7434195280075073 0.6916958689689636 0.636827290058136 0.597804069519043 0.5666924715042114 0.5969865918159485
-9999 -9999 2.175264835357666 2.092095136642456 1.961717128753662 1.7016332149505615 1.41611909866333 1.1919485330581665 1.0446635484695435 0.9590153098106384 0.9160515666007996 0.8596193790435791 0.7927571535110474 0.7124963402748108 0.6531853675842285 0.6114490628242493 0.5727367401123047 0.5515172481536865 0.5921059846878052 0.6149477958679199
-9999 -9999 -9999 1.948340654373169 1.8577510118484497 1.607716679573059 1.3256686925888062 1.1098637580871582 0.974337100982666 0.9029102325439453 0.8628526926040649 0.8221757411956787 0.7554200887680054 0.6760170459747314 0.6110328435897827 0.584456741809845 0.5392753481864929 0.5718452334403992 0.6075488924980164 0.627297580242157
