ncols         20
nrows         20
xllcorner     0
yllcorner     -3.5992928
cellsize      0.17996463
NODATA_value  -9999
-9999.0 -9999 -9999 -9999 -9999 -9999 -9999 -9999 -9999 -9999 -9999 -9999 -9999 -9999 -9999 -9999 -9999 -9999 -9999 -9999
-9999 -9999 -9999 -9999 -9999 -9999 -9999 -9999 -9999 -9999 -9999 0.13725337386131287 0.13738001883029938 -9999 -9999 0.1400541514158249 0.14024800062179565 -9999 -9999 -9999
-9999 -9999 -9999 -9999 0.13699208199977875 0.13689281046390533 0.13679955899715424 0.13676349818706512 0.136824369430542 0.13699474930763245 0.13722284138202667 0.12711484730243683 0.1275128424167633 0.1387450397014618 0.1394684910774231 0.12961514294147491 0.13020628690719604 0.14150184392929077 -9999 -9999
-9999 -9999 -9999 0.13745540380477905 0.1269010305404663 0.10789528489112854 0.1078348457813263 0.10785256326198578 0.10796572268009186 0.10817012935876846 0.10843704640865326 0.100517138838768 0.10090641677379608 0.10975533723831177 0.1103660985827446 0.10268402099609375 0.11187557131052017 0.14275307953357697 -9999 -9999
-9999 -9999 -9999 0.13778910040855408 0.10835962742567062 0.07880408316850662 0.07263871282339096 0.07272909581661224 0.07290375977754593 0.07314672321081161 0.07342667132616043 0.06821704655885696 0.06854508817195892 0.0745328962802887 0.07506000995635986 0.07578717172145844 0.1138625293970108 0.14537979662418365 -9999 -9999
-9999 -9999 0.13860584795475006 0.12794138491153717 0.1006280928850174 0.06762111186981201 0.04186757653951645 0.041985780000686646 0.04217720031738281 0.042411450296640396 0.04266273230314255 0.039591025561094284 0.03986581414937973 0.04360119253396988 0.04408523440361023 0.07207126170396805 0.10815490782260895 0.13873189687728882 0.15252652764320374 -9999
-9999 -9999 0.13916045427322388 0.1095319390296936 0.07981953769922256 0.05378429591655731 0.03073463961482048 0.02078099176287651 0.02093259058892727 0.02111073210835457 0.021301085129380226 0.019849885255098343 0.0200800783932209 0.02208637446165085 0.033361561596393585 0.05916723981499672 0.08857806771993637 0.12241491675376892 0.15639951825141907 -9999
-9999 -9999 0.14019113779067993 0.11045035719871521 0.07435119897127151 0.04277938976883888 0.021044036373496056 0.010348731651902199 0.008929379284381866 0.00904043111950159 0.009163727052509785 0.008597496896982193 0.008784324862062931 0.011467649601399899 0.02390424720942974 0.049092624336481094 0.08573557436466217 0.12781640887260437 0.16255027055740356 -9999
-9999 0.14264334738254547 0.1312694251537323 0.10336069017648697 0.06978451460599899 0.04014821723103523 0.019836433231830597 0.008384847082197666 0.003295645583420992 0.0033630100078880787 0.003437319304794073 0.0032464161049574614 0.0036609412636607885 0.010562838055193424 0.025496380403637886 0.052064940333366394 0.09049925953149796 0.13434578478336334 0.170441135764122 -9999
-9999 0.14454905688762665 0.1137617900967598 0.08303707838058472 0.056210823357105255 0.032540079206228256 0.016085520386695862 0.006818964146077633 0.0025226648431271315 0.001682881498709321 0.00174092804081738 0.0017942306585609913 0.003960928879678249 0.01130001712590456 0.027124527841806412 0.055236078798770905 0.0958031713962555 0.14189045131206512 0.17969918251037598 -9999
-9999 0.14780519902706146 0.1165834367275238 0.07868926227092743 0.045533113181591034 0.022565437480807304 0.011186333373188972 0.0047816745936870575 0.0017845574766397476 0.001793036237359047 0.0018631708808243275 0.0019240197725594044 0.004235563334077597 0.012013984844088554 0.02875090017914772 0.058476295322179794 0.10134205222129822 0.14995120465755463 0.18975023925304413 -9999
-9999 0.15224021673202515 0.12026320397853851 0.0814097598195076 0.047262370586395264 0.02349308505654335 0.00999333057552576 0.003661802038550377 0.0018056974513456225 0.0018940248992294073 0.0019727502949535847 0.002155953086912632 0.0062593682669103146 0.01500554010272026 0.030347147956490517 0.06167071685194969 0.10680175572633743 0.15784133970737457 0.19944925606250763 -9999
-9999 0.15770699083805084 0.12476091831922531 0.0846836194396019 0.04926900565624237 0.024695999920368195 0.010537833906710148 0.003874354064464569 0.0018915364053100348 0.0019830046221613884 0.0020680041052401066 0.0033784769475460052 0.009756449609994888 0.02335321344435215 0.04774288460612297 0.08260083198547363 0.12153361737728119 0.16510912775993347 0.20772860944271088 -9999
-9999 0.16398383677005768 0.12998336553573608 0.08875934034585953 0.05177689343690872 0.025829171761870384 0.01102246344089508 0.00404557678848505 0.001966980518773198 0.002056675497442484 0.0021411448251456022 0.004431378562003374 0.012756291776895523 0.030718063935637474 0.06270340085029602 0.10875318944454193 0.1606653928756714 0.20180872082710266 0.21333880722522736 -9999
-9999 0.170698344707489 0.13557042181491852 0.09274139255285263 0.05415511876344681 0.02703000046312809 0.013502776622772217 0.0057994346134364605 0.002141376258805394 0.0021150298416614532 0.0021955017000436783 0.004925766959786415 0.014104094356298447 0.03401147574186325 0.0696115791797638 0.12123382836580276 0.17938072979450226 0.2272094190120697 -9999 -9999
-9999 0.17689135670661926 0.1414719820022583 0.10460679978132248 0.07180735468864441 0.042007364332675934 0.021018551662564278 0.008933208882808685 0.0035530836321413517 0.002157428301870823 0.0022346333134919405 0.005000630859285593 0.014320340007543564 0.03457757458090782 0.07090579718351364 0.12379594147205353 0.1842545121908188 0.23361435532569885 -9999 -9999
-9999 0.18132585287094116 0.17194943130016327 0.13790151476860046 0.09430884569883347 0.05504043027758598 0.02967417985200882 0.014733348041772842 0.0062830629758536816 0.0023024100810289383 0.002260649111121893 0.004645134322345257 0.01337437704205513 0.03233247250318527 0.06638294458389282 0.11602972447872162 0.17324601113796234 0.22151608765125275 0.24324549734592438 0.24466785788536072
-9999 -9999 0.19290997087955475 0.1540008932352066 0.11343690752983093 0.07740606367588043 0.04496917873620987 0.022366495802998543 0.009456555359065533 0.003473999910056591 0.0022750189527869225 0.0036802415270358324 0.010624609887599945 0.02578495256602764 0.05284450948238373 0.09261537343263626 0.1383039802312851 0.17651623487472534 0.19231581687927246 0.19302476942539215
-9999 -9999 0.19676657021045685 0.18414440751075745 0.14658623933792114 0.0995987132191658 0.05777996778488159 0.02858124114573002 0.012083159759640694 0.004418982658535242 0.0022815270349383354 0.002479415386915207 0.007174198515713215 0.017373332753777504 0.035853467881679535 0.06254121661186218 0.09378176927566528 0.1194678544998169 0.12963129580020905 0.12991493940353394
-9999 -9999 -9999 0.20228083431720734 0.16043497622013092 0.10878117382526398 0.06295408308506012 0.031093504279851913 0.013128722086548805 0.0048119742423295975 0.0022843796759843826 0.0023541110567748547 0.004123669117689133 0.009950707666575909 0.02059043198823929 0.03591979667544365 0.05392679199576378 0.06837794929742813 0.07434332370758057 0.07445047795772552
