ncols         20
nrows         20
xllcorner     0
yllcorner     -3.5992928
cellsize      0.17996463
NODATA_value  -9999
-9999.0 -9999 -9999 -9999 -9999 -9999 -9999 -9999 -9999 -9999 -9999 -9999 -9999 -9999 -9999 -9999 -9999 -9999 -9999 -9999
-9999 -9999 -9999 -9999 -9999 -9999 -9999 -9999 -9999 -9999 -9999 2.350775957107544 2.34539532661438 -9999 -9999 2.424220085144043 2.3988311290740967 -9999 -9999 -9999
-9999 -9999 -9999 -9999 2.4790127277374268 2.489142894744873 2.5020432472229004 2.483915090560913 2.449202299118042 2.4207847118377686 2.370718002319336 2.3706369400024414 2.3842153549194336 2.393251657485962 2.403012275695801 2.416677474975586 2.400383472442627 2.374100923538208 -9999 -9999
-9999 -9999 -9999 2.516143798828125 2.526045322418213 2.531888008117676 2.5279455184936523 2.496248722076416 2.455512046813965 2.4117352962493896 2.382209539413452 2.3725743293762207 2.3810837268829346 2.3961431980133057 2.4258532524108887 2.4410555362701416 2.4254608154296875 2.4024741649627686 -9999 -9999
-9999 -9999 -9999 2.5511748790740967 2.5668463706970215 2.587233066558838 2.563155174255371 2.495196580886841 2.4076759815216064 2.3102662563323975 2.2172679901123047 2.1643404960632324 2.175020694732666 2.2438979148864746 2.3380112648010254 2.4057860374450684 2.422189235687256 2.437992811203003 -9999 -9999
-9999 -9999 2.5606181621551514 2.5917789936065674 2.62015438079834 2.6154582500457764 2.5270743370056152 2.360752582550049 2.1897525787353516 2.0056400299072266 1.817841649055481 1.7102323770523071 1.724653720855713 1.8588967323303223 2.054409980773926 2.2206101417541504 2.3152108192443848 2.346266031265259 2.291308879852295 -9999
-9999 -9999 2.588524341583252 2.623591899871826 2.661834239959717 2.600961208343506 2.3708958625793457 1.9687460660934448 1.7007777690887451 1.4534144401550293 1.2330527305603027 1.127762794494629 1.1955052614212036 1.3800745010375977 1.6370329856872559 1.8875467777252197 2.078583240509033 2.172417402267456 2.1929008960723877 -9999
-9999 -9999 2.647451877593994 2.6900527477264404 2.6926522254943848 2.5204057693481445 2.045872926712036 0.9104138016700745 0.6696142554283142 0.5621322989463806 0.4975438416004181 0.5029833912849426 0.7513092756271362 0.9488441348075867 1.1987422704696655 1.4835548400878906 1.7241861820220947 1.8800499439239502 1.9474859237670898 -9999
-9999 2.628260374069214 2.6985867023468018 2.7307288646698 2.6617860794067383 2.3812999725341797 1.8073861598968506 0.6828757524490356 0.4214548170566559 0.33303308486938477 0.30327966809272766 0.32901430130004883 0.49781087040901184 0.630452036857605 0.8002598881721497 1.035036563873291 1.2934644222259521 1.49348783493042 1.5856409072875977 -9999
-9999 2.6541290283203125 2.6916356086730957 2.6767358779907227 2.490508794784546 2.0944101810455322 1.4946001768112183 0.5543332099914551 0.3175477981567383 0.240453839302063 0.22122234106063843 0.2404278963804245 0.336279958486557 0.4013630747795105 0.49341678619384766 0.6390676498413086 0.8414487242698669 1.0265967845916748 1.1202731132507324 -9999
-9999 2.614027500152588 2.5947091579437256 2.469334363937378 2.1670889854431152 1.7303587198257446 1.1542608737945557 0.4364190995693207 0.24408888816833496 0.1790245771408081 0.15973269939422607 0.1659519374370575 0.20565447211265564 0.2303311824798584 0.26897862553596497 0.34489214420318604 0.45922255516052246 0.5864123106002808 0.6550001502037048 -9999
-9999 2.421281099319458 2.3355751037597656 2.096561908721924 1.733059048652649 1.325352430343628 0.8384521007537842 0.3396955728530884 0.18843775987625122 0.1295231729745865 0.10698254406452179 0.1002572774887085 0.10773912817239761 0.11023862659931183 0.12032108008861542 0.15115252137184143 0.20798811316490173 0.27466651797294617 0.31116947531700134 -9999
-9999 2.03692626953125 1.8939266204833984 1.587660312652588 1.2548320293426514 0.9068341255187988 0.5653626322746277 0.28709596395492554 0.15212708711624146 0.09552823007106781 0.06598179787397385 0.05274243652820587 0.04532274976372719 0.040743522346019745 0.04133165255188942 0.049542393535375595 0.07644984871149063 0.10740029811859131 0.12657064199447632 -9999
-9999 1.5502173900604248 1.3918211460113525 1.075724482536316 0.7733698487281799 0.5232735872268677 0.32148173451423645 0.17472119629383087 0.09040892869234085 0.05595849081873894 0.03877118229866028 0.029127556830644608 0.022714663296937943 0.018701642751693726 0.01674129255115986 0.01774279586970806 0.022878333926200867 0.0343620628118515 0.042732127010822296 -9999
-9999 1.143195629119873 0.9783110618591309 0.6739551424980164 0.4256908893585205 0.2653067409992218 0.15900370478630066 0.08584671467542648 0.0507783368229866 0.03386833146214485 0.02488672360777855 0.018918778747320175 0.01482493244111538 0.012296801432967186 0.010647978633642197 0.010369795374572277 0.0112325269728899 0.015371588990092278 -9999 -9999
-9999 0.8730903267860413 0.710698127746582 0.4408898949623108 0.2469165325164795 0.13593298196792603 0.0741739347577095 0.044284358620643616 0.03020581789314747 0.02259158343076706 0.018113458529114723 0.014630641788244247 0.012640454806387424 0.01394863985478878 0.015000512823462486 0.015723897144198418 0.016168508678674698 0.01663752645254135 -9999 -9999
-9999 0.7049477100372314 0.5350207090377808 0.31649941205978394 0.16139115393161774 0.07214952260255814 0.03959394618868828 0.02534152753651142 0.019127681851387024 0.01580270193517208 0.013743049465119839 0.014171230606734753 0.016367267817258835 0.018378576263785362 0.020147796720266342 0.02165037952363491 0.02306339517235756 0.025010673329234123 0.029263822361826897 0.03099934756755829
-9999 -9999 0.3752438426017761 0.23654837906360626 0.11568807065486908 0.04792086035013199 0.02503899112343788 0.016618506982922554 0.0133648831397295 0.012031573802232742 0.014617898501455784 0.017263270914554596 0.01988367736339569 0.02239786647260189 0.024619244039058685 0.026469917967915535 0.028093649074435234 0.02964675799012184 0.03133009374141693 0.03200525417923927
-9999 -9999 0.2508028447628021 0.1716976910829544 0.0857543870806694 0.03440912067890167 0.01758592762053013 0.011899796314537525 0.011195835657417774 0.014043007045984268 0.01690310426056385 0.019786855205893517 0.02266821637749672 0.025438059121370316 0.02781858667731285 0.029688799753785133 0.031135709956288338 0.03209864720702171 0.03257165849208832 0.03272852301597595
-9999 -9999 -9999 0.13388843834400177 0.06737920641899109 0.02895185723900795 0.014908994548022747 0.010347624309360981 0.012170704081654549 0.015196830965578556 0.018189184367656708 0.021154336631298065 0.024136550724506378 0.027000056579709053 0.02943607047200203 0.03122808039188385 0.03253624960780144 0.03303176537156105 0.033114995807409286 0.033088017255067825
