ncols         20
nrows         20
xllcorner     0
yllcorner     -3.5992928
cellsize      0.17996463
NODATA_value  -9999
-9999.0 -9999 -9999 -9999 -9999 -9999 -9999 -9999 -9999 -9999 -9999 -9999 -9999 -9999 -9999 -9999 -9999 -9999 -9999 -9999
-9999 -9999 -9999 -9999 -9999 -9999 -9999 -9999 -9999 -9999 -9999 0 0 -9999 -9999 0 0 -9999 -9999 -9999
-9999 -9999 -9999 -9999 0 0 0 0 0 0 0 0 0 0 0 0 0 0 -9999 -9999
-9999 -9999 -9999 0 0 0 0 0 0 0 0 0 0 0 0 0 0 0 -9999 -9999
-9999 -9999 -9999 0 0 0 0 0 0 0 0 0 0 0 0 0 0 0 -9999 -9999
-9999 -9999 0 0 0 0 8.392115592956543 7.365420818328857 6.545542240142822 5.729238033294678 5.004195690155029 4.709648609161377 4.947304725646973 5.799851417541504 7.094965934753418 8.73711109161377 0 0 0 -9999
-9999 -9999 0 0 0 8.437308311462402 6.901120185852051 5.7215166091918945 4.608514308929443 3.534480571746826 2.704343557357788 2.3342092037200928 2.4569201469421387 3.1375763416290283 4.397308826446533 6.292818546295166 0 0 0 -9999
-9999 -9999 0 0 9.136160850524902 7.336907863616943 5.8082170486450195 4.412558555603027 3.1574175357818604 2.144627809524536 1.5102322101593018 1.2232259511947632 1.2623800039291382 1.6580027341842651 2.5194804668426514 3.968463897705078 6.018211364746094 0 0 -9999
-9999 0 0 10.591717720031738 8.375329971313477 6.428732872009277 4.634906768798828 3.0901408195495605 1.947342038154602 1.2253788709640503 0.8457362651824951 0.6819038391113281 0.6815819144248962 0.8742358684539795 1.3320122957229614 2.208131790161133 3.58495831489563 5.293804168701172 0 -9999
-9999 0 0 10.43492317199707 7.659678936004639 5.237127780914307 3.2499759197235107 1.839874029159546 1.0235307216644287 0.6199034452438354 0.4424443244934082 0.3679584264755249 0.3682703375816345 0.4478248357772827 0.6619555354118347 1.0999088287353516 1.8973816633224487 2.974989414215088 0 -9999
-9999 0 0 9.980367660522461 6.595351696014404 3.9584810733795166 2.0743377208709717 0.975797176361084 0.47917574644088745 0.27912968397140503 0.20076271891593933 0.17243659496307373 0.17310579121112823 0.20520958304405212 0.29086703062057495 0.4829995930194855 0.8508979082107544 0 0 -9999
-9999 0 0 8.707880973815918 5.1685967445373535 2.7642323970794678 1.2608542442321777 0.5147339701652527 0.22648797929286957 0.1215158998966217 0.08395939320325851 0.06990295648574829 0.06918854266405106 0.07825826853513718 0.10477400571107864 0.17031708359718323 0.310359388589859 0 0 -9999
-9999 0 0 6.470883846282959 3.4803922176361084 1.6979178190231323 0.7193658947944641 0.27308958768844604 0.11072651296854019 0.05646922066807747 0.03374037146568298 0.025809334591031075 0.023373104631900787 0.024715077131986618 0.031692467629909515 0.048752184957265854 0.09326291084289551 0 0 -9999
-9999 0 0 3.996401786804199 1.9062100648880005 0.860968291759491 0.3572595417499542 0.1388823688030243 0.05497155338525772 0.02762407436966896 0.01657106541097164 0.011806365102529526 0.009662608616054058 0.009197085164487362 0.01018425915390253 0.013937399722635746 0.023516548797488213 0 0 -9999
-9999 0 0 2.2355384826660156 0.9239522218704224 0.38702479004859924 0.16199375689029694 0.06544685363769531 0.029876727610826492 0.015826167538762093 0.009730704128742218 0.006659133825451136 0.005097930785268545 0.00442101527005434 0.004230794496834278 0.004805047530680895 0.006416193675249815 0 -9999 -9999
-9999 0 0 1.340410590171814 0.4940851330757141 0.18685469031333923 0.07619233429431915 0.03428732231259346 0.01769251748919487 0.010135247372090816 0.006512550637125969 0.004499720875173807 0.003601163625717163 0.003997846972197294 0.004538876004517078 0.005190243013203144 0.005925387144088745 0.006587117910385132 -9999 -9999
-9999 0 0 0.9078391790390015 0.3105086386203766 0.1010701134800911 0.04166264832019806 0.019600361585617065 0.010735281743109226 0.006526406854391098 0.00439973222091794 0.0038658834528177977 0.004156072624027729 0.0046208822168409824 0.005223793443292379 0.005937086418271065 0.006760299205780029 0.007702163886278868 0.008844409137964249 0.009388324804604053
-9999 -9999 0 0.6412791609764099 0.21611051261425018 0.06770888715982437 0.0262727253139019 0.012285066768527031 0.006818931084126234 0.004370118957012892 0.00423808116465807 0.004360320512205362 0.00469978665933013 0.005219114013016224 0.005868243984878063 0.006604745984077454 0.007401753682643175 0.008222339674830437 0.00895814597606659 0.009329903870821
-9999 -9999 0 0 0.1582406908273697 0.04832777380943298 0.017923694103956223 0.008084624074399471 0.005073916167020798 0.004704281687736511 0.004609634168446064 0.004765419755131006 0.005140368826687336 0.005694180727005005 0.0063652461394667625 0.007096161600202322 0.007835800759494305 0.008503814227879047 0.009003296494483948 0.009262529201805592
-9999 -9999 -9999 0 0.12774787843227386 0.04097262769937515 0.014883803203701973 0.006586011964827776 0.005238966550678015 0.004895022604614496 0.004819298628717661 0.004989510402083397 0.005381850991398096 0.005952172446995974 0.006633100565522909 0.007352395914494991 0.00805546436458826 0.008632821962237358 0.009040618315339088 0.009250474162399769
