ncols         20
nrows         20
xllcorner     0
yllcorner     -3.5992928
cellsize      0.17996463
NODATA_value  -9999
-9999.0 -9999 -9999 -9999 -9999 -9999 -9999 -9999 -9999 -9999 -9999 -9999 -9999 -9999 -9999 -9999 -9999 -9999 -9999 -9999
-9999 -9999 -9999 -9999 -9999 -9999 -9999 -9999 -9999 -9999 -9999 2.7036197185516357 2.7186977863311768 -9999 -9999 3.083259105682373 3.1077184677124023 -9999 -9999 -9999
-9999 -9999 -9999 -9999 2.9028210639953613 2.82039213180542 2.7056334018707275 2.592862129211426 2.5052268505096436 2.457461357116699 2.4604337215423584 2.539144992828369 2.5856704711914062 2.621483087539673 2.7280235290527344 2.8982319831848145 2.9830269813537598 2.9990005493164062 -9999 -9999
-9999 -9999 -9999 2.878878593444824 2.8135733604431152 2.6790881156921387 2.525599956512451 2.392582893371582 2.296003580093384 2.2411441802978516 2.230553388595581 2.2622764110565186 2.3124332427978516 2.3846993446350098 2.4976208209991455 2.6432881355285645 2.776157855987549 2.8552703857421875 -9999 -9999
-9999 -9999 -9999 2.7483670711517334 2.6141645908355713 2.4055604934692383 2.1795458793640137 2.017317533493042 1.912184238433838 1.8527133464813232 1.8328208923339844 1.8480675220489502 1.8926210403442383 1.9696199893951416 2.089627742767334 2.259047508239746 2.469776153564453 2.604543685913086 -9999 -9999
-9999 -9999 2.6147842407226562 2.5418524742126465 2.3204572200775146 2.011251449584961 1.6490482091903687 1.476149559020996 1.3840081691741943 1.336722493171692 1.3198795318603516 1.3276443481445312 1.3587485551834106 1.4184021949768066 1.52193284034729 1.705845832824707 2.0735132694244385 2.274528741836548 2.2741587162017822 -9999
-9999 -9999 2.4485089778900146 2.269192934036255 1.94974946975708 1.5437183380126953 1.2934426069259644 1.153433084487915 1.077817440032959 1.0398439168930054 1.0259733200073242 1.0311838388442993 1.0553630590438843 1.1044565439224243 1.1944949626922607 1.3626827001571655 1.6996257305145264 1.9459807872772217 2.0579476356506348 -9999
-9999 -9999 2.22153639793396 1.9428786039352417 1.5206148624420166 1.2389694452285767 1.059365153312683 0.9534306526184082 0.8944219946861267 0.8645257949829102 0.8535850048065186 0.8575764298439026 0.8768242597579956 0.9160411357879639 0.9859912991523743 1.1067774295806885 1.3079828023910522 1.592695951461792 1.7540910243988037 -9999
-9999 2.2165884971618652 2.0338938236236572 1.5776118040084839 1.2576324939727783 1.044901728630066 0.9097592234611511 0.8285448551177979 0.78225177526474 0.7582868933677673 0.7494019269943237 0.7525897026062012 0.7679827213287354 0.7987200617790222 0.8513360619544983 0.9360805749893188 1.0648818016052246 1.2425146102905273 1.4466559886932373 -9999
-9999 2.1276113986968994 1.885273814201355 1.3976304531097412 1.1067657470703125 0.926988959312439 0.8173199892044067 0.7515876293182373 0.7134769558906555 0.6932241320610046 0.6853997707366943 0.6876486539840698 0.699887216091156 0.7241606712341309 0.7646883130073547 0.8279832601547241 0.9224734306335449 1.0568962097167969 1.2201303243637085 -9999
-9999 2.0110924243927 1.7610152959823608 1.2884624004364014 1.0170557498931885 0.8564053177833557 0.7611842751502991 0.7044602036476135 0.6712220907211304 0.6531682014465332 0.645783543586731 0.6470274925231934 0.6567012071609497 0.6762871742248535 0.708976149559021 0.7603225111961365 0.8403189182281494 0.9702304601669312 1.0696234703063965 -9999
-9999 1.8835785388946533 1.6458406448364258 1.2090635299682617 0.9587461352348328 0.8125940561294556 0.7265126705169678 0.675247311592102 0.645042896270752 0.6283609867095947 0.6211466789245605 0.6214584112167358 0.629039466381073 0.6451112031936646 0.6722171902656555 0.7148969173431396 0.7814883589744568 0.8871947526931763 0.960765540599823 -9999
-9999 1.7470430135726929 1.5303090810775757 1.1417945623397827 0.9154616594314575 0.78280109167099 0.7038838863372803 0.6566120386123657 0.6286117434501648 0.6128562092781067 0.6058104634284973 0.6053215861320496 0.6112503409385681 0.6245794296264648 0.647371232509613 0.6833839416503906 0.7389194369316101 0.8252705335617065 0.8878747224807739 -9999
-9999 1.6042321920394897 1.4116352796554565 1.0776090621948242 0.8784983158111572 0.7595705389976501 0.6876813769340515 0.6441381573677063 0.6181595921516418 0.6029210090637207 0.5955286026000977 0.5943330526351929 0.5989273190498352 0.6099623441696167 0.6290954351425171 0.6596601605415344 0.7082945108413696 0.7826327681541443 0.8489682674407959 -9999
-9999 1.4668433666229248 1.2966898679733276 1.0149118900299072 0.8437083959579468 0.7392500042915344 0.6749133467674255 0.6352961659431458 0.6105579137802124 0.595837414264679 0.5883267521858215 0.5865540504455566 0.5899838209152222 0.5989002585411072 0.614423930644989 0.6389243602752686 0.6768213510513306 0.723596453666687 -9999 -9999
-9999 1.3533046245574951 1.197038173675537 0.958425760269165 0.8121275305747986 0.7214472889900208 0.6645901799201965 0.6280335783958435 0.6048086881637573 0.5906767249107361 0.5831357836723328 0.5808505415916443 0.5831810235977173 0.5900846123695374 0.6020844578742981 0.6204865574836731 0.647453784942627 0.6743232607841492 -9999 -9999
-9999 1.2807990312576294 1.1132901906967163 0.911682665348053 0.7855490446090698 0.706926703453064 0.6557055115699768 0.6222124695777893 0.6005153656005859 0.5870099663734436 0.5795274972915649 0.5767970085144043 0.5780993700027466 0.5831333994865417 0.59194016456604 0.6049167513847351 0.6226420402526855 0.6396664381027222 0.637226402759552 0.6368882060050964
-9999 -9999 0.9983735680580139 0.8685401082038879 0.764432430267334 0.6952106952667236 0.648798942565918 0.6178882718086243 0.5975111722946167 0.5845906734466553 0.5771765112876892 0.5740679502487183 0.5744946002960205 0.5779824256896973 0.5842021107673645 0.592908501625061 0.6035453081130981 0.6141564249992371 0.6184889078140259 0.6198027729988098
-9999 -9999 0.9526925683021545 0.8591259717941284 0.7554210424423218 0.688256561756134 0.6443698406219482 0.6151373982429504 0.5956955552101135 0.5831876993179321 0.5758025646209717 0.5724125504493713 0.5722165107727051 0.5746188163757324 0.5790920257568359 0.5851286053657532 0.5919770002365112 0.5982233285903931 0.6018741726875305 0.6034145355224609
-9999 -9999 -9999 0.824363112449646 0.7463219165802002 0.6839033365249634 0.6419893503189087 0.6137460470199585 0.5948099493980408 0.5825167298316956 0.5751521587371826 0.5716056823730469 0.571088433265686 0.572943925857544 0.576567530632019 0.5813591480255127 0.5866135358810425 0.591251015663147 0.5943421721458435 0.5958113670349121
