ncols         20
nrows         20
xllcorner     0
yllcorner     -3.5992928
cellsize      0.17996463
NODATA_value  -9999
-9999.0 -9999 -9999 -9999 -9999 -9999 -9999 -9999 -9999 -9999 -9999 -9999 -9999 -9999 -9999 -9999 -9999 -9999 -9999 -9999
-9999 -9999 -9999 -9999 -9999 -9999 -9999 -9999 -9999 -9999 -9999 0.017926614731550217 0.01792454533278942 -9999 -9999 0.017994193360209465 0.01800055429339409 -9999 -9999 -9999
-9999 -9999 -9999 -9999 0.018088778480887413 0.01805022358894348 0.017992796376347542 0.017922066152095795 0.01785041205585003 0.017791854217648506 0.017759639769792557 0.037653300911188126 0.03764083981513977 0.017733553424477577 0.017753565683960915 0.03776578977704048 0.03780741989612579 0.01783834956586361 -9999 -9999
-9999 -9999 -9999 0.017986545339226723 0.038069576025009155 0.07916205376386642 0.0788889229297638 0.07852926105260849 0.07815785706043243 0.07784239947795868 0.07763557136058807 0.093415267765522 0.09335780143737793 0.0774693638086319 0.07755547761917114 0.09364259988069534 0.07791665196418762 0.017672330141067505 -9999 -9999
-9999 -9999 -9999 0.017846619710326195 0.07866543531417847 0.11360391229391098 0.11312353610992432 0.11249646544456482 0.11185611039400101 0.1113094687461853 0.11093418300151825 0.11078298091888428 0.11069662123918533 0.11065471917390823 0.11079657077789307 0.11105644702911377 0.07686135917901993 0.017391659319400787 -9999 -9999
-9999 -9999 0.017578955739736557 0.03729092329740524 0.093630351126194 0.11223026365041733 0.11158615350723267 0.11078628152608871 0.10999276489019394 0.1093265563249588 0.10885410755872726 0.10859548300504684 0.10849987715482712 0.10854495316743851 0.10872871428728104 0.1089431568980217 0.09063034504652023 0.03593096882104874 0.016860129311680794 -9999
-9999 -9999 0.01740269735455513 0.0766649842262268 0.11082019656896591 0.11032146960496902 0.10944057255983353 0.10840635001659393 0.107427217066288 0.10662411898374557 0.10606333613395691 0.10574477165937424 0.10562929511070251 0.10570023953914642 0.10593964904546738 0.10622960329055786 0.10629727691411972 0.07326675206422806 0.01661081612110138 -9999
-9999 -9999 0.017130866646766663 0.0755152478814125 0.10885491222143173 0.10805269330739975 0.106902115046978 0.10565371066331863 0.10457075387239456 0.1037139892578125 0.10309773683547974 0.10271580517292023 0.10254345834255219 0.10256516188383102 0.10277161747217178 0.10314498841762543 0.1034817323088646 0.07162895053625107 0.01624959148466587 -9999
-9999 0.016722358763217926 0.035499457269907 0.08910790085792542 0.10658647865056992 0.10554248839616776 0.10416984558105469 0.10283414274454117 0.1017022654414177 0.10080468654632568 0.10014171153306961 0.09970583021640778 0.0994790643453598 0.09944532811641693 0.09959104657173157 0.09988971054553986 0.10027410835027695 0.06953774392604828 0.015797123312950134 -9999
-9999 0.016534464433789253 0.07270731776952744 0.10495036840438843 0.10421263426542282 0.10291308909654617 0.10140159726142883 0.10003696382045746 0.09888381510972977 0.09795977175235748 0.09725867956876755 0.09677612781524658 0.09649895876646042 0.09641153365373611 0.09649591147899628 0.0967218428850174 0.09702393412590027 0.06728974729776382 0.0152986329048872 -9999
-9999 0.01627577468752861 0.07150798290967941 0.10281975567340851 0.10175102949142456 0.1002238392829895 0.0986815094947815 0.09731374680995941 0.09615696221590042 0.09521672129631042 0.09448622167110443 0.09396510571241379 0.0936441496014595 0.09350859373807907 0.09354265034198761 0.09372138977050781 0.09398682415485382 0.06515995413064957 0.014808465726673603 -9999
-9999 0.015959614887833595 0.07001622766256332 0.10044290870428085 0.09917827695608139 0.097561314702034 0.09604157507419586 0.09469664096832275 0.09354861825704575 0.09260060638189316 0.09184809774160385 0.09129522740840912 0.09093596786260605 0.09075652062892914 0.09075075387954712 0.09091600775718689 0.09121979773044586 0.06330505013465881 0.014382803812623024 -9999
-9999 0.015609566122293472 0.06837436556816101 0.09791473299264908 0.09653954952955246 0.09497728198766708 0.09351789951324463 0.09221544116735458 0.0910872295498848 0.09014004468917847 0.0893697738647461 0.08878636360168457 0.08838410675525665 0.08815407752990723 0.08810388296842575 0.08826577663421631 0.08873549103736877 0.061831120401620865 0.014045936986804008 -9999
-9999 0.01525137573480606 0.0667019784450531 0.09536318480968475 0.09397218376398087 0.09252384305000305 0.09115055948495865 0.08990497142076492 0.08880715817213058 0.08787299692630768 0.08709608763456345 0.08648119866847992 0.08602553606033325 0.08572455495595932 0.08558790385723114 0.08564358949661255 0.07126204669475555 0.02882290445268154 0.01380232349038124 -9999
-9999 0.014915425330400467 0.06514342874288559 0.09295777231454849 0.09162332862615585 0.09026972204446793 0.0889839306473732 0.08780398964881897 0.08675580471754074 0.08584453165531158 0.08506500720977783 0.08441846817731857 0.08390156924724579 0.08351176977157593 0.08325287699699402 0.0831298828125 0.057432740926742554 0.013024062849581242 -9999 -9999
-9999 0.014636832289397717 0.06352479755878448 0.09086756408214569 0.08951275050640106 0.08824657648801804 0.08705417811870575 0.08595740795135498 0.08496665209531784 0.08408676832914352 0.08331112563610077 0.0826377123594284 0.08206141740083694 0.08157765865325928 0.08118535578250885 0.08088118582963943 0.0553567036986351 0.012530522421002388 -9999 -9999
-9999 0.014440038241446018 0.030005795881152153 0.07355400174856186 0.08756570518016815 0.08646862208843231 0.08540330827236176 0.08439862728118896 0.08347107470035553 0.08262700587511063 0.08185864239931107 0.08116482943296432 0.08053816109895706 0.07996943593025208 0.07944563031196594 0.07893693447113037 0.06484947353601456 0.025502681732177734 0.011756448075175285 0.011640188284218311
-9999 -9999 0.01377886813133955 0.05980992317199707 0.08597959578037262 0.08501329272985458 0.08407623320817947 0.083165742456913 0.08230101317167282 0.08149171620607376 0.08073403686285019 0.08002791553735733 0.07936519384384155 0.07873319834470749 0.07811087369918823 0.07744807749986649 0.07662308216094971 0.06279832124710083 0.051501914858818054 0.05119386315345764
-9999 -9999 0.013405116274952888 0.02840265817940235 0.07014772295951843 0.08389299362897873 0.08311743289232254 0.08229875564575195 0.08148852735757828 0.08070922642946243 0.07996311783790588 0.07925170660018921 0.07856780290603638 0.07790031284093857 0.07723294198513031 0.07653608918190002 0.07577140629291534 0.07494312524795532 0.07428983598947525 0.07395172864198685
-9999 -9999 -9999 0.013067115098237991 0.05761942267417908 0.08327112346887589 0.08260531723499298 0.08184502273797989 0.08106740564107895 0.08030515164136887 0.07956678420305252 0.07885449379682541 0.0781615823507309 0.07747954875230789 0.07679738104343414 0.07610144466161728 0.07538679987192154 0.07469915598630905 0.07416144013404846 0.07387157529592514
