ncols         20
nrows         20
xllcorner     0
yllcorner     -3.5992928
cellsize      0.17996463
NODATA_value  -9999
-9999.0 -9999 -9999 -9999 -9999 -9999 -9999 -9999 -9999 -9999 -9999 -9999 -9999 -9999 -9999 -9999 -9999 -9999 -9999 -9999
-9999 -9999 -9999 -9999 -9999 -9999 -9999 -9999 -9999 -9999 -9999 18.967697143554688 18.97586441040039 -9999 -9999 18.899620056152344 18.902812957763672 -9999 -9999 -9999
-9999 -9999 -9999 -9999 18.894723892211914 18.918317794799805 18.939247131347656 18.969524383544922 18.996213912963867 18.996091842651367 19.03607177734375 19.00895118713379 18.997760772705078 19.021221160888672 19.014705657958984 18.963916778564453 18.940582275390625 18.94786262512207 -9999 -9999
-9999 -9999 -9999 18.891063690185547 18.891817092895508 18.919523239135742 18.94522476196289 18.967103958129883 18.970125198364258 18.968473434448242 18.949600219726562 18.947359085083008 18.954938888549805 18.98943328857422 19.000978469848633 18.998353958129883 18.99596405029297 19.007448196411133 -9999 -9999
-9999 -9999 -9999 18.910051345825195 18.925312042236328 18.928564071655273 18.927433013916016 18.90501594543457 18.866905212402344 18.801471710205078 18.73113441467285 18.7028865814209 18.733854293823242 18.82624053955078 18.911909103393555 18.987646102905273 19.040945053100586 19.034971237182617 -9999 -9999
-9999 -9999 18.942028045654297 18.938589096069336 18.951074600219727 18.93767738342285 18.881885528564453 18.78001594543457 18.653207778930664 18.51542854309082 18.37784767150879 18.317276000976562 18.35605239868164 18.504446029663086 18.69476890563965 18.86505126953125 18.98826789855957 19.040712356567383 19.12066650390625 -9999
-9999 -9999 18.990747451782227 19.002473831176758 18.984235763549805 18.91050148010254 18.75349235534668 18.540666580200195 18.323055267333984 18.156721115112305 18.028413772583008 17.96117401123047 17.967750549316406 18.10511016845703 18.33179473876953 18.591407775878906 18.793502807617188 18.93549919128418 19.00069808959961 -9999
-9999 -9999 19.065074920654297 19.05967140197754 18.998882293701172 18.84206199645996 18.568450927734375 18.590951919555664 18.269601821899414 18.09825897216797 18.022563934326172 18.018085479736328 17.739234924316406 17.79147720336914 17.971633911132812 18.222591400146484 18.46944808959961 18.665958404541016 18.759559631347656 -9999
-9999 19.172103881835938 19.125934600830078 19.101776123046875 18.974586486816406 18.71601104736328 18.352970123291016 18.272550582885742 17.96904182434082 17.831544876098633 17.786537170410156 17.793914794921875 17.572477340698242 17.571094512939453 17.670276641845703 17.854398727416992 18.080120086669922 18.2797794342041 18.3887882232666 -9999
-9999 19.210630416870117 19.182016372680664 19.079973220825195 18.86556625366211 18.538347244262695 18.15655517578125 18.06807518005371 17.807357788085938 17.69451332092285 17.660837173461914 17.665008544921875 17.459794998168945 17.415584564208984 17.444963455200195 17.54970932006836 17.71311378479004 17.87581443786621 17.9691104888916 -9999
-9999 19.21805763244629 19.147350311279297 18.9642276763916 18.670978546142578 18.294809341430664 17.96156120300293 17.926603317260742 17.71578598022461 17.621946334838867 17.59453773498535 17.592514038085938 17.36928367614746 17.292835235595703 17.27437400817871 17.315067291259766 17.408613204956055 17.522510528564453 17.591167449951172 -9999
-9999 19.09740447998047 18.972780227661133 18.712160110473633 18.3756103515625 18.019224166870117 17.759929656982422 17.80959129333496 17.647106170654297 17.570556640625 17.54718780517578 17.542236328125 17.29391860961914 17.205894470214844 17.16272735595703 17.15308952331543 17.1862850189209 17.251670837402344 17.299341201782227 -9999
-9999 18.79620933532715 18.62992286682129 18.3302059173584 18.00994110107422 17.724145889282227 17.51955223083496 17.424673080444336 17.366275787353516 17.34208869934082 17.325332641601562 17.297033309936523 17.23028564453125 17.182193756103516 17.137657165527344 17.10227394104004 17.077396392822266 17.090816497802734 17.13037872314453 -9999
-9999 18.375633239746094 18.19817543029785 17.911632537841797 17.647653579711914 17.445898056030273 17.316688537597656 17.25896453857422 17.246936798095703 17.249004364013672 17.24884796142578 17.240039825439453 17.225688934326172 17.212366104125977 17.20060920715332 17.17013931274414 17.118778228759766 17.048906326293945 17.11857795715332 -9999
-9999 17.989702224731445 17.82815170288086 17.578781127929688 17.374603271484375 17.248043060302734 17.187959671020508 17.17753791809082 17.191776275634766 17.210100173950195 17.221067428588867 17.23107147216797 17.24099349975586 17.251279830932617 17.269372940063477 17.26751136779785 17.24725914001465 17.123750686645508 -9999 -9999
-9999 17.733469009399414 17.587867736816406 17.37567710876465 17.223569869995117 17.154340744018555 17.138023376464844 17.153425216674805 17.174041748046875 17.194730758666992 17.20884132385254 17.22792625427246 17.25272560119629 17.282136917114258 17.310298919677734 17.335086822509766 17.346023559570312 17.42732048034668 -9999 -9999
-9999 17.587278366088867 17.44183921813965 17.266223907470703 17.153553009033203 17.1292781829834 17.139039993286133 17.167415618896484 17.189058303833008 17.208560943603516 17.224565505981445 17.24757957458496 17.277332305908203 17.304981231689453 17.336423873901367 17.366912841796875 17.39182472229004 17.4185791015625 17.386993408203125 17.41656494140625
-9999 -9999 17.315378189086914 17.200275421142578 17.122392654418945 17.125350952148438 17.16107749938965 17.196874618530273 17.22063446044922 17.239126205444336 17.253938674926758 17.275142669677734 17.29877471923828 17.334461212158203 17.363182067871094 17.38298797607422 17.407373428344727 17.42397117614746 17.438644409179688 17.4166202545166
-9999 -9999 17.233421325683594 17.161108016967773 17.113157272338867 17.14411163330078 17.19996452331543 17.245437622070312 17.273284912109375 17.286441802978516 17.286710739135742 17.30617904663086 17.330114364624023 17.361705780029297 17.380773544311523 17.394575119018555 17.410120010375977 17.42413902282715 17.404417037963867 17.398365020751953
-9999 -9999 -9999 17.13521385192871 17.109359741210938 17.14917755126953 17.21682357788086 17.265012741088867 17.28948211669922 17.29728889465332 17.301340103149414 17.309999465942383 17.33496856689453 17.365089416503906 17.3889217376709 17.393049240112305 17.417884826660156 17.403104782104492 17.395051956176758 17.392419815063477
