ncols         20
nrows         20
xllcorner     0
yllcorner     -3.5992928
cellsize      0.17996463
NODATA_value  -9999
-9999.0 -9999 -9999 -9999 -9999 -9999 -9999 -9999 -9999 -9999 -9999 -9999 -9999 -9999 -9999 -9999 -9999 -9999 -9999 -9999
-9999 -9999 -9999 -9999 -9999 -9999 -9999 -9999 -9999 -9999 -9999 0.018138328567147255 0.018137123435735703 -9999 -9999 0.01822393760085106 0.01823079027235508 -9999 -9999 -9999
-9999 -9999 -9999 -9999 0.018286457285284996 0.018246611580252647 0.018187817186117172 0.018116313964128494 0.018045298755168915 0.017989229410886765 0.017961125820875168 0.03809274733066559 0.03808610513806343 0.017948072403669357 0.01797286421060562 0.038241904228925705 0.038287051022052765 0.018065638840198517 -9999 -9999
-9999 -9999 -9999 0.01818341575562954 0.03848274052143097 0.08001300692558289 0.079731784760952 0.07936683297157288 0.07899783551692963 0.07869423180818558 0.07850633561611176 0.09449245035648346 0.09445695579051971 0.0784008726477623 0.07850571721792221 0.09480849653482437 0.07889606803655624 0.01789652742445469 -9999 -9999
-9999 -9999 -9999 0.018041398376226425 0.07951122522354126 0.11481066048145294 0.11431191116571426 0.1136731207370758 0.11303633451461792 0.11251073330640793 0.11216799169778824 0.11205317080020905 0.11199699342250824 0.11198009550571442 0.11214636266231537 0.11242881417274475 0.07782261073589325 0.01761160045862198 -9999 -9999
-9999 -9999 0.01777465082705021 0.03769820183515549 0.09463074803352356 0.11340579390525818 0.11273179948329926 0.11191511154174805 0.11112774908542633 0.11049534380435944 0.11006850004196167 0.10985267907381058 0.10978693515062332 0.1098504438996315 0.11005109548568726 0.11028490960597992 0.09176279604434967 0.036386001855134964 0.017075438052415848 -9999
-9999 -9999 0.017598018050193787 0.07750432193279266 0.1120014488697052 0.11146268993616104 0.11054318398237228 0.1094973012804985 0.10854223370552063 0.10780113935470581 0.10730520635843277 0.10703802108764648 0.1069478839635849 0.10702146589756012 0.10725871473550797 0.10755380243062973 0.10763776302337646 0.07420160621404648 0.016824373975396156 -9999
-9999 -9999 0.017327578738331795 0.0763535276055336 0.11002346873283386 0.10917451232671738 0.10799472033977509 0.10679326951503754 0.10578010976314545 0.10499310493469238 0.10443777590990067 0.10409999638795853 0.10394858568906784 0.10396822541952133 0.10415421426296234 0.10448696464300156 0.10481926798820496 0.07255969196557999 0.016462033614516258 -9999
-9999 0.016931576654314995 0.035926640033721924 0.09013184159994125 0.10776561498641968 0.10667791962623596 0.10531292855739594 0.10406409204006195 0.10301171243190765 0.1021849513053894 0.10157816857099533 0.10118094086647034 0.10097221285104752 0.10093525052070618 0.10105806589126587 0.10131607949733734 0.10164836794137955 0.0704786479473114 0.016010766848921776 -9999
-9999 0.01674654148519039 0.0736171156167984 0.10621705651283264 0.1054295152425766 0.10410039871931076 0.10265374928712845 0.10137050598859787 0.10029464960098267 0.09943656623363495 0.09878547489643097 0.09833674132823944 0.09807591885328293 0.09798690676689148 0.0980525016784668 0.09824497997760773 0.09850483387708664 0.06827472150325775 0.015518809668719769 -9999
-9999 0.016492201015353203 0.07243913412094116 0.10412755608558655 0.10302132368087769 0.10149329900741577 0.10003403574228287 0.09874676913022995 0.09766161441802979 0.09678035974502563 0.09609375894069672 0.09560254961252213 0.09529715776443481 0.09516250342130661 0.09518346935510635 0.09533753991127014 0.09557204693555832 0.06622937321662903 0.015042861923575401 -9999
-9999 0.01618139073252678 0.07097490131855011 0.10179945826530457 0.10051337629556656 0.09894118458032608 0.09749272465705872 0.09621988236904144 0.0951351448893547 0.09423869848251343 0.09352458268404007 0.09299841523170471 0.09265419840812683 0.09247782826423645 0.09246375411748886 0.09261148422956467 0.0928923636674881 0.06444167345762253 0.014635208062827587 -9999
-9999 0.01583688147366047 0.06936242431402206 0.09932297468185425 0.09794296324253082 0.09644715487957001 0.09505549818277359 0.09381651878356934 0.09274299442768097 0.09184025228023529 0.09110338985919952 0.09054349362850189 0.09015513211488724 0.08992911130189896 0.08987362682819366 0.09002232551574707 0.09047208726406097 0.06301247328519821 0.01431037113070488 -9999
-9999 0.015483487397432327 0.0677192360162735 0.09682929515838623 0.095472052693367 0.0940789058804512 0.0927637442946434 0.09157203137874603 0.09052078425884247 0.0896245464682579 0.08887600153684616 0.0882810652256012 0.0878370851278305 0.08753940463066101 0.08739884942770004 0.08744537830352783 0.07274285703897476 0.029406527057290077 0.014073576778173447 -9999
-9999 0.015151779167354107 0.0661877915263176 0.09448187798261642 0.0931977704167366 0.09189577400684357 0.09065990149974823 0.08952553570270538 0.08851674944162369 0.08763794600963593 0.08688247203826904 0.08625230193138123 0.08574410527944565 0.085355743765831 0.08509284257888794 0.08496266603469849 0.058692365884780884 0.013306928798556328 -9999 -9999
-9999 0.0148767763748765 0.06458787620067596 0.09245934337377548 0.09115161746740341 0.08993076533079147 0.08878079056739807 0.08772245794534683 0.08676551282405853 0.08591398596763611 0.08515925705432892 0.08449922502040863 0.0839284136891365 0.08344318717718124 0.08304503560066223 0.082733154296875 0.056622907519340515 0.012816989794373512 -9999 -9999
-9999 0.014682804234325886 0.030531901866197586 0.0749225988984108 0.08925991505384445 0.08819978684186935 0.08716946095228195 0.08619722723960876 0.08529916405677795 0.0844804048538208 0.0837305337190628 0.0830475315451622 0.08242351561784744 0.08185043931007385 0.08131824433803558 0.08079984039068222 0.06638529896736145 0.02611354924738407 0.012043819762766361 0.011926992796361446
-9999 -9999 0.01403803564608097 0.06097789108753204 0.08771651983261108 0.08678038418292999 0.08587175607681274 0.08498867601156235 0.08415006101131439 0.08336372673511505 0.08262263983488083 0.08192550390958786 0.0812634527683258 0.08062498271465302 0.07999195158481598 0.0793168693780899 0.07848027348518372 0.0643341988325119 0.0527716688811779 0.052460525184869766
-9999 -9999 0.0136670907959342 0.0289776474237442 0.07161463797092438 0.08568650484085083 0.08493274450302124 0.0841371938586235 0.08335050195455551 0.0825924426317215 0.08186178654432297 0.08115828782320023 0.08047391474246979 0.07979872077703476 0.07911915332078934 0.0784083753824234 0.07763006538152695 0.07679000496864319 0.07612790167331696 0.07578448206186295
-9999 -9999 -9999 0.013339568860828876 0.05884886905550957 0.08507814258337021 0.08442999422550201 0.08369037508964539 0.08293481916189194 0.08219287544488907 0.08146955072879791 0.08076485991477966 0.0800710916519165 0.07938084006309509 0.07868583500385284 0.0779753252863884 0.07724624872207642 0.07654642313718796 0.0759992003440857 0.07570350170135498
