ncols         20
nrows         20
xllcorner     0
yllcorner     -3.5992928
cellsize      0.17996463
NODATA_value  -9999
-9999.0 -9999 -9999 -9999 -9999 -9999 -9999 -9999 -9999 -9999 -9999 -9999 -9999 -9999 -9999 -9999 -9999 -9999 -9999 -9999
-9999 -9999 -9999 -9999 -9999 -9999 -9999 -9999 -9999 -9999 -9999 0.02377164363861084 0.02278193272650242 -9999 -9999 0.017839845269918442 0.015642331913113594 -9999 -9999 -9999
-9999 -9999 -9999 -9999 0.027111975476145744 0.031028693541884422 0.03865884989500046 0.04522816836833954 0.049272920936346054 0.05129459872841835 0.04140467941761017 0.03469615429639816 0.03388143703341484 0.033418700098991394 0.027273332700133324 0.020921600982546806 0.017015760764479637 0.014764612540602684 -9999 -9999
-9999 -9999 -9999 0.024488626047968864 0.028493423014879227 0.03407543525099754 0.042787306010723114 0.05200381204485893 0.06245984882116318 0.0712474137544632 0.0761716291308403 0.07344674319028854 0.06927327066659927 0.057827532291412354 0.04403291642665863 0.031052546575665474 0.0226815827190876 0.018766535446047783 -9999 -9999
-9999 -9999 -9999 0.02436402440071106 0.02907458133995533 0.03944918140769005 0.05383383110165596 0.07265492528676987 0.09876880794763565 0.13797014951705933 0.1798720508813858 0.1984051764011383 0.18269625306129456 0.13486348092556 0.09087159484624863 0.056071147322654724 0.0364866778254509 0.031967632472515106 -9999 -9999
-9999 -9999 0.01679954119026661 0.022387223318219185 0.030664408579468727 0.045176129788160324 0.06618708372116089 0.09781502187252045 0.15586741268634796 0.2469942718744278 0.3620475232601166 0.42038944363594055 0.398436963558197 0.29149094223976135 0.1797226518392563 0.10437920689582825 0.06384913623332977 0.04998714476823807 0.04098358750343323 -9999
-9999 -9999 0.016612380743026733 0.021476734429597855 0.0336795337498188 0.05464483052492142 0.08508583903312683 0.13628308475017548 0.2282438725233078 0.37241318821907043 0.5455778241157532 0.6508790254592896 0.6301848888397217 0.49130502343177795 0 0.19101542234420776 0.11514631658792496 0.07799569517374039 0.06467387825250626 -9999
-9999 -9999 0.01813543401658535 0.025297677144408226 0.04338579624891281 0.07393939793109894 0.12344329059123993 0.2018018513917923 0.31822729110717773 0.47807613015174866 0.6319530606269836 0.7351260185241699 0.7314490079879761 0.6233925223350525 0.4635268449783325 0.30620086193084717 0.19755218923091888 0.1341724395751953 0.11174032092094421 -9999
-9999 0.014173946343362331 0.021277502179145813 0.034429438412189484 0.06540828943252563 0.11974753439426422 0.19933637976646423 0.31290870904922485 0.44556307792663574 0.574648380279541 0.6676834225654602 0.7247702479362488 0.7356811165809631 0.6784332990646362 0.5755029320716858 0 0.3037235140800476 0.21706321835517883 0.18396659195423126 -9999
-9999 0.01881886087357998 0.027665799483656883 0.05337122082710266 0.10754802823066711 0.19790248572826385 0.3220650255680084 0.4665015637874603 0.5894871354103088 0.6621031165122986 0.6868525147438049 0.7009866833686829 0.7035647630691528 0.6865237355232239 0.634128749370575 0 0.4177324175834656 0.32185977697372437 0.28314125537872314 -9999
-9999 0.03033708967268467 0.04406295344233513 0.08420645445585251 0.16076034307479858 0.2807336151599884 0.4372837543487549 0.5904529094696045 0.6763992309570312 0.6956603527069092 0.6857652068138123 0.6784806251525879 0.681564211845398 0.6779506206512451 0.6550173163414001 0.6047613620758057 0.517776370048523 0.4329971373081207 0.39553797245025635 -9999
-9999 0.05522411689162254 0.07574141025543213 0.13438506424427032 0.2300386279821396 0.3586055338382721 0.5082635879516602 0.6245309114456177 0.6587706804275513 0.6416886448860168 0.6179635524749756 0.6130471229553223 0 0 0.6306204795837402 0 0.5686352849006653 0.5140794515609741 0.48689478635787964 -9999
-9999 0.10451317578554153 0.13764549791812897 0.22113798558712006 0.3230864703655243 0.43489935994148254 0.5374811291694641 0.5923791527748108 0.5767653584480286 0.5319699048995972 0.49821120500564575 0.48736223578453064 0 0 0 0.51712965965271 0.5221474766731262 0.5172184109687805 0.5047937631607056 -9999
-9999 0.18336232006549835 0.22940008342266083 0.3328317701816559 0.4303167760372162 0.5002328157424927 0.5357468724250793 0.5257154703140259 0.47716018557548523 0.42149636149406433 0.3815695345401764 0.35955554246902466 0 0 0 0.34374284744262695 0.3765471875667572 0.43343862891197205 0.4507996141910553 -9999
-9999 0.2621392011642456 0.3110671043395996 0.4167643189430237 0.49004918336868286 0.5071062445640564 0.4857791066169739 0.43973419070243835 0.38252493739128113 0.33331793546676636 0.298664927482605 0.2690332531929016 0.24362453818321228 0.2213122844696045 0 0 0.21169421076774597 0.2686167061328888 -9999 -9999
-9999 0.3021528124809265 0.34477317333221436 0.4327014088630676 0.4703599810600281 0.45039471983909607 0.40407994389533997 0.3499889671802521 0.30536362528800964 0.27173832058906555 0 0 0 0.1517256796360016 0 0 0.10404649376869202 0 -9999 -9999
-9999 0.3283839225769043 0.34901586174964905 0.4059906303882599 0.41780003905296326 0.37753257155418396 0.3211739659309387 0.27185818552970886 0.240003764629364 0 0 0 0 0.10955687612295151 0.08638102561235428 0.06891870498657227 0.05678170919418335 0.04662485420703888 0 0
-9999 -9999 0.33296719193458557 0.36729180812835693 0.36498308181762695 0.31473568081855774 0.25481078028678894 0.2109452486038208 0 0 0 0 0 0 0 0 0 0 0 0
-9999 -9999 0.34332147240638733 0.34129518270492554 0.3236406743526459 0.26591256260871887 0.2042703926563263 0.1623614877462387 0 0 0 0 0 0 0 0 0 0 0 0
-9999 -9999 -9999 0.31624236702919006 0.3011265695095062 0.24320489168167114 0.18139244616031647 0.14121563732624054 0 0 0 0 0 0 0 0 0 0 0 0
