ncols         20
nrows         20
xllcorner     0
yllcorner     -3.5992928
cellsize      0.17996463
NODATA_value  -9999
-9999.0 -9999 -9999 -9999 -9999 -9999 -9999 -9999 -9999 -9999 -9999 -9999 -9999 -9999 -9999 -9999 -9999 -9999 -9999 -9999
-9999 -9999 -9999 -9999 -9999 -9999 -9999 -9999 -9999 -9999 -9999 0 0 -9999 -9999 0 0 -9999 -9999 -9999
-9999 -9999 -9999 -9999 0 0 0 0 0 0 0 0 0 0 0 0 0 0 -9999 -9999
-9999 -9999 -9999 0 0 0 0 0 0 0 0 0 0 0 0 0 0 0 -9999 -9999
-9999 -9999 -9999 0 0 0 0 0 0 0 0 0 0 0 0 0 0 0 -9999 -9999
-9999 -9999 0 0 0 0 8.761771202087402 7.924363136291504 7.250695705413818 6.507711887359619 5.783670425415039 5.46476936340332 5.682430744171143 6.518069267272949 7.763176441192627 9.325251579284668 0 0 0 -9999
-9999 -9999 0 0 0 8.763581275939941 7.421731472015381 6.37993860244751 5.327549934387207 4.225971221923828 3.3157103061676025 2.8855226039886475 3.0047607421875 3.7364349365234375 5.061485290527344 7.014925479888916 0 0 0 -9999
-9999 -9999 0 0 9.401644706726074 7.8171586990356445 6.430891036987305 5.08846378326416 3.798628807067871 2.6844565868377686 1.9458516836166382 1.5921739339828491 1.6262186765670776 2.0780467987060547 3.043921947479248 4.6260881423950195 6.819872856140137 0 0 -9999
-9999 0 0 10.766926765441895 8.797208786010742 7.009073734283447 5.266410827636719 3.6721928119659424 2.4209532737731934 1.5850504636764526 1.124423623085022 0.9152220487594604 0.9062024354934692 1.1345161199569702 1.6722861528396606 2.679485321044922 4.233065128326416 6.138044834136963 0 -9999
-9999 0 0 10.755620002746582 8.1793212890625 5.821008682250977 3.773341417312622 2.235689640045166 1.2971718311309814 0.8128101229667664 0.5934281349182129 0.49724313616752625 0.493814080953598 0.5889860987663269 0.8488572239875793 1.3742421865463257 2.3208820819854736 3.587275981903076 0 -9999
-9999 0 0 10.415493965148926 7.140441417694092 4.462934494018555 2.4415433406829834 1.1961884498596191 0.6071733236312866 0.3626288175582886 0.2652243375778198 0.22912879288196564 0.22865842282772064 0.26741504669189453 0.37301158905029297 0.6105263829231262 1.0641725063323975 0 0 -9999
-9999 0 0 9.207390785217285 5.6646599769592285 3.1472790241241455 1.4909156560897827 0.6277079582214355 0.2822384834289551 0.1538453996181488 0.1076139286160469 0.08994884788990021 0.08858361840248108 0.09923798590898514 0.13171182572841644 0.2130897492170334 0.388480544090271 0 0 -9999
-9999 0 0 6.944238662719727 3.8576982021331787 1.944573998451233 0.8479323387145996 0.32827305793762207 0.13478904962539673 0.06951236724853516 0.042058996856212616 0.03228985518217087 0.029080837965011597 0.030521392822265625 0.03896907716989517 0.05995185673236847 0.11490018665790558 0 0 -9999
-9999 0 0 4.354786396026611 2.1317169666290283 0.9864353537559509 0.4168919026851654 0.16395892202854156 0.06564708799123764 0.033276159316301346 0.020121026784181595 0.014377760700881481 0.01172283012419939 0.01110079512000084 0.01226033829152584 0.016812775284051895 0.028499267995357513 0 0 -9999
-9999 0 0 2.465578317642212 1.0369797945022583 0.44052356481552124 0.18625840544700623 0.07599193602800369 0.034932177513837814 0.018621200695633888 0.011504094116389751 0.0078870989382267 0.006027167197316885 0.005207357928156853 0.0049696252681314945 0.005650930572301149 0.007575544063001871 0 -9999 -9999
-9999 0 0 1.487141489982605 0.5530357956886292 0.2104484587907791 0.08642987906932831 0.03907283768057823 0.02025214582681656 0.011644733138382435 0.007497245911508799 0.005181519780308008 0.004142748657613993 0.00460235308855772 0.0052256351336836815 0.005979177076369524 0.006828343961387873 0.0075800614431500435 -9999 -9999
-9999 0 0 1.0080926418304443 0.3454701602458954 0.112729512155056 0.04651894047856331 0.02191895991563797 0.012029221281409264 0.0073239547200500965 0.004941339138895273 0.004349186550825834 0.004687884822487831 0.005226243287324905 0.005915805231779814 0.006723789498209953 0.007641687989234924 0.008658943697810173 0.009825765155255795 0.010383552871644497
-9999 -9999 0 0.7103497385978699 0.23863573372364044 0.07462168484926224 0.028899116441607475 0.013505597598850727 0.007498181890696287 0.004811341408640146 0.004679327365010977 0.004830067977309227 0.005224697291851044 0.00582147017121315 0.006558237597346306 0.007383424788713455 0.008261655457317829 0.00914516020566225 0.009914580732584 0.010299022309482098
-9999 -9999 0 0 0.17350128293037415 0.05272700637578964 0.01948743686079979 0.008777058683335781 0.005512756295502186 0.005124838091433048 0.0050387331284582615 0.005228541791439056 0.005663182120770216 0.006295972969383001 0.007053641602396965 0.007868544198572636 0.008681347593665123 0.009402717463672161 0.00993115920573473 0.0102023184299469
-9999 -9999 -9999 0 0.13967697322368622 0.04448791220784187 0.016082681715488434 0.007107995450496674 0.00566249992698431 0.005305860191583633 0.005242518614977598 0.005449553485959768 0.005903609097003937 0.0065535493195056915 0.007320585660636425 0.008121262304484844 0.008894069120287895 0.009519148617982864 0.009953825734555721 0.010175220668315887
