ncols         20
nrows         20
xllcorner     0
yllcorner     -3.5992928
cellsize      0.17996463
NODATA_value  -9999
-9999.0 -9999 -9999 -9999 -9999 -9999 -9999 -9999 -9999 -9999 -9999 -9999 -9999 -9999 -9999 -9999 -9999 -9999 -9999 -9999
-9999 -9999 -9999 -9999 -9999 -9999 -9999 -9999 -9999 -9999 -9999 0.36664003133773804 0.35933446884155273 -9999 -9999 0.32200491428375244 0.30173259973526 -9999 -9999 -9999
-9999 -9999 -9999 -9999 0.3855699598789215 0.4128744304180145 0.46171835064888 0.5008180737495422 0.5246546864509583 0.5375024080276489 0.4848549962043762 0.4450904130935669 0.4414735734462738 0.4412213861942291 0.40020987391471863 0.3508707880973816 0.3170906603336334 0.29658234119415283 -9999 -9999
-9999 -9999 -9999 0.3689631223678589 0.39735379815101624 0.43485960364341736 0.4883436858654022 0.540232241153717 0.5947598218917847 0.6384055614471436 0.6636200547218323 0.6548616290092468 0.639007031917572 0.5867781639099121 0.5142289996147156 0.4330950975418091 0.3710460364818573 0.33821582794189453 -9999 -9999
-9999 -9999 -9999 0.3709026575088501 0.40511956810951233 0.47264713048934937 0.5540148019790649 0.6468806266784668 0.7588004469871521 0.9025232791900635 1.037792682647705 1.0971577167510986 1.0590319633483887 0.9153099656105042 0.7557491660118103 0.5957657098770142 0.4818314015865326 0.45199480652809143 -9999 -9999
-9999 -9999 0.31483495235443115 0.36098694801330566 0.4223265051841736 0.5140863656997681 0.6256729364395142 0.7661362886428833 0.9751284718513489 1.2395838499069214 1.5158613920211792 1.6479052305221558 1.6162079572677612 1.392254114151001 1.1006072759628296 0.8415529727935791 0.660304605960846 0.5869809985160828 0.5392706990242004 -9999
-9999 -9999 0.31720659136772156 0.3602310121059418 0.4521259665489197 0.5791759490966797 0.7285637259483337 0.9312233924865723 1.2202702760696411 1.5806478261947632 1.9396259784698486 2.144019842147827 2.1295037269592285 1.8968390226364136 0 1.1946972608566284 0.9273104071617126 0.763590931892395 0.6977323889732361 -9999
-9999 -9999 0.3395243287086487 0.4016411602497101 0.528825044631958 0.696597695350647 0.9104765057563782 1.1815433502197266 1.5095856189727783 1.8846110105514526 2.2049636840820312 2.414832830429077 2.4373135566711426 2.270951271057129 1.9725784063339233 1.6088567972183228 1.2882524728775024 1.0577704906463623 0.9638625979423523 -9999
-9999 0.3155878782272339 0.38142645359039307 0.48593854904174805 0.6753383278846741 0.9260591268539429 1.2156935930252075 1.5557796955108643 1.9001485109329224 2.208559989929199 2.4324429035186768 2.582407236099243 2.6410179138183594 2.563842535018921 2.3801615238189697 0 1.7221583127975464 1.4424387216567993 1.3211487531661987 -9999
-9999 0.3727475702762604 0.45148012042045593 0.6313067078590393 0.9081288576126099 1.2555590867996216 1.6416147947311401 2.033820390701294 2.356773853302002 2.57135009765625 2.6891908645629883 2.7810370922088623 2.8392562866210938 2.8393216133117676 2.7460920810699463 0 2.2041311264038086 1.9091211557388306 1.7768582105636597 -9999
-9999 0.4922047555446625 0.5956405401229858 0.832747220993042 1.1713894605636597 1.587493896484375 2.047041177749634 2.469322919845581 2.74424147605896 2.8829901218414307 2.956860065460205 3.0297019481658936 3.1157772541046143 3.148946762084961 3.097898244857788 2.9642586708068848 2.7000091075897217 2.430954694747925 2.3011109828948975 -9999
-9999 0.6968503594398499 0.8219566345214844 1.1120140552520752 1.4890294075012207 1.9185720682144165 2.376230001449585 2.751535654067993 2.9490575790405273 3.028310537338257 3.0831379890441895 3.1843719482421875 0 0 3.381455659866333 0 3.117471218109131 2.9097020626068115 2.7988476753234863 -9999
-9999 1.0107746124267578 1.1719177961349487 1.5170162916183472 1.888217806816101 2.2745161056518555 2.6429667472839355 2.907041311264038 2.997931718826294 2.99873685836792 3.014887571334839 3.0975327491760254 0 0 0 3.2783358097076416 3.2282917499542236 3.156921148300171 3.073446035385132 -9999
-9999 1.412802815437317 1.6029670238494873 1.9857957363128662 2.342427968978882 2.6359567642211914 2.857372999191284 2.9642770290374756 2.9493672847747803 2.893627643585205 2.862597942352295 2.876709222793579 0 0 0 2.86289381980896 2.9242875576019287 3.067133665084839 3.0384035110473633 -9999
-9999 1.7797993421554565 1.9770432710647583 2.3720033168792725 2.686335563659668 2.8616154193878174 2.9332566261291504 2.9193928241729736 2.8527345657348633 2.783738374710083 2.7379987239837646 2.6692421436309814 2.582956075668335 2.474107265472412 0 0 2.324111223220825 2.5712525844573975 -9999 -9999
-9999 2.0035953521728516 2.200906991958618 2.575061082839966 2.8164291381835938 2.888338088989258 2.8632419109344482 2.7962584495544434 2.7420425415039062 2.709855318069458 0 0 0 2.1391990184783936 0 0 1.7021504640579224 0 -9999 -9999
-9999 2.162578821182251 2.3411760330200195 2.6516337394714355 2.8252644538879395 2.809464931488037 2.7177250385284424 2.6274406909942627 2.5974833965301514 0 0 0 0 1.8789432048797607 1.6443722248077393 1.445059895515442 1.2888370752334595 1.1552507877349854 0 0
-9999 -9999 2.461726188659668 2.680440664291382 2.792279005050659 2.70674729347229 2.551441192626953 2.43988037109375 0 0 0 0 0 0 0 0 0 0 0 0
-9999 -9999 2.615678548812866 2.7117953300476074 2.745497941970825 2.590485095977783 2.372030258178711 2.2176730632781982 0 0 0 0 0 0 0 0 0 0 0 0
-9999 -9999 -9999 2.7145252227783203 2.7150282859802246 2.5320804119110107 2.279174566268921 2.1047158241271973 0 0 0 0 0 0 0 0 0 0 0 0
