ncols         20
nrows         20
xllcorner     0
yllcorner     -3.5992928
cellsize      0.17996463
NODATA_value  -9999
-9999.0 -9999 -9999 -9999 -9999 -9999 -9999 -9999 -9999 -9999 -9999 -9999 -9999 -9999 -9999 -9999 -9999 -9999 -9999 -9999
-9999 -9999 -9999 -9999 -9999 -9999 -9999 -9999 -9999 -9999 -9999 0 0 -9999 -9999 0 0 -9999 -9999 -9999
-9999 -9999 -9999 -9999 0 0 0 0 0 0 0 0 0 0 0 0 0 0 -9999 -9999
-9999 -9999 -9999 0 0 0 0 0 0 0 0 0 0 0 0 0 0 0 -9999 -9999
-9999 -9999 -9999 0 0 0 0 0 0 0 0 0 0 0 0 0 0 0 -9999 -9999
-9999 -9999 0 0 0 0 2.2731189727783203 1.8962795734405518 1.6831477880477905 1.5402010679244995 1.4467391967773438 1.4279415607452393 1.4971932172775269 1.6734946966171265 1.966420292854309 2.4477813243865967 0 0 0 -9999
-9999 -9999 0 0 0 2.093217611312866 1.5683162212371826 1.2744733095169067 1.0834494829177856 0.9408190846443176 0.8408907651901245 0.804330587387085 0.8443078398704529 0.9765433073043823 1.2196826934814453 1.643998146057129 0 0 0 -9999
-9999 -9999 0 0 2.11318302154541 1.5207264423370361 1.1534759998321533 0.9144952297210693 0.7454257011413574 0.6197800636291504 0.5389531850814819 0.5050754547119141 0.5260720252990723 0.6118857860565186 0.7808129787445068 1.0692551136016846 1.5422004461288452 0 0 -9999
-9999 0 0 2.333193778991699 1.6274583339691162 1.1787261962890625 0.8788479566574097 0.6707408428192139 0.5250458717346191 0.4273685812950134 0.3712904453277588 0.3486143946647644 0.3586304187774658 0.4100302457809448 0.514553964138031 0.6966664791107178 0.9824684858322144 1.3816202878952026 0 -9999
-9999 0 0 2.008136749267578 1.3507789373397827 0.9420832395553589 0.670913577079773 0.4868769645690918 0.36863255500793457 0.2999728322029114 0.26613467931747437 0.2535005807876587 0.2602706551551819 0.28943800926208496 0.3522547483444214 0.46379831433296204 0.6474207639694214 0.9090897440910339 0 -9999
-9999 0 0 1.7941173315048218 1.1517215967178345 0.7657957673072815 0.5160529613494873 0.35502874851226807 0.26300159096717834 0.2160443216562271 0.19498679041862488 0.18859966099262238 0.1932811588048935 0.21080566942691803 0.24768255650997162 0.31655603647232056 0.43431881070137024 0 0 -9999
-9999 0 0 1.5792721509933472 0.9744510650634766 0.6237093210220337 0.40378639101982117 0.27026480436325073 0.19969972968101501 0.1655973345041275 0.15120169520378113 0.1466538906097412 0.14950679242610931 0.15936444699764252 0.17998111248016357 0.21967817842960358 0.29108020663261414 0 0 -9999
-9999 0 0 1.314823031425476 0.7893658876419067 0.4947553277015686 0.31826236844062805 0.21502022445201874 0.1621512472629547 0.13806195557117462 0.1265965849161148 0.12302754819393158 0.12418913096189499 0.12995919585227966 0.14216062426567078 0.16443079710006714 0.20631569623947144 0 0 -9999
-9999 0 0 1.0200872421264648 0.5984951257705688 0.37438032031059265 0.24776799976825714 0.17666231095790863 0.13950370252132416 0.12275316566228867 0.11499961465597153 0.11223368346691132 0.11283202469348907 0.11670540273189545 0.12452078610658646 0.13852618634700775 0.16354727745056152 0 0 -9999
-9999 0 0 0.7657335996627808 0.44264286756515503 0.2817869782447815 0.1968258023262024 0.15011431276798248 0.12656639516353607 0.11468042433261871 0.10890791565179825 0.10665164887905121 0.10703404247760773 0.10989471524953842 0.1155272051692009 0.12516151368618011 0.1410730630159378 0 -9999 -9999
-9999 0 0 0.5964710116386414 0.3468342423439026 0.22604486346244812 0.16622647643089294 0.13522237539291382 0.11888650059700012 0.10992686450481415 0.10528816282749176 0.10335835814476013 0.10365891456604004 0.10629027336835861 0.11087975651025772 0.11798841506242752 0.12860742211341858 0.13952869176864624 -9999 -9999
-9999 0 0 0.4909069240093231 0.29120156168937683 0.19364137947559357 0.14949508011341095 0.1264428049325943 0.11386364698410034 0.10668565332889557 0.10281552374362946 0.10149204730987549 0.10203943401575089 0.104011170566082 0.10741526633501053 0.1124231144785881 0.11931253969669342 0.12611092627048492 0.1255599558353424 0.12563969194889069
-9999 -9999 0 0.4113789498806 0.2555243968963623 0.17645351588726044 0.1400144398212433 0.12121521681547165 0.1107037290930748 0.10462556034326553 0.10181892663240433 0.10071444511413574 0.1009812206029892 0.10242294520139694 0.10490342974662781 0.10833078622817993 0.11251112073659897 0.11672703921794891 0.11861661821603775 0.11926043033599854
-9999 -9999 0 0 0.23411284387111664 0.1657310426235199 0.13430587947368622 0.1180039793252945 0.10906980186700821 0.10422486066818237 0.10147154331207275 0.10029774159193039 0.10036904364824295 0.10144546627998352 0.10331399738788605 0.10577476769685745 0.10854311287403107 0.11107854545116425 0.11261530965566635 0.1132926344871521
-9999 -9999 -9999 0 0.22001267969608307 0.1607276350259781 0.1318458765745163 0.11667486280202866 0.10879059880971909 0.10405819863080978 0.10133196413516998 0.10011715441942215 0.10008790343999863 0.10098181664943695 0.10255616158246994 0.10456998646259308 0.10675088316202164 0.10866596549749374 0.10995880514383316 0.1105853021144867
