ncols         20
nrows         20
xllcorner     0
yllcorner     -3.5992928
cellsize      0.17996463
NODATA_value  -9999
-9999.0 -9999 -9999 -9999 -9999 -9999 -9999 -9999 -9999 -9999 -9999 -9999 -9999 -9999 -9999 -9999 -9999 -9999 -9999 -9999
-9999 -9999 -9999 -9999 -9999 -9999 -9999 -9999 -9999 -9999 -9999 11.815775871276855 11.788660049438477 -9999 -9999 11.79694938659668 11.642670631408691 -9999 -9999 -9999
-9999 -9999 -9999 -9999 11.731797218322754 11.880258560180664 12.118062973022461 12.241097450256348 12.274511337280273 12.292426109313965 12.109363555908203 12.07382583618164 12.147265434265137 12.215584754943848 12.13875675201416 11.97338581085205 11.805540084838867 11.705659866333008 -9999 -9999
-9999 -9999 -9999 11.78557014465332 11.896536827087402 12.030112266540527 12.19416332244873 12.264758110046387 12.298810958862305 12.29603385925293 12.310615539550781 12.344715118408203 12.428973197937012 12.478068351745605 12.488760948181152 12.37194538116455 12.191622734069824 12.077019691467285 -9999 -9999
-9999 -9999 -9999 11.944955825805664 12.05657958984375 12.257200241088867 12.32735538482666 12.237521171569824 12.076967239379883 11.885350227355957 11.69975757598877 11.64709758758545 11.81827449798584 12.156280517578125 12.494626998901367 12.648113250732422 12.621020317077637 12.703808784484863 -9999 -9999
-9999 -9999 11.988354682922363 12.150296211242676 12.327423095703125 12.411331176757812 12.15964126586914 11.588915824890137 10.992975234985352 10.332320213317871 9.665712356567383 9.393320083618164 9.686125755310059 10.523673057556152 11.507303237915039 12.243227005004883 12.632716178894043 12.835282325744629 12.774239540100098 -9999
-9999 -9999 12.227659225463867 12.39813232421875 12.630188941955566 12.447338104248047 11.512533187866211 9.879672050476074 8.666935920715332 7.605593681335449 6.722169399261475 6.395540237426758 6.883913993835449 8.002212524414062 9.478157997131348 10.908989906311035 11.884897232055664 12.403573036193848 12.59789752960205 -9999
-9999 -9999 12.754159927368164 12.968177795410156 13.042398452758789 12.314937591552734 10.278579711914062 6.235700607299805 4.841022491455078 4.041946887969971 3.5527503490448 3.50081467628479 4.543287754058838 5.653764247894287 7.128025054931641 8.797333717346191 10.225288391113281 11.204855918884277 11.642228126525879 -9999
-9999 13.189215660095215 13.420703887939453 13.601117134094238 13.349014282226562 12.011543273925781 9.242475509643555 4.929579257965088 3.3838634490966797 2.659169912338257 2.3314404487609863 2.3617310523986816 3.078281879425049 3.8549253940582275 4.929901599884033 6.366692543029785 7.912327289581299 9.133476257324219 9.734175682067871 -9999
-9999 13.731134414672852 13.929740905761719 13.96590805053711 13.141031265258789 11.096461296081543 7.903284072875977 3.943312644958496 2.4789626598358154 1.8516954183578491 1.6218745708465576 1.6490356922149658 2.0792551040649414 2.5086214542388916 3.1686837673187256 4.144484043121338 5.418002605438232 6.562646865844727 7.157957553863525 -9999
-9999 14.263784408569336 14.227485656738281 13.716231346130371 12.209661483764648 9.6631441116333 6.389739513397217 3.012218475341797 1.7548578977584839 1.236776351928711 1.0462137460708618 1.0431212186813354 1.2500395774841309 1.4616715908050537 1.8006750345230103 2.3795974254608154 3.1794559955596924 4.034694194793701 4.498564720153809 -9999
-9999 14.187568664550781 13.78691577911377 12.596809387207031 10.547571182250977 7.868224143981934 4.909553050994873 2.2613649368286133 1.2297351360321045 0.7887726426124573 0.6171265244483948 0.5695900321006775 0.6359907388687134 0.7028543949127197 0.8324794769287109 1.105876088142395 1.5524595975875854 2.060915946960449 2.3436279296875 -9999
-9999 12.994951248168945 12.196755409240723 10.395859718322754 8.17501449584961 5.785266876220703 3.527658462524414 1.7948585748672485 0.916263997554779 0.5411080718040466 0.3636954724788666 0.29266542196273804 0.2682163119316101 0.26684269309043884 0.30197906494140625 0.3911382555961609 0.6022529006004333 0.865321159362793 1.0402518510818481 -9999
-9999 10.719452857971191 9.654131889343262 7.558348655700684 5.457778453826904 3.6427791118621826 2.174473762512207 1.1437392234802246 0.5711633563041687 0.3261427879333496 0.21038728952407837 0.15287187695503235 0.12175258994102478 0.10708476603031158 0.10545340925455093 0.12456504255533218 0.17687784135341644 0.2912755608558655 0.3985613286495209 -9999
-9999 8.281736373901367 7.162542343139648 5.073183059692383 3.2645814418792725 2.0162484645843506 1.171063780784607 0.6159108877182007 0.33526286482810974 0.1975780576467514 0.1282111555337906 0.08826588094234467 0.06493299454450607 0.05206945911049843 0.045097269117832184 0.04582435265183449 0.05395682528614998 0.0820397138595581 -9999 -9999
-9999 6.555924415588379 5.433285713195801 3.5030150413513184 2.01684832572937 1.1105810403823853 0.6017917990684509 0.33288848400115967 0.19782908260822296 0.12432003766298294 0.08367925137281418 0.05777759104967117 0.04431488364934921 0.046095430850982666 0.04858558997511864 0.0513516366481781 0.054092470556497574 0.056538887321949005 -9999 -9999
-9999 5.436310291290283 4.236517906188965 2.605700969696045 1.3700141906738281 0.6357731223106384 0.3328992426395416 0.18623733520507812 0.1154777929186821 0.07640960067510605 0.05366436019539833 0.04716382548213005 0.049268245697021484 0.0523831807076931 0.056220315396785736 0.06053934618830681 0.06542281806468964 0.07176949828863144 0.08294262737035751 0.08812209963798523
-9999 -9999 3.089616537094116 1.9959909915924072 0.9983686804771423 0.4281536042690277 0.2054152488708496 0.11206264793872833 0.06985530257225037 0.048588380217552185 0.04909571632742882 0.05105385184288025 0.0542944073677063 0.05858014151453972 0.06352770328521729 0.06884733587503433 0.07449006289243698 0.08050095289945602 0.08676636964082718 0.09003879129886627
-9999 -9999 2.129077672958374 1.4793174266815186 0.7501826286315918 0.30473971366882324 0.13669894635677338 0.07124407589435577 0.05007939040660858 0.050171494483947754 0.051595598459243774 0.054381322115659714 0.058441855013370514 0.06352970004081726 0.06916403770446777 0.07494987547397614 0.08062955737113953 0.085743248462677 0.08972789347171783 0.09184996783733368
-9999 -9999 -9999 1.173667073249817 0.614264965057373 0.2561727464199066 0.11153431236743927 0.05703015252947807 0.050546884536743164 0.051185958087444305 0.05306965485215187 0.056250497698783875 0.060726311057806015 0.06621911376714706 0.0721990317106247 0.078129842877388 0.08372343331575394 0.08816440403461456 0.09129861742258072 0.0929274931550026
