ncols         20
nrows         20
xllcorner     0
yllcorner     -3.5992928
cellsize      0.17996463
NODATA_value  -9999
-9999.0 -9999 -9999 -9999 -9999 -9999 -9999 -9999 -9999 -9999 -9999 -9999 -9999 -9999 -9999 -9999 -9999 -9999 -9999 -9999
-9999 -9999 -9999 -9999 -9999 -9999 -9999 -9999 -9999 -9999 -9999 0.2450021505355835 0.24016517400741577 -9999 -9999 0.21357207000255585 0.19996194541454315 -9999 -9999 -9999
-9999 -9999 -9999 -9999 0.2519644498825073 0.27059537172317505 0.3041306138038635 0.3318079710006714 0.3495987057685852 0.3599058985710144 0.3256799280643463 0.2990989685058594 0.29688072204589844 0.29705965518951416 0.26885566115379333 0.23442183434963226 0.21138912439346313 0.19790345430374146 -9999 -9999
-9999 -9999 -9999 0.2414478063583374 0.2603277862071991 0.28595203161239624 0.32292693853378296 0.35956311225891113 0.39846551418304443 0.4303306043148041 0.44943898916244507 0.44463470578193665 0.4342553913593292 0.3985000252723694 0.34838423132896423 0.29232513904571533 0.24979913234710693 0.22754161059856415 -9999 -9999
-9999 -9999 -9999 0.24385084211826324 0.2669597566127777 0.3130127191543579 0.3693583011627197 0.43459925055503845 0.5141453742980957 0.6167480945587158 0.7136379480361938 0.7570912837982178 0.7313546538352966 0.6310083270072937 0.5190477967262268 0.40771281719207764 0.32894036173820496 0.3084150552749634 -9999 -9999
-9999 -9999 0.20920303463935852 0.23946170508861542 0.2810257077217102 0.3441726863384247 0.42212316393852234 0.5217615962028503 0.6711546182632446 0.8610701560974121 1.0600875616073608 1.1565300226211548 1.13499915599823 0.9755536913871765 0.7677150368690491 0.585050642490387 0.45804455876350403 0.4074818193912506 0.3763369619846344 -9999
-9999 -9999 0.2126702070236206 0.24183885753154755 0.30504310131073 0.39365822076797485 0.49982455372810364 0.645892322063446 0.8553742170333862 1.1178624629974365 1.3802602291107178 1.5306416749954224 1.520647644996643 1.3505603075027466 0 0.8436516523361206 0.6539092063903809 0.5382917523384094 0.4924197793006897 -9999
-9999 -9999 0.2313264161348343 0.2743834853172302 0.3635939657688141 0.4831036925315857 0.6382274031639099 0.8371788859367371 1.0797430276870728 1.3580859899520874 1.5966849327087402 1.7528941631317139 1.769016146659851 1.6440287828445435 1.4212145805358887 1.1542510986328125 0.923183798789978 0.7579650282859802 0.6909396052360535 -9999
-9999 0.2211870402097702 0.26563259959220886 0.3392618000507355 0.47505566477775574 0.6577551364898682 0.8725250959396362 1.1275464296340942 1.388040542602539 1.6223640441894531 1.7923321723937988 1.9045947790145874 1.945805311203003 1.8835242986679077 1.739943027496338 0 1.2523871660232544 1.0504846572875977 0.9629384875297546 -9999
-9999 0.26494109630584717 0.3209311068058014 0.45095598697662354 0.6538615226745605 0.9127159714698792 1.2051464319229126 1.50587797164917 1.7559950351715088 1.9228838682174683 2.0128421783447266 2.078892946243286 2.116237163543701 2.1092119216918945 2.0314769744873047 0 1.6265376806259155 1.412412166595459 1.3162610530853271 -9999
-9999 0.3567996025085449 0.4326614439487457 0.6079493165016174 0.8615878224372864 1.1779826879501343 1.5322872400283813 1.8615965843200684 2.0781538486480713 2.1865034103393555 2.2386887073516846 2.2833211421966553 2.33270263671875 2.3483309745788574 2.30827260017395 2.206339120864868 2.017714500427246 1.822640061378479 1.7283982038497925 -9999
-9999 0.5156169533729553 0.6095672845840454 0.8285827040672302 1.1166859865188599 1.4494071006774902 1.8075039386749268 2.103398084640503 2.259065628051758 2.3169655799865723 2.3471643924713135 2.4018876552581787 0 0 2.512040376663208 0 2.342590093612671 2.1994707584381104 2.1221282482147217 -9999
-9999 0.7622140645980835 0.8858084678649902 1.151383876800537 1.4405494928359985 1.744641661643982 2.035983085632324 2.2439777851104736 2.311695098876953 2.302161693572998 2.295745611190796 2.3297293186187744 0 0 0 2.4404964447021484 2.4279868602752686 2.3914175033569336 2.3396642208099365 -9999
-9999 1.082650065422058 1.23102605342865 1.5304255485534668 1.8125463724136353 2.046194553375244 2.2208807468414307 2.3004517555236816 2.277876615524292 2.216651678085327 2.1682918071746826 2.1491572856903076 0 0 0 2.1116392612457275 2.181745767593384 2.309166669845581 2.31123423576355 -9999
-9999 1.380852222442627 1.537070631980896 1.8498040437698364 2.100623846054077 2.239543914794922 2.290924310684204 2.2674410343170166 2.19474720954895 2.113853693008423 2.04754900932312 1.9688841104507446 1.8829948902130127 1.790930986404419 0 0 1.698431372642517 1.8928165435791016 -9999 -9999
-9999 1.5683537721633911 1.7270417213439941 2.0258290767669678 2.218275785446167 2.2709856033325195 2.238600015640259 2.163693428039551 2.0894157886505127 2.024515390396118 0 0 0 1.5223500728607178 0 0 1.206420660018921 0 -9999 -9999
-9999 1.7018799781799316 1.8504409790039062 2.0998752117156982 2.235957622528076 2.2135610580444336 2.120710611343384 2.017892837524414 1.9506899118423462 0 0 0 0 1.310157299041748 1.1403107643127441 0.9971598982810974 0.8847008943557739 0.7829431295394897 0 0
-9999 -9999 1.9595293998718262 2.1335787773132324 2.2168447971343994 2.1335976123809814 1.9839283227920532 1.8566336631774902 0 0 0 0 0 0 0 0 0 0 0 0
-9999 -9999 2.0895466804504395 2.165160894393921 2.183659791946411 2.0413873195648193 1.8384695053100586 1.6759271621704102 0 0 0 0 0 0 0 0 0 0 0 0
-9999 -9999 -9999 2.169605255126953 2.160562515258789 1.9943562746047974 1.7629799842834473 1.5846152305603027 0 0 0 0 0 0 0 0 0 0 0 0
