ncols         20
nrows         20
xllcorner     0
yllcorner     -3.5992928
cellsize      0.17996463
NODATA_value  -9999
-9999.0 -9999 -9999 -9999 -9999 -9999 -9999 -9999 -9999 -9999 -9999 -9999 -9999 -9999 -9999 -9999 -9999 -9999 -9999 -9999
-9999 -9999 -9999 -9999 -9999 -9999 -9999 -9999 -9999 -9999 -9999 0.01075398363173008 0.010371523909270763 -9999 -9999 0.008741592988371849 0.007696927525103092 -9999 -9999 -9999
-9999 -9999 -9999 -9999 0.011111701838672161 0.012793825007975101 0.016135655343532562 0.01921204850077629 0.021381722763180733 0.022767992690205574 0.01878899522125721 0.01601352170109749 0.015950651839375496 0.01623396947979927 0.013544994406402111 0.010492569766938686 0.008633684366941452 0.007628272287547588 -9999 -9999
-9999 -9999 -9999 0.010347050614655018 0.01196502149105072 0.014395229518413544 0.018326587975025177 0.02272322215139866 0.027959873899817467 0.03271827846765518 0.03591746836900711 0.035485707223415375 0.03425980359315872 0.02932444028556347 0.022852197289466858 0.01639494299888611 0.012140752747654915 0.010149733163416386 -9999 -9999
-9999 -9999 -9999 0.010679111815989017 0.012755127623677254 0.017480729147791862 0.02429940551519394 0.03363405913114548 0.0470348484814167 0.06750687956809998 0.09068158268928528 0.10289306938648224 0.09727764129638672 0.07387237250804901 0.051271289587020874 0.032268572598695755 0.021327722817659378 0.018904615193605423 -9999 -9999
-9999 -9999 0.008135744370520115 0.010525793768465519 0.01440773718059063 0.02152206189930439 0.03230820223689079 0.04922237992286682 0.0809205025434494 0.13292762637138367 0.2021183967590332 0.24262398481369019 0.2369280457496643 0.17890675365924835 0.11398758739233017 0.06753852963447571 0.042106352746486664 0.03371071070432663 0.029101280495524406 -9999
-9999 -9999 0.008538438007235527 0.010968206450343132 0.017332881689071655 0.02871272712945938 0.04604845866560936 0.07624368369579315 0.1330573707818985 0.2271890938282013 0.34813275933265686 0.4325115978717804 0.4334535300731659 0.35043931007385254 0 0.14357943832874298 0.08717716485261917 0.05963956564664841 0.05020321160554886 -9999
-9999 -9999 0.01034641545265913 0.014435824006795883 0.025089571252465248 0.043895915150642395 0.07574544847011566 0.12934403121471405 0.21462862193584442 0.34055063128471375 0.47459766268730164 0.5792621970176697 0.5998148322105408 0.5296737551689148 0.40700528025627136 0.27460798621177673 0.1767452210187912 0.11942015588283539 0.0994163230061531 -9999
-9999 0.009970641694962978 0.014069942757487297 0.022502589970827103 0.0432869978249073 0.081733837723732 0.14222730696201324 0.2362750917673111 0.35856711864471436 0.49346455931663513 0.6099519729614258 0.7004149556159973 0.7456766366958618 0.7146823406219482 0.6268526315689087 0 0.33234795928001404 0.23187057673931122 0.19398118555545807 -9999
-9999 0.014487436041235924 0.020921746268868446 0.040167778730392456 0.08228820562362671 0.157378688454628 0.271599680185318 0.42337390780448914 0.5792282223701477 0.7035357356071472 0.7858572006225586 0.8588300347328186 0.9137635231018066 0.9289822578430176 0.8808963894844055 0 0.5692380666732788 0.42296653985977173 0.3643697202205658 -9999
-9999 0.026495758444070816 0.03828800097107887 0.07306092232465744 0.14225968718528748 0.2612922489643097 0.43909937143325806 0.6500372290611267 0.8194715976715088 0.9251970052719116 0.9978649616241455 1.0767496824264526 1.1708779335021973 1.2153695821762085 1.181470274925232 1.0839123725891113 0.8884546756744385 0.7119184136390686 0.6332178115844727 -9999
-9999 0.05483347922563553 0.0751759260892868 0.1337946057319641 0.2366935908794403 0.39384061098098755 0.6118470430374146 0.8361090421676636 0.9824311137199402 1.063083529472351 1.1351834535598755 1.2550361156463623 0 0 1.4934569597244263 0 1.2350866794586182 1.0578502416610718 0.9682865738868713 -9999
-9999 0.11617480218410492 0.15361766517162323 0.2521244287490845 0.3889041841030121 0.5684149265289307 0.7797061800956726 0.9638519287109375 1.0516504049301147 1.0838266611099243 1.1336125135421753 1.2455941438674927 0 0 0 1.4520922899246216 1.3760641813278198 1.2912397384643555 1.2028111219406128 -9999
-9999 0.2236415147781372 0.28504085540771484 0.43536272644996643 0.6088252663612366 0.7811986804008484 0.936485767364502 1.0340240001678467 1.0556474924087524 1.0539766550064087 1.0730478763580322 1.128902792930603 0 0 0 1.1706643104553223 1.1904574632644653 1.2775330543518066 1.204267144203186 -9999
-9999 0.3499242067337036 0.432367742061615 0.6262961030006409 0.813213050365448 0.9401118755340576 1.0129145383834839 1.0362035036087036 1.0304299592971802 1.027713656425476 1.042168378829956 1.0301146507263184 0.995478630065918 0.9321309328079224 0 0 0.8179730176925659 0.9857919216156006 -9999 -9999
-9999 0.4427359402179718 0.53794926404953 0.7454659342765808 0.9073106646537781 0.9768377542495728 0.9908868074417114 0.9863366484642029 0.9998890161514282 1.036937952041626 0 0 0 0.7434881329536438 0 0 0.4902504086494446 0 -9999 -9999
-9999 0.5169492959976196 0.6134636998176575 0.7991647124290466 0.9261438250541687 0.9417545795440674 0.9176539778709412 0.9056658744812012 0.9467583894729614 0 0 0 0 0.6144872307777405 0.48236507177352905 0.3830418586730957 0.31532156467437744 0.26941293478012085 0 0
-9999 -9999 0.6872508525848389 0.826015293598175 0.916358232498169 0.8895230889320374 0.8295247554779053 0.8103994727134705 0 0 0 0 0 0 0 0 0 0 0 0
-9999 -9999 0.7817930579185486 0.8534635305404663 0.894732654094696 0.8255300521850586 0.7304231524467468 0.686974287033081 0 0 0 0 0 0 0 0 0 0 0 0
-9999 -9999 -9999 0.8636393547058105 0.8803335428237915 0.7943013906478882 0.680869460105896 0.6268366575241089 0 0 0 0 0 0 0 0 0 0 0 0
