ncols         20
nrows         20
xllcorner     0
yllcorner     -3.5992928
cellsize      0.17996463
NODATA_value  -9999
-9999.0 -9999 -9999 -9999 -9999 -9999 -9999 -9999 -9999 -9999 -9999 -9999 -9999 -9999 -9999 -9999 -9999 -9999 -9999 -9999
-9999 -9999 -9999 -9999 -9999 -9999 -9999 -9999 -9999 -9999 -9999 0 0 -9999 -9999 0 0 -9999 -9999 -9999
-9999 -9999 -9999 -9999 0 0 0 0 0 0 0 0 0 0 0 0 0 0 -9999 -9999
-9999 -9999 -9999 0 0 0 0 0 0 0 0 0 0 0 0 0 0 0 -9999 -9999
-9999 -9999 -9999 0 0 0 0 0 0 0 0 0 0 0 0 0 0 0 -9999 -9999
-9999 -9999 0 0 0 0 3.941100835800171 3.6671619415283203 3.4680724143981934 3.2832016944885254 3.1208877563476562 3.0599238872528076 3.131913900375366 3.349534749984741 3.663386106491089 4.063416004180908 0 0 0 -9999
-9999 -9999 0 0 0 3.8828814029693604 3.467883586883545 3.159942150115967 2.8767123222351074 2.590371608734131 2.346285343170166 2.2317705154418945 2.2861671447753906 2.5213096141815186 0.3226037323474884 3.4198076725006104 0 0 0 -9999
-9999 -9999 0 0 3.985138177871704 3.515732526779175 3.120107412338257 2.7533950805664062 2.3962502479553223 2.0635619163513184 1.818077802658081 1.6951982975006104 1.7246458530426025 1.9155597686767578 2.2632577419281006 2.74918794631958 3.341712713241577 0 0 -9999
-9999 0 0 4.249349117279053 3.711556911468506 3.2361419200897217 2.7774100303649902 2.333418846130371 1.9389594793319702 1.6306710243225098 1.4344061613082886 1.3407632112503052 1.349980115890503 1.4806636571884155 1.737409234046936 0.47339463233947754 2.6288185119628906 3.1575844287872314 0 -9999
-9999 0 0 4.129340171813965 3.504240036010742 2.9220399856567383 2.3677146434783936 1.8743377923965454 1.4988070726394653 1.2575381994247437 1.1293323040008545 1.072102665901184 1.080378532409668 1.1588631868362427 1.331674337387085 0.35849514603614807 2.012881278991699 2.4577462673187256 0 -9999
-9999 0 0 4.003050804138184 3.2555160522460938 2.577641010284424 1.9612473249435425 1.4629102945327759 1.140507698059082 0.9645916819572449 0.881328284740448 0.8508760333061218 0.8585033416748047 0.9077834486961365 1.0149699449539185 1.205849051475525 1.4915615320205688 0 0 -9999
-9999 0 0 3.7542190551757812 2.92484974861145 2.216801643371582 1.61162531375885 1.1648025512695312 0.9035120010375977 0.7705751061439514 0.7124437093734741 0.6908196806907654 0.30908820033073425 0.4011121690273285 0.7811153531074524 0.1987544745206833 1.081222414970398 0 0 -9999
-9999 0 0 3.307465076446533 2.483586072921753 1.8283464908599854 1.3136680126190186 0.9549365639686584 0.7543030977249146 0.6599875092506409 0.6128103137016296 0.5962284207344055 0.3972683548927307 0.5420651435852051 0.42852461338043213 0.7031682133674622 0.8146087527275085 0 0 -9999
-9999 0 0 2.717829704284668 1.9644230604171753 1.42811918258667 1.0486030578613281 0.8010842800140381 0.6608953475952148 0.5973267555236816 0.5671332478523254 0.5548700094223022 0.24602559208869934 0.43708980083465576 0.3872861862182617 0.6157156229019165 0.6763681769371033 0 0 -9999
-9999 0 0 2.1674270629882812 1.5149821043014526 1.1063599586486816 0.8501271605491638 0.6911033987998962 0.6078119277954102 0.5653124451637268 0.544272243976593 0.5348963141441345 0.533776044845581 0.5397983193397522 0.3686159551143646 0.31988394260406494 0.6124566793441772 0 -9999 -9999
-9999 0 0 1.7899972200393677 1.2354278564453125 0.9109960198402405 0.7301654815673828 0.6305142045021057 0.5769444108009338 0.547096312046051 0.35420629382133484 0.40748947858810425 0.05816222354769707 0.5304636359214783 0.24100694060325623 0.24881093204021454 0.5847905278205872 0.08704106509685516 -9999 -9999
-9999 0 0 1.5526151657104492 1.074700117111206 0.7977911829948425 0.6664901971817017 0.5957381129264832 0.556996762752533 0.3564397096633911 0.46434420347213745 0.5183793902397156 0.4045496881008148 0.5256431102752686 0.5347556471824646 0.5476636290550232 0.5647408366203308 0.5812355279922485 0.4152033030986786 0.5820721387863159
-9999 -9999 0 1.3707008361816406 0.9714818000793457 0.7404995560646057 0.6316476464271545 0.575628399848938 0.30257681012153625 0.4682556092739105 0.5196587443351746 0.5170575380325317 0.46060189604759216 0.40635547041893005 0.3529457449913025 0.35912060737609863 0.36642298102378845 0.43592455983161926 0.5028330087661743 0.5675905346870422
-9999 -9999 0 0 0.9026681780815125 0.7035301327705383 0.6106432676315308 0.5632619261741638 0.3589964807033539 0.5262163281440735 0.5192610025405884 0.5165258049964905 0.517200767993927 0.5206199884414673 0.5261223316192627 0.5330821871757507 0.54069584608078 0.5475583672523499 0.5517849326133728 0.5536827445030212
-9999 -9999 -9999 0 0.8598899841308594 0.6871920228004456 0.6019764542579651 0.5583546757698059 0.35868167877197266 0.5260435938835144 0.5191773772239685 0.5163571834564209 0.5168015956878662 0.5197874307632446 0.5245817303657532 0.5304527878761292 0.5366383790969849 0.541957676410675 0.5455377697944641 0.5472779870033264
