ncols         20
nrows         20
xllcorner     0
yllcorner     -3.5992928
cellsize      0.17996463
NODATA_value  -9999
-9999.0 -9999 -9999 -9999 -9999 -9999 -9999 -9999 -9999 -9999 -9999 -9999 -9999 -9999 -9999 -9999 -9999 -9999 -9999 -9999
-9999 -9999 -9999 -9999 -9999 -9999 -9999 -9999 -9999 -9999 -9999 0 0 -9999 -9999 0 0 -9999 -9999 -9999
-9999 -9999 -9999 -9999 0 0 0 0 0 0 0 0 0 0 0 0 0 0 -9999 -9999
-9999 -9999 -9999 0 0 0 0 0 0 0 0 0 0 0 0 0 0 0 -9999 -9999
-9999 -9999 -9999 0 0 0 0 0 0 0 0 0 0 0 0 0 0 0 -9999 -9999
-9999 -9999 0 0 0 0 3.5753707885742188 3.3811352252960205 3.192937135696411 2.97121000289917 2.748124361038208 2.646361827850342 2.7121353149414062 2.9565954208374023 3.287182569503784 3.637979745864868 0 0 0 -9999
-9999 -9999 0 0 0 3.6331987380981445 3.332881450653076 3.0480422973632812 2.7195260524749756 2.3425352573394775 2.001589298248291 1.8280750513076782 1.8759373426437378 2.154360771179199 0.28835129737854004 3.1297972202301025 0 0 0 -9999
-9999 -9999 0 0 3.8190054893493652 3.4790704250335693 3.1173908710479736 2.7066614627838135 2.253657341003418 1.8050979375839233 1.463489294052124 1.282257318496704 1.3000805377960205 1.5236936807632446 1.9344874620437622 2.4801366329193115 3.075103282928467 0 0 -9999
-9999 0 0 4.139135360717773 3.747159242630005 3.311197280883789 2.8042984008789062 2.254464626312256 1.7381576299667358 1.3234492540359497 1.0535914897918701 0.9166135787963867 0.9105282425880432 1.0567673444747925 1.3549563884735107 0.4016348421573639 2.3545098304748535 2.8815464973449707 0 -9999
-9999 0 0 4.185420989990234 3.629379987716675 2.9986214637756348 2.325986623764038 1.6929914951324463 1.201210618019104 0.8826523423194885 0.7104262709617615 0.6268136501312256 0.6230467557907104 0.7026483416557312 0.8942749500274658 0.2690737545490265 1.6546770334243774 2.111372947692871 0 -9999
-9999 0 0 4.130713939666748 3.3746259212493896 2.5864009857177734 1.8126393556594849 1.1691771745681763 0.7530784010887146 0.5277408361434937 0.4199608564376831 0.37562426924705505 0.3740217983722687 0.41785770654678345 0.5256465673446655 0.7265497446060181 1.0236033201217651 0 0 -9999
-9999 0 0 3.858166217803955 2.9630544185638428 2.119980573654175 1.3582074642181396 0.7872929573059082 0.457380086183548 0.29264035820961 0.22077971696853638 0.19044117629528046 0.0832844227552414 0.11325784772634506 0.2512308657169342 0.07862891256809235 0.528097927570343 0 0 -9999
-9999 0 0 3.2836060523986816 2.3761274814605713 1.6001274585723877 0.9650705456733704 0.5177608728408813 0.2721005082130432 0.16092883050441742 0.104544997215271 0.08251761645078659 0.04991249740123749 0.06877107173204422 0.06266418844461441 0.13173241913318634 0.21581535041332245 0 0 -9999
-9999 0 0 2.5037994384765625 1.6743510961532593 1.0591559410095215 0.6122303605079651 0.31922608613967896 0.15634290874004364 0.0878414586186409 0.05581438168883324 0.04075870290398598 0.014881404116749763 0.02443416230380535 0.02244354411959648 0.04345148056745529 0.06661561131477356 0 0 -9999
-9999 0 0 1.7869340181350708 1.0753157138824463 0.6291365027427673 0.34986937046051025 0.1773577779531479 0.09318134933710098 0.0534103587269783 0.03422355279326439 0.023875031620264053 0.018333183601498604 0.015729133039712906 0.009800605475902557 0.00891037192195654 0.020136551931500435 0 -9999 -9999
-9999 0 0 1.316656470298767 0.7181157469749451 0.37641650438308716 0.1950867623090744 0.1028967872262001 0.05840541794896126 0.03540737181901932 0.01564600132405758 0.012801539152860641 0.0014652198879048228 0.014441159553825855 0.007126029580831528 0.00789149384945631 0.019401250407099724 0.002956090262159705 -9999 -9999
-9999 0 0 1.038534164428711 0.5251981019973755 0.23602606356143951 0.11807051301002502 0.06260973960161209 0.03680553659796715 0.015565291047096252 0.014328389428555965 0.014268911443650723 0.011883475817739964 0.016800779849290848 0.0186591986566782 0.020695356652140617 0.02283490262925625 0.0252453051507473 0.020650740712881088 0.030616536736488342
-9999 -9999 0 0.8373766541481018 0.4077410101890564 0.17156067490577698 0.07897167652845383 0.04072926566004753 0.013299037702381611 0.014105293899774551 0.015586825087666512 0.016103427857160568 0.015384138561785221 0.014816387556493282 0.014082205481827259 0.015566177666187286 0.017082981765270233 0.02168945036828518 0.026725508272647858 0.03119068033993244
-9999 -9999 0 0 0.3236134350299835 0.12952472269535065 0.05590019002556801 0.027437200769782066 0.01201315876096487 0.017079569399356842 0.01694449596107006 0.017594410106539726 0.01893916167318821 0.02082642912864685 0.023020697757601738 0.025310754776000977 0.027534985914826393 0.02948623336851597 0.030959103256464005 0.03173081576824188
-9999 -9999 -9999 0 0.27557918429374695 0.11265575140714645 0.047140415757894516 0.02255968190729618 0.012407907284796238 0.01776767522096634 0.017707008868455887 0.018416395410895348 0.01983139105141163 0.021790027618408203 0.02404283918440342 0.026336239650845528 0.0285024456679821 0.030227569863200188 0.03143330290913582 0.032053105533123016
